(Generated with: DXF2GCODE, Version: REMOVED, Date: $Date$)
(Created from file: )
(Output format description: G-CODE for LinuxCNC)
(Time: Thu Sep 13 16:00:41 2018)
G21 (Units in millimeters)
G90 (Absolute programming)
G64 (Default cutting) G17 (XY plane) G40 (Cancel radius comp.) G49 (Cancel length comp.)
G0 Z  15.000 

(*** LAYER: FRAME_Z18 ***)
T1 M6
S6000

(* SHAPE Nr: 36 *)
G0 X   0.000 Y   0.000
M3 M8
G0 Z   3.000 
F150
G1 Z  -1.500
F400
G1 X   0.000 Y2050.000
G1 X2800.000 Y2050.000
G1 X2800.000 Y   0.000
G1 X   0.000 Y   0.000
F150
G1 Z  -3.000
F400
G1 X   0.000 Y2050.000
G1 X2800.000 Y2050.000
G1 X2800.000 Y   0.000
G1 X   0.000 Y   0.000
F150
G1 Z   3.000
G0 Z  15.000 
M9 M5

(*** LAYER: BORDER_D0_T132_RK1_A0_W0_EM1_RI1_ID0018 ***)

(* SHAPE Nr: 0 *)
G0 X 101.990 Y 116.570
M3 M8
G0 Z   3.000 
G1 Z  -1.500
F400
G2 X  90.900 Y 133.030 I  44.717 J  42.094
G2 X  87.160 Y 150.000 I  37.487 J  17.159
G2 X  90.900 Y 166.970 I  41.227 J  -0.189
G2 X 101.990 Y 183.430 I  55.807 J -25.634
G2 X 120.110 Y 198.870 I  77.344 J -72.417
G2 X 144.700 Y 212.830 I  99.664 J-146.917
G2 X 175.010 Y 224.870 I 115.619 J-246.893
G2 X 210.130 Y 234.640 I 119.400 J-361.196
G2 X 248.980 Y 241.850 I 107.781 J-472.487
G2 X 290.390 Y 246.250 I  80.598 J-561.472
G2 X 333.100 Y 247.740 I  42.711 J-611.416
G2 X 375.810 Y 246.250 I  -0.001 J-612.906
G2 X 417.220 Y 241.850 I -39.188 J-565.872
G2 X 456.070 Y 234.640 I -68.931 J-479.697
G2 X 491.190 Y 224.870 I -84.280 J-370.966
G2 X 521.500 Y 212.830 I -85.309 J-258.933
G2 X 546.090 Y 198.870 I -75.074 J-160.877
G2 X 564.210 Y 183.430 I -59.224 J -87.857
G2 X 575.300 Y 166.970 I -44.717 J -42.094
G2 X 579.040 Y 150.000 I -37.487 J -17.159
G2 X 575.300 Y 133.030 I -41.227 J   0.189
G2 X 564.210 Y 116.570 I -55.807 J  25.634
G2 X 546.090 Y 101.130 I -77.345 J  72.418
G2 X 521.500 Y  87.170 I -99.664 J 146.917
G2 X 491.190 Y  75.130 I-115.619 J 246.893
G2 X 456.070 Y  65.360 I-119.400 J 361.196
G2 X 417.220 Y  58.150 I-107.781 J 472.487
G2 X 375.810 Y  53.750 I -80.598 J 561.472
G2 X 333.100 Y  52.260 I -42.712 J 611.451
G2 X 290.390 Y  53.750 I   0.002 J 612.941
G2 X 248.980 Y  58.150 I  39.188 J 565.872
G2 X 210.130 Y  65.360 I  68.931 J 479.697
G2 X 175.010 Y  75.130 I  84.280 J 370.966
G2 X 144.700 Y  87.170 I  85.309 J 258.933
G2 X 120.110 Y 101.130 I  75.074 J 160.877
G2 X 101.990 Y 116.570 I  59.225 J  87.858
F150
G1 Z  -3.000
F400
G2 X  90.900 Y 133.030 I  44.717 J  42.094
G2 X  87.160 Y 150.000 I  37.487 J  17.159
G2 X  90.900 Y 166.970 I  41.227 J  -0.189
G2 X 101.990 Y 183.430 I  55.807 J -25.634
G2 X 120.110 Y 198.870 I  77.344 J -72.417
G2 X 144.700 Y 212.830 I  99.664 J-146.917
G2 X 175.010 Y 224.870 I 115.619 J-246.893
G2 X 210.130 Y 234.640 I 119.400 J-361.196
G2 X 248.980 Y 241.850 I 107.781 J-472.487
G2 X 290.390 Y 246.250 I  80.598 J-561.472
G2 X 333.100 Y 247.740 I  42.711 J-611.416
G2 X 375.810 Y 246.250 I  -0.001 J-612.906
G2 X 417.220 Y 241.850 I -39.188 J-565.872
G2 X 456.070 Y 234.640 I -68.931 J-479.697
G2 X 491.190 Y 224.870 I -84.280 J-370.966
G2 X 521.500 Y 212.830 I -85.309 J-258.933
G2 X 546.090 Y 198.870 I -75.074 J-160.877
G2 X 564.210 Y 183.430 I -59.224 J -87.857
G2 X 575.300 Y 166.970 I -44.717 J -42.094
G2 X 579.040 Y 150.000 I -37.487 J -17.159
G2 X 575.300 Y 133.030 I -41.227 J   0.189
G2 X 564.210 Y 116.570 I -55.807 J  25.634
G2 X 546.090 Y 101.130 I -77.345 J  72.418
G2 X 521.500 Y  87.170 I -99.664 J 146.917
G2 X 491.190 Y  75.130 I-115.619 J 246.893
G2 X 456.070 Y  65.360 I-119.400 J 361.196
G2 X 417.220 Y  58.150 I-107.781 J 472.487
G2 X 375.810 Y  53.750 I -80.598 J 561.472
G2 X 333.100 Y  52.260 I -42.712 J 611.451
G2 X 290.390 Y  53.750 I   0.002 J 612.941
G2 X 248.980 Y  58.150 I  39.188 J 565.872
G2 X 210.130 Y  65.360 I  68.931 J 479.697
G2 X 175.010 Y  75.130 I  84.280 J 370.966
G2 X 144.700 Y  87.170 I  85.309 J 258.933
G2 X 120.110 Y 101.130 I  75.074 J 160.877
G2 X 101.990 Y 116.570 I  59.225 J  87.858
F150
G1 Z   3.000
G0 Z  15.000 
M9 M5

(* SHAPE Nr: 20 *)
G0 X1559.490 Y 108.360
M3 M8
G0 Z   3.000 
G1 Z  -1.500
F400
G2 X1563.230 Y 125.330 I  41.227 J  -0.189
G2 X1574.320 Y 141.790 I  55.807 J -25.634
G2 X1592.440 Y 157.230 I  77.345 J -72.418
G2 X1617.030 Y 171.190 I  99.664 J-146.917
G2 X1647.340 Y 183.230 I 115.619 J-246.893
G2 X1682.460 Y 193.000 I 119.400 J-361.196
G2 X1721.310 Y 200.210 I 107.781 J-472.487
G2 X1762.720 Y 204.610 I  80.598 J-561.472
G2 X1805.430 Y 206.100 I  42.711 J-611.416
G2 X1848.140 Y 204.610 I  -0.001 J-612.906
G2 X1889.550 Y 200.210 I -39.188 J-565.872
G2 X1928.400 Y 193.000 I -68.931 J-479.697
G2 X1963.520 Y 183.230 I -84.280 J-370.966
G2 X1993.830 Y 171.190 I -85.309 J-258.933
G2 X2018.420 Y 157.230 I -75.074 J-160.877
G2 X2036.540 Y 141.790 I -59.224 J -87.857
G2 X2047.630 Y 125.330 I -44.717 J -42.094
G2 X2051.370 Y 108.360 I -37.487 J -17.159
G2 X2047.630 Y  91.390 I -41.227 J   0.189
G2 X2036.540 Y  74.930 I -55.807 J  25.634
G2 X2018.420 Y  59.490 I -77.345 J  72.418
G2 X1993.830 Y  45.530 I -99.664 J 146.917
G2 X1963.520 Y  33.490 I-115.619 J 246.893
G2 X1928.400 Y  23.720 I-119.400 J 361.196
G2 X1889.550 Y  16.510 I-107.781 J 472.487
G2 X1848.140 Y  12.110 I -80.598 J 561.472
G2 X1805.430 Y  10.620 I -42.712 J 611.451
G2 X1762.720 Y  12.110 I   0.002 J 612.941
G2 X1721.310 Y  16.510 I  39.188 J 565.872
G2 X1682.460 Y  23.720 I  68.931 J 479.697
G2 X1647.340 Y  33.490 I  84.280 J 370.966
G2 X1617.030 Y  45.530 I  85.309 J 258.933
G2 X1592.440 Y  59.490 I  75.074 J 160.877
G2 X1574.320 Y  74.930 I  59.224 J  87.857
G2 X1563.230 Y  91.390 I  44.717 J  42.094
G2 X1559.490 Y 108.360 I  37.487 J  17.159
F150
G1 Z  -3.000
F400
G2 X1563.230 Y 125.330 I  41.227 J  -0.189
G2 X1574.320 Y 141.790 I  55.807 J -25.634
G2 X1592.440 Y 157.230 I  77.345 J -72.418
G2 X1617.030 Y 171.190 I  99.664 J-146.917
G2 X1647.340 Y 183.230 I 115.619 J-246.893
G2 X1682.460 Y 193.000 I 119.400 J-361.196
G2 X1721.310 Y 200.210 I 107.781 J-472.487
G2 X1762.720 Y 204.610 I  80.598 J-561.472
G2 X1805.430 Y 206.100 I  42.711 J-611.416
G2 X1848.140 Y 204.610 I  -0.001 J-612.906
G2 X1889.550 Y 200.210 I -39.188 J-565.872
G2 X1928.400 Y 193.000 I -68.931 J-479.697
G2 X1963.520 Y 183.230 I -84.280 J-370.966
G2 X1993.830 Y 171.190 I -85.309 J-258.933
G2 X2018.420 Y 157.230 I -75.074 J-160.877
G2 X2036.540 Y 141.790 I -59.224 J -87.857
G2 X2047.630 Y 125.330 I -44.717 J -42.094
G2 X2051.370 Y 108.360 I -37.487 J -17.159
G2 X2047.630 Y  91.390 I -41.227 J   0.189
G2 X2036.540 Y  74.930 I -55.807 J  25.634
G2 X2018.420 Y  59.490 I -77.345 J  72.418
G2 X1993.830 Y  45.530 I -99.664 J 146.917
G2 X1963.520 Y  33.490 I-115.619 J 246.893
G2 X1928.400 Y  23.720 I-119.400 J 361.196
G2 X1889.550 Y  16.510 I-107.781 J 472.487
G2 X1848.140 Y  12.110 I -80.598 J 561.472
G2 X1805.430 Y  10.620 I -42.712 J 611.451
G2 X1762.720 Y  12.110 I   0.002 J 612.941
G2 X1721.310 Y  16.510 I  39.188 J 565.872
G2 X1682.460 Y  23.720 I  68.931 J 479.697
G2 X1647.340 Y  33.490 I  84.280 J 370.966
G2 X1617.030 Y  45.530 I  85.309 J 258.933
G2 X1592.440 Y  59.490 I  75.074 J 160.877
G2 X1574.320 Y  74.930 I  59.224 J  87.857
G2 X1563.230 Y  91.390 I  44.717 J  42.094
G2 X1559.490 Y 108.360 I  37.487 J  17.159
F150
G1 Z   3.000
G0 Z  15.000 
M9 M5

(* SHAPE Nr: 21 *)
G0 X2321.610 Y 213.230
M3 M8
G0 Z   3.000 
G1 Z  -1.500
F400
G2 X2320.120 Y 255.940 I 611.451 J  42.712
G2 X2321.610 Y 298.650 I 612.906 J  -0.001
G2 X2326.010 Y 340.060 I 565.872 J -39.188
G2 X2333.220 Y 378.910 I 479.697 J -68.931
G2 X2342.990 Y 414.030 I 370.966 J -84.280
G2 X2355.030 Y 444.340 I 258.933 J -85.309
G2 X2368.990 Y 468.930 I 160.873 J -75.072
G2 X2384.430 Y 487.050 I  87.858 J -59.225
G2 X2400.890 Y 498.140 I  42.094 J -44.717
G2 X2417.860 Y 501.880 I  17.159 J -37.487
G2 X2434.830 Y 498.140 I  -0.189 J -41.227
G2 X2451.290 Y 487.050 I -25.634 J -55.807
G2 X2466.730 Y 468.930 I -72.417 J -77.344
G2 X2480.690 Y 444.340 I-146.917 J -99.664
G2 X2492.730 Y 414.030 I-246.893 J-115.619
G2 X2502.500 Y 378.910 I-361.196 J-119.400
G2 X2509.710 Y 340.060 I-472.487 J-107.781
G2 X2514.110 Y 298.650 I-561.472 J -80.598
G2 X2515.600 Y 255.940 I-611.416 J -42.711
G2 X2514.110 Y 213.230 I-612.906 J   0.001
G2 X2509.710 Y 171.820 I-565.872 J  39.188
G2 X2502.500 Y 132.970 I-479.697 J  68.931
G2 X2492.730 Y  97.850 I-370.966 J  84.280
G2 X2480.690 Y  67.540 I-258.933 J  85.309
G2 X2466.730 Y  42.950 I-160.877 J  75.074
G2 X2451.290 Y  24.830 I -87.857 J  59.224
G2 X2434.830 Y  13.740 I -42.094 J  44.717
G2 X2417.860 Y  10.000 I -17.159 J  37.487
G2 X2400.890 Y  13.740 I   0.189 J  41.227
G2 X2384.430 Y  24.830 I  25.634 J  55.807
G2 X2368.990 Y  42.950 I  72.418 J  77.345
G2 X2355.030 Y  67.540 I 146.913 J  99.662
G2 X2342.990 Y  97.850 I 246.893 J 115.619
G2 X2333.220 Y 132.970 I 361.196 J 119.400
G2 X2326.010 Y 171.820 I 472.487 J 107.781
G2 X2321.610 Y 213.230 I 561.472 J  80.598
F150
G1 Z  -3.000
F400
G2 X2320.120 Y 255.940 I 611.451 J  42.712
G2 X2321.610 Y 298.650 I 612.906 J  -0.001
G2 X2326.010 Y 340.060 I 565.872 J -39.188
G2 X2333.220 Y 378.910 I 479.697 J -68.931
G2 X2342.990 Y 414.030 I 370.966 J -84.280
G2 X2355.030 Y 444.340 I 258.933 J -85.309
G2 X2368.990 Y 468.930 I 160.873 J -75.072
G2 X2384.430 Y 487.050 I  87.858 J -59.225
G2 X2400.890 Y 498.140 I  42.094 J -44.717
G2 X2417.860 Y 501.880 I  17.159 J -37.487
G2 X2434.830 Y 498.140 I  -0.189 J -41.227
G2 X2451.290 Y 487.050 I -25.634 J -55.807
G2 X2466.730 Y 468.930 I -72.417 J -77.344
G2 X2480.690 Y 444.340 I-146.917 J -99.664
G2 X2492.730 Y 414.030 I-246.893 J-115.619
G2 X2502.500 Y 378.910 I-361.196 J-119.400
G2 X2509.710 Y 340.060 I-472.487 J-107.781
G2 X2514.110 Y 298.650 I-561.472 J -80.598
G2 X2515.600 Y 255.940 I-611.416 J -42.711
G2 X2514.110 Y 213.230 I-612.906 J   0.001
G2 X2509.710 Y 171.820 I-565.872 J  39.188
G2 X2502.500 Y 132.970 I-479.697 J  68.931
G2 X2492.730 Y  97.850 I-370.966 J  84.280
G2 X2480.690 Y  67.540 I-258.933 J  85.309
G2 X2466.730 Y  42.950 I-160.877 J  75.074
G2 X2451.290 Y  24.830 I -87.857 J  59.224
G2 X2434.830 Y  13.740 I -42.094 J  44.717
G2 X2417.860 Y  10.000 I -17.159 J  37.487
G2 X2400.890 Y  13.740 I   0.189 J  41.227
G2 X2384.430 Y  24.830 I  25.634 J  55.807
G2 X2368.990 Y  42.950 I  72.418 J  77.345
G2 X2355.030 Y  67.540 I 146.913 J  99.662
G2 X2342.990 Y  97.850 I 246.893 J 115.619
G2 X2333.220 Y 132.970 I 361.196 J 119.400
G2 X2326.010 Y 171.820 I 472.487 J 107.781
G2 X2321.610 Y 213.230 I 561.472 J  80.598
F150
G1 Z   3.000
G0 Z  15.000 
M9 M5

(* SHAPE Nr: 22 *)
G0 X2578.180 Y1581.070
M3 M8
G0 Z   3.000 
G1 Z  -1.500
F400
G2 X2564.220 Y1605.660 I 146.913 J  99.662
G2 X2552.180 Y1635.970 I 246.893 J 115.619
G2 X2542.410 Y1671.090 I 361.196 J 119.400
G2 X2535.200 Y1709.940 I 472.487 J 107.781
G2 X2530.800 Y1751.350 I 561.472 J  80.598
G2 X2529.310 Y1794.060 I 611.416 J  42.711
G2 X2530.800 Y1836.770 I 612.941 J  -0.002
G2 X2535.200 Y1878.180 I 565.872 J -39.188
G2 X2542.410 Y1917.030 I 479.697 J -68.931
G2 X2552.180 Y1952.150 I 370.966 J -84.280
G2 X2564.220 Y1982.460 I 258.933 J -85.309
G2 X2578.180 Y2007.050 I 160.873 J -75.072
G2 X2593.620 Y2025.170 I  87.858 J -59.225
G2 X2610.080 Y2036.260 I  42.094 J -44.717
G2 X2627.050 Y2040.000 I  17.159 J -37.487
G2 X2644.020 Y2036.260 I  -0.189 J -41.227
G2 X2660.480 Y2025.170 I -25.634 J -55.807
G2 X2675.920 Y2007.050 I -72.417 J -77.344
G2 X2689.880 Y1982.460 I-146.917 J -99.664
G2 X2701.920 Y1952.150 I-246.893 J-115.619
G2 X2711.690 Y1917.030 I-361.196 J-119.400
G2 X2718.900 Y1878.180 I-472.487 J-107.781
G2 X2723.300 Y1836.770 I-561.472 J -80.598
G2 X2724.790 Y1794.060 I-611.416 J -42.711
G2 X2723.300 Y1751.350 I-612.906 J   0.001
G2 X2718.900 Y1709.940 I-565.872 J  39.188
G2 X2711.690 Y1671.090 I-479.697 J  68.931
G2 X2701.920 Y1635.970 I-370.966 J  84.280
G2 X2689.880 Y1605.660 I-258.933 J  85.309
G2 X2675.920 Y1581.070 I-160.877 J  75.074
G2 X2660.480 Y1562.950 I -87.857 J  59.224
G2 X2644.020 Y1551.860 I -42.094 J  44.717
G2 X2627.050 Y1548.120 I -17.159 J  37.487
G2 X2610.080 Y1551.860 I   0.189 J  41.227
G2 X2593.620 Y1562.950 I  25.634 J  55.807
G2 X2578.180 Y1581.070 I  72.418 J  77.345
F150
G1 Z  -3.000
F400
G2 X2564.220 Y1605.660 I 146.913 J  99.662
G2 X2552.180 Y1635.970 I 246.893 J 115.619
G2 X2542.410 Y1671.090 I 361.196 J 119.400
G2 X2535.200 Y1709.940 I 472.487 J 107.781
G2 X2530.800 Y1751.350 I 561.472 J  80.598
G2 X2529.310 Y1794.060 I 611.416 J  42.711
G2 X2530.800 Y1836.770 I 612.941 J  -0.002
G2 X2535.200 Y1878.180 I 565.872 J -39.188
G2 X2542.410 Y1917.030 I 479.697 J -68.931
G2 X2552.180 Y1952.150 I 370.966 J -84.280
G2 X2564.220 Y1982.460 I 258.933 J -85.309
G2 X2578.180 Y2007.050 I 160.873 J -75.072
G2 X2593.620 Y2025.170 I  87.858 J -59.225
G2 X2610.080 Y2036.260 I  42.094 J -44.717
G2 X2627.050 Y2040.000 I  17.159 J -37.487
G2 X2644.020 Y2036.260 I  -0.189 J -41.227
G2 X2660.480 Y2025.170 I -25.634 J -55.807
G2 X2675.920 Y2007.050 I -72.417 J -77.344
G2 X2689.880 Y1982.460 I-146.917 J -99.664
G2 X2701.920 Y1952.150 I-246.893 J-115.619
G2 X2711.690 Y1917.030 I-361.196 J-119.400
G2 X2718.900 Y1878.180 I-472.487 J-107.781
G2 X2723.300 Y1836.770 I-561.472 J -80.598
G2 X2724.790 Y1794.060 I-611.416 J -42.711
G2 X2723.300 Y1751.350 I-612.906 J   0.001
G2 X2718.900 Y1709.940 I-565.872 J  39.188
G2 X2711.690 Y1671.090 I-479.697 J  68.931
G2 X2701.920 Y1635.970 I-370.966 J  84.280
G2 X2689.880 Y1605.660 I-258.933 J  85.309
G2 X2675.920 Y1581.070 I-160.877 J  75.074
G2 X2660.480 Y1562.950 I -87.857 J  59.224
G2 X2644.020 Y1551.860 I -42.094 J  44.717
G2 X2627.050 Y1548.120 I -17.159 J  37.487
G2 X2610.080 Y1551.860 I   0.189 J  41.227
G2 X2593.620 Y1562.950 I  25.634 J  55.807
G2 X2578.180 Y1581.070 I  72.418 J  77.345
F150
G1 Z   3.000
G0 Z  15.000 
M9 M5

(* SHAPE Nr: 23 *)
G0 X2534.640 Y1097.700
M3 M8
G0 Z   3.000 
G1 Z  -1.500
F400
G2 X2522.600 Y1128.010 I 246.893 J 115.619
G2 X2512.830 Y1163.130 I 361.196 J 119.400
G2 X2505.620 Y1201.980 I 472.487 J 107.781
G2 X2501.220 Y1243.390 I 561.472 J  80.598
G2 X2499.730 Y1286.100 I 611.416 J  42.711
G2 X2501.220 Y1328.810 I 612.941 J  -0.002
G2 X2505.620 Y1370.220 I 565.872 J -39.188
G2 X2512.830 Y1409.070 I 479.697 J -68.931
G2 X2522.600 Y1444.190 I 370.966 J -84.280
G2 X2534.640 Y1474.500 I 258.933 J -85.309
G2 X2548.600 Y1499.090 I 160.873 J -75.072
G2 X2564.040 Y1517.210 I  87.858 J -59.225
G2 X2580.500 Y1528.300 I  42.094 J -44.717
G2 X2597.470 Y1532.040 I  17.159 J -37.487
G2 X2614.440 Y1528.300 I  -0.189 J -41.227
G2 X2630.900 Y1517.210 I -25.634 J -55.807
G2 X2646.340 Y1499.090 I -72.417 J -77.344
G2 X2660.300 Y1474.500 I-146.917 J -99.664
G2 X2672.340 Y1444.190 I-246.893 J-115.619
G2 X2682.110 Y1409.070 I-361.196 J-119.400
G2 X2689.320 Y1370.220 I-472.487 J-107.781
G2 X2693.720 Y1328.810 I-561.472 J -80.598
G2 X2695.210 Y1286.100 I-611.416 J -42.711
G2 X2693.720 Y1243.390 I-612.906 J   0.001
G2 X2689.320 Y1201.980 I-565.872 J  39.188
G2 X2682.110 Y1163.130 I-479.697 J  68.931
G2 X2672.340 Y1128.010 I-370.966 J  84.280
G2 X2660.300 Y1097.700 I-258.933 J  85.309
G2 X2646.340 Y1073.110 I-160.877 J  75.074
G2 X2630.900 Y1054.990 I -87.857 J  59.224
G2 X2614.440 Y1043.900 I -42.094 J  44.717
G2 X2597.470 Y1040.160 I -17.159 J  37.487
G2 X2580.500 Y1043.900 I   0.189 J  41.227
G2 X2564.040 Y1054.990 I  25.634 J  55.807
G2 X2548.600 Y1073.110 I  72.418 J  77.345
G2 X2534.640 Y1097.700 I 146.913 J  99.662
F150
G1 Z  -3.000
F400
G2 X2522.600 Y1128.010 I 246.893 J 115.619
G2 X2512.830 Y1163.130 I 361.196 J 119.400
G2 X2505.620 Y1201.980 I 472.487 J 107.781
G2 X2501.220 Y1243.390 I 561.472 J  80.598
G2 X2499.730 Y1286.100 I 611.416 J  42.711
G2 X2501.220 Y1328.810 I 612.941 J  -0.002
G2 X2505.620 Y1370.220 I 565.872 J -39.188
G2 X2512.830 Y1409.070 I 479.697 J -68.931
G2 X2522.600 Y1444.190 I 370.966 J -84.280
G2 X2534.640 Y1474.500 I 258.933 J -85.309
G2 X2548.600 Y1499.090 I 160.873 J -75.072
G2 X2564.040 Y1517.210 I  87.858 J -59.225
G2 X2580.500 Y1528.300 I  42.094 J -44.717
G2 X2597.470 Y1532.040 I  17.159 J -37.487
G2 X2614.440 Y1528.300 I  -0.189 J -41.227
G2 X2630.900 Y1517.210 I -25.634 J -55.807
G2 X2646.340 Y1499.090 I -72.417 J -77.344
G2 X2660.300 Y1474.500 I-146.917 J -99.664
G2 X2672.340 Y1444.190 I-246.893 J-115.619
G2 X2682.110 Y1409.070 I-361.196 J-119.400
G2 X2689.320 Y1370.220 I-472.487 J-107.781
G2 X2693.720 Y1328.810 I-561.472 J -80.598
G2 X2695.210 Y1286.100 I-611.416 J -42.711
G2 X2693.720 Y1243.390 I-612.906 J   0.001
G2 X2689.320 Y1201.980 I-565.872 J  39.188
G2 X2682.110 Y1163.130 I-479.697 J  68.931
G2 X2672.340 Y1128.010 I-370.966 J  84.280
G2 X2660.300 Y1097.700 I-258.933 J  85.309
G2 X2646.340 Y1073.110 I-160.877 J  75.074
G2 X2630.900 Y1054.990 I -87.857 J  59.224
G2 X2614.440 Y1043.900 I -42.094 J  44.717
G2 X2597.470 Y1040.160 I -17.159 J  37.487
G2 X2580.500 Y1043.900 I   0.189 J  41.227
G2 X2564.040 Y1054.990 I  25.634 J  55.807
G2 X2548.600 Y1073.110 I  72.418 J  77.345
G2 X2534.640 Y1097.700 I 146.913 J  99.662
F150
G1 Z   3.000
G0 Z  15.000 
M9 M5

(* SHAPE Nr: 24 *)
G0 X2544.000 Y 661.710
M3 M8
G0 Z   3.000 
G1 Z  -1.500
F400
G2 X2536.790 Y 700.560 I 472.487 J 107.781
G2 X2532.390 Y 741.970 I 561.472 J  80.598
G2 X2530.900 Y 784.680 I 611.416 J  42.711
G2 X2532.390 Y 827.390 I 612.906 J  -0.001
G2 X2536.790 Y 868.800 I 565.872 J -39.188
G2 X2544.000 Y 907.650 I 479.697 J -68.931
G2 X2553.770 Y 942.770 I 370.966 J -84.280
G2 X2565.810 Y 973.080 I 258.933 J -85.309
G2 X2579.770 Y 997.670 I 160.873 J -75.072
G2 X2595.210 Y1015.790 I  87.858 J -59.225
G2 X2611.670 Y1026.880 I  42.094 J -44.717
G2 X2628.640 Y1030.620 I  17.159 J -37.487
G2 X2645.610 Y1026.880 I  -0.189 J -41.227
G2 X2662.070 Y1015.790 I -25.634 J -55.807
G2 X2677.510 Y 997.670 I -72.417 J -77.344
G2 X2691.470 Y 973.080 I-146.917 J -99.664
G2 X2703.510 Y 942.770 I-246.893 J-115.619
G2 X2713.280 Y 907.650 I-361.196 J-119.400
G2 X2720.490 Y 868.800 I-472.487 J-107.781
G2 X2724.890 Y 827.390 I-561.472 J -80.598
G2 X2726.380 Y 784.680 I-611.416 J -42.711
G2 X2724.890 Y 741.970 I-612.906 J   0.001
G2 X2720.490 Y 700.560 I-565.872 J  39.188
G2 X2713.280 Y 661.710 I-479.697 J  68.931
G2 X2703.510 Y 626.590 I-370.966 J  84.280
G2 X2691.470 Y 596.280 I-258.933 J  85.309
G2 X2677.510 Y 571.690 I-160.877 J  75.074
G2 X2662.070 Y 553.570 I -87.857 J  59.224
G2 X2645.610 Y 542.480 I -42.094 J  44.717
G2 X2628.640 Y 538.740 I -17.159 J  37.487
G2 X2611.670 Y 542.480 I   0.189 J  41.227
G2 X2595.210 Y 553.570 I  25.634 J  55.807
G2 X2579.770 Y 571.690 I  72.418 J  77.345
G2 X2565.810 Y 596.280 I 146.917 J  99.664
G2 X2553.770 Y 626.590 I 246.893 J 115.619
G2 X2544.000 Y 661.710 I 361.196 J 119.400
F150
G1 Z  -3.000
F400
G2 X2536.790 Y 700.560 I 472.487 J 107.781
G2 X2532.390 Y 741.970 I 561.472 J  80.598
G2 X2530.900 Y 784.680 I 611.416 J  42.711
G2 X2532.390 Y 827.390 I 612.906 J  -0.001
G2 X2536.790 Y 868.800 I 565.872 J -39.188
G2 X2544.000 Y 907.650 I 479.697 J -68.931
G2 X2553.770 Y 942.770 I 370.966 J -84.280
G2 X2565.810 Y 973.080 I 258.933 J -85.309
G2 X2579.770 Y 997.670 I 160.873 J -75.072
G2 X2595.210 Y1015.790 I  87.858 J -59.225
G2 X2611.670 Y1026.880 I  42.094 J -44.717
G2 X2628.640 Y1030.620 I  17.159 J -37.487
G2 X2645.610 Y1026.880 I  -0.189 J -41.227
G2 X2662.070 Y1015.790 I -25.634 J -55.807
G2 X2677.510 Y 997.670 I -72.417 J -77.344
G2 X2691.470 Y 973.080 I-146.917 J -99.664
G2 X2703.510 Y 942.770 I-246.893 J-115.619
G2 X2713.280 Y 907.650 I-361.196 J-119.400
G2 X2720.490 Y 868.800 I-472.487 J-107.781
G2 X2724.890 Y 827.390 I-561.472 J -80.598
G2 X2726.380 Y 784.680 I-611.416 J -42.711
G2 X2724.890 Y 741.970 I-612.906 J   0.001
G2 X2720.490 Y 700.560 I-565.872 J  39.188
G2 X2713.280 Y 661.710 I-479.697 J  68.931
G2 X2703.510 Y 626.590 I-370.966 J  84.280
G2 X2691.470 Y 596.280 I-258.933 J  85.309
G2 X2677.510 Y 571.690 I-160.877 J  75.074
G2 X2662.070 Y 553.570 I -87.857 J  59.224
G2 X2645.610 Y 542.480 I -42.094 J  44.717
G2 X2628.640 Y 538.740 I -17.159 J  37.487
G2 X2611.670 Y 542.480 I   0.189 J  41.227
G2 X2595.210 Y 553.570 I  25.634 J  55.807
G2 X2579.770 Y 571.690 I  72.418 J  77.345
G2 X2565.810 Y 596.280 I 146.917 J  99.664
G2 X2553.770 Y 626.590 I 246.893 J 115.619
G2 X2544.000 Y 661.710 I 361.196 J 119.400
F150
G1 Z   3.000
G0 Z  15.000 
M9 M5

(* SHAPE Nr: 25 *)
G0 X2531.620 Y 235.390
M3 M8
G0 Z   3.000 
G1 Z  -1.500
F400
G2 X2530.130 Y 278.100 I 611.451 J  42.712
G2 X2531.620 Y 320.810 I 612.906 J  -0.001
G2 X2536.020 Y 362.220 I 565.872 J -39.188
G2 X2543.230 Y 401.070 I 479.697 J -68.931
G2 X2553.000 Y 436.190 I 370.966 J -84.280
G2 X2565.040 Y 466.500 I 258.933 J -85.309
G2 X2579.000 Y 491.090 I 160.873 J -75.072
G2 X2594.440 Y 509.210 I  87.858 J -59.225
G2 X2610.900 Y 520.300 I  42.094 J -44.717
G2 X2627.870 Y 524.040 I  17.159 J -37.487
G2 X2644.840 Y 520.300 I  -0.189 J -41.227
G2 X2661.300 Y 509.210 I -25.634 J -55.807
G2 X2676.740 Y 491.090 I -72.417 J -77.344
G2 X2690.700 Y 466.500 I-146.917 J -99.664
G2 X2702.740 Y 436.190 I-246.893 J-115.619
G2 X2712.510 Y 401.070 I-361.196 J-119.400
G2 X2719.720 Y 362.220 I-472.487 J-107.781
G2 X2724.120 Y 320.810 I-561.472 J -80.598
G2 X2725.610 Y 278.100 I-611.416 J -42.711
G2 X2724.120 Y 235.390 I-612.906 J   0.001
G2 X2719.720 Y 193.980 I-565.872 J  39.188
G2 X2712.510 Y 155.130 I-479.697 J  68.931
G2 X2702.740 Y 120.010 I-370.966 J  84.280
G2 X2690.700 Y  89.700 I-258.933 J  85.309
G2 X2676.740 Y  65.110 I-160.877 J  75.074
G2 X2661.300 Y  46.990 I -87.857 J  59.224
G2 X2644.840 Y  35.900 I -42.094 J  44.717
G2 X2627.870 Y  32.160 I -17.159 J  37.487
G2 X2610.900 Y  35.900 I   0.189 J  41.227
G2 X2594.440 Y  46.990 I  25.634 J  55.807
G2 X2579.000 Y  65.110 I  72.418 J  77.345
G2 X2565.040 Y  89.700 I 146.913 J  99.662
G2 X2553.000 Y 120.010 I 246.893 J 115.619
G2 X2543.230 Y 155.130 I 361.196 J 119.400
G2 X2536.020 Y 193.980 I 472.487 J 107.781
G2 X2531.620 Y 235.390 I 561.472 J  80.598
F150
G1 Z  -3.000
F400
G2 X2530.130 Y 278.100 I 611.451 J  42.712
G2 X2531.620 Y 320.810 I 612.906 J  -0.001
G2 X2536.020 Y 362.220 I 565.872 J -39.188
G2 X2543.230 Y 401.070 I 479.697 J -68.931
G2 X2553.000 Y 436.190 I 370.966 J -84.280
G2 X2565.040 Y 466.500 I 258.933 J -85.309
G2 X2579.000 Y 491.090 I 160.873 J -75.072
G2 X2594.440 Y 509.210 I  87.858 J -59.225
G2 X2610.900 Y 520.300 I  42.094 J -44.717
G2 X2627.870 Y 524.040 I  17.159 J -37.487
G2 X2644.840 Y 520.300 I  -0.189 J -41.227
G2 X2661.300 Y 509.210 I -25.634 J -55.807
G2 X2676.740 Y 491.090 I -72.417 J -77.344
G2 X2690.700 Y 466.500 I-146.917 J -99.664
G2 X2702.740 Y 436.190 I-246.893 J-115.619
G2 X2712.510 Y 401.070 I-361.196 J-119.400
G2 X2719.720 Y 362.220 I-472.487 J-107.781
G2 X2724.120 Y 320.810 I-561.472 J -80.598
G2 X2725.610 Y 278.100 I-611.416 J -42.711
G2 X2724.120 Y 235.390 I-612.906 J   0.001
G2 X2719.720 Y 193.980 I-565.872 J  39.188
G2 X2712.510 Y 155.130 I-479.697 J  68.931
G2 X2702.740 Y 120.010 I-370.966 J  84.280
G2 X2690.700 Y  89.700 I-258.933 J  85.309
G2 X2676.740 Y  65.110 I-160.877 J  75.074
G2 X2661.300 Y  46.990 I -87.857 J  59.224
G2 X2644.840 Y  35.900 I -42.094 J  44.717
G2 X2627.870 Y  32.160 I -17.159 J  37.487
G2 X2610.900 Y  35.900 I   0.189 J  41.227
G2 X2594.440 Y  46.990 I  25.634 J  55.807
G2 X2579.000 Y  65.110 I  72.418 J  77.345
G2 X2565.040 Y  89.700 I 146.913 J  99.662
G2 X2553.000 Y 120.010 I 246.893 J 115.619
G2 X2543.230 Y 155.130 I 361.196 J 119.400
G2 X2536.020 Y 193.980 I 472.487 J 107.781
G2 X2531.620 Y 235.390 I 561.472 J  80.598
F150
G1 Z   3.000
G0 Z  15.000 
M9 M5

(* SHAPE Nr: 26 *)
G0 X 979.170 Y1027.430
M3 M8
G0 Z   3.000 
G1 Z  -1.500
F400
G2 X 968.080 Y1043.890 I  44.717 J  42.094
G2 X 964.340 Y1060.860 I  37.487 J  17.159
G2 X 968.080 Y1077.830 I  41.227 J  -0.189
G2 X 979.170 Y1094.290 I  55.807 J -25.634
G2 X 997.290 Y1109.730 I  77.345 J -72.418
G2 X1021.880 Y1123.690 I  99.664 J-146.917
G2 X1052.190 Y1135.730 I 115.619 J-246.893
G2 X1087.310 Y1145.500 I 119.400 J-361.196
G2 X1126.160 Y1152.710 I 107.781 J-472.487
G2 X1167.570 Y1157.110 I  80.598 J-561.472
G2 X1210.280 Y1158.600 I  42.711 J-611.416
G2 X1252.990 Y1157.110 I  -0.001 J-612.906
G2 X1294.400 Y1152.710 I -39.188 J-565.872
G2 X1333.250 Y1145.500 I -68.931 J-479.697
G2 X1368.370 Y1135.730 I -84.280 J-370.966
G2 X1398.680 Y1123.690 I -85.309 J-258.933
G2 X1423.270 Y1109.730 I -75.074 J-160.877
G2 X1441.390 Y1094.290 I -59.225 J -87.858
G2 X1452.480 Y1077.830 I -44.717 J -42.094
G2 X1456.220 Y1060.860 I -37.487 J -17.159
G2 X1452.480 Y1043.890 I -41.227 J   0.189
G2 X1441.390 Y1027.430 I -55.807 J  25.634
G2 X1423.270 Y1011.990 I -77.345 J  72.418
G2 X1398.680 Y 998.030 I -99.664 J 146.917
G2 X1368.370 Y 985.990 I-115.619 J 246.893
G2 X1333.250 Y 976.220 I-119.400 J 361.196
G2 X1294.400 Y 969.010 I-107.781 J 472.487
G2 X1252.990 Y 964.610 I -80.598 J 561.472
G2 X1210.280 Y 963.120 I -42.711 J 611.416
G2 X1167.570 Y 964.610 I   0.001 J 612.906
G2 X1126.160 Y 969.010 I  39.188 J 565.872
G2 X1087.310 Y 976.220 I  68.931 J 479.697
G2 X1052.190 Y 985.990 I  84.280 J 370.966
G2 X1021.880 Y 998.030 I  85.309 J 258.933
G2 X 997.290 Y1011.990 I  75.074 J 160.877
G2 X 979.170 Y1027.430 I  59.225 J  87.858
F150
G1 Z  -3.000
F400
G2 X 968.080 Y1043.890 I  44.717 J  42.094
G2 X 964.340 Y1060.860 I  37.487 J  17.159
G2 X 968.080 Y1077.830 I  41.227 J  -0.189
G2 X 979.170 Y1094.290 I  55.807 J -25.634
G2 X 997.290 Y1109.730 I  77.345 J -72.418
G2 X1021.880 Y1123.690 I  99.664 J-146.917
G2 X1052.190 Y1135.730 I 115.619 J-246.893
G2 X1087.310 Y1145.500 I 119.400 J-361.196
G2 X1126.160 Y1152.710 I 107.781 J-472.487
G2 X1167.570 Y1157.110 I  80.598 J-561.472
G2 X1210.280 Y1158.600 I  42.711 J-611.416
G2 X1252.990 Y1157.110 I  -0.001 J-612.906
G2 X1294.400 Y1152.710 I -39.188 J-565.872
G2 X1333.250 Y1145.500 I -68.931 J-479.697
G2 X1368.370 Y1135.730 I -84.280 J-370.966
G2 X1398.680 Y1123.690 I -85.309 J-258.933
G2 X1423.270 Y1109.730 I -75.074 J-160.877
G2 X1441.390 Y1094.290 I -59.225 J -87.858
G2 X1452.480 Y1077.830 I -44.717 J -42.094
G2 X1456.220 Y1060.860 I -37.487 J -17.159
G2 X1452.480 Y1043.890 I -41.227 J   0.189
G2 X1441.390 Y1027.430 I -55.807 J  25.634
G2 X1423.270 Y1011.990 I -77.345 J  72.418
G2 X1398.680 Y 998.030 I -99.664 J 146.917
G2 X1368.370 Y 985.990 I-115.619 J 246.893
G2 X1333.250 Y 976.220 I-119.400 J 361.196
G2 X1294.400 Y 969.010 I-107.781 J 472.487
G2 X1252.990 Y 964.610 I -80.598 J 561.472
G2 X1210.280 Y 963.120 I -42.711 J 611.416
G2 X1167.570 Y 964.610 I   0.001 J 612.906
G2 X1126.160 Y 969.010 I  39.188 J 565.872
G2 X1087.310 Y 976.220 I  68.931 J 479.697
G2 X1052.190 Y 985.990 I  84.280 J 370.966
G2 X1021.880 Y 998.030 I  85.309 J 258.933
G2 X 997.290 Y1011.990 I  75.074 J 160.877
G2 X 979.170 Y1027.430 I  59.225 J  87.858
F150
G1 Z   3.000
G0 Z  15.000 
M9 M5

(*** LAYER: BORDER_D0_T132_RK1_A0_W0_EM1_RI1_ID0004 ***)

(* SHAPE Nr: 1 *)
G0 X 422.850 Y1171.790
M3 M8
G0 Z   3.000 
G1 Z  -1.500
F400
G1 X 167.700 Y1254.700
G1 X  10.000 Y1471.750
G1 X  10.000 Y1740.030
G1 X 167.700 Y1957.080
G1 X 422.850 Y2039.990
G1 X 678.010 Y1957.080
G1 X 835.710 Y1740.030
G1 X 835.710 Y1471.750
G1 X 678.010 Y1254.700
G1 X 422.850 Y1171.790
F150
G1 Z  -3.000
F400
G1 X 167.700 Y1254.700
G1 X  10.000 Y1471.750
G1 X  10.000 Y1740.030
G1 X 167.700 Y1957.080
G1 X 422.850 Y2039.990
G1 X 678.010 Y1957.080
G1 X 835.710 Y1740.030
G1 X 835.710 Y1471.750
G1 X 678.010 Y1254.700
G1 X 422.850 Y1171.790
F150
G1 Z   3.000
G0 Z  15.000 
M9 M5

(* SHAPE Nr: 2 *)
G0 X1008.110 Y1254.700
M3 M8
G0 Z   3.000 
G1 Z  -1.500
F400
G1 X 850.410 Y1471.750
G1 X 850.410 Y1740.030
G1 X1008.110 Y1957.080
G1 X1263.260 Y2039.990
G1 X1518.420 Y1957.080
G1 X1676.120 Y1740.030
G1 X1676.120 Y1471.750
G1 X1518.420 Y1254.700
G1 X1263.260 Y1171.790
G1 X1008.110 Y1254.700
F150
G1 Z  -3.000
F400
G1 X 850.410 Y1471.750
G1 X 850.410 Y1740.030
G1 X1008.110 Y1957.080
G1 X1263.260 Y2039.990
G1 X1518.420 Y1957.080
G1 X1676.120 Y1740.030
G1 X1676.120 Y1471.750
G1 X1518.420 Y1254.700
G1 X1263.260 Y1171.790
G1 X1008.110 Y1254.700
F150
G1 Z   3.000
G0 Z  15.000 
M9 M5

(* SHAPE Nr: 3 *)
G0 X1848.520 Y1254.700
M3 M8
G0 Z   3.000 
G1 Z  -1.500
F400
G1 X1690.820 Y1471.750
G1 X1690.820 Y1740.030
G1 X1848.520 Y1957.080
G1 X2103.670 Y2039.990
G1 X2358.830 Y1957.080
G1 X2516.530 Y1740.030
G1 X2516.530 Y1471.750
G1 X2358.830 Y1254.700
G1 X2103.670 Y1171.790
G1 X1848.520 Y1254.700
F150
G1 Z  -3.000
F400
G1 X1690.820 Y1471.750
G1 X1690.820 Y1740.030
G1 X1848.520 Y1957.080
G1 X2103.670 Y2039.990
G1 X2358.830 Y1957.080
G1 X2516.530 Y1740.030
G1 X2516.530 Y1471.750
G1 X2358.830 Y1254.700
G1 X2103.670 Y1171.790
G1 X1848.520 Y1254.700
F150
G1 Z   3.000
G0 Z  15.000 
M9 M5

(* SHAPE Nr: 5 *)
G0 X1661.940 Y 488.340
M3 M8
G0 Z   3.000 
G1 Z  -1.500
F400
G1 X1579.030 Y 743.490
G1 X1661.940 Y 998.650
G1 X1878.990 Y1156.350
G1 X2147.270 Y1156.350
G1 X2364.320 Y 998.650
G1 X2447.230 Y 743.490
G1 X2364.320 Y 488.340
G1 X2147.270 Y 330.640
G1 X1878.990 Y 330.640
G1 X1661.940 Y 488.340
F150
G1 Z  -3.000
F400
G1 X1579.030 Y 743.490
G1 X1661.940 Y 998.650
G1 X1878.990 Y1156.350
G1 X2147.270 Y1156.350
G1 X2364.320 Y 998.650
G1 X2447.230 Y 743.490
G1 X2364.320 Y 488.340
G1 X2147.270 Y 330.640
G1 X1878.990 Y 330.640
G1 X1661.940 Y 488.340
F150
G1 Z   3.000
G0 Z  15.000 
M9 M5

(* SHAPE Nr: 7 *)
G0 X 881.820 Y 169.660
M3 M8
G0 Z   3.000 
G1 Z  -1.500
F400
G1 X 798.910 Y 424.810
G1 X 881.820 Y 679.970
G1 X1098.870 Y 837.670
G1 X1367.150 Y 837.670
G1 X1584.200 Y 679.970
G1 X1667.110 Y 424.810
G1 X1584.200 Y 169.660
G1 X1367.150 Y  11.960
G1 X1098.870 Y  11.960
G1 X 881.820 Y 169.660
F150
G1 Z  -3.000
F400
G1 X 798.910 Y 424.810
G1 X 881.820 Y 679.970
G1 X1098.870 Y 837.670
G1 X1367.150 Y 837.670
G1 X1584.200 Y 679.970
G1 X1667.110 Y 424.810
G1 X1584.200 Y 169.660
G1 X1367.150 Y  11.960
G1 X1098.870 Y  11.960
G1 X 881.820 Y 169.660
F150
G1 Z   3.000
G0 Z  15.000 
M9 M5

(* SHAPE Nr: 10 *)
G0 X 167.700 Y 371.050
M3 M8
G0 Z   3.000 
G1 Z  -1.500
F400
G1 X  10.000 Y 588.100
G1 X  10.000 Y 856.380
G1 X 167.700 Y1073.430
G1 X 422.850 Y1156.340
G1 X 678.010 Y1073.430
G1 X 835.710 Y 856.380
G1 X 835.710 Y 588.100
G1 X 678.010 Y 371.050
G1 X 422.850 Y 288.140
G1 X 167.700 Y 371.050
F150
G1 Z  -3.000
F400
G1 X  10.000 Y 588.100
G1 X  10.000 Y 856.380
G1 X 167.700 Y1073.430
G1 X 422.850 Y1156.340
G1 X 678.010 Y1073.430
G1 X 835.710 Y 856.380
G1 X 835.710 Y 588.100
G1 X 678.010 Y 371.050
G1 X 422.850 Y 288.140
G1 X 167.700 Y 371.050
F150
G1 Z   3.000
G0 Z  15.000 
M9 M5

(*** LAYER: BORDER_D0_T132_RK1_A0_W0_EM1_RI1_ID0025 ***)

(* SHAPE Nr: 4 *)
G0 X2312.190 Y1066.590
M3 M8
G0 Z   3.000 
G1 Z  -1.500
F400
G1 X2276.690 Y1175.870
G1 X2369.640 Y1243.400
G1 X2462.600 Y1175.870
G1 X2427.090 Y1066.590
G1 X2312.190 Y1066.590
F150
G1 Z  -3.000
F400
G1 X2276.690 Y1175.870
G1 X2369.640 Y1243.400
G1 X2462.600 Y1175.870
G1 X2427.090 Y1066.590
G1 X2312.190 Y1066.590
F150
G1 Z   3.000
G0 Z  15.000 
M9 M5

(* SHAPE Nr: 8 *)
G0 X 694.900 Y 125.880
M3 M8
G0 Z   3.000 
G1 Z  -1.500
F400
G1 X 787.850 Y 193.410
G1 X 880.810 Y 125.880
G1 X 845.300 Y  16.600
G1 X 730.400 Y  16.600
G1 X 694.900 Y 125.880
F150
G1 Z  -3.000
F400
G1 X 787.850 Y 193.410
G1 X 880.810 Y 125.880
G1 X 845.300 Y  16.600
G1 X 730.400 Y  16.600
G1 X 694.900 Y 125.880
F150
G1 Z   3.000
G0 Z  15.000 
M9 M5

(* SHAPE Nr: 16 *)
G0 X1461.870 Y 886.600
M3 M8
G0 Z   3.000 
G1 Z  -1.500
F400
G1 X1426.370 Y 995.880
G1 X1519.320 Y1063.410
G1 X1612.280 Y 995.880
G1 X1576.770 Y 886.600
G1 X1461.870 Y 886.600
F150
G1 Z  -3.000
F400
G1 X1426.370 Y 995.880
G1 X1519.320 Y1063.410
G1 X1612.280 Y 995.880
G1 X1576.770 Y 886.600
G1 X1461.870 Y 886.600
F150
G1 Z   3.000
G0 Z  15.000 
M9 M5

(*** LAYER: BORDER_D0_T132_RK1_A0_W0_EM1_RI1_ID0001 ***)

(* SHAPE Nr: 6 *)
G0 X2020.170 Y 220.200
M3 M8
G0 Z   3.000 
G1 Z  -1.500
F400
G1 X2074.350 Y 234.350
G1 X2038.840 Y 277.650
G1 X2090.990 Y 257.250
G1 X2087.710 Y 313.150
G1 X2117.910 Y 266.000
G1 X2148.110 Y 313.150
G1 X2144.830 Y 257.250
G1 X2196.980 Y 277.650
G1 X2161.470 Y 234.350
G1 X2215.650 Y 220.200
G1 X2161.470 Y 206.040
G1 X2196.980 Y 162.750
G1 X2144.830 Y 183.140
G1 X2148.110 Y 127.240
G1 X2117.910 Y 174.400
G1 X2087.710 Y 127.240
G1 X2090.990 Y 183.140
G1 X2038.840 Y 162.750
G1 X2074.350 Y 206.040
G1 X2020.170 Y 220.200
F150
G1 Z  -3.000
F400
G1 X2074.350 Y 234.350
G1 X2038.840 Y 277.650
G1 X2090.990 Y 257.250
G1 X2087.710 Y 313.150
G1 X2117.910 Y 266.000
G1 X2148.110 Y 313.150
G1 X2144.830 Y 257.250
G1 X2196.980 Y 277.650
G1 X2161.470 Y 234.350
G1 X2215.650 Y 220.200
G1 X2161.470 Y 206.040
G1 X2196.980 Y 162.750
G1 X2144.830 Y 183.140
G1 X2148.110 Y 127.240
G1 X2117.910 Y 174.400
G1 X2087.710 Y 127.240
G1 X2090.990 Y 183.140
G1 X2038.840 Y 162.750
G1 X2074.350 Y 206.040
G1 X2020.170 Y 220.200
F150
G1 Z   3.000
G0 Z  15.000 
M9 M5

(* SHAPE Nr: 9 *)
G0 X 605.650 Y 197.560
M3 M8
G0 Z   3.000 
G1 Z  -1.500
F400
G1 X 641.160 Y 240.850
G1 X 586.980 Y 255.010
G1 X 641.160 Y 269.160
G1 X 605.650 Y 312.460
G1 X 657.800 Y 292.060
G1 X 654.520 Y 347.960
G1 X 684.720 Y 300.810
G1 X 714.920 Y 347.960
G1 X 711.640 Y 292.060
G1 X 763.790 Y 312.460
G1 X 728.280 Y 269.160
G1 X 782.460 Y 255.010
G1 X 728.280 Y 240.850
G1 X 763.790 Y 197.560
G1 X 711.640 Y 217.950
G1 X 714.920 Y 162.050
G1 X 684.720 Y 209.210
G1 X 654.520 Y 162.050
G1 X 657.800 Y 217.950
G1 X 605.650 Y 197.560
F150
G1 Z  -3.000
F400
G1 X 641.160 Y 240.850
G1 X 586.980 Y 255.010
G1 X 641.160 Y 269.160
G1 X 605.650 Y 312.460
G1 X 657.800 Y 292.060
G1 X 654.520 Y 347.960
G1 X 684.720 Y 300.810
G1 X 714.920 Y 347.960
G1 X 711.640 Y 292.060
G1 X 763.790 Y 312.460
G1 X 728.280 Y 269.160
G1 X 782.460 Y 255.010
G1 X 728.280 Y 240.850
G1 X 763.790 Y 197.560
G1 X 711.640 Y 217.950
G1 X 714.920 Y 162.050
G1 X 684.720 Y 209.210
G1 X 654.520 Y 162.050
G1 X 657.800 Y 217.950
G1 X 605.650 Y 197.560
F150
G1 Z   3.000
G0 Z  15.000 
M9 M5

(* SHAPE Nr: 13 *)
G0 X 718.550 Y1082.040
M3 M8
G0 Z   3.000 
G1 Z  -1.500
F400
G1 X 721.830 Y1137.940
G1 X 669.680 Y1117.550
G1 X 705.190 Y1160.840
G1 X 651.010 Y1175.000
G1 X 705.190 Y1189.150
G1 X 669.680 Y1232.450
G1 X 721.830 Y1212.050
G1 X 718.550 Y1267.950
G1 X 748.750 Y1220.800
G1 X 778.950 Y1267.950
G1 X 775.670 Y1212.050
G1 X 827.820 Y1232.450
G1 X 792.310 Y1189.150
G1 X 846.490 Y1175.000
G1 X 792.310 Y1160.840
G1 X 827.820 Y1117.550
G1 X 775.670 Y1137.940
G1 X 778.950 Y1082.040
G1 X 748.750 Y1129.200
G1 X 718.550 Y1082.040
F150
G1 Z  -3.000
F400
G1 X 721.830 Y1137.940
G1 X 669.680 Y1117.550
G1 X 705.190 Y1160.840
G1 X 651.010 Y1175.000
G1 X 705.190 Y1189.150
G1 X 669.680 Y1232.450
G1 X 721.830 Y1212.050
G1 X 718.550 Y1267.950
G1 X 748.750 Y1220.800
G1 X 778.950 Y1267.950
G1 X 775.670 Y1212.050
G1 X 827.820 Y1232.450
G1 X 792.310 Y1189.150
G1 X 846.490 Y1175.000
G1 X 792.310 Y1160.840
G1 X 827.820 Y1117.550
G1 X 775.670 Y1137.940
G1 X 778.950 Y1082.040
G1 X 748.750 Y1129.200
G1 X 718.550 Y1082.040
F150
G1 Z   3.000
G0 Z  15.000 
M9 M5

(* SHAPE Nr: 14 *)
G0 X 796.770 Y 952.750
M3 M8
G0 Z   3.000 
G1 Z  -1.500
F400
G1 X 817.160 Y1004.890
G1 X 761.260 Y1001.610
G1 X 808.420 Y1031.820
G1 X 761.260 Y1062.010
G1 X 817.160 Y1058.740
G1 X 796.770 Y1110.880
G1 X 840.060 Y1075.370
G1 X 854.220 Y1129.560
G1 X 868.370 Y1075.370
G1 X 911.670 Y1110.880
G1 X 891.270 Y1058.740
G1 X 947.170 Y1062.010
G1 X 900.020 Y1031.820
G1 X 947.170 Y1001.610
G1 X 891.270 Y1004.890
G1 X 911.670 Y 952.750
G1 X 868.370 Y 988.250
G1 X 854.220 Y 934.080
G1 X 840.060 Y 988.250
G1 X 796.770 Y 952.750
F150
G1 Z  -3.000
F400
G1 X 817.160 Y1004.890
G1 X 761.260 Y1001.610
G1 X 808.420 Y1031.820
G1 X 761.260 Y1062.010
G1 X 817.160 Y1058.740
G1 X 796.770 Y1110.880
G1 X 840.060 Y1075.370
G1 X 854.220 Y1129.560
G1 X 868.370 Y1075.370
G1 X 911.670 Y1110.880
G1 X 891.270 Y1058.740
G1 X 947.170 Y1062.010
G1 X 900.020 Y1031.820
G1 X 947.170 Y1001.610
G1 X 891.270 Y1004.890
G1 X 911.670 Y 952.750
G1 X 868.370 Y 988.250
G1 X 854.220 Y 934.080
G1 X 840.060 Y 988.250
G1 X 796.770 Y 952.750
F150
G1 Z   3.000
G0 Z  15.000 
M9 M5

(* SHAPE Nr: 17 *)
G0 X1510.070 Y1117.550
M3 M8
G0 Z   3.000 
G1 Z  -1.500
F400
G1 X1545.580 Y1160.840
G1 X1491.400 Y1175.000
G1 X1545.580 Y1189.150
G1 X1510.070 Y1232.450
G1 X1562.220 Y1212.050
G1 X1558.940 Y1267.950
G1 X1589.140 Y1220.800
G1 X1619.340 Y1267.950
G1 X1616.060 Y1212.050
G1 X1668.210 Y1232.450
G1 X1632.700 Y1189.150
G1 X1686.880 Y1175.000
G1 X1632.700 Y1160.840
G1 X1668.210 Y1117.550
G1 X1616.060 Y1137.940
G1 X1619.340 Y1082.040
G1 X1589.140 Y1129.200
G1 X1558.940 Y1082.040
G1 X1562.220 Y1137.940
G1 X1510.070 Y1117.550
F150
G1 Z  -3.000
F400
G1 X1545.580 Y1160.840
G1 X1491.400 Y1175.000
G1 X1545.580 Y1189.150
G1 X1510.070 Y1232.450
G1 X1562.220 Y1212.050
G1 X1558.940 Y1267.950
G1 X1589.140 Y1220.800
G1 X1619.340 Y1267.950
G1 X1616.060 Y1212.050
G1 X1668.210 Y1232.450
G1 X1632.700 Y1189.150
G1 X1686.880 Y1175.000
G1 X1632.700 Y1160.840
G1 X1668.210 Y1117.550
G1 X1616.060 Y1137.940
G1 X1619.340 Y1082.040
G1 X1589.140 Y1129.200
G1 X1558.940 Y1082.040
G1 X1562.220 Y1137.940
G1 X1510.070 Y1117.550
F150
G1 Z   3.000
G0 Z  15.000 
M9 M5

(*** LAYER: BORDER_D0_T132_RK1_A0_W0_EM1_RI1_ID0009 ***)

(* SHAPE Nr: 11 *)
G0 X  94.640 Y 201.630
M3 M8
G0 Z   3.000 
G1 Z  -1.500
F400
G1 X  74.380 Y 264.270
G1 X  10.000 Y 250.500
G1 X  54.110 Y 299.370
G1 X  10.000 Y 348.240
G1 X  74.380 Y 334.470
G1 X  94.640 Y 397.110
G1 X 114.910 Y 334.470
G1 X 179.280 Y 348.240
G1 X 135.180 Y 299.370
G1 X 179.280 Y 250.500
G1 X 114.910 Y 264.270
G1 X  94.640 Y 201.630
F150
G1 Z  -3.000
F400
G1 X  74.380 Y 264.270
G1 X  10.000 Y 250.500
G1 X  54.110 Y 299.370
G1 X  10.000 Y 348.240
G1 X  74.380 Y 334.470
G1 X  94.640 Y 397.110
G1 X 114.910 Y 334.470
G1 X 179.280 Y 348.240
G1 X 135.180 Y 299.370
G1 X 179.280 Y 250.500
G1 X 114.910 Y 264.270
G1 X  94.640 Y 201.630
F150
G1 Z   3.000
G0 Z  15.000 
M9 M5

(* SHAPE Nr: 12 *)
G0 X  94.640 Y1085.230
M3 M8
G0 Z   3.000 
G1 Z  -1.500
F400
G1 X  74.380 Y1147.870
G1 X  10.000 Y1134.100
G1 X  54.110 Y1182.970
G1 X  10.000 Y1231.840
G1 X  74.380 Y1218.070
G1 X  94.640 Y1280.710
G1 X 114.910 Y1218.070
G1 X 179.280 Y1231.840
G1 X 135.180 Y1182.970
G1 X 179.280 Y1134.100
G1 X 114.910 Y1147.870
G1 X  94.640 Y1085.230
F150
G1 Z  -3.000
F400
G1 X  74.380 Y1147.870
G1 X  10.000 Y1134.100
G1 X  54.110 Y1182.970
G1 X  10.000 Y1231.840
G1 X  74.380 Y1218.070
G1 X  94.640 Y1280.710
G1 X 114.910 Y1218.070
G1 X 179.280 Y1231.840
G1 X 135.180 Y1182.970
G1 X 179.280 Y1134.100
G1 X 114.910 Y1147.870
G1 X  94.640 Y1085.230
F150
G1 Z   3.000
G0 Z  15.000 
M9 M5

(* SHAPE Nr: 18 *)
G0 X1603.200 Y1870.710
M3 M8
G0 Z   3.000 
G1 Z  -1.500
F400
G1 X1616.970 Y1935.090
G1 X1554.330 Y1955.350
G1 X1616.970 Y1975.620
G1 X1603.200 Y2040.000
G1 X1652.070 Y1995.890
G1 X1700.940 Y2040.000
G1 X1687.170 Y1975.620
G1 X1749.810 Y1955.350
G1 X1687.170 Y1935.090
G1 X1700.940 Y1870.710
G1 X1652.070 Y1914.820
G1 X1603.200 Y1870.710
F150
G1 Z  -3.000
F400
G1 X1616.970 Y1935.090
G1 X1554.330 Y1955.350
G1 X1616.970 Y1975.620
G1 X1603.200 Y2040.000
G1 X1652.070 Y1995.890
G1 X1700.940 Y2040.000
G1 X1687.170 Y1975.620
G1 X1749.810 Y1955.350
G1 X1687.170 Y1935.090
G1 X1700.940 Y1870.710
G1 X1652.070 Y1914.820
G1 X1603.200 Y1870.710
F150
G1 Z   3.000
G0 Z  15.000 
M9 M5

(* SHAPE Nr: 19 *)
G0 X 762.770 Y1870.710
M3 M8
G0 Z   3.000 
G1 Z  -1.500
F400
G1 X 776.540 Y1935.090
G1 X 713.900 Y1955.350
G1 X 776.540 Y1975.620
G1 X 762.770 Y2040.000
G1 X 811.640 Y1995.890
G1 X 860.510 Y2040.000
G1 X 846.740 Y1975.620
G1 X 909.380 Y1955.350
G1 X 846.740 Y1935.090
G1 X 860.510 Y1870.710
G1 X 811.640 Y1914.820
G1 X 762.770 Y1870.710
F150
G1 Z  -3.000
F400
G1 X 776.540 Y1935.090
G1 X 713.900 Y1955.350
G1 X 776.540 Y1975.620
G1 X 762.770 Y2040.000
G1 X 811.640 Y1995.890
G1 X 860.510 Y2040.000
G1 X 846.740 Y1975.620
G1 X 909.380 Y1955.350
G1 X 846.740 Y1935.090
G1 X 860.510 Y1870.710
G1 X 811.640 Y1914.820
G1 X 762.770 Y1870.710
F150
G1 Z   3.000
G0 Z  15.000 
M9 M5

(*** LAYER: BORDER_D0_T132_RK1_A0_W0_EM1_RI1_ID0007 ***)

(* SHAPE Nr: 15 *)
G0 X 853.020 Y 841.280
M3 M8
G0 Z   3.000 
G1 Z  -1.500
F400
G1 X 910.470 Y 883.020
G1 X 888.530 Y 950.560
G1 X 945.980 Y 908.820
G1 X1003.430 Y 950.560
G1 X 981.480 Y 883.020
G1 X1038.930 Y 841.280
G1 X 967.920 Y 841.280
G1 X 945.980 Y 773.750
G1 X 924.030 Y 841.280
G1 X 853.020 Y 841.280
F150
G1 Z  -3.000
F400
G1 X 910.470 Y 883.020
G1 X 888.530 Y 950.560
G1 X 945.980 Y 908.820
G1 X1003.430 Y 950.560
G1 X 981.480 Y 883.020
G1 X1038.930 Y 841.280
G1 X 967.920 Y 841.280
G1 X 945.980 Y 773.750
G1 X 924.030 Y 841.280
G1 X 853.020 Y 841.280
F150
G1 Z   3.000
G0 Z  15.000 
M9 M5

(*** LAYER: BORDER_D0_T132.1_RK1_A0_W0_EM1 ***)

(* SHAPE Nr: 27 *)
G0 X  94.640 Y1085.240
M3 M8
G0 Z   3.000 
G1 Z  -1.500
F400
G1 X  74.380 Y1147.880
G1 X  10.000 Y1134.110
G1 X  54.110 Y1182.980
G1 X  10.000 Y1231.850
G1 X  74.380 Y1218.080
G1 X  94.640 Y1280.720
G1 X 114.910 Y1218.080
G1 X 179.290 Y1231.850
G1 X 135.180 Y1182.980
G1 X 179.290 Y1134.110
G1 X 114.910 Y1147.880
G1 X  94.640 Y1085.240
F150
G1 Z  -3.000
F400
G1 X  74.380 Y1147.880
G1 X  10.000 Y1134.110
G1 X  54.110 Y1182.980
G1 X  10.000 Y1231.850
G1 X  74.380 Y1218.080
G1 X  94.640 Y1280.720
G1 X 114.910 Y1218.080
G1 X 179.290 Y1231.850
G1 X 135.180 Y1182.980
G1 X 179.290 Y1134.110
G1 X 114.910 Y1147.880
G1 X  94.640 Y1085.240
F150
G1 Z   3.000
G0 Z  15.000 
M9 M5

(* SHAPE Nr: 28 *)
G0 X1559.490 Y 108.360
M3 M8
G0 Z   3.000 
G1 Z  -1.500
F400
G2 X1563.230 Y 125.330 I  41.224 J  -0.188
G2 X1574.320 Y 141.790 I  55.805 J -25.633
G2 X1592.440 Y 157.230 I  77.348 J -72.421
G2 X1617.030 Y 171.180 I  99.610 J-146.938
G2 X1647.340 Y 183.230 I 115.683 J-246.838
G2 X1682.460 Y 193.000 I 119.408 J-361.226
G2 X1721.310 Y 200.200 I 107.654 J-472.468
G2 X1762.720 Y 204.610 I  80.734 J-561.467
G2 X1805.430 Y 206.100 I  42.714 J-611.486
G2 X1848.140 Y 204.610 I  -0.004 J-612.976
G2 X1889.550 Y 200.200 I -39.324 J-565.877
G2 X1928.400 Y 193.000 I -68.804 J-479.668
G2 X1963.520 Y 183.230 I -84.288 J-370.996
G2 X1993.830 Y 171.180 I -85.373 J-258.888
G2 X2018.420 Y 157.230 I -75.020 J-160.888
G2 X2036.540 Y 141.790 I -59.228 J -87.861
G2 X2047.630 Y 125.330 I -44.715 J -42.093
G2 X2051.370 Y 108.360 I -37.484 J -17.158
G2 X2047.630 Y  91.390 I -41.224 J   0.188
G2 X2036.540 Y  74.930 I -55.805 J  25.633
G2 X2018.420 Y  59.490 I -77.348 J  72.421
G2 X1993.830 Y  45.530 I -99.673 J 146.933
G2 X1963.520 Y  33.490 I-115.599 J 246.843
G2 X1928.400 Y  23.710 I-119.512 J 361.221
G2 X1889.550 Y  16.510 I-107.654 J 472.468
G2 X1848.140 Y  12.100 I -80.734 J 561.467
G2 X1805.430 Y  10.620 I -42.570 J 611.491
G2 X1762.720 Y  12.100 I  -0.140 J 612.971
G2 X1721.310 Y  16.510 I  39.324 J 565.877
G2 X1682.460 Y  23.710 I  68.804 J 479.668
G2 X1647.340 Y  33.490 I  84.392 J 371.001
G2 X1617.030 Y  45.530 I  85.289 J 258.883
G2 X1592.440 Y  59.490 I  75.081 J 160.889
G2 X1574.320 Y  74.930 I  59.228 J  87.861
G2 X1563.230 Y  91.390 I  44.715 J  42.093
G2 X1559.490 Y 108.360 I  37.484 J  17.158
F150
G1 Z  -3.000
F400
G2 X1563.230 Y 125.330 I  41.224 J  -0.188
G2 X1574.320 Y 141.790 I  55.805 J -25.633
G2 X1592.440 Y 157.230 I  77.348 J -72.421
G2 X1617.030 Y 171.180 I  99.610 J-146.938
G2 X1647.340 Y 183.230 I 115.683 J-246.838
G2 X1682.460 Y 193.000 I 119.408 J-361.226
G2 X1721.310 Y 200.200 I 107.654 J-472.468
G2 X1762.720 Y 204.610 I  80.734 J-561.467
G2 X1805.430 Y 206.100 I  42.714 J-611.486
G2 X1848.140 Y 204.610 I  -0.004 J-612.976
G2 X1889.550 Y 200.200 I -39.324 J-565.877
G2 X1928.400 Y 193.000 I -68.804 J-479.668
G2 X1963.520 Y 183.230 I -84.288 J-370.996
G2 X1993.830 Y 171.180 I -85.373 J-258.888
G2 X2018.420 Y 157.230 I -75.020 J-160.888
G2 X2036.540 Y 141.790 I -59.228 J -87.861
G2 X2047.630 Y 125.330 I -44.715 J -42.093
G2 X2051.370 Y 108.360 I -37.484 J -17.158
G2 X2047.630 Y  91.390 I -41.224 J   0.188
G2 X2036.540 Y  74.930 I -55.805 J  25.633
G2 X2018.420 Y  59.490 I -77.348 J  72.421
G2 X1993.830 Y  45.530 I -99.673 J 146.933
G2 X1963.520 Y  33.490 I-115.599 J 246.843
G2 X1928.400 Y  23.710 I-119.512 J 361.221
G2 X1889.550 Y  16.510 I-107.654 J 472.468
G2 X1848.140 Y  12.100 I -80.734 J 561.467
G2 X1805.430 Y  10.620 I -42.570 J 611.491
G2 X1762.720 Y  12.100 I  -0.140 J 612.971
G2 X1721.310 Y  16.510 I  39.324 J 565.877
G2 X1682.460 Y  23.710 I  68.804 J 479.668
G2 X1647.340 Y  33.490 I  84.392 J 371.001
G2 X1617.030 Y  45.530 I  85.289 J 258.883
G2 X1592.440 Y  59.490 I  75.081 J 160.889
G2 X1574.320 Y  74.930 I  59.228 J  87.861
G2 X1563.230 Y  91.390 I  44.715 J  42.093
G2 X1559.490 Y 108.360 I  37.484 J  17.158
F150
G1 Z   3.000
G0 Z  15.000 
M9 M5

(* SHAPE Nr: 29 *)
G0 X2578.180 Y1581.070
M3 M8
G0 Z   3.000 
G1 Z  -1.500
F400
G2 X2564.230 Y1605.660 I 146.938 J  99.610
G2 X2552.180 Y1635.970 I 246.838 J 115.683
G2 X2542.410 Y1671.090 I 361.226 J 119.408
G2 X2535.210 Y1709.940 I 472.468 J 107.654
G2 X2530.800 Y1751.350 I 561.467 J  80.734
G2 X2529.310 Y1794.060 I 611.486 J  42.714
G2 X2530.800 Y1836.770 I 612.976 J  -0.004
G2 X2535.210 Y1878.180 I 565.877 J -39.324
G2 X2542.410 Y1917.030 I 479.668 J -68.804
G2 X2552.180 Y1952.150 I 370.996 J -84.288
G2 X2564.230 Y1982.460 I 258.888 J -85.373
G2 X2578.180 Y2007.050 I 160.888 J -75.020
G2 X2593.620 Y2025.170 I  87.859 J -59.227
G2 X2610.080 Y2036.260 I  42.093 J -44.715
G2 X2627.050 Y2040.000 I  17.158 J -37.484
G2 X2644.020 Y2036.260 I  -0.188 J -41.224
G2 X2660.480 Y2025.170 I -25.633 J -55.805
G2 X2675.920 Y2007.050 I -72.421 J -77.348
G2 X2689.880 Y1982.460 I-146.933 J -99.673
G2 X2701.920 Y1952.150 I-246.843 J-115.599
G2 X2711.700 Y1917.030 I-361.221 J-119.512
G2 X2718.900 Y1878.180 I-472.468 J-107.654
G2 X2723.310 Y1836.770 I-561.467 J -80.734
G2 X2724.790 Y1794.060 I-611.491 J -42.570
G2 X2723.310 Y1751.350 I-612.971 J  -0.140
G2 X2718.900 Y1709.940 I-565.877 J  39.324
G2 X2711.700 Y1671.090 I-479.668 J  68.804
G2 X2701.920 Y1635.970 I-371.001 J  84.392
G2 X2689.880 Y1605.660 I-258.883 J  85.289
G2 X2675.920 Y1581.070 I-160.889 J  75.081
G2 X2660.480 Y1562.950 I -87.861 J  59.228
G2 X2644.020 Y1551.860 I -42.093 J  44.715
G2 X2627.050 Y1548.120 I -17.158 J  37.484
G2 X2610.080 Y1551.860 I   0.188 J  41.224
G2 X2593.620 Y1562.950 I  25.633 J  55.805
G2 X2578.180 Y1581.070 I  72.419 J  77.347
F150
G1 Z  -3.000
F400
G2 X2564.230 Y1605.660 I 146.938 J  99.610
G2 X2552.180 Y1635.970 I 246.838 J 115.683
G2 X2542.410 Y1671.090 I 361.226 J 119.408
G2 X2535.210 Y1709.940 I 472.468 J 107.654
G2 X2530.800 Y1751.350 I 561.467 J  80.734
G2 X2529.310 Y1794.060 I 611.486 J  42.714
G2 X2530.800 Y1836.770 I 612.976 J  -0.004
G2 X2535.210 Y1878.180 I 565.877 J -39.324
G2 X2542.410 Y1917.030 I 479.668 J -68.804
G2 X2552.180 Y1952.150 I 370.996 J -84.288
G2 X2564.230 Y1982.460 I 258.888 J -85.373
G2 X2578.180 Y2007.050 I 160.888 J -75.020
G2 X2593.620 Y2025.170 I  87.859 J -59.227
G2 X2610.080 Y2036.260 I  42.093 J -44.715
G2 X2627.050 Y2040.000 I  17.158 J -37.484
G2 X2644.020 Y2036.260 I  -0.188 J -41.224
G2 X2660.480 Y2025.170 I -25.633 J -55.805
G2 X2675.920 Y2007.050 I -72.421 J -77.348
G2 X2689.880 Y1982.460 I-146.933 J -99.673
G2 X2701.920 Y1952.150 I-246.843 J-115.599
G2 X2711.700 Y1917.030 I-361.221 J-119.512
G2 X2718.900 Y1878.180 I-472.468 J-107.654
G2 X2723.310 Y1836.770 I-561.467 J -80.734
G2 X2724.790 Y1794.060 I-611.491 J -42.570
G2 X2723.310 Y1751.350 I-612.971 J  -0.140
G2 X2718.900 Y1709.940 I-565.877 J  39.324
G2 X2711.700 Y1671.090 I-479.668 J  68.804
G2 X2701.920 Y1635.970 I-371.001 J  84.392
G2 X2689.880 Y1605.660 I-258.883 J  85.289
G2 X2675.920 Y1581.070 I-160.889 J  75.081
G2 X2660.480 Y1562.950 I -87.861 J  59.228
G2 X2644.020 Y1551.860 I -42.093 J  44.715
G2 X2627.050 Y1548.120 I -17.158 J  37.484
G2 X2610.080 Y1551.860 I   0.188 J  41.224
G2 X2593.620 Y1562.950 I  25.633 J  55.805
G2 X2578.180 Y1581.070 I  72.419 J  77.347
F150
G1 Z   3.000
G0 Z  15.000 
M9 M5

(* SHAPE Nr: 30 *)
G0 X2544.000 Y 661.710
M3 M8
G0 Z   3.000 
G1 Z  -1.500
F400
G2 X2536.800 Y 700.560 I 472.468 J 107.654
G2 X2532.390 Y 741.970 I 561.467 J  80.734
G2 X2530.900 Y 784.680 I 611.486 J  42.714
G2 X2532.390 Y 827.390 I 612.976 J  -0.004
G2 X2536.800 Y 868.790 I 565.740 J -39.329
G2 X2544.000 Y 907.650 I 479.791 J -68.799
G2 X2553.770 Y 942.770 I 370.996 J -84.288
G2 X2565.820 Y 973.080 I 258.888 J -85.373
G2 X2579.770 Y 997.670 I 160.888 J -75.020
G2 X2595.210 Y1015.790 I  87.861 J -59.228
G2 X2611.670 Y1026.880 I  42.093 J -44.715
G2 X2628.640 Y1030.620 I  17.158 J -37.484
G2 X2645.610 Y1026.880 I  -0.188 J -41.224
G2 X2662.070 Y1015.790 I -25.633 J -55.805
G2 X2677.510 Y 997.670 I -72.421 J -77.348
G2 X2691.470 Y 973.080 I-146.933 J -99.673
G2 X2703.510 Y 942.770 I-246.851 J-115.603
G2 X2713.290 Y 907.650 I-361.221 J-119.512
G2 X2720.490 Y 868.790 I-472.591 J-107.659
G2 X2724.900 Y 827.390 I-561.330 J -80.729
G2 X2726.380 Y 784.680 I-611.491 J -42.570
G2 X2724.900 Y 741.970 I-612.971 J  -0.140
G2 X2720.490 Y 700.560 I-565.877 J  39.324
G2 X2713.290 Y 661.710 I-479.668 J  68.804
G2 X2703.510 Y 626.590 I-371.001 J  84.392
G2 X2691.470 Y 596.280 I-258.883 J  85.289
G2 X2677.510 Y 571.690 I-160.893 J  75.083
G2 X2662.070 Y 553.570 I -87.861 J  59.228
G2 X2645.610 Y 542.470 I -42.123 J  44.710
G2 X2628.640 Y 538.740 I -17.135 J  37.489
G2 X2611.670 Y 542.470 I   0.165 J  41.219
G2 X2595.210 Y 553.570 I  25.663 J  55.810
G2 X2579.770 Y 571.690 I  72.421 J  77.348
G2 X2565.820 Y 596.280 I 146.938 J  99.610
G2 X2553.770 Y 626.590 I 246.838 J 115.683
G2 X2544.000 Y 661.710 I 361.226 J 119.408
F150
G1 Z  -3.000
F400
G2 X2536.800 Y 700.560 I 472.468 J 107.654
G2 X2532.390 Y 741.970 I 561.467 J  80.734
G2 X2530.900 Y 784.680 I 611.486 J  42.714
G2 X2532.390 Y 827.390 I 612.976 J  -0.004
G2 X2536.800 Y 868.790 I 565.740 J -39.329
G2 X2544.000 Y 907.650 I 479.791 J -68.799
G2 X2553.770 Y 942.770 I 370.996 J -84.288
G2 X2565.820 Y 973.080 I 258.888 J -85.373
G2 X2579.770 Y 997.670 I 160.888 J -75.020
G2 X2595.210 Y1015.790 I  87.861 J -59.228
G2 X2611.670 Y1026.880 I  42.093 J -44.715
G2 X2628.640 Y1030.620 I  17.158 J -37.484
G2 X2645.610 Y1026.880 I  -0.188 J -41.224
G2 X2662.070 Y1015.790 I -25.633 J -55.805
G2 X2677.510 Y 997.670 I -72.421 J -77.348
G2 X2691.470 Y 973.080 I-146.933 J -99.673
G2 X2703.510 Y 942.770 I-246.851 J-115.603
G2 X2713.290 Y 907.650 I-361.221 J-119.512
G2 X2720.490 Y 868.790 I-472.591 J-107.659
G2 X2724.900 Y 827.390 I-561.330 J -80.729
G2 X2726.380 Y 784.680 I-611.491 J -42.570
G2 X2724.900 Y 741.970 I-612.971 J  -0.140
G2 X2720.490 Y 700.560 I-565.877 J  39.324
G2 X2713.290 Y 661.710 I-479.668 J  68.804
G2 X2703.510 Y 626.590 I-371.001 J  84.392
G2 X2691.470 Y 596.280 I-258.883 J  85.289
G2 X2677.510 Y 571.690 I-160.893 J  75.083
G2 X2662.070 Y 553.570 I -87.861 J  59.228
G2 X2645.610 Y 542.470 I -42.123 J  44.710
G2 X2628.640 Y 538.740 I -17.135 J  37.489
G2 X2611.670 Y 542.470 I   0.165 J  41.219
G2 X2595.210 Y 553.570 I  25.663 J  55.810
G2 X2579.770 Y 571.690 I  72.421 J  77.348
G2 X2565.820 Y 596.280 I 146.938 J  99.610
G2 X2553.770 Y 626.590 I 246.838 J 115.683
G2 X2544.000 Y 661.710 I 361.226 J 119.408
F150
G1 Z   3.000
G0 Z  15.000 
M9 M5

(* SHAPE Nr: 31 *)
G0 X 979.170 Y1027.430
M3 M8
G0 Z   3.000 
G1 Z  -1.500
F400
G2 X 968.080 Y1043.890 I  44.715 J  42.093
G2 X 964.340 Y1060.860 I  37.484 J  17.158
G2 X 968.080 Y1077.830 I  41.224 J  -0.188
G2 X 979.170 Y1094.290 I  55.805 J -25.633
G2 X 997.290 Y1109.730 I  77.348 J -72.421
G2 X1021.880 Y1123.690 I  99.673 J-146.933
G2 X1052.190 Y1135.730 I 115.599 J-246.843
G2 X1087.310 Y1145.510 I 119.512 J-361.221
G2 X1126.170 Y1152.710 I 107.659 J-472.591
G2 X1167.570 Y1157.120 I  80.729 J-561.330
G2 X1210.280 Y1158.600 I  42.570 J-611.491
G2 X1252.990 Y1157.120 I   0.140 J-612.971
G2 X1294.400 Y1152.710 I -39.324 J-565.877
G2 X1333.250 Y1145.510 I -68.804 J-479.668
G2 X1368.370 Y1135.730 I -84.392 J-371.001
G2 X1398.680 Y1123.690 I -85.289 J-258.883
G2 X1423.270 Y1109.730 I -75.083 J-160.893
G2 X1441.390 Y1094.290 I -59.227 J -87.859
G2 X1452.490 Y1077.830 I -44.710 J -42.123
G2 X1456.220 Y1060.860 I -37.489 J -17.135
G2 X1452.490 Y1043.890 I -41.219 J   0.165
G2 X1441.390 Y1027.430 I -55.810 J  25.663
G2 X1423.270 Y1011.990 I -77.348 J  72.421
G2 X1398.680 Y 998.040 I -99.610 J 146.938
G2 X1368.370 Y 985.990 I-115.683 J 246.838
G2 X1333.250 Y 976.220 I-119.408 J 361.226
G2 X1294.400 Y 969.020 I-107.654 J 472.468
G2 X1252.990 Y 964.610 I -80.734 J 561.467
G2 X1210.280 Y 963.120 I -42.714 J 611.486
G2 X1167.570 Y 964.610 I   0.004 J 612.976
G2 X1126.170 Y 969.020 I  39.329 J 565.740
G2 X1087.310 Y 976.220 I  68.799 J 479.791
G2 X1052.190 Y 985.990 I  84.288 J 370.996
G2 X1021.880 Y 998.040 I  85.373 J 258.888
G2 X 997.290 Y1011.990 I  75.020 J 160.888
G2 X 979.170 Y1027.430 I  59.228 J  87.861
F150
G1 Z  -3.000
F400
G2 X 968.080 Y1043.890 I  44.715 J  42.093
G2 X 964.340 Y1060.860 I  37.484 J  17.158
G2 X 968.080 Y1077.830 I  41.224 J  -0.188
G2 X 979.170 Y1094.290 I  55.805 J -25.633
G2 X 997.290 Y1109.730 I  77.348 J -72.421
G2 X1021.880 Y1123.690 I  99.673 J-146.933
G2 X1052.190 Y1135.730 I 115.599 J-246.843
G2 X1087.310 Y1145.510 I 119.512 J-361.221
G2 X1126.170 Y1152.710 I 107.659 J-472.591
G2 X1167.570 Y1157.120 I  80.729 J-561.330
G2 X1210.280 Y1158.600 I  42.570 J-611.491
G2 X1252.990 Y1157.120 I   0.140 J-612.971
G2 X1294.400 Y1152.710 I -39.324 J-565.877
G2 X1333.250 Y1145.510 I -68.804 J-479.668
G2 X1368.370 Y1135.730 I -84.392 J-371.001
G2 X1398.680 Y1123.690 I -85.289 J-258.883
G2 X1423.270 Y1109.730 I -75.083 J-160.893
G2 X1441.390 Y1094.290 I -59.227 J -87.859
G2 X1452.490 Y1077.830 I -44.710 J -42.123
G2 X1456.220 Y1060.860 I -37.489 J -17.135
G2 X1452.490 Y1043.890 I -41.219 J   0.165
G2 X1441.390 Y1027.430 I -55.810 J  25.663
G2 X1423.270 Y1011.990 I -77.348 J  72.421
G2 X1398.680 Y 998.040 I -99.610 J 146.938
G2 X1368.370 Y 985.990 I-115.683 J 246.838
G2 X1333.250 Y 976.220 I-119.408 J 361.226
G2 X1294.400 Y 969.020 I-107.654 J 472.468
G2 X1252.990 Y 964.610 I -80.734 J 561.467
G2 X1210.280 Y 963.120 I -42.714 J 611.486
G2 X1167.570 Y 964.610 I   0.004 J 612.976
G2 X1126.170 Y 969.020 I  39.329 J 565.740
G2 X1087.310 Y 976.220 I  68.799 J 479.791
G2 X1052.190 Y 985.990 I  84.288 J 370.996
G2 X1021.880 Y 998.040 I  85.373 J 258.888
G2 X 997.290 Y1011.990 I  75.020 J 160.888
G2 X 979.170 Y1027.430 I  59.228 J  87.861
F150
G1 Z   3.000
G0 Z  15.000 
M9 M5

(* SHAPE Nr: 32 *)
G0 X2531.610 Y 235.390
M3 M8
G0 Z   3.000 
G1 Z  -1.500
F400
G2 X2530.130 Y 278.100 I 611.491 J  42.570
G2 X2531.610 Y 320.800 I 612.828 J   0.135
G2 X2536.020 Y 362.210 I 565.877 J -39.324
G2 X2543.220 Y 401.070 I 479.791 J -68.799
G2 X2552.990 Y 436.180 I 370.892 J -84.293
G2 X2565.040 Y 466.500 I 258.971 J -85.368
G2 X2579.000 Y 491.090 I 160.893 J -75.083
G2 X2594.440 Y 509.210 I  87.861 J -59.228
G2 X2610.890 Y 520.300 I  42.088 J -44.684
G2 X2627.870 Y 524.040 I  17.163 J -37.507
G2 X2644.840 Y 520.300 I  -0.188 J -41.224
G2 X2661.290 Y 509.210 I -25.638 J -55.774
G2 X2676.740 Y 491.090 I -72.414 J -77.391
G2 X2690.690 Y 466.500 I-146.938 J -99.610
G2 X2702.740 Y 436.180 I-246.921 J-115.688
G2 X2712.510 Y 401.070 I-361.122 J-119.403
G2 X2719.710 Y 362.210 I-472.591 J-107.659
G2 X2724.120 Y 320.800 I-561.467 J -80.734
G2 X2725.610 Y 278.100 I-611.343 J -42.709
G2 X2724.120 Y 235.390 I-612.976 J   0.004
G2 X2719.710 Y 193.980 I-565.877 J  39.324
G2 X2712.510 Y 155.130 I-479.668 J  68.804
G2 X2702.740 Y 120.010 I-370.996 J  84.288
G2 X2690.690 Y  89.700 I-258.888 J  85.373
G2 X2676.740 Y  65.110 I-160.888 J  75.020
G2 X2661.290 Y  46.990 I -87.864 J  59.271
G2 X2644.840 Y  35.890 I -42.118 J  44.679
G2 X2627.870 Y  32.160 I -17.135 J  37.489
G2 X2610.890 Y  35.890 I   0.160 J  41.242
G2 X2594.440 Y  46.990 I  25.668 J  55.779
G2 X2579.000 Y  65.110 I  72.421 J  77.348
G2 X2565.040 Y  89.700 I 146.933 J  99.673
G2 X2552.990 Y 120.010 I 246.838 J 115.683
G2 X2543.220 Y 155.130 I 361.226 J 119.408
G2 X2536.020 Y 193.980 I 472.468 J 107.654
G2 X2531.610 Y 235.390 I 561.467 J  80.734
F150
G1 Z  -3.000
F400
G2 X2530.130 Y 278.100 I 611.491 J  42.570
G2 X2531.610 Y 320.800 I 612.828 J   0.135
G2 X2536.020 Y 362.210 I 565.877 J -39.324
G2 X2543.220 Y 401.070 I 479.791 J -68.799
G2 X2552.990 Y 436.180 I 370.892 J -84.293
G2 X2565.040 Y 466.500 I 258.971 J -85.368
G2 X2579.000 Y 491.090 I 160.893 J -75.083
G2 X2594.440 Y 509.210 I  87.861 J -59.228
G2 X2610.890 Y 520.300 I  42.088 J -44.684
G2 X2627.870 Y 524.040 I  17.163 J -37.507
G2 X2644.840 Y 520.300 I  -0.188 J -41.224
G2 X2661.290 Y 509.210 I -25.638 J -55.774
G2 X2676.740 Y 491.090 I -72.414 J -77.391
G2 X2690.690 Y 466.500 I-146.938 J -99.610
G2 X2702.740 Y 436.180 I-246.921 J-115.688
G2 X2712.510 Y 401.070 I-361.122 J-119.403
G2 X2719.710 Y 362.210 I-472.591 J-107.659
G2 X2724.120 Y 320.800 I-561.467 J -80.734
G2 X2725.610 Y 278.100 I-611.343 J -42.709
G2 X2724.120 Y 235.390 I-612.976 J   0.004
G2 X2719.710 Y 193.980 I-565.877 J  39.324
G2 X2712.510 Y 155.130 I-479.668 J  68.804
G2 X2702.740 Y 120.010 I-370.996 J  84.288
G2 X2690.690 Y  89.700 I-258.888 J  85.373
G2 X2676.740 Y  65.110 I-160.888 J  75.020
G2 X2661.290 Y  46.990 I -87.864 J  59.271
G2 X2644.840 Y  35.890 I -42.118 J  44.679
G2 X2627.870 Y  32.160 I -17.135 J  37.489
G2 X2610.890 Y  35.890 I   0.160 J  41.242
G2 X2594.440 Y  46.990 I  25.668 J  55.779
G2 X2579.000 Y  65.110 I  72.421 J  77.348
G2 X2565.040 Y  89.700 I 146.933 J  99.673
G2 X2552.990 Y 120.010 I 246.838 J 115.683
G2 X2543.220 Y 155.130 I 361.226 J 119.408
G2 X2536.020 Y 193.980 I 472.468 J 107.654
G2 X2531.610 Y 235.390 I 561.467 J  80.734
F150
G1 Z   3.000
G0 Z  15.000 
M9 M5

(* SHAPE Nr: 33 *)
G0 X2534.640 Y1097.700
M3 M8
G0 Z   3.000 
G1 Z  -1.500
F400
G2 X2522.590 Y1128.020 I 246.921 J 115.688
G2 X2512.820 Y1163.130 I 361.122 J 119.403
G2 X2505.620 Y1201.990 I 472.591 J 107.659
G2 X2501.210 Y1243.400 I 561.467 J  80.734
G2 X2499.730 Y1286.100 I 611.348 J  42.565
G2 X2501.210 Y1328.810 I 612.971 J   0.140
G2 X2505.620 Y1370.220 I 565.877 J -39.324
G2 X2512.820 Y1409.070 I 479.668 J -68.804
G2 X2522.590 Y1444.190 I 370.996 J -84.288
G2 X2534.640 Y1474.510 I 258.971 J -85.368
G2 X2548.590 Y1499.090 I 160.825 J -75.025
G2 X2564.040 Y1517.210 I  87.866 J -59.272
G2 X2580.490 Y1528.310 I  42.118 J -44.679
G2 X2597.470 Y1532.040 I  17.140 J -37.512
G2 X2614.440 Y1528.310 I  -0.165 J -41.219
G2 X2630.890 Y1517.210 I -25.668 J -55.779
G2 X2646.330 Y1499.090 I -72.421 J -77.348
G2 X2660.290 Y1474.510 I-146.870 J -99.668
G2 X2672.340 Y1444.190 I-246.930 J-115.691
G2 X2682.110 Y1409.070 I-361.226 J-119.408
G2 X2689.310 Y1370.220 I-472.468 J-107.654
G2 X2693.720 Y1328.810 I-561.467 J -80.734
G2 X2695.210 Y1286.100 I-611.486 J -42.714
G2 X2693.720 Y1243.400 I-612.833 J   0.009
G2 X2689.310 Y1201.990 I-565.877 J  39.324
G2 X2682.110 Y1163.130 I-479.791 J  68.799
G2 X2672.340 Y1128.020 I-370.892 J  84.293
G2 X2660.290 Y1097.700 I-258.980 J  85.371
G2 X2646.330 Y1073.110 I-160.893 J  75.083
G2 X2630.890 Y1055.000 I -87.817 J  59.233
G2 X2614.440 Y1043.900 I -42.118 J  44.679
G2 X2597.470 Y1040.160 I -17.158 J  37.484
G2 X2580.490 Y1043.900 I   0.183 J  41.247
G2 X2564.040 Y1055.000 I  25.668 J  55.779
G2 X2548.590 Y1073.110 I  72.372 J  77.387
G2 X2534.640 Y1097.700 I 146.938 J  99.610
F150
G1 Z  -3.000
F400
G2 X2522.590 Y1128.020 I 246.921 J 115.688
G2 X2512.820 Y1163.130 I 361.122 J 119.403
G2 X2505.620 Y1201.990 I 472.591 J 107.659
G2 X2501.210 Y1243.400 I 561.467 J  80.734
G2 X2499.730 Y1286.100 I 611.348 J  42.565
G2 X2501.210 Y1328.810 I 612.971 J   0.140
G2 X2505.620 Y1370.220 I 565.877 J -39.324
G2 X2512.820 Y1409.070 I 479.668 J -68.804
G2 X2522.590 Y1444.190 I 370.996 J -84.288
G2 X2534.640 Y1474.510 I 258.971 J -85.368
G2 X2548.590 Y1499.090 I 160.825 J -75.025
G2 X2564.040 Y1517.210 I  87.866 J -59.272
G2 X2580.490 Y1528.310 I  42.118 J -44.679
G2 X2597.470 Y1532.040 I  17.140 J -37.512
G2 X2614.440 Y1528.310 I  -0.165 J -41.219
G2 X2630.890 Y1517.210 I -25.668 J -55.779
G2 X2646.330 Y1499.090 I -72.421 J -77.348
G2 X2660.290 Y1474.510 I-146.870 J -99.668
G2 X2672.340 Y1444.190 I-246.930 J-115.691
G2 X2682.110 Y1409.070 I-361.226 J-119.408
G2 X2689.310 Y1370.220 I-472.468 J-107.654
G2 X2693.720 Y1328.810 I-561.467 J -80.734
G2 X2695.210 Y1286.100 I-611.486 J -42.714
G2 X2693.720 Y1243.400 I-612.833 J   0.009
G2 X2689.310 Y1201.990 I-565.877 J  39.324
G2 X2682.110 Y1163.130 I-479.791 J  68.799
G2 X2672.340 Y1128.020 I-370.892 J  84.293
G2 X2660.290 Y1097.700 I-258.980 J  85.371
G2 X2646.330 Y1073.110 I-160.893 J  75.083
G2 X2630.890 Y1055.000 I -87.817 J  59.233
G2 X2614.440 Y1043.900 I -42.118 J  44.679
G2 X2597.470 Y1040.160 I -17.158 J  37.484
G2 X2580.490 Y1043.900 I   0.183 J  41.247
G2 X2564.040 Y1055.000 I  25.668 J  55.779
G2 X2548.590 Y1073.110 I  72.372 J  77.387
G2 X2534.640 Y1097.700 I 146.938 J  99.610
F150
G1 Z   3.000
G0 Z  15.000 
M9 M5

(* SHAPE Nr: 34 *)
G0 X2321.610 Y 213.230
M3 M8
G0 Z   3.000 
G1 Z  -1.500
F400
G2 X2320.120 Y 255.940 I 611.486 J  42.714
G2 X2321.610 Y 298.650 I 612.976 J  -0.004
G2 X2326.020 Y 340.060 I 565.877 J -39.324
G2 X2333.220 Y 378.910 I 479.668 J -68.804
G2 X2342.990 Y 414.030 I 370.996 J -84.288
G2 X2355.040 Y 444.340 I 258.888 J -85.373
G2 X2368.990 Y 468.930 I 160.888 J -75.020
G2 X2384.430 Y 487.050 I  87.859 J -59.227
G2 X2400.890 Y 498.140 I  42.093 J -44.715
G2 X2417.860 Y 501.880 I  17.158 J -37.484
G2 X2434.830 Y 498.140 I  -0.188 J -41.224
G2 X2451.290 Y 487.050 I -25.633 J -55.805
G2 X2466.730 Y 468.930 I -72.421 J -77.348
G2 X2480.690 Y 444.340 I-146.933 J -99.673
G2 X2492.740 Y 414.030 I-246.838 J-115.683
G2 X2502.510 Y 378.910 I-361.226 J-119.408
G2 X2509.710 Y 340.060 I-472.468 J-107.654
G2 X2514.120 Y 298.650 I-561.467 J -80.734
G2 X2515.600 Y 255.940 I-611.491 J -42.570
G2 X2514.120 Y 213.230 I-612.971 J  -0.140
G2 X2509.710 Y 171.820 I-565.877 J  39.324
G2 X2502.510 Y 132.970 I-479.668 J  68.804
G2 X2492.740 Y  97.850 I-370.996 J  84.288
G2 X2480.690 Y  67.540 I-258.888 J  85.373
G2 X2466.730 Y  42.950 I-160.893 J  75.083
G2 X2451.290 Y  24.830 I -87.861 J  59.228
G2 X2434.830 Y  13.740 I -42.093 J  44.715
G2 X2417.860 Y  10.000 I -17.158 J  37.484
G2 X2400.890 Y  13.740 I   0.188 J  41.224
G2 X2384.430 Y  24.830 I  25.633 J  55.805
G2 X2368.990 Y  42.950 I  72.419 J  77.347
G2 X2355.040 Y  67.540 I 146.938 J  99.610
G2 X2342.990 Y  97.850 I 246.838 J 115.683
G2 X2333.220 Y 132.970 I 361.226 J 119.408
G2 X2326.020 Y 171.820 I 472.468 J 107.654
G2 X2321.610 Y 213.230 I 561.467 J  80.734
F150
G1 Z  -3.000
F400
G2 X2320.120 Y 255.940 I 611.486 J  42.714
G2 X2321.610 Y 298.650 I 612.976 J  -0.004
G2 X2326.020 Y 340.060 I 565.877 J -39.324
G2 X2333.220 Y 378.910 I 479.668 J -68.804
G2 X2342.990 Y 414.030 I 370.996 J -84.288
G2 X2355.040 Y 444.340 I 258.888 J -85.373
G2 X2368.990 Y 468.930 I 160.888 J -75.020
G2 X2384.430 Y 487.050 I  87.859 J -59.227
G2 X2400.890 Y 498.140 I  42.093 J -44.715
G2 X2417.860 Y 501.880 I  17.158 J -37.484
G2 X2434.830 Y 498.140 I  -0.188 J -41.224
G2 X2451.290 Y 487.050 I -25.633 J -55.805
G2 X2466.730 Y 468.930 I -72.421 J -77.348
G2 X2480.690 Y 444.340 I-146.933 J -99.673
G2 X2492.740 Y 414.030 I-246.838 J-115.683
G2 X2502.510 Y 378.910 I-361.226 J-119.408
G2 X2509.710 Y 340.060 I-472.468 J-107.654
G2 X2514.120 Y 298.650 I-561.467 J -80.734
G2 X2515.600 Y 255.940 I-611.491 J -42.570
G2 X2514.120 Y 213.230 I-612.971 J  -0.140
G2 X2509.710 Y 171.820 I-565.877 J  39.324
G2 X2502.510 Y 132.970 I-479.668 J  68.804
G2 X2492.740 Y  97.850 I-370.996 J  84.288
G2 X2480.690 Y  67.540 I-258.888 J  85.373
G2 X2466.730 Y  42.950 I-160.893 J  75.083
G2 X2451.290 Y  24.830 I -87.861 J  59.228
G2 X2434.830 Y  13.740 I -42.093 J  44.715
G2 X2417.860 Y  10.000 I -17.158 J  37.484
G2 X2400.890 Y  13.740 I   0.188 J  41.224
G2 X2384.430 Y  24.830 I  25.633 J  55.805
G2 X2368.990 Y  42.950 I  72.419 J  77.347
G2 X2355.040 Y  67.540 I 146.938 J  99.610
G2 X2342.990 Y  97.850 I 246.838 J 115.683
G2 X2333.220 Y 132.970 I 361.226 J 119.408
G2 X2326.020 Y 171.820 I 472.468 J 107.654
G2 X2321.610 Y 213.230 I 561.467 J  80.734
F150
G1 Z   3.000
G0 Z  15.000 
M9 M5

(* SHAPE Nr: 35 *)
G0 X 718.540 Y1082.040
M3 M8
G0 Z   3.000 
G1 Z  -1.500
F400
G1 X 721.830 Y1137.950
G1 X 669.670 Y1117.550
G1 X 705.190 Y1160.850
G1 X 651.010 Y1175.000
G1 X 705.190 Y1189.150
G1 X 669.670 Y1232.450
G1 X 721.830 Y1212.050
G1 X 718.540 Y1267.960
G1 X 748.740 Y1220.800
G1 X 778.950 Y1267.960
G1 X 775.660 Y1212.050
G1 X 827.820 Y1232.450
G1 X 792.300 Y1189.150
G1 X 846.480 Y1175.000
G1 X 792.300 Y1160.850
G1 X 827.820 Y1117.550
G1 X 775.660 Y1137.950
G1 X 778.950 Y1082.040
G1 X 748.740 Y1129.200
G1 X 718.540 Y1082.040
F150
G1 Z  -3.000
F400
G1 X 721.830 Y1137.950
G1 X 669.670 Y1117.550
G1 X 705.190 Y1160.850
G1 X 651.010 Y1175.000
G1 X 705.190 Y1189.150
G1 X 669.670 Y1232.450
G1 X 721.830 Y1212.050
G1 X 718.540 Y1267.960
G1 X 748.740 Y1220.800
G1 X 778.950 Y1267.960
G1 X 775.660 Y1212.050
G1 X 827.820 Y1232.450
G1 X 792.300 Y1189.150
G1 X 846.480 Y1175.000
G1 X 792.300 Y1160.850
G1 X 827.820 Y1117.550
G1 X 775.660 Y1137.950
G1 X 778.950 Y1082.040
G1 X 748.740 Y1129.200
G1 X 718.540 Y1082.040
F150
G1 Z   3.000
G0 Z  15.000 
M9 M5

(* SHAPE Nr: 37 *)
G0 X 333.100 Y -14.700
M3 M8
G0 Z   3.000 
G1 Z  -1.500
F400
G1 X 333.100 Y  52.260
G2 X 290.390 Y  53.740 I  -0.140 J 612.971
G2 X 248.980 Y  58.150 I  39.324 J 565.877
G2 X 210.130 Y  65.360 I  68.926 J 479.673
G2 X 175.010 Y  75.130 I  84.288 J 370.996
G2 X 144.690 Y  87.170 I  85.284 J 258.966
G2 X 120.110 Y 101.130 I  75.088 J 160.830
G2 X 101.990 Y 116.570 I  59.228 J  87.861
G2 X  90.890 Y 133.030 I  44.710 J  42.123
G2 X  87.150 Y 150.000 I  37.484 J  17.158
G2 X  90.890 Y 166.970 I  41.224 J  -0.188
G2 X 101.990 Y 183.430 I  55.810 J -25.663
G2 X 120.110 Y 198.870 I  77.348 J -72.421
G2 X 144.690 Y 212.830 I  99.668 J-146.870
G2 X 175.010 Y 224.870 I 115.604 J-246.926
G2 X 210.130 Y 234.650 I 119.512 J-361.221
G2 X 248.980 Y 241.850 I 107.654 J-472.468
G2 X 290.390 Y 246.260 I  80.734 J-561.467
G2 X 333.100 Y 247.740 I  42.570 J-611.491
G2 X 375.800 Y 246.260 I   0.135 J-612.828
G2 X 417.210 Y 241.850 I -39.324 J-565.877
G2 X 456.070 Y 234.650 I -68.799 J-479.791
G2 X 491.180 Y 224.870 I -84.397 J-370.897
G2 X 521.500 Y 212.830 I -85.284 J-258.966
G2 X 546.090 Y 198.870 I -75.083 J-160.893
G2 X 564.200 Y 183.430 I -59.233 J -87.817
G2 X 575.300 Y 166.970 I -44.710 J -42.123
G2 X 579.030 Y 150.000 I -37.489 J -17.135
G2 X 575.300 Y 133.030 I -41.219 J   0.165
G2 X 564.200 Y 116.570 I -55.810 J  25.663
G2 X 546.090 Y 101.130 I -77.343 J  72.377
G2 X 521.500 Y  87.170 I -99.671 J 146.929
G2 X 491.180 Y  75.130 I-115.604 J 246.926
G2 X 456.070 Y  65.360 I-119.403 J 361.122
G2 X 417.210 Y  58.150 I-107.781 J 472.586
G2 X 375.800 Y  53.740 I -80.734 J 561.467
G2 X 333.100 Y  52.260 I -42.565 J 611.348
F150
G1 Z  -3.000
F400
G3 X 375.800 Y  53.740 I   0.135 J 612.828
G3 X 417.210 Y  58.150 I -39.324 J 565.877
G3 X 456.070 Y  65.360 I -68.921 J 479.796
G3 X 491.180 Y  75.130 I -84.293 J 370.892
G3 X 521.500 Y  87.170 I -85.284 J 258.966
G3 X 546.090 Y 101.130 I -75.081 J 160.889
G3 X 564.200 Y 116.570 I -59.233 J  87.817
G3 X 575.300 Y 133.030 I -44.710 J  42.123
G3 X 579.030 Y 150.000 I -37.489 J  17.135
G3 X 575.300 Y 166.970 I -41.219 J  -0.165
G3 X 564.200 Y 183.430 I -55.810 J -25.663
G3 X 546.090 Y 198.870 I -77.343 J -72.377
G3 X 521.500 Y 212.830 I -99.673 J-146.933
G3 X 491.180 Y 224.870 I-115.604 J-246.926
G3 X 456.070 Y 234.650 I-119.507 J-361.117
G3 X 417.210 Y 241.850 I-107.659 J-472.591
G3 X 375.800 Y 246.260 I -80.734 J-561.467
G3 X 333.100 Y 247.740 I -42.565 J-611.348
G3 X 290.390 Y 246.260 I  -0.140 J-612.971
G3 X 248.980 Y 241.850 I  39.324 J-565.877
G3 X 210.130 Y 234.650 I  68.804 J-479.668
G3 X 175.010 Y 224.870 I  84.392 J-371.001
G3 X 144.690 Y 212.830 I  85.284 J-258.966
G3 X 120.110 Y 198.870 I  75.088 J-160.830
G3 X 101.990 Y 183.430 I  59.228 J -87.861
G3 X  90.890 Y 166.970 I  44.710 J -42.123
G3 X  87.150 Y 150.000 I  37.484 J -17.158
G3 X  90.890 Y 133.030 I  41.224 J   0.188
G3 X 101.990 Y 116.570 I  55.810 J  25.663
G3 X 120.110 Y 101.130 I  77.348 J  72.421
G3 X 144.690 Y  87.170 I  99.668 J 146.870
G3 X 175.010 Y  75.130 I 115.604 J 246.926
G3 X 210.130 Y  65.360 I 119.408 J 361.226
G3 X 248.980 Y  58.150 I 107.776 J 472.463
G3 X 290.390 Y  53.740 I  80.734 J 561.467
G3 X 333.100 Y  52.260 I  42.570 J 611.491
G1 X 333.100 Y -14.700
F150
G1 Z   3.000
G0 Z  15.000 
M9 M5

(* SHAPE Nr: 38 *)
G0 X2364.320 Y 488.330
M3 M8
G0 Z   3.000 
G1 Z  -1.500
F400
G1 X2147.270 Y 330.640
G1 X1878.980 Y 330.640
G1 X1661.940 Y 488.330
G1 X1579.030 Y 743.490
G1 X1661.940 Y 998.650
G1 X1878.980 Y1156.340
G1 X2147.270 Y1156.340
G1 X2375.030 Y 990.870
G1 X2440.320 Y1051.890
G1 X2440.320 Y1066.590
G1 X2312.190 Y1066.590
G1 X2272.600 Y1188.450
G1 X2103.670 Y1171.800
G1 X1848.510 Y1254.710
G1 X1690.820 Y1471.760
G1 X1690.820 Y1753.270
G1 X1676.120 Y1753.270
G1 X1676.120 Y1471.760
G1 X1518.420 Y1254.710
G1 X1263.260 Y1171.800
G1 X1008.100 Y1254.710
G1 X 850.410 Y1471.760
G1 X 850.410 Y1753.270
G1 X 835.710 Y1753.270
G1 X 835.710 Y1471.760
G1 X 678.010 Y1254.710
G1 X 422.850 Y1171.800
G1 X 167.700 Y1254.710
G1 X  10.000 Y1471.760
G1 X  10.000 Y1740.040
G1 X 167.700 Y1957.090
G1 X 422.850 Y2040.000
G1 X 678.010 Y1957.090
G1 X 835.710 Y1740.040
G1 X 835.710 Y1732.690
G1 X 850.410 Y1732.690
G1 X 850.410 Y1740.040
G1 X1008.100 Y1957.090
G1 X1263.260 Y2040.000
G1 X1518.420 Y1957.090
G1 X1676.120 Y1740.040
G1 X1676.120 Y1732.690
G1 X1690.820 Y1732.690
G1 X1690.820 Y1740.040
G1 X1848.510 Y1957.090
G1 X2103.670 Y2040.000
G1 X2358.830 Y1957.090
G1 X2516.520 Y1740.040
G1 X2516.520 Y1471.760
G1 X2358.830 Y1254.710
G1 X2103.670 Y1171.800
F150
G1 Z  -3.000
F400
G1 X2358.830 Y1254.710
G1 X2516.520 Y1471.760
G1 X2516.520 Y1740.040
G1 X2358.830 Y1957.090
G1 X2103.670 Y2040.000
G1 X1848.510 Y1957.090
G1 X1690.820 Y1740.040
G1 X1690.820 Y1732.690
G1 X1676.120 Y1732.690
G1 X1676.120 Y1740.040
G1 X1518.420 Y1957.090
G1 X1263.260 Y2040.000
G1 X1008.100 Y1957.090
G1 X 850.410 Y1740.040
G1 X 850.410 Y1732.690
G1 X 835.710 Y1732.690
G1 X 835.710 Y1740.040
G1 X 678.010 Y1957.090
G1 X 422.850 Y2040.000
G1 X 167.700 Y1957.090
G1 X  10.000 Y1740.040
G1 X  10.000 Y1471.760
G1 X 167.700 Y1254.710
G1 X 422.850 Y1171.800
G1 X 678.010 Y1254.710
G1 X 835.710 Y1471.760
G1 X 835.710 Y1753.270
G1 X 850.410 Y1753.270
G1 X 850.410 Y1471.760
G1 X1008.100 Y1254.710
G1 X1263.260 Y1171.800
G1 X1518.420 Y1254.710
G1 X1676.120 Y1471.760
G1 X1676.120 Y1753.270
G1 X1690.820 Y1753.270
G1 X1690.820 Y1471.760
G1 X1848.510 Y1254.710
G1 X2103.670 Y1171.800
G1 X2272.600 Y1188.450
G1 X2312.190 Y1066.590
G1 X2440.320 Y1066.590
G1 X2440.320 Y1051.890
G1 X2375.030 Y 990.870
G1 X2147.270 Y1156.340
G1 X1878.980 Y1156.340
G1 X1661.940 Y 998.650
G1 X1579.030 Y 743.490
G1 X1661.940 Y 488.330
G1 X1878.980 Y 330.640
G1 X2147.270 Y 330.640
G1 X2364.320 Y 488.330
F150
G1 Z   3.000
G0 Z  15.000 
M9 M5

(* SHAPE Nr: 39 *)
G0 X2276.690 Y1175.870
M3 M8
G0 Z   3.000 
G1 Z  -1.500
F400
G1 X2369.640 Y1243.410
G1 X2462.600 Y1175.870
G1 X2427.090 Y1066.590
G1 X2360.240 Y1011.230
G1 X2364.320 Y 998.650
G1 X2447.230 Y 743.490
G1 X2364.320 Y 488.330
G1 X2358.380 Y 484.010
G1 X2215.650 Y 220.190
G1 X2161.470 Y 206.040
G1 X2196.980 Y 162.740
G1 X2144.830 Y 183.140
G1 X2148.110 Y 127.240
G1 X2117.910 Y 174.390
G1 X2087.710 Y 127.240
G1 X2090.990 Y 183.140
G1 X2038.840 Y 162.740
G1 X2074.350 Y 206.040
G1 X2020.170 Y 220.190
G1 X2007.370 Y 223.540
G1 X1680.730 Y 466.750
G1 X1667.100 Y 424.810
G1 X1584.200 Y 169.650
G1 X1367.150 Y  11.960
G1 X1098.860 Y  11.960
G1 X 845.310 Y  16.590
G1 X 730.410 Y  16.590
G1 X 694.900 Y 125.870
G1 X 787.860 Y 193.410
G1 X 808.340 Y 208.280
G1 X 795.260 Y 258.340
G1 X 782.460 Y 255.000
G1 X 728.280 Y 240.850
G1 X 763.790 Y 197.550
G1 X 711.640 Y 217.950
G1 X 714.920 Y 162.040
G1 X 684.720 Y 209.200
G1 X 654.520 Y 162.040
G1 X 657.800 Y 217.950
G1 X 605.650 Y 197.550
G1 X 641.160 Y 240.850
G1 X 586.980 Y 255.000
G1 X 422.850 Y 288.140
G1 X 167.700 Y 371.050
G1 X  10.000 Y 588.100
G1 X  10.000 Y 856.390
G1 X 167.700 Y1073.440
G1 X 422.850 Y1156.340
G1 X 678.010 Y1073.440
G1 X 835.710 Y 856.390
G1 X 835.710 Y 588.100
G1 X 678.010 Y 371.050
G1 X 422.850 Y 288.140
G1 X 179.290 Y 250.510
G1 X 114.910 Y 264.280
G1 X  94.640 Y 201.640
G1 X  74.380 Y 264.280
G1 X  10.000 Y 250.510
G1 X  54.110 Y 299.380
G1 X  10.000 Y 348.250
G1 X  74.380 Y 334.480
G1 X  94.640 Y 397.120
G1 X 114.910 Y 334.480
G1 X 179.290 Y 348.250
G1 X 135.180 Y 299.380
G1 X 188.150 Y 240.690
G1 X 570.460 Y 265.880
G1 X 574.180 Y 251.660
G1 X 586.980 Y 255.000
G1 X 641.160 Y 269.150
G1 X 605.650 Y 312.450
G1 X 657.800 Y 292.050
G1 X 654.520 Y 347.960
G1 X 684.720 Y 300.800
G1 X 714.920 Y 347.960
G1 X 711.640 Y 292.050
G1 X 763.790 Y 312.450
G1 X 728.280 Y 269.150
G1 X 782.460 Y 255.000
G1 X 777.160 Y 201.180
G1 X 787.860 Y 193.410
G1 X 880.810 Y 125.870
G1 X 841.220 Y   4.010
G1 X 855.200 Y  -0.530
G1 X1100.920 Y  -7.710
G1 X1109.560 Y   4.180
G1 X1098.860 Y  11.960
G1 X 881.810 Y 169.650
G1 X 798.910 Y 424.810
G1 X 881.810 Y 679.970
G1 X1098.860 Y 837.660
G1 X1367.150 Y 837.660
G1 X1584.200 Y 679.970
G1 X1671.190 Y 412.230
G1 X2007.370 Y 216.850
G1 X2020.170 Y 220.190
G1 X2074.350 Y 234.340
G1 X2038.840 Y 277.640
G1 X2090.990 Y 257.240
G1 X2087.710 Y 313.150
G1 X2117.910 Y 265.990
G1 X2148.110 Y 313.150
G1 X2144.830 Y 257.240
G1 X2196.980 Y 277.640
G1 X2161.470 Y 234.340
G1 X2215.650 Y 220.190
F150
G1 Z  -3.000
F400
G1 X2161.470 Y 234.340
G1 X2196.980 Y 277.640
G1 X2144.830 Y 257.240
G1 X2148.110 Y 313.150
G1 X2117.910 Y 265.990
G1 X2087.710 Y 313.150
G1 X2090.990 Y 257.240
G1 X2038.840 Y 277.640
G1 X2074.350 Y 234.340
G1 X2020.170 Y 220.190
G1 X2007.370 Y 216.850
G1 X1671.190 Y 412.230
G1 X1584.200 Y 679.970
G1 X1367.150 Y 837.660
G1 X1098.860 Y 837.660
G1 X 881.810 Y 679.970
G1 X 798.910 Y 424.810
G1 X 881.810 Y 169.650
G1 X1098.860 Y  11.960
G1 X1109.560 Y   4.180
G1 X1100.920 Y  -7.710
G1 X 855.200 Y  -0.530
G1 X 841.220 Y   4.010
G1 X 880.810 Y 125.870
G1 X 787.860 Y 193.410
G1 X 777.160 Y 201.180
G1 X 782.460 Y 255.000
G1 X 728.280 Y 269.150
G1 X 763.790 Y 312.450
G1 X 711.640 Y 292.050
G1 X 714.920 Y 347.960
G1 X 684.720 Y 300.800
G1 X 654.520 Y 347.960
G1 X 657.800 Y 292.050
G1 X 605.650 Y 312.450
G1 X 641.160 Y 269.150
G1 X 586.980 Y 255.000
G1 X 574.180 Y 251.660
G1 X 570.460 Y 265.880
G1 X 188.150 Y 240.690
G1 X 135.180 Y 299.380
G1 X 179.290 Y 348.250
G1 X 114.910 Y 334.480
G1 X  94.640 Y 397.120
G1 X  74.380 Y 334.480
G1 X  10.000 Y 348.250
G1 X  54.110 Y 299.380
G1 X  10.000 Y 250.510
G1 X  74.380 Y 264.280
G1 X  94.640 Y 201.640
G1 X 114.910 Y 264.280
G1 X 179.290 Y 250.510
G1 X 422.850 Y 288.140
G1 X 678.010 Y 371.050
G1 X 835.710 Y 588.100
G1 X 835.710 Y 856.390
G1 X 678.010 Y1073.440
G1 X 422.850 Y1156.340
G1 X 167.700 Y1073.440
G1 X  10.000 Y 856.390
G1 X  10.000 Y 588.100
G1 X 167.700 Y 371.050
G1 X 422.850 Y 288.140
G1 X 586.980 Y 255.000
G1 X 641.160 Y 240.850
G1 X 605.650 Y 197.550
G1 X 657.800 Y 217.950
G1 X 654.520 Y 162.040
G1 X 684.720 Y 209.200
G1 X 714.920 Y 162.040
G1 X 711.640 Y 217.950
G1 X 763.790 Y 197.550
G1 X 728.280 Y 240.850
G1 X 782.460 Y 255.000
G1 X 795.260 Y 258.340
G1 X 808.340 Y 208.280
G1 X 787.860 Y 193.410
G1 X 694.900 Y 125.870
G1 X 730.410 Y  16.590
G1 X 845.310 Y  16.590
G1 X1098.860 Y  11.960
G1 X1367.150 Y  11.960
G1 X1584.200 Y 169.650
G1 X1667.100 Y 424.810
G1 X1680.730 Y 466.750
G1 X2007.370 Y 223.540
G1 X2020.170 Y 220.190
G1 X2074.350 Y 206.040
G1 X2038.840 Y 162.740
G1 X2090.990 Y 183.140
G1 X2087.710 Y 127.240
G1 X2117.910 Y 174.390
G1 X2148.110 Y 127.240
G1 X2144.830 Y 183.140
G1 X2196.980 Y 162.740
G1 X2161.470 Y 206.040
G1 X2215.650 Y 220.190
G1 X2358.380 Y 484.010
G1 X2364.320 Y 488.330
G1 X2447.230 Y 743.490
G1 X2364.320 Y 998.650
G1 X2360.240 Y1011.230
G1 X2427.090 Y1066.590
G1 X2462.600 Y1175.870
G1 X2369.640 Y1243.410
G1 X2276.690 Y1175.870
F150
G1 Z   3.000
G0 Z  15.000 
M9 M5

(* SHAPE Nr: 40 *)
G0 X 947.160 Y1001.610
M3 M8
G0 Z   3.000 
G1 Z  -1.500
F400
G1 X 891.260 Y1004.890
G1 X 911.660 Y 952.740
G1 X 868.360 Y 988.260
G1 X 854.210 Y 934.070
G1 X 840.050 Y 988.260
G1 X 796.760 Y 952.740
G1 X 817.150 Y1004.890
G1 X 761.250 Y1001.610
G1 X 808.410 Y1031.810
G1 X 761.250 Y1062.020
G1 X 817.150 Y1058.730
G1 X 796.760 Y1110.890
G1 X 840.050 Y1075.370
G1 X 854.210 Y1129.550
G1 X 868.360 Y1075.370
G1 X 911.660 Y1110.890
G1 X 891.260 Y1058.730
G1 X 947.160 Y1062.020
G1 X 900.010 Y1031.810
G1 X 947.160 Y1001.610
G1 X1052.160 Y 934.360
G1 X1052.160 Y 841.280
G1 X 967.920 Y 841.280
G1 X 945.970 Y 773.740
G1 X 924.030 Y 841.280
G1 X 853.020 Y 841.280
G1 X 910.470 Y 883.020
G1 X 888.520 Y 950.560
G1 X 945.970 Y 908.820
G1 X1003.420 Y 950.560
G1 X1014.130 Y 958.340
G1 X1475.510 Y 844.650
G1 X1461.880 Y 886.590
G1 X1426.370 Y 995.870
G1 X1519.330 Y1063.410
G1 X1612.290 Y 995.870
G1 X1622.990 Y 988.090
G1 X1709.280 Y1101.490
G1 X1668.210 Y1117.550
G1 X1616.060 Y1137.950
G1 X1619.340 Y1082.040
G1 X1589.140 Y1129.200
G1 X1558.930 Y1082.040
G1 X1562.220 Y1137.950
G1 X1510.060 Y1117.550
G1 X1545.580 Y1160.850
G1 X1491.400 Y1175.000
G1 X1545.580 Y1189.150
G1 X1510.060 Y1232.450
G1 X1562.220 Y1212.050
G1 X1558.930 Y1267.960
G1 X1589.140 Y1220.800
G1 X1619.340 Y1267.960
G1 X1616.060 Y1212.050
G1 X1668.210 Y1232.450
G1 X1632.690 Y1189.150
G1 X1686.880 Y1175.000
G1 X1632.690 Y1160.850
G1 X1668.210 Y1117.550
G1 X1616.370 Y1008.450
G1 X1612.290 Y 995.870
G1 X1576.780 Y 886.590
G1 X1461.880 Y 886.590
G1 X1007.510 Y 963.140
G1 X1003.420 Y 950.560
G1 X 981.480 Y 883.020
G1 X1038.930 Y 841.280
F150
G1 Z  -3.000
F400
G1 X 981.480 Y 883.020
G1 X1003.420 Y 950.560
G1 X1007.510 Y 963.140
G1 X1461.880 Y 886.590
G1 X1576.780 Y 886.590
G1 X1612.290 Y 995.870
G1 X1616.370 Y1008.450
G1 X1668.210 Y1117.550
G1 X1632.690 Y1160.850
G1 X1686.880 Y1175.000
G1 X1632.690 Y1189.150
G1 X1668.210 Y1232.450
G1 X1616.060 Y1212.050
G1 X1619.340 Y1267.960
G1 X1589.140 Y1220.800
G1 X1558.930 Y1267.960
G1 X1562.220 Y1212.050
G1 X1510.060 Y1232.450
G1 X1545.580 Y1189.150
G1 X1491.400 Y1175.000
G1 X1545.580 Y1160.850
G1 X1510.060 Y1117.550
G1 X1562.220 Y1137.950
G1 X1558.930 Y1082.040
G1 X1589.140 Y1129.200
G1 X1619.340 Y1082.040
G1 X1616.060 Y1137.950
G1 X1668.210 Y1117.550
G1 X1709.280 Y1101.490
G1 X1622.990 Y 988.090
G1 X1612.290 Y 995.870
G1 X1519.330 Y1063.410
G1 X1426.370 Y 995.870
G1 X1461.880 Y 886.590
G1 X1475.510 Y 844.650
G1 X1014.130 Y 958.340
G1 X1003.420 Y 950.560
G1 X 945.970 Y 908.820
G1 X 888.520 Y 950.560
G1 X 910.470 Y 883.020
G1 X 853.020 Y 841.280
G1 X 924.030 Y 841.280
G1 X 945.970 Y 773.740
G1 X 967.920 Y 841.280
G1 X1052.160 Y 841.280
G1 X1052.160 Y 934.360
G1 X 947.160 Y1001.610
G1 X 900.010 Y1031.810
G1 X 947.160 Y1062.020
G1 X 891.260 Y1058.730
G1 X 911.660 Y1110.890
G1 X 868.360 Y1075.370
G1 X 854.210 Y1129.550
G1 X 840.050 Y1075.370
G1 X 796.760 Y1110.890
G1 X 817.150 Y1058.730
G1 X 761.250 Y1062.020
G1 X 808.410 Y1031.810
G1 X 761.250 Y1001.610
G1 X 817.150 Y1004.890
G1 X 796.760 Y 952.740
G1 X 840.050 Y 988.260
G1 X 854.210 Y 934.070
G1 X 868.360 Y 988.260
G1 X 911.660 Y 952.740
G1 X 891.260 Y1004.890
G1 X 947.160 Y1001.610
F150
G1 Z   3.000
G0 Z  15.000 
M9 M5

(* SHAPE Nr: 41 *)
G0 X1603.200 Y1870.710
M3 M8
G0 Z   3.000 
G1 Z  -1.500
F400
G1 X1616.960 Y1935.090
G1 X1554.330 Y1955.350
G1 X1616.960 Y1975.620
G1 X1603.200 Y2040.000
G1 X1652.070 Y1995.890
G1 X1700.940 Y2040.000
G1 X1687.170 Y1975.620
G1 X1749.810 Y1955.350
G1 X1687.170 Y1935.090
G1 X1700.940 Y1870.710
G1 X1652.070 Y1914.820
G1 X1603.200 Y1870.710
F150
G1 Z  -3.000
F400
G1 X1616.960 Y1935.090
G1 X1554.330 Y1955.350
G1 X1616.960 Y1975.620
G1 X1603.200 Y2040.000
G1 X1652.070 Y1995.890
G1 X1700.940 Y2040.000
G1 X1687.170 Y1975.620
G1 X1749.810 Y1955.350
G1 X1687.170 Y1935.090
G1 X1700.940 Y1870.710
G1 X1652.070 Y1914.820
G1 X1603.200 Y1870.710
F150
G1 Z   3.000
G0 Z  15.000 
M9 M5

(* SHAPE Nr: 42 *)
G0 X 762.770 Y1870.710
M3 M8
G0 Z   3.000 
G1 Z  -1.500
F400
G1 X 776.530 Y1935.090
G1 X 713.900 Y1955.350
G1 X 776.530 Y1975.620
G1 X 762.770 Y2040.000
G1 X 811.640 Y1995.890
G1 X 860.510 Y2040.000
G1 X 846.740 Y1975.620
G1 X 909.380 Y1955.350
G1 X 846.740 Y1935.090
G1 X 860.510 Y1870.710
G1 X 811.640 Y1914.820
G1 X 762.770 Y1870.710
F150
G1 Z  -3.000
F400
G1 X 776.530 Y1935.090
G1 X 713.900 Y1955.350
G1 X 776.530 Y1975.620
G1 X 762.770 Y2040.000
G1 X 811.640 Y1995.890
G1 X 860.510 Y2040.000
G1 X 846.740 Y1975.620
G1 X 909.380 Y1955.350
G1 X 846.740 Y1935.090
G1 X 860.510 Y1870.710
G1 X 811.640 Y1914.820
G1 X 762.770 Y1870.710
F150
G1 Z   3.000
G0 Z  15.000 
M9 M5
G0 X   0.000 Y   0.000
M2 (Program end)