(Generated with: DXF2GCODE, Version: REMOVED, Date: $Date$)
(Created from file: )
(Output format description: G-CODE for LinuxCNC)
(Time: Thu Sep 13 16:00:48 2018)
G21 (Units in millimeters)
G90 (Absolute programming)
G64 (Default cutting) G17 (XY plane) G40 (Cancel radius comp.) G49 (Cancel length comp.)
G0 Z  15.000 

(*** LAYER: FRAME_Z18 ***)
T1 M6
S6000

(* SHAPE Nr: 106 *)
G0 X   0.000 Y   0.000
M3 M8
G0 Z   3.000 
F150
G1 Z  -1.500
F400
G1 X   0.000 Y2050.000
G1 X2800.000 Y2050.000
G1 X2800.000 Y   0.000
G1 X   0.000 Y   0.000
F150
G1 Z  -3.000
F400
G1 X   0.000 Y2050.000
G1 X2800.000 Y2050.000
G1 X2800.000 Y   0.000
G1 X   0.000 Y   0.000
F150
G1 Z   3.000
G0 Z  15.000 
M9 M5

(*** LAYER: BORDER_D0_T132_RK1_A0_W0_EM1_RI1_ID0011 ***)

(* SHAPE Nr: 0 *)
G0 X  94.640 Y 212.170
M3 M8
G0 Z   3.000 
G1 Z  -1.500
F400
G1 X  66.430 Y 261.040
G1 X  10.000 Y 261.040
G1 X  38.220 Y 309.910
G1 X  10.000 Y 358.780
G1 X  66.430 Y 358.780
G1 X  94.640 Y 407.650
G1 X 122.860 Y 358.780
G1 X 179.280 Y 358.780
G1 X 151.080 Y 309.910
G1 X 179.280 Y 261.040
G1 X 122.860 Y 261.040
G1 X  94.640 Y 212.170
F150
G1 Z  -3.000
F400
G1 X  66.430 Y 261.040
G1 X  10.000 Y 261.040
G1 X  38.220 Y 309.910
G1 X  10.000 Y 358.780
G1 X  66.430 Y 358.780
G1 X  94.640 Y 407.650
G1 X 122.860 Y 358.780
G1 X 179.280 Y 358.780
G1 X 151.080 Y 309.910
G1 X 179.280 Y 261.040
G1 X 122.860 Y 261.040
G1 X  94.640 Y 212.170
F150
G1 Z   3.000
G0 Z  15.000 
M9 M5

(* SHAPE Nr: 12 *)
G0 X 572.920 Y1870.710
M3 M8
G0 Z   3.000 
G1 Z  -1.500
F400
G1 X 572.920 Y1927.140
G1 X 524.050 Y1955.350
G1 X 572.920 Y1983.570
G1 X 572.920 Y2040.000
G1 X 621.790 Y2011.790
G1 X 670.660 Y2040.000
G1 X 670.660 Y1983.570
G1 X 719.530 Y1955.350
G1 X 670.660 Y1927.140
G1 X 670.660 Y1870.710
G1 X 621.790 Y1898.930
G1 X 572.920 Y1870.710
F150
G1 Z  -3.000
F400
G1 X 572.920 Y1927.140
G1 X 524.050 Y1955.350
G1 X 572.920 Y1983.570
G1 X 572.920 Y2040.000
G1 X 621.790 Y2011.790
G1 X 670.660 Y2040.000
G1 X 670.660 Y1983.570
G1 X 719.530 Y1955.350
G1 X 670.660 Y1927.140
G1 X 670.660 Y1870.710
G1 X 621.790 Y1898.930
G1 X 572.920 Y1870.710
F150
G1 Z   3.000
G0 Z  15.000 
M9 M5

(* SHAPE Nr: 24 *)
G0 X2438.030 Y 924.730
M3 M8
G0 Z   3.000 
G1 Z  -1.500
F400
G1 X2466.250 Y 973.600
G1 X2438.030 Y1022.470
G1 X2494.460 Y1022.470
G1 X2522.670 Y1071.340
G1 X2550.890 Y1022.470
G1 X2607.310 Y1022.470
G1 X2579.110 Y 973.600
G1 X2607.310 Y 924.730
G1 X2550.890 Y 924.730
G1 X2522.670 Y 875.860
G1 X2494.460 Y 924.730
G1 X2438.030 Y 924.730
F150
G1 Z  -3.000
F400
G1 X2466.250 Y 973.600
G1 X2438.030 Y1022.470
G1 X2494.460 Y1022.470
G1 X2522.670 Y1071.340
G1 X2550.890 Y1022.470
G1 X2607.310 Y1022.470
G1 X2579.110 Y 973.600
G1 X2607.310 Y 924.730
G1 X2550.890 Y 924.730
G1 X2522.670 Y 875.860
G1 X2494.460 Y 924.730
G1 X2438.030 Y 924.730
F150
G1 Z   3.000
G0 Z  15.000 
M9 M5

(* SHAPE Nr: 25 *)
G0 X2435.460 Y 793.710
M3 M8
G0 Z   3.000 
G1 Z  -1.500
F400
G1 X2484.330 Y 821.930
G1 X2484.330 Y 878.360
G1 X2533.200 Y 850.150
G1 X2582.070 Y 878.360
G1 X2582.070 Y 821.930
G1 X2630.940 Y 793.710
G1 X2582.070 Y 765.500
G1 X2582.070 Y 709.070
G1 X2533.200 Y 737.290
G1 X2484.330 Y 709.070
G1 X2484.330 Y 765.500
G1 X2435.460 Y 793.710
F150
G1 Z  -3.000
F400
G1 X2484.330 Y 821.930
G1 X2484.330 Y 878.360
G1 X2533.200 Y 850.150
G1 X2582.070 Y 878.360
G1 X2582.070 Y 821.930
G1 X2630.940 Y 793.710
G1 X2582.070 Y 765.500
G1 X2582.070 Y 709.070
G1 X2533.200 Y 737.290
G1 X2484.330 Y 709.070
G1 X2484.330 Y 765.500
G1 X2435.460 Y 793.710
F150
G1 Z   3.000
G0 Z  15.000 
M9 M5

(* SHAPE Nr: 29 *)
G0 X2575.800 Y1442.810
M3 M8
G0 Z   3.000 
G1 Z  -1.500
F400
G1 X2604.020 Y1491.680
G1 X2575.800 Y1540.550
G1 X2632.230 Y1540.550
G1 X2660.440 Y1589.420
G1 X2688.660 Y1540.550
G1 X2745.080 Y1540.550
G1 X2716.880 Y1491.680
G1 X2745.080 Y1442.810
G1 X2688.660 Y1442.810
G1 X2660.440 Y1393.940
G1 X2632.230 Y1442.810
G1 X2575.800 Y1442.810
F150
G1 Z  -3.000
F400
G1 X2604.020 Y1491.680
G1 X2575.800 Y1540.550
G1 X2632.230 Y1540.550
G1 X2660.440 Y1589.420
G1 X2688.660 Y1540.550
G1 X2745.080 Y1540.550
G1 X2716.880 Y1491.680
G1 X2745.080 Y1442.810
G1 X2688.660 Y1442.810
G1 X2660.440 Y1393.940
G1 X2632.230 Y1442.810
G1 X2575.800 Y1442.810
F150
G1 Z   3.000
G0 Z  15.000 
M9 M5

(* SHAPE Nr: 48 *)
G0 X1845.380 Y 100.710
M3 M8
G0 Z   3.000 
G1 Z  -1.500
F400
G1 X1894.250 Y 128.930
G1 X1894.250 Y 185.360
G1 X1943.120 Y 157.150
G1 X1991.990 Y 185.360
G1 X1991.990 Y 128.930
G1 X2040.860 Y 100.710
G1 X1991.990 Y  72.500
G1 X1991.990 Y  16.070
G1 X1943.120 Y  44.290
G1 X1894.250 Y  16.070
G1 X1894.250 Y  72.500
G1 X1845.380 Y 100.710
F150
G1 Z  -3.000
F400
G1 X1894.250 Y 128.930
G1 X1894.250 Y 185.360
G1 X1943.120 Y 157.150
G1 X1991.990 Y 185.360
G1 X1991.990 Y 128.930
G1 X2040.860 Y 100.710
G1 X1991.990 Y  72.500
G1 X1991.990 Y  16.070
G1 X1943.120 Y  44.290
G1 X1894.250 Y  16.070
G1 X1894.250 Y  72.500
G1 X1845.380 Y 100.710
F150
G1 Z   3.000
G0 Z  15.000 
M9 M5

(*** LAYER: BORDER_D0_T132_RK1_A0_W0_EM1_RI1_ID0001 ***)

(* SHAPE Nr: 1 *)
G0 X 135.190 Y  77.140
M3 M8
G0 Z   3.000 
G1 Z  -1.500
F400
G1 X 155.590 Y 129.290
G1 X  99.690 Y 126.010
G1 X 146.840 Y 156.210
G1 X  99.690 Y 186.410
G1 X 155.590 Y 183.130
G1 X 135.190 Y 235.270
G1 X 178.490 Y 199.770
G1 X 192.640 Y 253.950
G1 X 206.800 Y 199.770
G1 X 250.090 Y 235.270
G1 X 229.700 Y 183.130
G1 X 285.600 Y 186.410
G1 X 238.440 Y 156.210
G1 X 285.600 Y 126.010
G1 X 229.700 Y 129.290
G1 X 250.090 Y  77.140
G1 X 206.800 Y 112.650
G1 X 192.640 Y  58.470
G1 X 178.490 Y 112.650
G1 X 135.190 Y  77.140
F150
G1 Z  -3.000
F400
G1 X 155.590 Y 129.290
G1 X  99.690 Y 126.010
G1 X 146.840 Y 156.210
G1 X  99.690 Y 186.410
G1 X 155.590 Y 183.130
G1 X 135.190 Y 235.270
G1 X 178.490 Y 199.770
G1 X 192.640 Y 253.950
G1 X 206.800 Y 199.770
G1 X 250.090 Y 235.270
G1 X 229.700 Y 183.130
G1 X 285.600 Y 186.410
G1 X 238.440 Y 156.210
G1 X 285.600 Y 126.010
G1 X 229.700 Y 129.290
G1 X 250.090 Y  77.140
G1 X 206.800 Y 112.650
G1 X 192.640 Y  58.470
G1 X 178.490 Y 112.650
G1 X 135.190 Y  77.140
F150
G1 Z   3.000
G0 Z  15.000 
M9 M5

(* SHAPE Nr: 3 *)
G0 X 460.770 Y 603.280
M3 M8
G0 Z   3.000 
G1 Z  -1.500
F400
G1 X 496.280 Y 646.570
G1 X 442.100 Y 660.730
G1 X 496.280 Y 674.880
G1 X 460.770 Y 718.180
G1 X 512.920 Y 697.780
G1 X 509.640 Y 753.680
G1 X 539.840 Y 706.530
G1 X 570.040 Y 753.680
G1 X 566.760 Y 697.780
G1 X 618.910 Y 718.180
G1 X 583.400 Y 674.880
G1 X 637.580 Y 660.730
G1 X 583.400 Y 646.570
G1 X 618.910 Y 603.280
G1 X 566.760 Y 623.670
G1 X 570.040 Y 567.770
G1 X 539.840 Y 614.930
G1 X 509.640 Y 567.770
G1 X 512.920 Y 623.670
G1 X 460.770 Y 603.280
F150
G1 Z  -3.000
F400
G1 X 496.280 Y 646.570
G1 X 442.100 Y 660.730
G1 X 496.280 Y 674.880
G1 X 460.770 Y 718.180
G1 X 512.920 Y 697.780
G1 X 509.640 Y 753.680
G1 X 539.840 Y 706.530
G1 X 570.040 Y 753.680
G1 X 566.760 Y 697.780
G1 X 618.910 Y 718.180
G1 X 583.400 Y 674.880
G1 X 637.580 Y 660.730
G1 X 583.400 Y 646.570
G1 X 618.910 Y 603.280
G1 X 566.760 Y 623.670
G1 X 570.040 Y 567.770
G1 X 539.840 Y 614.930
G1 X 509.640 Y 567.770
G1 X 512.920 Y 623.670
G1 X 460.770 Y 603.280
F150
G1 Z   3.000
G0 Z  15.000 
M9 M5

(* SHAPE Nr: 4 *)
G0 X 635.110 Y 582.560
M3 M8
G0 Z   3.000 
G1 Z  -1.500
F400
G1 X 670.620 Y 625.850
G1 X 616.440 Y 640.010
G1 X 670.620 Y 654.160
G1 X 635.110 Y 697.460
G1 X 687.260 Y 677.060
G1 X 683.980 Y 732.960
G1 X 714.180 Y 685.810
G1 X 744.380 Y 732.960
G1 X 741.100 Y 677.060
G1 X 793.250 Y 697.460
G1 X 757.740 Y 654.160
G1 X 811.920 Y 640.010
G1 X 757.740 Y 625.850
G1 X 793.250 Y 582.560
G1 X 741.100 Y 602.950
G1 X 744.380 Y 547.050
G1 X 714.180 Y 594.210
G1 X 683.980 Y 547.050
G1 X 687.260 Y 602.950
G1 X 635.110 Y 582.560
F150
G1 Z  -3.000
F400
G1 X 670.620 Y 625.850
G1 X 616.440 Y 640.010
G1 X 670.620 Y 654.160
G1 X 635.110 Y 697.460
G1 X 687.260 Y 677.060
G1 X 683.980 Y 732.960
G1 X 714.180 Y 685.810
G1 X 744.380 Y 732.960
G1 X 741.100 Y 677.060
G1 X 793.250 Y 697.460
G1 X 757.740 Y 654.160
G1 X 811.920 Y 640.010
G1 X 757.740 Y 625.850
G1 X 793.250 Y 582.560
G1 X 741.100 Y 602.950
G1 X 744.380 Y 547.050
G1 X 714.180 Y 594.210
G1 X 683.980 Y 547.050
G1 X 687.260 Y 602.950
G1 X 635.110 Y 582.560
F150
G1 Z   3.000
G0 Z  15.000 
M9 M5

(* SHAPE Nr: 5 *)
G0 X 830.740 Y 616.170
M3 M8
G0 Z   3.000 
G1 Z  -1.500
F400
G1 X 866.250 Y 659.460
G1 X 812.070 Y 673.620
G1 X 866.250 Y 687.770
G1 X 830.740 Y 731.070
G1 X 882.890 Y 710.670
G1 X 879.610 Y 766.570
G1 X 909.810 Y 719.420
G1 X 940.010 Y 766.570
G1 X 936.730 Y 710.670
G1 X 988.880 Y 731.070
G1 X 953.370 Y 687.770
G1 X1007.550 Y 673.620
G1 X 953.370 Y 659.460
G1 X 988.880 Y 616.170
G1 X 936.730 Y 636.560
G1 X 940.010 Y 580.660
G1 X 909.810 Y 627.820
G1 X 879.610 Y 580.660
G1 X 882.890 Y 636.560
G1 X 830.740 Y 616.170
F150
G1 Z  -3.000
F400
G1 X 866.250 Y 659.460
G1 X 812.070 Y 673.620
G1 X 866.250 Y 687.770
G1 X 830.740 Y 731.070
G1 X 882.890 Y 710.670
G1 X 879.610 Y 766.570
G1 X 909.810 Y 719.420
G1 X 940.010 Y 766.570
G1 X 936.730 Y 710.670
G1 X 988.880 Y 731.070
G1 X 953.370 Y 687.770
G1 X1007.550 Y 673.620
G1 X 953.370 Y 659.460
G1 X 988.880 Y 616.170
G1 X 936.730 Y 636.560
G1 X 940.010 Y 580.660
G1 X 909.810 Y 627.820
G1 X 879.610 Y 580.660
G1 X 882.890 Y 636.560
G1 X 830.740 Y 616.170
F150
G1 Z   3.000
G0 Z  15.000 
M9 M5

(* SHAPE Nr: 6 *)
G0 X 658.920 Y 942.560
M3 M8
G0 Z   3.000 
G1 Z  -1.500
F400
G1 X 694.430 Y 985.850
G1 X 640.250 Y1000.010
G1 X 694.430 Y1014.160
G1 X 658.920 Y1057.460
G1 X 711.070 Y1037.060
G1 X 707.790 Y1092.960
G1 X 737.990 Y1045.810
G1 X 768.190 Y1092.960
G1 X 764.910 Y1037.060
G1 X 817.060 Y1057.460
G1 X 781.550 Y1014.160
G1 X 835.730 Y1000.010
G1 X 781.550 Y 985.850
G1 X 817.060 Y 942.560
G1 X 764.910 Y 962.950
G1 X 768.190 Y 907.050
G1 X 737.990 Y 954.210
G1 X 707.790 Y 907.050
G1 X 711.070 Y 962.950
G1 X 658.920 Y 942.560
F150
G1 Z  -3.000
F400
G1 X 694.430 Y 985.850
G1 X 640.250 Y1000.010
G1 X 694.430 Y1014.160
G1 X 658.920 Y1057.460
G1 X 711.070 Y1037.060
G1 X 707.790 Y1092.960
G1 X 737.990 Y1045.810
G1 X 768.190 Y1092.960
G1 X 764.910 Y1037.060
G1 X 817.060 Y1057.460
G1 X 781.550 Y1014.160
G1 X 835.730 Y1000.010
G1 X 781.550 Y 985.850
G1 X 817.060 Y 942.560
G1 X 764.910 Y 962.950
G1 X 768.190 Y 907.050
G1 X 737.990 Y 954.210
G1 X 707.790 Y 907.050
G1 X 711.070 Y 962.950
G1 X 658.920 Y 942.560
F150
G1 Z   3.000
G0 Z  15.000 
M9 M5

(* SHAPE Nr: 7 *)
G0 X 608.830 Y1214.000
M3 M8
G0 Z   3.000 
G1 Z  -1.500
F400
G1 X 612.110 Y1269.900
G1 X 559.960 Y1249.510
G1 X 595.470 Y1292.800
G1 X 541.290 Y1306.960
G1 X 595.470 Y1321.110
G1 X 559.960 Y1364.410
G1 X 612.110 Y1344.010
G1 X 608.830 Y1399.910
G1 X 639.030 Y1352.760
G1 X 669.230 Y1399.910
G1 X 665.950 Y1344.010
G1 X 718.100 Y1364.410
G1 X 682.590 Y1321.110
G1 X 736.770 Y1306.960
G1 X 682.590 Y1292.800
G1 X 718.100 Y1249.510
G1 X 665.950 Y1269.900
G1 X 669.230 Y1214.000
G1 X 639.030 Y1261.160
G1 X 608.830 Y1214.000
F150
G1 Z  -3.000
F400
G1 X 612.110 Y1269.900
G1 X 559.960 Y1249.510
G1 X 595.470 Y1292.800
G1 X 541.290 Y1306.960
G1 X 595.470 Y1321.110
G1 X 559.960 Y1364.410
G1 X 612.110 Y1344.010
G1 X 608.830 Y1399.910
G1 X 639.030 Y1352.760
G1 X 669.230 Y1399.910
G1 X 665.950 Y1344.010
G1 X 718.100 Y1364.410
G1 X 682.590 Y1321.110
G1 X 736.770 Y1306.960
G1 X 682.590 Y1292.800
G1 X 718.100 Y1249.510
G1 X 665.950 Y1269.900
G1 X 669.230 Y1214.000
G1 X 639.030 Y1261.160
G1 X 608.830 Y1214.000
F150
G1 Z   3.000
G0 Z  15.000 
M9 M5

(* SHAPE Nr: 9 *)
G0 X 102.970 Y1557.820
M3 M8
G0 Z   3.000 
G1 Z  -1.500
F400
G1 X  88.810 Y1611.990
G1 X  45.520 Y1576.490
G1 X  65.910 Y1628.630
G1 X  10.010 Y1625.350
G1 X  57.170 Y1655.560
G1 X  10.010 Y1685.750
G1 X  65.910 Y1682.480
G1 X  45.520 Y1734.620
G1 X  88.810 Y1699.110
G1 X 102.970 Y1753.300
G1 X 117.120 Y1699.110
G1 X 160.420 Y1734.620
G1 X 140.020 Y1682.480
G1 X 195.920 Y1685.750
G1 X 148.770 Y1655.560
G1 X 195.920 Y1625.350
G1 X 140.020 Y1628.630
G1 X 160.420 Y1576.490
G1 X 117.120 Y1611.990
G1 X 102.970 Y1557.820
F150
G1 Z  -3.000
F400
G1 X  88.810 Y1611.990
G1 X  45.520 Y1576.490
G1 X  65.910 Y1628.630
G1 X  10.010 Y1625.350
G1 X  57.170 Y1655.560
G1 X  10.010 Y1685.750
G1 X  65.910 Y1682.480
G1 X  45.520 Y1734.620
G1 X  88.810 Y1699.110
G1 X 102.970 Y1753.300
G1 X 117.120 Y1699.110
G1 X 160.420 Y1734.620
G1 X 140.020 Y1682.480
G1 X 195.920 Y1685.750
G1 X 148.770 Y1655.560
G1 X 195.920 Y1625.350
G1 X 140.020 Y1628.630
G1 X 160.420 Y1576.490
G1 X 117.120 Y1611.990
G1 X 102.970 Y1557.820
F150
G1 Z   3.000
G0 Z  15.000 
M9 M5

(* SHAPE Nr: 10 *)
G0 X 102.970 Y1844.520
M3 M8
G0 Z   3.000 
G1 Z  -1.500
F400
G1 X  88.810 Y1898.690
G1 X  45.520 Y1863.190
G1 X  65.910 Y1915.330
G1 X  10.010 Y1912.050
G1 X  57.170 Y1942.260
G1 X  10.010 Y1972.450
G1 X  65.910 Y1969.180
G1 X  45.520 Y2021.320
G1 X  88.810 Y1985.810
G1 X 102.970 Y2040.000
G1 X 117.120 Y1985.810
G1 X 160.420 Y2021.320
G1 X 140.020 Y1969.180
G1 X 195.920 Y1972.450
G1 X 148.770 Y1942.260
G1 X 195.920 Y1912.050
G1 X 140.020 Y1915.330
G1 X 160.420 Y1863.190
G1 X 117.120 Y1898.690
G1 X 102.970 Y1844.520
F150
G1 Z  -3.000
F400
G1 X  88.810 Y1898.690
G1 X  45.520 Y1863.190
G1 X  65.910 Y1915.330
G1 X  10.010 Y1912.050
G1 X  57.170 Y1942.260
G1 X  10.010 Y1972.450
G1 X  65.910 Y1969.180
G1 X  45.520 Y2021.320
G1 X  88.810 Y1985.810
G1 X 102.970 Y2040.000
G1 X 117.120 Y1985.810
G1 X 160.420 Y2021.320
G1 X 140.020 Y1969.180
G1 X 195.920 Y1972.450
G1 X 148.770 Y1942.260
G1 X 195.920 Y1912.050
G1 X 140.020 Y1915.330
G1 X 160.420 Y1863.190
G1 X 117.120 Y1898.690
G1 X 102.970 Y1844.520
F150
G1 Z   3.000
G0 Z  15.000 
M9 M5

(* SHAPE Nr: 11 *)
G0 X 253.050 Y1852.050
M3 M8
G0 Z   3.000 
G1 Z  -1.500
F400
G1 X 256.330 Y1907.950
G1 X 204.180 Y1887.560
G1 X 239.690 Y1930.850
G1 X 185.510 Y1945.010
G1 X 239.690 Y1959.160
G1 X 204.180 Y2002.460
G1 X 256.330 Y1982.060
G1 X 253.050 Y2037.960
G1 X 283.250 Y1990.810
G1 X 313.450 Y2037.960
G1 X 310.170 Y1982.060
G1 X 362.320 Y2002.460
G1 X 326.810 Y1959.160
G1 X 380.990 Y1945.010
G1 X 326.810 Y1930.850
G1 X 362.320 Y1887.560
G1 X 310.170 Y1907.950
G1 X 313.450 Y1852.050
G1 X 283.250 Y1899.210
G1 X 253.050 Y1852.050
F150
G1 Z  -3.000
F400
G1 X 256.330 Y1907.950
G1 X 204.180 Y1887.560
G1 X 239.690 Y1930.850
G1 X 185.510 Y1945.010
G1 X 239.690 Y1959.160
G1 X 204.180 Y2002.460
G1 X 256.330 Y1982.060
G1 X 253.050 Y2037.960
G1 X 283.250 Y1990.810
G1 X 313.450 Y2037.960
G1 X 310.170 Y1982.060
G1 X 362.320 Y2002.460
G1 X 326.810 Y1959.160
G1 X 380.990 Y1945.010
G1 X 326.810 Y1930.850
G1 X 362.320 Y1887.560
G1 X 310.170 Y1907.950
G1 X 313.450 Y1852.050
G1 X 283.250 Y1899.210
G1 X 253.050 Y1852.050
F150
G1 Z   3.000
G0 Z  15.000 
M9 M5

(* SHAPE Nr: 13 *)
G0 X 801.780 Y1854.090
M3 M8
G0 Z   3.000 
G1 Z  -1.500
F400
G1 X 805.060 Y1909.990
G1 X 752.910 Y1889.600
G1 X 788.420 Y1932.890
G1 X 734.240 Y1947.050
G1 X 788.420 Y1961.200
G1 X 752.910 Y2004.500
G1 X 805.060 Y1984.100
G1 X 801.780 Y2040.000
G1 X 831.980 Y1992.850
G1 X 862.180 Y2040.000
G1 X 858.900 Y1984.100
G1 X 911.050 Y2004.500
G1 X 875.540 Y1961.200
G1 X 929.720 Y1947.050
G1 X 875.540 Y1932.890
G1 X 911.050 Y1889.600
G1 X 858.900 Y1909.990
G1 X 862.180 Y1854.090
G1 X 831.980 Y1901.250
G1 X 801.780 Y1854.090
F150
G1 Z  -3.000
F400
G1 X 805.060 Y1909.990
G1 X 752.910 Y1889.600
G1 X 788.420 Y1932.890
G1 X 734.240 Y1947.050
G1 X 788.420 Y1961.200
G1 X 752.910 Y2004.500
G1 X 805.060 Y1984.100
G1 X 801.780 Y2040.000
G1 X 831.980 Y1992.850
G1 X 862.180 Y2040.000
G1 X 858.900 Y1984.100
G1 X 911.050 Y2004.500
G1 X 875.540 Y1961.200
G1 X 929.720 Y1947.050
G1 X 875.540 Y1932.890
G1 X 911.050 Y1889.600
G1 X 858.900 Y1909.990
G1 X 862.180 Y1854.090
G1 X 831.980 Y1901.250
G1 X 801.780 Y1854.090
F150
G1 Z   3.000
G0 Z  15.000 
M9 M5

(* SHAPE Nr: 14 *)
G0 X 973.380 Y1832.650
M3 M8
G0 Z   3.000 
G1 Z  -1.500
F400
G1 X 976.660 Y1888.550
G1 X 924.510 Y1868.160
G1 X 960.020 Y1911.450
G1 X 905.840 Y1925.610
G1 X 960.020 Y1939.760
G1 X 924.510 Y1983.060
G1 X 976.660 Y1962.660
G1 X 973.380 Y2018.560
G1 X1003.580 Y1971.410
G1 X1033.780 Y2018.560
G1 X1030.500 Y1962.660
G1 X1082.650 Y1983.060
G1 X1047.140 Y1939.760
G1 X1101.320 Y1925.610
G1 X1047.140 Y1911.450
G1 X1082.650 Y1868.160
G1 X1030.500 Y1888.550
G1 X1033.780 Y1832.650
G1 X1003.580 Y1879.810
G1 X 973.380 Y1832.650
F150
G1 Z  -3.000
F400
G1 X 976.660 Y1888.550
G1 X 924.510 Y1868.160
G1 X 960.020 Y1911.450
G1 X 905.840 Y1925.610
G1 X 960.020 Y1939.760
G1 X 924.510 Y1983.060
G1 X 976.660 Y1962.660
G1 X 973.380 Y2018.560
G1 X1003.580 Y1971.410
G1 X1033.780 Y2018.560
G1 X1030.500 Y1962.660
G1 X1082.650 Y1983.060
G1 X1047.140 Y1939.760
G1 X1101.320 Y1925.610
G1 X1047.140 Y1911.450
G1 X1082.650 Y1868.160
G1 X1030.500 Y1888.550
G1 X1033.780 Y1832.650
G1 X1003.580 Y1879.810
G1 X 973.380 Y1832.650
F150
G1 Z   3.000
G0 Z  15.000 
M9 M5

(* SHAPE Nr: 17 *)
G0 X1514.250 Y1562.550
M3 M8
G0 Z   3.000 
G1 Z  -1.500
F400
G1 X1549.760 Y1605.840
G1 X1495.580 Y1620.000
G1 X1549.760 Y1634.150
G1 X1514.250 Y1677.450
G1 X1566.400 Y1657.050
G1 X1563.120 Y1712.950
G1 X1593.320 Y1665.800
G1 X1623.520 Y1712.950
G1 X1620.240 Y1657.050
G1 X1672.390 Y1677.450
G1 X1636.880 Y1634.150
G1 X1691.060 Y1620.000
G1 X1636.880 Y1605.840
G1 X1672.390 Y1562.550
G1 X1620.240 Y1582.940
G1 X1623.520 Y1527.040
G1 X1593.320 Y1574.200
G1 X1563.120 Y1527.040
G1 X1566.400 Y1582.940
G1 X1514.250 Y1562.550
F150
G1 Z  -3.000
F400
G1 X1549.760 Y1605.840
G1 X1495.580 Y1620.000
G1 X1549.760 Y1634.150
G1 X1514.250 Y1677.450
G1 X1566.400 Y1657.050
G1 X1563.120 Y1712.950
G1 X1593.320 Y1665.800
G1 X1623.520 Y1712.950
G1 X1620.240 Y1657.050
G1 X1672.390 Y1677.450
G1 X1636.880 Y1634.150
G1 X1691.060 Y1620.000
G1 X1636.880 Y1605.840
G1 X1672.390 Y1562.550
G1 X1620.240 Y1582.940
G1 X1623.520 Y1527.040
G1 X1593.320 Y1574.200
G1 X1563.120 Y1527.040
G1 X1566.400 Y1582.940
G1 X1514.250 Y1562.550
F150
G1 Z   3.000
G0 Z  15.000 
M9 M5

(* SHAPE Nr: 27 *)
G0 X2182.860 Y 927.560
M3 M8
G0 Z   3.000 
G1 Z  -1.500
F400
G1 X2218.370 Y 970.850
G1 X2164.190 Y 985.010
G1 X2218.370 Y 999.160
G1 X2182.860 Y1042.460
G1 X2235.010 Y1022.060
G1 X2231.730 Y1077.960
G1 X2261.930 Y1030.810
G1 X2292.130 Y1077.960
G1 X2288.850 Y1022.060
G1 X2341.000 Y1042.460
G1 X2305.490 Y 999.160
G1 X2359.670 Y 985.010
G1 X2305.490 Y 970.850
G1 X2341.000 Y 927.560
G1 X2288.850 Y 947.950
G1 X2292.130 Y 892.050
G1 X2261.930 Y 939.210
G1 X2231.730 Y 892.050
G1 X2235.010 Y 947.950
G1 X2182.860 Y 927.560
F150
G1 Z  -3.000
F400
G1 X2218.370 Y 970.850
G1 X2164.190 Y 985.010
G1 X2218.370 Y 999.160
G1 X2182.860 Y1042.460
G1 X2235.010 Y1022.060
G1 X2231.730 Y1077.960
G1 X2261.930 Y1030.810
G1 X2292.130 Y1077.960
G1 X2288.850 Y1022.060
G1 X2341.000 Y1042.460
G1 X2305.490 Y 999.160
G1 X2359.670 Y 985.010
G1 X2305.490 Y 970.850
G1 X2341.000 Y 927.560
G1 X2288.850 Y 947.950
G1 X2292.130 Y 892.050
G1 X2261.930 Y 939.210
G1 X2231.730 Y 892.050
G1 X2235.010 Y 947.950
G1 X2182.860 Y 927.560
F150
G1 Z   3.000
G0 Z  15.000 
M9 M5

(* SHAPE Nr: 28 *)
G0 X2332.600 Y1100.430
M3 M8
G0 Z   3.000 
G1 Z  -1.500
F400
G1 X2379.760 Y1130.640
G1 X2332.600 Y1160.830
G1 X2388.500 Y1157.560
G1 X2368.110 Y1209.700
G1 X2411.400 Y1174.190
G1 X2425.560 Y1228.380
G1 X2439.710 Y1174.190
G1 X2483.010 Y1209.700
G1 X2462.610 Y1157.560
G1 X2518.510 Y1160.830
G1 X2471.360 Y1130.640
G1 X2518.510 Y1100.430
G1 X2462.610 Y1103.710
G1 X2483.010 Y1051.570
G1 X2439.710 Y1087.070
G1 X2425.560 Y1032.900
G1 X2411.400 Y1087.070
G1 X2368.110 Y1051.570
G1 X2388.500 Y1103.710
G1 X2332.600 Y1100.430
F150
G1 Z  -3.000
F400
G1 X2379.760 Y1130.640
G1 X2332.600 Y1160.830
G1 X2388.500 Y1157.560
G1 X2368.110 Y1209.700
G1 X2411.400 Y1174.190
G1 X2425.560 Y1228.380
G1 X2439.710 Y1174.190
G1 X2483.010 Y1209.700
G1 X2462.610 Y1157.560
G1 X2518.510 Y1160.830
G1 X2471.360 Y1130.640
G1 X2518.510 Y1100.430
G1 X2462.610 Y1103.710
G1 X2483.010 Y1051.570
G1 X2439.710 Y1087.070
G1 X2425.560 Y1032.900
G1 X2411.400 Y1087.070
G1 X2368.110 Y1051.570
G1 X2388.500 Y1103.710
G1 X2332.600 Y1100.430
F150
G1 Z   3.000
G0 Z  15.000 
M9 M5

(* SHAPE Nr: 31 *)
G0 X2084.890 Y1889.600
M3 M8
G0 Z   3.000 
G1 Z  -1.500
F400
G1 X2120.400 Y1932.890
G1 X2066.220 Y1947.050
G1 X2120.400 Y1961.200
G1 X2084.890 Y2004.500
G1 X2137.040 Y1984.100
G1 X2133.760 Y2040.000
G1 X2163.960 Y1992.850
G1 X2194.160 Y2040.000
G1 X2190.880 Y1984.100
G1 X2243.030 Y2004.500
G1 X2207.520 Y1961.200
G1 X2261.700 Y1947.050
G1 X2207.520 Y1932.890
G1 X2243.030 Y1889.600
G1 X2190.880 Y1909.990
G1 X2194.160 Y1854.090
G1 X2163.960 Y1901.250
G1 X2133.760 Y1854.090
G1 X2137.040 Y1909.990
G1 X2084.890 Y1889.600
F150
G1 Z  -3.000
F400
G1 X2120.400 Y1932.890
G1 X2066.220 Y1947.050
G1 X2120.400 Y1961.200
G1 X2084.890 Y2004.500
G1 X2137.040 Y1984.100
G1 X2133.760 Y2040.000
G1 X2163.960 Y1992.850
G1 X2194.160 Y2040.000
G1 X2190.880 Y1984.100
G1 X2243.030 Y2004.500
G1 X2207.520 Y1961.200
G1 X2261.700 Y1947.050
G1 X2207.520 Y1932.890
G1 X2243.030 Y1889.600
G1 X2190.880 Y1909.990
G1 X2194.160 Y1854.090
G1 X2163.960 Y1901.250
G1 X2133.760 Y1854.090
G1 X2137.040 Y1909.990
G1 X2084.890 Y1889.600
F150
G1 Z   3.000
G0 Z  15.000 
M9 M5

(* SHAPE Nr: 36 *)
G0 X 789.500 Y1522.040
M3 M8
G0 Z   3.000 
G1 Z  -1.500
F400
G1 X 792.780 Y1577.940
G1 X 740.630 Y1557.550
G1 X 776.140 Y1600.840
G1 X 721.960 Y1615.000
G1 X 776.140 Y1629.150
G1 X 740.630 Y1672.450
G1 X 792.780 Y1652.050
G1 X 789.500 Y1707.950
G1 X 819.700 Y1660.800
G1 X 849.900 Y1707.950
G1 X 846.620 Y1652.050
G1 X 898.770 Y1672.450
G1 X 863.260 Y1629.150
G1 X 917.440 Y1615.000
G1 X 863.260 Y1600.840
G1 X 898.770 Y1557.550
G1 X 846.620 Y1577.940
G1 X 849.900 Y1522.040
G1 X 819.700 Y1569.200
G1 X 789.500 Y1522.040
F150
G1 Z  -3.000
F400
G1 X 792.780 Y1577.940
G1 X 740.630 Y1557.550
G1 X 776.140 Y1600.840
G1 X 721.960 Y1615.000
G1 X 776.140 Y1629.150
G1 X 740.630 Y1672.450
G1 X 792.780 Y1652.050
G1 X 789.500 Y1707.950
G1 X 819.700 Y1660.800
G1 X 849.900 Y1707.950
G1 X 846.620 Y1652.050
G1 X 898.770 Y1672.450
G1 X 863.260 Y1629.150
G1 X 917.440 Y1615.000
G1 X 863.260 Y1600.840
G1 X 898.770 Y1557.550
G1 X 846.620 Y1577.940
G1 X 849.900 Y1522.040
G1 X 819.700 Y1569.200
G1 X 789.500 Y1522.040
F150
G1 Z   3.000
G0 Z  15.000 
M9 M5

(* SHAPE Nr: 37 *)
G0 X1409.730 Y 922.560
M3 M8
G0 Z   3.000 
G1 Z  -1.500
F400
G1 X1445.240 Y 965.850
G1 X1391.060 Y 980.010
G1 X1445.240 Y 994.160
G1 X1409.730 Y1037.460
G1 X1461.880 Y1017.060
G1 X1458.600 Y1072.960
G1 X1488.800 Y1025.810
G1 X1519.000 Y1072.960
G1 X1515.720 Y1017.060
G1 X1567.870 Y1037.460
G1 X1532.360 Y 994.160
G1 X1586.540 Y 980.010
G1 X1532.360 Y 965.850
G1 X1567.870 Y 922.560
G1 X1515.720 Y 942.950
G1 X1519.000 Y 887.050
G1 X1488.800 Y 934.210
G1 X1458.600 Y 887.050
G1 X1461.880 Y 942.950
G1 X1409.730 Y 922.560
F150
G1 Z  -3.000
F400
G1 X1445.240 Y 965.850
G1 X1391.060 Y 980.010
G1 X1445.240 Y 994.160
G1 X1409.730 Y1037.460
G1 X1461.880 Y1017.060
G1 X1458.600 Y1072.960
G1 X1488.800 Y1025.810
G1 X1519.000 Y1072.960
G1 X1515.720 Y1017.060
G1 X1567.870 Y1037.460
G1 X1532.360 Y 994.160
G1 X1586.540 Y 980.010
G1 X1532.360 Y 965.850
G1 X1567.870 Y 922.560
G1 X1515.720 Y 942.950
G1 X1519.000 Y 887.050
G1 X1488.800 Y 934.210
G1 X1458.600 Y 887.050
G1 X1461.880 Y 942.950
G1 X1409.730 Y 922.560
F150
G1 Z   3.000
G0 Z  15.000 
M9 M5

(* SHAPE Nr: 38 *)
G0 X1603.310 Y 617.560
M3 M8
G0 Z   3.000 
G1 Z  -1.500
F400
G1 X1638.820 Y 660.850
G1 X1584.640 Y 675.010
G1 X1638.820 Y 689.160
G1 X1603.310 Y 732.460
G1 X1655.460 Y 712.060
G1 X1652.180 Y 767.960
G1 X1682.380 Y 720.810
G1 X1712.580 Y 767.960
G1 X1709.300 Y 712.060
G1 X1761.450 Y 732.460
G1 X1725.940 Y 689.160
G1 X1780.120 Y 675.010
G1 X1725.940 Y 660.850
G1 X1761.450 Y 617.560
G1 X1709.300 Y 637.950
G1 X1712.580 Y 582.050
G1 X1682.380 Y 629.210
G1 X1652.180 Y 582.050
G1 X1655.460 Y 637.950
G1 X1603.310 Y 617.560
F150
G1 Z  -3.000
F400
G1 X1638.820 Y 660.850
G1 X1584.640 Y 675.010
G1 X1638.820 Y 689.160
G1 X1603.310 Y 732.460
G1 X1655.460 Y 712.060
G1 X1652.180 Y 767.960
G1 X1682.380 Y 720.810
G1 X1712.580 Y 767.960
G1 X1709.300 Y 712.060
G1 X1761.450 Y 732.460
G1 X1725.940 Y 689.160
G1 X1780.120 Y 675.010
G1 X1725.940 Y 660.850
G1 X1761.450 Y 617.560
G1 X1709.300 Y 637.950
G1 X1712.580 Y 582.050
G1 X1682.380 Y 629.210
G1 X1652.180 Y 582.050
G1 X1655.460 Y 637.950
G1 X1603.310 Y 617.560
F150
G1 Z   3.000
G0 Z  15.000 
M9 M5

(* SHAPE Nr: 41 *)
G0 X1483.770 Y 130.010
M3 M8
G0 Z   3.000 
G1 Z  -1.500
F400
G1 X1537.950 Y 144.160
G1 X1502.440 Y 187.460
G1 X1554.590 Y 167.060
G1 X1551.310 Y 222.960
G1 X1581.510 Y 175.810
G1 X1611.710 Y 222.960
G1 X1608.430 Y 167.060
G1 X1660.580 Y 187.460
G1 X1625.070 Y 144.160
G1 X1679.250 Y 130.010
G1 X1625.070 Y 115.850
G1 X1660.580 Y  72.560
G1 X1608.430 Y  92.950
G1 X1611.710 Y  37.050
G1 X1581.510 Y  84.210
G1 X1551.310 Y  37.050
G1 X1554.590 Y  92.950
G1 X1502.440 Y  72.560
G1 X1537.950 Y 115.850
G1 X1483.770 Y 130.010
F150
G1 Z  -3.000
F400
G1 X1537.950 Y 144.160
G1 X1502.440 Y 187.460
G1 X1554.590 Y 167.060
G1 X1551.310 Y 222.960
G1 X1581.510 Y 175.810
G1 X1611.710 Y 222.960
G1 X1608.430 Y 167.060
G1 X1660.580 Y 187.460
G1 X1625.070 Y 144.160
G1 X1679.250 Y 130.010
G1 X1625.070 Y 115.850
G1 X1660.580 Y  72.560
G1 X1608.430 Y  92.950
G1 X1611.710 Y  37.050
G1 X1581.510 Y  84.210
G1 X1551.310 Y  37.050
G1 X1554.590 Y  92.950
G1 X1502.440 Y  72.560
G1 X1537.950 Y 115.850
G1 X1483.770 Y 130.010
F150
G1 Z   3.000
G0 Z  15.000 
M9 M5

(* SHAPE Nr: 42 *)
G0 X1311.590 Y  99.190
M3 M8
G0 Z   3.000 
G1 Z  -1.500
F400
G1 X1358.750 Y 129.400
G1 X1311.590 Y 159.590
G1 X1367.490 Y 156.320
G1 X1347.100 Y 208.460
G1 X1390.390 Y 172.950
G1 X1404.550 Y 227.140
G1 X1418.700 Y 172.950
G1 X1462.000 Y 208.460
G1 X1441.600 Y 156.320
G1 X1497.500 Y 159.590
G1 X1450.350 Y 129.400
G1 X1497.500 Y  99.190
G1 X1441.600 Y 102.470
G1 X1462.000 Y  50.330
G1 X1418.700 Y  85.830
G1 X1404.550 Y  31.660
G1 X1390.390 Y  85.830
G1 X1347.100 Y  50.330
G1 X1367.490 Y 102.470
G1 X1311.590 Y  99.190
F150
G1 Z  -3.000
F400
G1 X1358.750 Y 129.400
G1 X1311.590 Y 159.590
G1 X1367.490 Y 156.320
G1 X1347.100 Y 208.460
G1 X1390.390 Y 172.950
G1 X1404.550 Y 227.140
G1 X1418.700 Y 172.950
G1 X1462.000 Y 208.460
G1 X1441.600 Y 156.320
G1 X1497.500 Y 159.590
G1 X1450.350 Y 129.400
G1 X1497.500 Y  99.190
G1 X1441.600 Y 102.470
G1 X1462.000 Y  50.330
G1 X1418.700 Y  85.830
G1 X1404.550 Y  31.660
G1 X1390.390 Y  85.830
G1 X1347.100 Y  50.330
G1 X1367.490 Y 102.470
G1 X1311.590 Y  99.190
F150
G1 Z   3.000
G0 Z  15.000 
M9 M5

(*** LAYER: BORDER_D0_T132_RK1_A0_W0_EM1_RI1_ID0010 ***)

(* SHAPE Nr: 2 *)
G0 X 385.940 Y 544.000
M3 M8
G0 Z   3.000 
G1 Z  -1.500
F400
G1 X 295.930 Y 822.200
G1 X  10.000 Y 761.050
G1 X 205.930 Y 978.100
G1 X  10.000 Y1195.150
G1 X 295.930 Y1134.000
G1 X 385.940 Y1412.200
G1 X 475.950 Y1134.000
G1 X 761.880 Y1195.150
G1 X 565.960 Y 978.100
G1 X 761.880 Y 761.050
G1 X 475.950 Y 822.200
G1 X 385.940 Y 544.000
F150
G1 Z  -3.000
F400
G1 X 295.930 Y 822.200
G1 X  10.000 Y 761.050
G1 X 205.930 Y 978.100
G1 X  10.000 Y1195.150
G1 X 295.930 Y1134.000
G1 X 385.940 Y1412.200
G1 X 475.950 Y1134.000
G1 X 761.880 Y1195.150
G1 X 565.960 Y 978.100
G1 X 761.880 Y 761.050
G1 X 475.950 Y 822.200
G1 X 385.940 Y 544.000
F150
G1 Z   3.000
G0 Z  15.000 
M9 M5

(* SHAPE Nr: 8 *)
G0 X 479.190 Y1171.800
M3 M8
G0 Z   3.000 
G1 Z  -1.500
F400
G1 X 389.180 Y1450.000
G1 X 103.250 Y1388.850
G1 X 299.180 Y1605.900
G1 X 103.250 Y1822.950
G1 X 389.180 Y1761.800
G1 X 479.190 Y2040.000
G1 X 569.200 Y1761.800
G1 X 855.130 Y1822.950
G1 X 659.210 Y1605.900
G1 X 855.130 Y1388.850
G1 X 569.200 Y1450.000
G1 X 479.190 Y1171.800
F150
G1 Z  -3.000
F400
G1 X 389.180 Y1450.000
G1 X 103.250 Y1388.850
G1 X 299.180 Y1605.900
G1 X 103.250 Y1822.950
G1 X 389.180 Y1761.800
G1 X 479.190 Y2040.000
G1 X 569.200 Y1761.800
G1 X 855.130 Y1822.950
G1 X 659.210 Y1605.900
G1 X 855.130 Y1388.850
G1 X 569.200 Y1450.000
G1 X 479.190 Y1171.800
F150
G1 Z   3.000
G0 Z  15.000 
M9 M5

(* SHAPE Nr: 15 *)
G0 X 872.340 Y1388.850
M3 M8
G0 Z   3.000 
G1 Z  -1.500
F400
G1 X1068.260 Y1605.900
G1 X 872.340 Y1822.950
G1 X1158.270 Y1761.800
G1 X1248.280 Y2040.000
G1 X1338.290 Y1761.800
G1 X1624.220 Y1822.950
G1 X1428.290 Y1605.900
G1 X1624.220 Y1388.850
G1 X1338.290 Y1450.000
G1 X1248.280 Y1171.800
G1 X1158.270 Y1450.000
G1 X 872.340 Y1388.850
F150
G1 Z  -3.000
F400
G1 X1068.260 Y1605.900
G1 X 872.340 Y1822.950
G1 X1158.270 Y1761.800
G1 X1248.280 Y2040.000
G1 X1338.290 Y1761.800
G1 X1624.220 Y1822.950
G1 X1428.290 Y1605.900
G1 X1624.220 Y1388.850
G1 X1338.290 Y1450.000
G1 X1248.280 Y1171.800
G1 X1158.270 Y1450.000
G1 X 872.340 Y1388.850
F150
G1 Z   3.000
G0 Z  15.000 
M9 M5

(* SHAPE Nr: 18 *)
G0 X1548.240 Y 761.890
M3 M8
G0 Z   3.000 
G1 Z  -1.500
F400
G1 X1744.160 Y 978.940
G1 X1548.240 Y1195.990
G1 X1834.170 Y1134.840
G1 X1924.180 Y1413.040
G1 X2014.190 Y1134.840
G1 X2300.120 Y1195.990
G1 X2104.190 Y 978.940
G1 X2300.120 Y 761.890
G1 X2014.190 Y 823.040
G1 X1924.180 Y 544.840
G1 X1834.170 Y 823.040
G1 X1548.240 Y 761.890
F150
G1 Z  -3.000
F400
G1 X1744.160 Y 978.940
G1 X1548.240 Y1195.990
G1 X1834.170 Y1134.840
G1 X1924.180 Y1413.040
G1 X2014.190 Y1134.840
G1 X2300.120 Y1195.990
G1 X2104.190 Y 978.940
G1 X2300.120 Y 761.890
G1 X2014.190 Y 823.040
G1 X1924.180 Y 544.840
G1 X1834.170 Y 823.040
G1 X1548.240 Y 761.890
F150
G1 Z   3.000
G0 Z  15.000 
M9 M5

(* SHAPE Nr: 32 *)
G0 X1641.790 Y1388.850
M3 M8
G0 Z   3.000 
G1 Z  -1.500
F400
G1 X1837.710 Y1605.900
G1 X1641.790 Y1822.950
G1 X1927.720 Y1761.800
G1 X2017.730 Y2040.000
G1 X2107.740 Y1761.800
G1 X2393.670 Y1822.950
G1 X2197.740 Y1605.900
G1 X2393.670 Y1388.850
G1 X2107.740 Y1450.000
G1 X2017.730 Y1171.800
G1 X1927.720 Y1450.000
G1 X1641.790 Y1388.850
F150
G1 Z  -3.000
F400
G1 X1837.710 Y1605.900
G1 X1641.790 Y1822.950
G1 X1927.720 Y1761.800
G1 X2017.730 Y2040.000
G1 X2107.740 Y1761.800
G1 X2393.670 Y1822.950
G1 X2197.740 Y1605.900
G1 X2393.670 Y1388.850
G1 X2107.740 Y1450.000
G1 X2017.730 Y1171.800
G1 X1927.720 Y1450.000
G1 X1641.790 Y1388.850
F150
G1 Z   3.000
G0 Z  15.000 
M9 M5

(* SHAPE Nr: 35 *)
G0 X 778.970 Y 761.200
M3 M8
G0 Z   3.000 
G1 Z  -1.500
F400
G1 X 974.890 Y 978.250
G1 X 778.970 Y1195.300
G1 X1064.900 Y1134.150
G1 X1154.910 Y1412.350
G1 X1244.920 Y1134.150
G1 X1530.850 Y1195.300
G1 X1334.920 Y 978.250
G1 X1530.850 Y 761.200
G1 X1244.920 Y 822.350
G1 X1154.910 Y 544.150
G1 X1064.900 Y 822.350
G1 X 778.970 Y 761.200
F150
G1 Z  -3.000
F400
G1 X 974.890 Y 978.250
G1 X 778.970 Y1195.300
G1 X1064.900 Y1134.150
G1 X1154.910 Y1412.350
G1 X1244.920 Y1134.150
G1 X1530.850 Y1195.300
G1 X1334.920 Y 978.250
G1 X1530.850 Y 761.200
G1 X1244.920 Y 822.350
G1 X1154.910 Y 544.150
G1 X1064.900 Y 822.350
G1 X 778.970 Y 761.200
F150
G1 Z   3.000
G0 Z  15.000 
M9 M5

(*** LAYER: BORDER_D0_T132_RK1_A0_W0_EM1_RI1_ID0015 ***)

(* SHAPE Nr: 16 *)
G0 X1319.360 Y1877.100
M3 M8
G0 Z   3.000 
G1 Z  -1.500
F400
G1 X1319.360 Y1942.260
G1 X1319.360 Y2007.420
G1 X1442.330 Y2040.000
G1 X1811.240 Y1991.130
G1 X1749.750 Y1971.580
G1 X1749.750 Y1912.940
G1 X1811.240 Y1893.390
G1 X1442.330 Y1844.520
G1 X1319.360 Y1877.100
F150
G1 Z  -3.000
F400
G1 X1319.360 Y1942.260
G1 X1319.360 Y2007.420
G1 X1442.330 Y2040.000
G1 X1811.240 Y1991.130
G1 X1749.750 Y1971.580
G1 X1749.750 Y1912.940
G1 X1811.240 Y1893.390
G1 X1442.330 Y1844.520
G1 X1319.360 Y1877.100
F150
G1 Z   3.000
G0 Z  15.000 
M9 M5

(*** LAYER: BORDER_D0_T132_RK1_A0_W0_EM1_RI1_ID0007 ***)

(* SHAPE Nr: 19 *)
G0 X2063.490 Y1254.120
M3 M8
G0 Z   3.000 
G1 Z  -1.500
F400
G1 X2120.940 Y1295.860
G1 X2099.000 Y1363.400
G1 X2156.450 Y1321.660
G1 X2213.900 Y1363.400
G1 X2191.950 Y1295.860
G1 X2249.400 Y1254.120
G1 X2178.390 Y1254.120
G1 X2156.450 Y1186.590
G1 X2134.500 Y1254.120
G1 X2063.490 Y1254.120
F150
G1 Z  -3.000
F400
G1 X2120.940 Y1295.860
G1 X2099.000 Y1363.400
G1 X2156.450 Y1321.660
G1 X2213.900 Y1363.400
G1 X2191.950 Y1295.860
G1 X2249.400 Y1254.120
G1 X2178.390 Y1254.120
G1 X2156.450 Y1186.590
G1 X2134.500 Y1254.120
G1 X2063.490 Y1254.120
F150
G1 Z   3.000
G0 Z  15.000 
M9 M5

(* SHAPE Nr: 20 *)
G0 X2240.930 Y1213.010
M3 M8
G0 Z   3.000 
G1 Z  -1.500
F400
G1 X2282.670 Y1270.460
G1 X2240.930 Y1327.910
G1 X2308.470 Y1305.960
G1 X2350.210 Y1363.410
G1 X2350.210 Y1292.400
G1 X2417.740 Y1270.460
G1 X2350.210 Y1248.510
G1 X2350.210 Y1177.500
G1 X2308.470 Y1234.950
G1 X2240.930 Y1213.010
F150
G1 Z  -3.000
F400
G1 X2282.670 Y1270.460
G1 X2240.930 Y1327.910
G1 X2308.470 Y1305.960
G1 X2350.210 Y1363.410
G1 X2350.210 Y1292.400
G1 X2417.740 Y1270.460
G1 X2350.210 Y1248.510
G1 X2350.210 Y1177.500
G1 X2308.470 Y1234.950
G1 X2240.930 Y1213.010
F150
G1 Z   3.000
G0 Z  15.000 
M9 M5

(* SHAPE Nr: 34 *)
G0 X1355.570 Y1236.590
M3 M8
G0 Z   3.000 
G1 Z  -1.500
F400
G1 X1377.520 Y1304.130
G1 X1320.070 Y1345.870
G1 X1391.080 Y1345.870
G1 X1413.020 Y1413.400
G1 X1434.970 Y1345.870
G1 X1505.980 Y1345.870
G1 X1448.530 Y1304.130
G1 X1470.470 Y1236.590
G1 X1413.020 Y1278.330
G1 X1355.570 Y1236.590
F150
G1 Z  -3.000
F400
G1 X1377.520 Y1304.130
G1 X1320.070 Y1345.870
G1 X1391.080 Y1345.870
G1 X1413.020 Y1413.400
G1 X1434.970 Y1345.870
G1 X1505.980 Y1345.870
G1 X1448.530 Y1304.130
G1 X1470.470 Y1236.590
G1 X1413.020 Y1278.330
G1 X1355.570 Y1236.590
F150
G1 Z   3.000
G0 Z  15.000 
M9 M5

(* SHAPE Nr: 47 *)
G0 X1925.370 Y 255.410
M3 M8
G0 Z   3.000 
G1 Z  -1.500
F400
G1 X1982.820 Y 297.150
G1 X1960.880 Y 364.690
G1 X2018.330 Y 322.950
G1 X2075.780 Y 364.690
G1 X2053.830 Y 297.150
G1 X2111.280 Y 255.410
G1 X2040.270 Y 255.410
G1 X2018.330 Y 187.880
G1 X1996.380 Y 255.410
G1 X1925.370 Y 255.410
F150
G1 Z  -3.000
F400
G1 X1982.820 Y 297.150
G1 X1960.880 Y 364.690
G1 X2018.330 Y 322.950
G1 X2075.780 Y 364.690
G1 X2053.830 Y 297.150
G1 X2111.280 Y 255.410
G1 X2040.270 Y 255.410
G1 X2018.330 Y 187.880
G1 X1996.380 Y 255.410
G1 X1925.370 Y 255.410
F150
G1 Z   3.000
G0 Z  15.000 
M9 M5

(* SHAPE Nr: 49 *)
G0 X2131.210 Y 119.280
M3 M8
G0 Z   3.000 
G1 Z  -1.500
F400
G1 X2202.220 Y 119.280
G1 X2224.160 Y 186.810
G1 X2246.110 Y 119.280
G1 X2317.120 Y 119.280
G1 X2259.670 Y  77.540
G1 X2281.610 Y  10.000
G1 X2224.160 Y  51.740
G1 X2166.710 Y  10.000
G1 X2188.660 Y  77.540
G1 X2131.210 Y 119.280
F150
G1 Z  -3.000
F400
G1 X2202.220 Y 119.280
G1 X2224.160 Y 186.810
G1 X2246.110 Y 119.280
G1 X2317.120 Y 119.280
G1 X2259.670 Y  77.540
G1 X2281.610 Y  10.000
G1 X2224.160 Y  51.740
G1 X2166.710 Y  10.000
G1 X2188.660 Y  77.540
G1 X2131.210 Y 119.280
F150
G1 Z   3.000
G0 Z  15.000 
M9 M5

(* SHAPE Nr: 50 *)
G0 X2284.710 Y  77.530
M3 M8
G0 Z   3.000 
G1 Z  -1.500
F400
G1 X2342.160 Y 119.270
G1 X2320.220 Y 186.810
G1 X2377.670 Y 145.070
G1 X2435.120 Y 186.810
G1 X2413.170 Y 119.270
G1 X2470.620 Y  77.530
G1 X2399.610 Y  77.530
G1 X2377.670 Y  10.000
G1 X2355.720 Y  77.530
G1 X2284.710 Y  77.530
F150
G1 Z  -3.000
F400
G1 X2342.160 Y 119.270
G1 X2320.220 Y 186.810
G1 X2377.670 Y 145.070
G1 X2435.120 Y 186.810
G1 X2413.170 Y 119.270
G1 X2470.620 Y  77.530
G1 X2399.610 Y  77.530
G1 X2377.670 Y  10.000
G1 X2355.720 Y  77.530
G1 X2284.710 Y  77.530
F150
G1 Z   3.000
G0 Z  15.000 
M9 M5

(* SHAPE Nr: 51 *)
G0 X2594.890 Y  89.650
M3 M8
G0 Z   3.000 
G1 Z  -1.500
F400
G1 X2652.340 Y 131.390
G1 X2630.400 Y 198.930
G1 X2687.850 Y 157.190
G1 X2745.300 Y 198.930
G1 X2723.350 Y 131.390
G1 X2780.800 Y  89.650
G1 X2709.790 Y  89.650
G1 X2687.850 Y  22.120
G1 X2665.900 Y  89.650
G1 X2594.890 Y  89.650
F150
G1 Z  -3.000
F400
G1 X2652.340 Y 131.390
G1 X2630.400 Y 198.930
G1 X2687.850 Y 157.190
G1 X2745.300 Y 198.930
G1 X2723.350 Y 131.390
G1 X2780.800 Y  89.650
G1 X2709.790 Y  89.650
G1 X2687.850 Y  22.120
G1 X2665.900 Y  89.650
G1 X2594.890 Y  89.650
F150
G1 Z   3.000
G0 Z  15.000 
M9 M5

(* SHAPE Nr: 52 *)
G0 X2612.870 Y 426.410
M3 M8
G0 Z   3.000 
G1 Z  -1.500
F400
G1 X2680.400 Y 448.360
G1 X2680.400 Y 519.370
G1 X2722.140 Y 461.920
G1 X2789.680 Y 483.860
G1 X2747.940 Y 426.410
G1 X2789.680 Y 368.960
G1 X2722.140 Y 390.910
G1 X2680.400 Y 333.460
G1 X2680.400 Y 404.470
G1 X2612.870 Y 426.410
F150
G1 Z  -3.000
F400
G1 X2680.400 Y 448.360
G1 X2680.400 Y 519.370
G1 X2722.140 Y 461.920
G1 X2789.680 Y 483.860
G1 X2747.940 Y 426.410
G1 X2789.680 Y 368.960
G1 X2722.140 Y 390.910
G1 X2680.400 Y 333.460
G1 X2680.400 Y 404.470
G1 X2612.870 Y 426.410
F150
G1 Z   3.000
G0 Z  15.000 
M9 M5

(*** LAYER: BORDER_D0_T132_RK1_A0_W0_EM1_RI1_ID0014 ***)

(* SHAPE Nr: 21 *)
G0 X2550.450 Y1171.810
M3 M8
G0 Z   3.000 
G1 Z  -1.500
F400
G2 X2550.450 Y2040.010 I 443.198 J 434.100
G1 X2633.060 Y2040.010
G3 X2633.060 Y1171.810 I 360.591 J-434.100
G1 X2591.760 Y1171.810
G1 X2550.450 Y1171.810
F150
G1 Z  -3.000
F400
G2 X2550.450 Y2040.010 I 443.198 J 434.100
G1 X2633.060 Y2040.010
G3 X2633.060 Y1171.810 I 360.591 J-434.100
G1 X2591.760 Y1171.810
G1 X2550.450 Y1171.810
F150
G1 Z   3.000
G0 Z  15.000 
M9 M5

(* SHAPE Nr: 22 *)
G0 X2654.440 Y1171.810
M3 M8
G0 Z   3.000 
G1 Z  -1.500
F400
G2 X2654.440 Y2040.010 I 443.198 J 434.100
G1 X2737.050 Y2040.010
G3 X2737.050 Y1171.810 I 360.591 J-434.100
G1 X2695.750 Y1171.810
G1 X2654.440 Y1171.810
F150
G1 Z  -3.000
F400
G2 X2654.440 Y2040.010 I 443.198 J 434.100
G1 X2737.050 Y2040.010
G3 X2737.050 Y1171.810 I 360.591 J-434.100
G1 X2695.750 Y1171.810
G1 X2654.440 Y1171.810
F150
G1 Z   3.000
G0 Z  15.000 
M9 M5

(*** LAYER: BORDER_D0_T132_RK1_A0_W0_EM1_RI1_ID0025 ***)

(* SHAPE Nr: 23 *)
G0 X2603.870 Y 985.000
M3 M8
G0 Z   3.000 
G1 Z  -1.500
F400
G1 X2671.400 Y1077.960
G1 X2780.680 Y1042.450
G1 X2780.680 Y 927.550
G1 X2671.400 Y 892.050
G1 X2603.870 Y 985.000
F150
G1 Z  -3.000
F400
G1 X2671.400 Y1077.960
G1 X2780.680 Y1042.450
G1 X2780.680 Y 927.550
G1 X2671.400 Y 892.050
G1 X2603.870 Y 985.000
F150
G1 Z   3.000
G0 Z  15.000 
M9 M5

(* SHAPE Nr: 30 *)
G0 X2276.430 Y1889.600
M3 M8
G0 Z   3.000 
G1 Z  -1.500
F400
G1 X2276.430 Y2004.500
G1 X2385.710 Y2040.000
G1 X2453.240 Y1947.050
G1 X2385.710 Y1854.090
G1 X2276.430 Y1889.600
F150
G1 Z  -3.000
F400
G1 X2276.430 Y2004.500
G1 X2385.710 Y2040.000
G1 X2453.240 Y1947.050
G1 X2385.710 Y1854.090
G1 X2276.430 Y1889.600
F150
G1 Z   3.000
G0 Z  15.000 
M9 M5

(*** LAYER: BORDER_D0_T132_RK1_A0_W0_EM1_RI1_ID0008 ***)

(* SHAPE Nr: 26 *)
G0 X1964.040 Y 620.220
M3 M8
G0 Z   3.000 
G1 Z  -1.500
F400
G1 X2279.430 Y 620.220
G1 X2376.900 Y 920.170
G1 X2474.360 Y 620.220
G1 X2789.750 Y 620.220
G1 X2534.590 Y 434.840
G1 X2632.050 Y 134.880
G1 X2376.900 Y 320.260
G1 X2121.740 Y 134.880
G1 X2219.200 Y 434.840
G1 X1964.040 Y 620.220
F150
G1 Z  -3.000
F400
G1 X2279.430 Y 620.220
G1 X2376.900 Y 920.170
G1 X2474.360 Y 620.220
G1 X2789.750 Y 620.220
G1 X2534.590 Y 434.840
G1 X2632.050 Y 134.880
G1 X2376.900 Y 320.260
G1 X2121.740 Y 134.880
G1 X2219.200 Y 434.840
G1 X1964.040 Y 620.220
F150
G1 Z   3.000
G0 Z  15.000 
M9 M5

(*** LAYER: BORDER_D0_T132_RK1_A0_W0_EM1_RI1_ID0020 ***)

(* SHAPE Nr: 33 *)
G0 X2728.070 Y1581.070
M3 M8
G0 Z   3.000 
G1 Z  -1.500
F400
G2 X2714.110 Y1605.660 I 146.913 J  99.662
G2 X2702.070 Y1635.970 I 246.893 J 115.619
G2 X2692.300 Y1671.090 I 361.196 J 119.400
G2 X2685.090 Y1709.940 I 472.487 J 107.781
G2 X2680.690 Y1751.350 I 561.472 J  80.598
G2 X2679.200 Y1794.060 I 611.416 J  42.711
G2 X2680.690 Y1836.770 I 612.941 J  -0.002
G2 X2685.090 Y1878.180 I 565.872 J -39.188
G2 X2692.300 Y1917.030 I 479.697 J -68.931
G2 X2702.070 Y1952.150 I 370.966 J -84.280
G2 X2714.110 Y1982.460 I 258.933 J -85.309
G2 X2728.070 Y2007.050 I 160.873 J -75.072
G2 X2743.510 Y2025.170 I  87.858 J -59.225
G2 X2759.970 Y2036.260 I  42.094 J -44.717
G2 X2776.940 Y2040.000 I  17.159 J -37.487
G1 X2776.940 Y1794.060
G1 X2776.940 Y1548.120
G2 X2759.970 Y1551.860 I   0.189 J  41.227
G2 X2743.510 Y1562.950 I  25.634 J  55.807
G2 X2728.070 Y1581.070 I  72.418 J  77.345
F150
G1 Z  -3.000
F400
G2 X2714.110 Y1605.660 I 146.913 J  99.662
G2 X2702.070 Y1635.970 I 246.893 J 115.619
G2 X2692.300 Y1671.090 I 361.196 J 119.400
G2 X2685.090 Y1709.940 I 472.487 J 107.781
G2 X2680.690 Y1751.350 I 561.472 J  80.598
G2 X2679.200 Y1794.060 I 611.416 J  42.711
G2 X2680.690 Y1836.770 I 612.941 J  -0.002
G2 X2685.090 Y1878.180 I 565.872 J -39.188
G2 X2692.300 Y1917.030 I 479.697 J -68.931
G2 X2702.070 Y1952.150 I 370.966 J -84.280
G2 X2714.110 Y1982.460 I 258.933 J -85.309
G2 X2728.070 Y2007.050 I 160.873 J -75.072
G2 X2743.510 Y2025.170 I  87.858 J -59.225
G2 X2759.970 Y2036.260 I  42.094 J -44.717
G2 X2776.940 Y2040.000 I  17.159 J -37.487
G1 X2776.940 Y1794.060
G1 X2776.940 Y1548.120
G2 X2759.970 Y1551.860 I   0.189 J  41.227
G2 X2743.510 Y1562.950 I  25.634 J  55.807
G2 X2728.070 Y1581.070 I  72.418 J  77.345
F150
G1 Z   3.000
G0 Z  15.000 
M9 M5

(* SHAPE Nr: 40 *)
G0 X1155.130 Y 501.190
M3 M8
G0 Z   3.000 
G1 Z  -1.500
F400
G2 X1158.870 Y 518.160 I  41.227 J  -0.189
G2 X1169.960 Y 534.620 I  55.807 J -25.634
G2 X1188.080 Y 550.060 I  77.345 J -72.418
G2 X1212.670 Y 564.020 I  99.664 J-146.917
G2 X1242.980 Y 576.060 I 115.619 J-246.893
G2 X1278.100 Y 585.830 I 119.400 J-361.196
G2 X1316.950 Y 593.040 I 107.781 J-472.487
G2 X1358.360 Y 597.440 I  80.598 J-561.472
G2 X1401.070 Y 598.930 I  42.711 J-611.416
G2 X1443.780 Y 597.440 I  -0.001 J-612.906
G2 X1485.190 Y 593.040 I -39.188 J-565.872
G2 X1524.040 Y 585.830 I -68.931 J-479.697
G2 X1559.160 Y 576.060 I -84.280 J-370.966
G2 X1589.470 Y 564.020 I -85.309 J-258.933
G2 X1614.060 Y 550.060 I -75.074 J-160.877
G2 X1632.180 Y 534.620 I -59.224 J -87.857
G2 X1643.270 Y 518.160 I -44.717 J -42.094
G2 X1647.010 Y 501.190 I -37.487 J -17.159
G1 X1401.070 Y 501.190
G1 X1155.130 Y 501.190
F150
G1 Z  -3.000
F400
G2 X1158.870 Y 518.160 I  41.227 J  -0.189
G2 X1169.960 Y 534.620 I  55.807 J -25.634
G2 X1188.080 Y 550.060 I  77.345 J -72.418
G2 X1212.670 Y 564.020 I  99.664 J-146.917
G2 X1242.980 Y 576.060 I 115.619 J-246.893
G2 X1278.100 Y 585.830 I 119.400 J-361.196
G2 X1316.950 Y 593.040 I 107.781 J-472.487
G2 X1358.360 Y 597.440 I  80.598 J-561.472
G2 X1401.070 Y 598.930 I  42.711 J-611.416
G2 X1443.780 Y 597.440 I  -0.001 J-612.906
G2 X1485.190 Y 593.040 I -39.188 J-565.872
G2 X1524.040 Y 585.830 I -68.931 J-479.697
G2 X1559.160 Y 576.060 I -84.280 J-370.966
G2 X1589.470 Y 564.020 I -85.309 J-258.933
G2 X1614.060 Y 550.060 I -75.074 J-160.877
G2 X1632.180 Y 534.620 I -59.224 J -87.857
G2 X1643.270 Y 518.160 I -44.717 J -42.094
G2 X1647.010 Y 501.190 I -37.487 J -17.159
G1 X1401.070 Y 501.190
G1 X1155.130 Y 501.190
F150
G1 Z   3.000
G0 Z  15.000 
M9 M5

(*** LAYER: BORDER_D0_T132_RK1_A0_W0_EM1_RI1_ID0018 ***)

(* SHAPE Nr: 39 *)
G0 X1736.530 Y 319.350
M3 M8
G0 Z   3.000 
G1 Z  -1.500
F400
G2 X1732.130 Y 360.760 I 561.472 J  80.598
G2 X1730.640 Y 403.470 I 611.451 J  42.712
G2 X1732.130 Y 446.180 I 612.906 J  -0.001
G2 X1736.530 Y 487.590 I 565.872 J -39.188
G2 X1743.740 Y 526.440 I 479.697 J -68.931
G2 X1753.510 Y 561.560 I 370.966 J -84.280
G2 X1765.550 Y 591.870 I 258.933 J -85.309
G2 X1779.510 Y 616.460 I 160.877 J -75.074
G2 X1794.950 Y 634.580 I  87.858 J -59.225
G2 X1811.410 Y 645.670 I  42.094 J -44.717
G2 X1828.380 Y 649.410 I  17.159 J -37.487
G2 X1845.350 Y 645.670 I  -0.189 J -41.227
G2 X1861.810 Y 634.580 I -25.634 J -55.807
G2 X1877.250 Y 616.460 I -72.418 J -77.345
G2 X1891.210 Y 591.870 I-146.917 J -99.664
G2 X1903.250 Y 561.560 I-246.893 J-115.619
G2 X1913.020 Y 526.440 I-361.196 J-119.400
G2 X1920.230 Y 487.590 I-472.487 J-107.781
G2 X1924.630 Y 446.180 I-561.472 J -80.598
G2 X1926.120 Y 403.470 I-611.416 J -42.711
G2 X1924.630 Y 360.760 I-612.906 J   0.001
G2 X1920.230 Y 319.350 I-565.872 J  39.188
G2 X1913.020 Y 280.500 I-479.697 J  68.931
G2 X1903.250 Y 245.380 I-370.966 J  84.280
G2 X1891.210 Y 215.070 I-258.933 J  85.309
G2 X1877.250 Y 190.480 I-160.877 J  75.074
G2 X1861.810 Y 172.360 I -87.858 J  59.225
G2 X1845.350 Y 161.270 I -42.094 J  44.717
G2 X1828.380 Y 157.530 I -17.159 J  37.487
G2 X1811.410 Y 161.270 I   0.189 J  41.227
G2 X1794.950 Y 172.360 I  25.634 J  55.807
G2 X1779.510 Y 190.480 I  72.418 J  77.345
G2 X1765.550 Y 215.070 I 146.917 J  99.664
G2 X1753.510 Y 245.380 I 246.893 J 115.619
G2 X1743.740 Y 280.500 I 361.196 J 119.400
G2 X1736.530 Y 319.350 I 472.487 J 107.781
F150
G1 Z  -3.000
F400
G2 X1732.130 Y 360.760 I 561.472 J  80.598
G2 X1730.640 Y 403.470 I 611.451 J  42.712
G2 X1732.130 Y 446.180 I 612.906 J  -0.001
G2 X1736.530 Y 487.590 I 565.872 J -39.188
G2 X1743.740 Y 526.440 I 479.697 J -68.931
G2 X1753.510 Y 561.560 I 370.966 J -84.280
G2 X1765.550 Y 591.870 I 258.933 J -85.309
G2 X1779.510 Y 616.460 I 160.877 J -75.074
G2 X1794.950 Y 634.580 I  87.858 J -59.225
G2 X1811.410 Y 645.670 I  42.094 J -44.717
G2 X1828.380 Y 649.410 I  17.159 J -37.487
G2 X1845.350 Y 645.670 I  -0.189 J -41.227
G2 X1861.810 Y 634.580 I -25.634 J -55.807
G2 X1877.250 Y 616.460 I -72.418 J -77.345
G2 X1891.210 Y 591.870 I-146.917 J -99.664
G2 X1903.250 Y 561.560 I-246.893 J-115.619
G2 X1913.020 Y 526.440 I-361.196 J-119.400
G2 X1920.230 Y 487.590 I-472.487 J-107.781
G2 X1924.630 Y 446.180 I-561.472 J -80.598
G2 X1926.120 Y 403.470 I-611.416 J -42.711
G2 X1924.630 Y 360.760 I-612.906 J   0.001
G2 X1920.230 Y 319.350 I-565.872 J  39.188
G2 X1913.020 Y 280.500 I-479.697 J  68.931
G2 X1903.250 Y 245.380 I-370.966 J  84.280
G2 X1891.210 Y 215.070 I-258.933 J  85.309
G2 X1877.250 Y 190.480 I-160.877 J  75.074
G2 X1861.810 Y 172.360 I -87.858 J  59.225
G2 X1845.350 Y 161.270 I -42.094 J  44.717
G2 X1828.380 Y 157.530 I -17.159 J  37.487
G2 X1811.410 Y 161.270 I   0.189 J  41.227
G2 X1794.950 Y 172.360 I  25.634 J  55.807
G2 X1779.510 Y 190.480 I  72.418 J  77.345
G2 X1765.550 Y 215.070 I 146.917 J  99.664
G2 X1753.510 Y 245.380 I 246.893 J 115.619
G2 X1743.740 Y 280.500 I 361.196 J 119.400
G2 X1736.530 Y 319.350 I 472.487 J 107.781
F150
G1 Z   3.000
G0 Z  15.000 
M9 M5

(* SHAPE Nr: 43 *)
G0 X 809.700 Y 129.400
M3 M8
G0 Z   3.000 
G1 Z  -1.500
F400
G2 X 813.440 Y 146.370 I  41.227 J  -0.189
G2 X 824.530 Y 162.830 I  55.807 J -25.634
G2 X 842.650 Y 178.270 I  77.345 J -72.418
G2 X 867.240 Y 192.230 I  99.664 J-146.917
G2 X 897.550 Y 204.270 I 115.619 J-246.893
G2 X 932.670 Y 214.040 I 119.400 J-361.196
G2 X 971.520 Y 221.250 I 107.781 J-472.487
G2 X1012.930 Y 225.650 I  80.598 J-561.472
G2 X1055.640 Y 227.140 I  42.711 J-611.416
G2 X1098.350 Y 225.650 I  -0.001 J-612.906
G2 X1139.760 Y 221.250 I -39.188 J-565.872
G2 X1178.610 Y 214.040 I -68.931 J-479.697
G2 X1213.730 Y 204.270 I -84.280 J-370.966
G2 X1244.040 Y 192.230 I -85.309 J-258.933
G2 X1268.630 Y 178.270 I -75.074 J-160.877
G2 X1286.750 Y 162.830 I -59.224 J -87.857
G2 X1297.840 Y 146.370 I -44.717 J -42.094
G2 X1301.580 Y 129.400 I -37.487 J -17.159
G2 X1297.840 Y 112.430 I -41.227 J   0.189
G2 X1286.750 Y  95.970 I -55.807 J  25.634
G2 X1268.630 Y  80.530 I -77.345 J  72.418
G2 X1244.040 Y  66.570 I -99.664 J 146.917
G2 X1213.730 Y  54.530 I-115.619 J 246.893
G2 X1178.610 Y  44.760 I-119.400 J 361.196
G2 X1139.760 Y  37.550 I-107.781 J 472.487
G2 X1098.350 Y  33.150 I -80.598 J 561.472
G2 X1055.640 Y  31.660 I -42.712 J 611.451
G2 X1012.930 Y  33.150 I   0.002 J 612.941
G2 X 971.520 Y  37.550 I  39.188 J 565.872
G2 X 932.670 Y  44.760 I  68.931 J 479.697
G2 X 897.550 Y  54.530 I  84.280 J 370.966
G2 X 867.240 Y  66.570 I  85.309 J 258.933
G2 X 842.650 Y  80.530 I  75.074 J 160.877
G2 X 824.530 Y  95.970 I  59.225 J  87.858
G2 X 813.440 Y 112.430 I  44.717 J  42.094
G2 X 809.700 Y 129.400 I  37.487 J  17.159
F150
G1 Z  -3.000
F400
G2 X 813.440 Y 146.370 I  41.227 J  -0.189
G2 X 824.530 Y 162.830 I  55.807 J -25.634
G2 X 842.650 Y 178.270 I  77.345 J -72.418
G2 X 867.240 Y 192.230 I  99.664 J-146.917
G2 X 897.550 Y 204.270 I 115.619 J-246.893
G2 X 932.670 Y 214.040 I 119.400 J-361.196
G2 X 971.520 Y 221.250 I 107.781 J-472.487
G2 X1012.930 Y 225.650 I  80.598 J-561.472
G2 X1055.640 Y 227.140 I  42.711 J-611.416
G2 X1098.350 Y 225.650 I  -0.001 J-612.906
G2 X1139.760 Y 221.250 I -39.188 J-565.872
G2 X1178.610 Y 214.040 I -68.931 J-479.697
G2 X1213.730 Y 204.270 I -84.280 J-370.966
G2 X1244.040 Y 192.230 I -85.309 J-258.933
G2 X1268.630 Y 178.270 I -75.074 J-160.877
G2 X1286.750 Y 162.830 I -59.224 J -87.857
G2 X1297.840 Y 146.370 I -44.717 J -42.094
G2 X1301.580 Y 129.400 I -37.487 J -17.159
G2 X1297.840 Y 112.430 I -41.227 J   0.189
G2 X1286.750 Y  95.970 I -55.807 J  25.634
G2 X1268.630 Y  80.530 I -77.345 J  72.418
G2 X1244.040 Y  66.570 I -99.664 J 146.917
G2 X1213.730 Y  54.530 I-115.619 J 246.893
G2 X1178.610 Y  44.760 I-119.400 J 361.196
G2 X1139.760 Y  37.550 I-107.781 J 472.487
G2 X1098.350 Y  33.150 I -80.598 J 561.472
G2 X1055.640 Y  31.660 I -42.712 J 611.451
G2 X1012.930 Y  33.150 I   0.002 J 612.941
G2 X 971.520 Y  37.550 I  39.188 J 565.872
G2 X 932.670 Y  44.760 I  68.931 J 479.697
G2 X 897.550 Y  54.530 I  84.280 J 370.966
G2 X 867.240 Y  66.570 I  85.309 J 258.933
G2 X 842.650 Y  80.530 I  75.074 J 160.877
G2 X 824.530 Y  95.970 I  59.225 J  87.858
G2 X 813.440 Y 112.430 I  44.717 J  42.094
G2 X 809.700 Y 129.400 I  37.487 J  17.159
F150
G1 Z   3.000
G0 Z  15.000 
M9 M5

(* SHAPE Nr: 44 *)
G0 X 306.820 Y 114.810
M3 M8
G0 Z   3.000 
G1 Z  -1.500
F400
G2 X 303.080 Y 131.780 I  37.487 J  17.159
G2 X 306.820 Y 148.750 I  41.227 J  -0.189
G2 X 317.910 Y 165.210 I  55.807 J -25.634
G2 X 336.030 Y 180.650 I  77.345 J -72.418
G2 X 360.620 Y 194.610 I  99.664 J-146.917
G2 X 390.930 Y 206.650 I 115.619 J-246.893
G2 X 426.050 Y 216.420 I 119.400 J-361.196
G2 X 464.900 Y 223.630 I 107.781 J-472.487
G2 X 506.310 Y 228.030 I  80.598 J-561.472
G2 X 549.020 Y 229.520 I  42.711 J-611.416
G2 X 591.730 Y 228.030 I  -0.001 J-612.906
G2 X 633.140 Y 223.630 I -39.188 J-565.872
G2 X 671.990 Y 216.420 I -68.931 J-479.697
G2 X 707.110 Y 206.650 I -84.280 J-370.966
G2 X 737.420 Y 194.610 I -85.309 J-258.933
G2 X 762.010 Y 180.650 I -75.074 J-160.877
G2 X 780.130 Y 165.210 I -59.224 J -87.857
G2 X 791.220 Y 148.750 I -44.717 J -42.094
G2 X 794.960 Y 131.780 I -37.487 J -17.159
G2 X 791.220 Y 114.810 I -41.227 J   0.189
G2 X 780.130 Y  98.350 I -55.807 J  25.634
G2 X 762.010 Y  82.910 I -77.345 J  72.418
G2 X 737.420 Y  68.950 I -99.664 J 146.917
G2 X 707.110 Y  56.910 I-115.619 J 246.893
G2 X 671.990 Y  47.140 I-119.400 J 361.196
G2 X 633.140 Y  39.930 I-107.781 J 472.487
G2 X 591.730 Y  35.530 I -80.598 J 561.472
G2 X 549.020 Y  34.040 I -42.712 J 611.451
G2 X 506.310 Y  35.530 I   0.002 J 612.941
G2 X 464.900 Y  39.930 I  39.188 J 565.872
G2 X 426.050 Y  47.140 I  68.931 J 479.697
G2 X 390.930 Y  56.910 I  84.280 J 370.966
G2 X 360.620 Y  68.950 I  85.309 J 258.933
G2 X 336.030 Y  82.910 I  75.074 J 160.877
G2 X 317.910 Y  98.350 I  59.225 J  87.858
G2 X 306.820 Y 114.810 I  44.717 J  42.094
F150
G1 Z  -3.000
F400
G2 X 303.080 Y 131.780 I  37.487 J  17.159
G2 X 306.820 Y 148.750 I  41.227 J  -0.189
G2 X 317.910 Y 165.210 I  55.807 J -25.634
G2 X 336.030 Y 180.650 I  77.345 J -72.418
G2 X 360.620 Y 194.610 I  99.664 J-146.917
G2 X 390.930 Y 206.650 I 115.619 J-246.893
G2 X 426.050 Y 216.420 I 119.400 J-361.196
G2 X 464.900 Y 223.630 I 107.781 J-472.487
G2 X 506.310 Y 228.030 I  80.598 J-561.472
G2 X 549.020 Y 229.520 I  42.711 J-611.416
G2 X 591.730 Y 228.030 I  -0.001 J-612.906
G2 X 633.140 Y 223.630 I -39.188 J-565.872
G2 X 671.990 Y 216.420 I -68.931 J-479.697
G2 X 707.110 Y 206.650 I -84.280 J-370.966
G2 X 737.420 Y 194.610 I -85.309 J-258.933
G2 X 762.010 Y 180.650 I -75.074 J-160.877
G2 X 780.130 Y 165.210 I -59.224 J -87.857
G2 X 791.220 Y 148.750 I -44.717 J -42.094
G2 X 794.960 Y 131.780 I -37.487 J -17.159
G2 X 791.220 Y 114.810 I -41.227 J   0.189
G2 X 780.130 Y  98.350 I -55.807 J  25.634
G2 X 762.010 Y  82.910 I -77.345 J  72.418
G2 X 737.420 Y  68.950 I -99.664 J 146.917
G2 X 707.110 Y  56.910 I-115.619 J 246.893
G2 X 671.990 Y  47.140 I-119.400 J 361.196
G2 X 633.140 Y  39.930 I-107.781 J 472.487
G2 X 591.730 Y  35.530 I -80.598 J 561.472
G2 X 549.020 Y  34.040 I -42.712 J 611.451
G2 X 506.310 Y  35.530 I   0.002 J 612.941
G2 X 464.900 Y  39.930 I  39.188 J 565.872
G2 X 426.050 Y  47.140 I  68.931 J 479.697
G2 X 390.930 Y  56.910 I  84.280 J 370.966
G2 X 360.620 Y  68.950 I  85.309 J 258.933
G2 X 336.030 Y  82.910 I  75.074 J 160.877
G2 X 317.910 Y  98.350 I  59.225 J  87.858
G2 X 306.820 Y 114.810 I  44.717 J  42.094
F150
G1 Z   3.000
G0 Z  15.000 
M9 M5

(*** LAYER: BORDER_D0_T132_RK1_A0_W0_EM1_RI1_ID0029 ***)

(* SHAPE Nr: 45 *)
G0 X  10.000 Y 521.560
M3 M8
G0 Z   3.000 
G1 Z  -1.500
F400
G1 X  71.390 Y 582.950
G3 X 685.310 Y 328.660 I 613.911 J 613.911
G1 X1715.910 Y 328.660
G1 X1715.910 Y 241.840
G1 X 685.310 Y 241.840
G2 X  10.000 Y 521.560 I -36.284 J 867.440
F150
G1 Z  -3.000
F400
G1 X  71.390 Y 582.950
G3 X 685.310 Y 328.660 I 613.911 J 613.911
G1 X1715.910 Y 328.660
G1 X1715.910 Y 241.840
G1 X 685.310 Y 241.840
G2 X  10.000 Y 521.560 I -36.284 J 867.440
F150
G1 Z   3.000
G0 Z  15.000 
M9 M5

(* SHAPE Nr: 46 *)
G0 X  10.000 Y 663.210
M3 M8
G0 Z   3.000 
G1 Z  -1.500
F400
G1 X  71.390 Y 724.600
G3 X 685.310 Y 470.310 I 613.911 J 613.911
G1 X1715.910 Y 470.310
G1 X1715.910 Y 383.490
G1 X 685.310 Y 383.490
G2 X  10.000 Y 663.210 I -36.284 J 867.440
F150
G1 Z  -3.000
F400
G1 X  71.390 Y 724.600
G3 X 685.310 Y 470.310 I 613.911 J 613.911
G1 X1715.910 Y 470.310
G1 X1715.910 Y 383.490
G1 X 685.310 Y 383.490
G2 X  10.000 Y 663.210 I -36.284 J 867.440
F150
G1 Z   3.000
G0 Z  15.000 
M9 M5

(*** LAYER: BORDER_D0_T132.1_RK1_A0_W0_EM1 ***)

(* SHAPE Nr: 53 *)
G0 X  94.640 Y 212.170
M3 M8
G0 Z   3.000 
G1 Z  -1.500
F400
G1 X  66.430 Y 261.040
G1 X  10.000 Y 261.040
G1 X  38.220 Y 309.910
G1 X  10.000 Y 358.780
G1 X  66.430 Y 358.780
G1 X  94.640 Y 407.650
G1 X 122.860 Y 358.780
G1 X 179.290 Y 358.780
G1 X 151.070 Y 309.910
G1 X 179.290 Y 261.040
G1 X 122.860 Y 261.040
G1 X  94.640 Y 212.170
F150
G1 Z  -3.000
F400
G1 X  66.430 Y 261.040
G1 X  10.000 Y 261.040
G1 X  38.220 Y 309.910
G1 X  10.000 Y 358.780
G1 X  66.430 Y 358.780
G1 X  94.640 Y 407.650
G1 X 122.860 Y 358.780
G1 X 179.290 Y 358.780
G1 X 151.070 Y 309.910
G1 X 179.290 Y 261.040
G1 X 122.860 Y 261.040
G1 X  94.640 Y 212.170
F150
G1 Z   3.000
G0 Z  15.000 
M9 M5

(* SHAPE Nr: 54 *)
G0 X 135.200 Y  77.130
M3 M8
G0 Z   3.000 
G1 Z  -1.500
F400
G1 X 155.600 Y 129.290
G1 X  99.690 Y 126.000
G1 X 146.850 Y 156.210
G1 X  99.690 Y 186.410
G1 X 155.600 Y 183.130
G1 X 135.200 Y 235.280
G1 X 178.500 Y 199.760
G1 X 192.650 Y 253.950
G1 X 206.800 Y 199.760
G1 X 250.100 Y 235.280
G1 X 229.700 Y 183.130
G1 X 285.610 Y 186.410
G1 X 238.450 Y 156.210
G1 X 285.610 Y 126.000
G1 X 229.700 Y 129.290
G1 X 250.100 Y  77.130
G1 X 206.800 Y 112.650
G1 X 192.650 Y  58.470
G1 X 178.500 Y 112.650
G1 X 135.200 Y  77.130
F150
G1 Z  -3.000
F400
G1 X 155.600 Y 129.290
G1 X  99.690 Y 126.000
G1 X 146.850 Y 156.210
G1 X  99.690 Y 186.410
G1 X 155.600 Y 183.130
G1 X 135.200 Y 235.280
G1 X 178.500 Y 199.760
G1 X 192.650 Y 253.950
G1 X 206.800 Y 199.760
G1 X 250.100 Y 235.280
G1 X 229.700 Y 183.130
G1 X 285.610 Y 186.410
G1 X 238.450 Y 156.210
G1 X 285.610 Y 126.000
G1 X 229.700 Y 129.290
G1 X 250.100 Y  77.130
G1 X 206.800 Y 112.650
G1 X 192.650 Y  58.470
G1 X 178.500 Y 112.650
G1 X 135.200 Y  77.130
F150
G1 Z   3.000
G0 Z  15.000 
M9 M5

(* SHAPE Nr: 55 *)
G0 X 385.940 Y 544.000
M3 M8
G0 Z   3.000 
G1 Z  -1.500
F400
G1 X 295.930 Y 822.200
G1 X  10.000 Y 761.050
G1 X 205.930 Y 978.100
G1 X  10.000 Y1195.150
G1 X 295.930 Y1134.000
G1 X 385.940 Y1412.200
G1 X 475.950 Y1134.000
G1 X 761.880 Y1195.150
G1 X 565.960 Y 978.100
G1 X 761.880 Y 761.050
G1 X 475.950 Y 822.200
G1 X 385.940 Y 544.000
F150
G1 Z  -3.000
F400
G1 X 295.930 Y 822.200
G1 X  10.000 Y 761.050
G1 X 205.930 Y 978.100
G1 X  10.000 Y1195.150
G1 X 295.930 Y1134.000
G1 X 385.940 Y1412.200
G1 X 475.950 Y1134.000
G1 X 761.880 Y1195.150
G1 X 565.960 Y 978.100
G1 X 761.880 Y 761.050
G1 X 475.950 Y 822.200
G1 X 385.940 Y 544.000
F150
G1 Z   3.000
G0 Z  15.000 
M9 M5

(* SHAPE Nr: 56 *)
G0 X 460.770 Y 603.270
M3 M8
G0 Z   3.000 
G1 Z  -1.500
F400
G1 X 496.280 Y 646.570
G1 X 442.100 Y 660.720
G1 X 496.280 Y 674.880
G1 X 460.770 Y 718.170
G1 X 512.920 Y 697.780
G1 X 509.640 Y 753.680
G1 X 539.840 Y 706.520
G1 X 570.040 Y 753.680
G1 X 566.760 Y 697.780
G1 X 618.910 Y 718.170
G1 X 583.400 Y 674.880
G1 X 637.580 Y 660.720
G1 X 583.400 Y 646.570
G1 X 618.910 Y 603.270
G1 X 566.760 Y 623.670
G1 X 570.040 Y 567.770
G1 X 539.840 Y 614.920
G1 X 509.640 Y 567.770
G1 X 512.920 Y 623.670
G1 X 460.770 Y 603.270
F150
G1 Z  -3.000
F400
G1 X 496.280 Y 646.570
G1 X 442.100 Y 660.720
G1 X 496.280 Y 674.880
G1 X 460.770 Y 718.170
G1 X 512.920 Y 697.780
G1 X 509.640 Y 753.680
G1 X 539.840 Y 706.520
G1 X 570.040 Y 753.680
G1 X 566.760 Y 697.780
G1 X 618.910 Y 718.170
G1 X 583.400 Y 674.880
G1 X 637.580 Y 660.720
G1 X 583.400 Y 646.570
G1 X 618.910 Y 603.270
G1 X 566.760 Y 623.670
G1 X 570.040 Y 567.770
G1 X 539.840 Y 614.920
G1 X 509.640 Y 567.770
G1 X 512.920 Y 623.670
G1 X 460.770 Y 603.270
F150
G1 Z   3.000
G0 Z  15.000 
M9 M5

(* SHAPE Nr: 57 *)
G0 X 635.100 Y 582.550
M3 M8
G0 Z   3.000 
G1 Z  -1.500
F400
G1 X 670.620 Y 625.850
G1 X 616.440 Y 640.000
G1 X 670.620 Y 654.150
G1 X 635.100 Y 697.450
G1 X 687.260 Y 677.050
G1 X 683.970 Y 732.960
G1 X 714.180 Y 685.800
G1 X 744.380 Y 732.960
G1 X 741.100 Y 677.050
G1 X 793.250 Y 697.450
G1 X 757.730 Y 654.150
G1 X 811.920 Y 640.000
G1 X 757.730 Y 625.850
G1 X 793.250 Y 582.550
G1 X 741.100 Y 602.950
G1 X 744.380 Y 547.040
G1 X 714.180 Y 594.200
G1 X 683.970 Y 547.040
G1 X 687.260 Y 602.950
G1 X 635.100 Y 582.550
F150
G1 Z  -3.000
F400
G1 X 670.620 Y 625.850
G1 X 616.440 Y 640.000
G1 X 670.620 Y 654.150
G1 X 635.100 Y 697.450
G1 X 687.260 Y 677.050
G1 X 683.970 Y 732.960
G1 X 714.180 Y 685.800
G1 X 744.380 Y 732.960
G1 X 741.100 Y 677.050
G1 X 793.250 Y 697.450
G1 X 757.730 Y 654.150
G1 X 811.920 Y 640.000
G1 X 757.730 Y 625.850
G1 X 793.250 Y 582.550
G1 X 741.100 Y 602.950
G1 X 744.380 Y 547.040
G1 X 714.180 Y 594.200
G1 X 683.970 Y 547.040
G1 X 687.260 Y 602.950
G1 X 635.100 Y 582.550
F150
G1 Z   3.000
G0 Z  15.000 
M9 M5

(* SHAPE Nr: 58 *)
G0 X 830.730 Y 616.160
M3 M8
G0 Z   3.000 
G1 Z  -1.500
F400
G1 X 866.250 Y 659.460
G1 X 812.070 Y 673.610
G1 X 866.250 Y 687.770
G1 X 830.730 Y 731.060
G1 X 882.890 Y 710.670
G1 X 879.600 Y 766.570
G1 X 909.810 Y 719.410
G1 X 940.010 Y 766.570
G1 X 936.730 Y 710.670
G1 X 988.880 Y 731.060
G1 X 953.370 Y 687.770
G1 X1007.550 Y 673.610
G1 X 953.370 Y 659.460
G1 X 988.880 Y 616.160
G1 X 936.730 Y 636.560
G1 X 940.010 Y 580.660
G1 X 909.810 Y 627.810
G1 X 879.600 Y 580.660
G1 X 882.890 Y 636.560
G1 X 830.730 Y 616.160
F150
G1 Z  -3.000
F400
G1 X 866.250 Y 659.460
G1 X 812.070 Y 673.610
G1 X 866.250 Y 687.770
G1 X 830.730 Y 731.060
G1 X 882.890 Y 710.670
G1 X 879.600 Y 766.570
G1 X 909.810 Y 719.410
G1 X 940.010 Y 766.570
G1 X 936.730 Y 710.670
G1 X 988.880 Y 731.060
G1 X 953.370 Y 687.770
G1 X1007.550 Y 673.610
G1 X 953.370 Y 659.460
G1 X 988.880 Y 616.160
G1 X 936.730 Y 636.560
G1 X 940.010 Y 580.660
G1 X 909.810 Y 627.810
G1 X 879.600 Y 580.660
G1 X 882.890 Y 636.560
G1 X 830.730 Y 616.160
F150
G1 Z   3.000
G0 Z  15.000 
M9 M5

(* SHAPE Nr: 59 *)
G0 X 658.920 Y 942.550
M3 M8
G0 Z   3.000 
G1 Z  -1.500
F400
G1 X 694.430 Y 985.850
G1 X 640.250 Y1000.000
G1 X 694.430 Y1014.150
G1 X 658.920 Y1057.450
G1 X 711.070 Y1037.050
G1 X 707.790 Y1092.960
G1 X 737.990 Y1045.800
G1 X 768.200 Y1092.960
G1 X 764.910 Y1037.050
G1 X 817.070 Y1057.450
G1 X 781.550 Y1014.150
G1 X 835.730 Y1000.000
G1 X 781.550 Y 985.850
G1 X 817.070 Y 942.550
G1 X 764.910 Y 962.950
G1 X 768.200 Y 907.040
G1 X 737.990 Y 954.200
G1 X 707.790 Y 907.040
G1 X 711.070 Y 962.950
G1 X 658.920 Y 942.550
F150
G1 Z  -3.000
F400
G1 X 694.430 Y 985.850
G1 X 640.250 Y1000.000
G1 X 694.430 Y1014.150
G1 X 658.920 Y1057.450
G1 X 711.070 Y1037.050
G1 X 707.790 Y1092.960
G1 X 737.990 Y1045.800
G1 X 768.200 Y1092.960
G1 X 764.910 Y1037.050
G1 X 817.070 Y1057.450
G1 X 781.550 Y1014.150
G1 X 835.730 Y1000.000
G1 X 781.550 Y 985.850
G1 X 817.070 Y 942.550
G1 X 764.910 Y 962.950
G1 X 768.200 Y 907.040
G1 X 737.990 Y 954.200
G1 X 707.790 Y 907.040
G1 X 711.070 Y 962.950
G1 X 658.920 Y 942.550
F150
G1 Z   3.000
G0 Z  15.000 
M9 M5

(* SHAPE Nr: 60 *)
G0 X 608.830 Y1214.000
M3 M8
G0 Z   3.000 
G1 Z  -1.500
F400
G1 X 612.110 Y1269.900
G1 X 559.960 Y1249.500
G1 X 595.480 Y1292.800
G1 X 541.290 Y1306.950
G1 X 595.480 Y1321.100
G1 X 559.960 Y1364.400
G1 X 612.110 Y1344.010
G1 X 608.830 Y1399.910
G1 X 639.030 Y1352.750
G1 X 669.240 Y1399.910
G1 X 665.960 Y1344.010
G1 X 718.110 Y1364.400
G1 X 682.590 Y1321.100
G1 X 736.780 Y1306.950
G1 X 682.590 Y1292.800
G1 X 718.110 Y1249.500
G1 X 665.960 Y1269.900
G1 X 669.240 Y1214.000
G1 X 639.030 Y1261.150
G1 X 608.830 Y1214.000
F150
G1 Z  -3.000
F400
G1 X 612.110 Y1269.900
G1 X 559.960 Y1249.500
G1 X 595.480 Y1292.800
G1 X 541.290 Y1306.950
G1 X 595.480 Y1321.100
G1 X 559.960 Y1364.400
G1 X 612.110 Y1344.010
G1 X 608.830 Y1399.910
G1 X 639.030 Y1352.750
G1 X 669.240 Y1399.910
G1 X 665.960 Y1344.010
G1 X 718.110 Y1364.400
G1 X 682.590 Y1321.100
G1 X 736.780 Y1306.950
G1 X 682.590 Y1292.800
G1 X 718.110 Y1249.500
G1 X 665.960 Y1269.900
G1 X 669.240 Y1214.000
G1 X 639.030 Y1261.150
G1 X 608.830 Y1214.000
F150
G1 Z   3.000
G0 Z  15.000 
M9 M5

(* SHAPE Nr: 61 *)
G0 X 479.190 Y1171.800
M3 M8
G0 Z   3.000 
G1 Z  -1.500
F400
G1 X 389.180 Y1450.000
G1 X 103.250 Y1388.850
G1 X 299.170 Y1605.900
G1 X 103.250 Y1822.950
G1 X 389.180 Y1761.800
G1 X 479.190 Y2040.000
G1 X 569.200 Y1761.800
G1 X 855.130 Y1822.950
G1 X 659.210 Y1605.900
G1 X 855.130 Y1388.850
G1 X 569.200 Y1450.000
G1 X 479.190 Y1171.800
F150
G1 Z  -3.000
F400
G1 X 389.180 Y1450.000
G1 X 103.250 Y1388.850
G1 X 299.170 Y1605.900
G1 X 103.250 Y1822.950
G1 X 389.180 Y1761.800
G1 X 479.190 Y2040.000
G1 X 569.200 Y1761.800
G1 X 855.130 Y1822.950
G1 X 659.210 Y1605.900
G1 X 855.130 Y1388.850
G1 X 569.200 Y1450.000
G1 X 479.190 Y1171.800
F150
G1 Z   3.000
G0 Z  15.000 
M9 M5

(* SHAPE Nr: 62 *)
G0 X 102.960 Y1557.820
M3 M8
G0 Z   3.000 
G1 Z  -1.500
F400
G1 X  88.800 Y1612.000
G1 X  45.510 Y1576.490
G1 X  65.900 Y1628.640
G1 X  10.000 Y1625.360
G1 X  57.160 Y1655.560
G1 X  10.000 Y1685.760
G1 X  65.900 Y1682.480
G1 X  45.510 Y1734.630
G1 X  88.800 Y1699.120
G1 X 102.960 Y1753.300
G1 X 117.110 Y1699.120
G1 X 160.410 Y1734.630
G1 X 140.010 Y1682.480
G1 X 195.910 Y1685.760
G1 X 148.760 Y1655.560
G1 X 195.910 Y1625.360
G1 X 140.010 Y1628.640
G1 X 160.410 Y1576.490
G1 X 117.110 Y1612.000
G1 X 102.960 Y1557.820
F150
G1 Z  -3.000
F400
G1 X  88.800 Y1612.000
G1 X  45.510 Y1576.490
G1 X  65.900 Y1628.640
G1 X  10.000 Y1625.360
G1 X  57.160 Y1655.560
G1 X  10.000 Y1685.760
G1 X  65.900 Y1682.480
G1 X  45.510 Y1734.630
G1 X  88.800 Y1699.120
G1 X 102.960 Y1753.300
G1 X 117.110 Y1699.120
G1 X 160.410 Y1734.630
G1 X 140.010 Y1682.480
G1 X 195.910 Y1685.760
G1 X 148.760 Y1655.560
G1 X 195.910 Y1625.360
G1 X 140.010 Y1628.640
G1 X 160.410 Y1576.490
G1 X 117.110 Y1612.000
G1 X 102.960 Y1557.820
F150
G1 Z   3.000
G0 Z  15.000 
M9 M5

(* SHAPE Nr: 63 *)
G0 X 102.960 Y1844.520
M3 M8
G0 Z   3.000 
G1 Z  -1.500
F400
G1 X  88.800 Y1898.700
G1 X  45.510 Y1863.190
G1 X  65.900 Y1915.340
G1 X  10.000 Y1912.060
G1 X  57.160 Y1942.260
G1 X  10.000 Y1972.460
G1 X  65.900 Y1969.180
G1 X  45.510 Y2021.330
G1 X  88.800 Y1985.820
G1 X 102.960 Y2040.000
G1 X 117.110 Y1985.820
G1 X 160.410 Y2021.330
G1 X 140.010 Y1969.180
G1 X 195.910 Y1972.460
G1 X 148.760 Y1942.260
G1 X 195.910 Y1912.060
G1 X 140.010 Y1915.340
G1 X 160.410 Y1863.190
G1 X 117.110 Y1898.700
G1 X 102.960 Y1844.520
F150
G1 Z  -3.000
F400
G1 X  88.800 Y1898.700
G1 X  45.510 Y1863.190
G1 X  65.900 Y1915.340
G1 X  10.000 Y1912.060
G1 X  57.160 Y1942.260
G1 X  10.000 Y1972.460
G1 X  65.900 Y1969.180
G1 X  45.510 Y2021.330
G1 X  88.800 Y1985.820
G1 X 102.960 Y2040.000
G1 X 117.110 Y1985.820
G1 X 160.410 Y2021.330
G1 X 140.010 Y1969.180
G1 X 195.910 Y1972.460
G1 X 148.760 Y1942.260
G1 X 195.910 Y1912.060
G1 X 140.010 Y1915.340
G1 X 160.410 Y1863.190
G1 X 117.110 Y1898.700
G1 X 102.960 Y1844.520
F150
G1 Z   3.000
G0 Z  15.000 
M9 M5

(* SHAPE Nr: 64 *)
G0 X 253.050 Y1852.040
M3 M8
G0 Z   3.000 
G1 Z  -1.500
F400
G1 X 256.330 Y1907.950
G1 X 204.180 Y1887.550
G1 X 239.700 Y1930.850
G1 X 185.510 Y1945.000
G1 X 239.700 Y1959.150
G1 X 204.180 Y2002.450
G1 X 256.330 Y1982.050
G1 X 253.050 Y2037.960
G1 X 283.250 Y1990.800
G1 X 313.460 Y2037.960
G1 X 310.170 Y1982.050
G1 X 362.330 Y2002.450
G1 X 326.810 Y1959.150
G1 X 380.990 Y1945.000
G1 X 326.810 Y1930.850
G1 X 362.330 Y1887.550
G1 X 310.170 Y1907.950
G1 X 313.460 Y1852.040
G1 X 283.250 Y1899.200
G1 X 253.050 Y1852.040
F150
G1 Z  -3.000
F400
G1 X 256.330 Y1907.950
G1 X 204.180 Y1887.550
G1 X 239.700 Y1930.850
G1 X 185.510 Y1945.000
G1 X 239.700 Y1959.150
G1 X 204.180 Y2002.450
G1 X 256.330 Y1982.050
G1 X 253.050 Y2037.960
G1 X 283.250 Y1990.800
G1 X 313.460 Y2037.960
G1 X 310.170 Y1982.050
G1 X 362.330 Y2002.450
G1 X 326.810 Y1959.150
G1 X 380.990 Y1945.000
G1 X 326.810 Y1930.850
G1 X 362.330 Y1887.550
G1 X 310.170 Y1907.950
G1 X 313.460 Y1852.040
G1 X 283.250 Y1899.200
G1 X 253.050 Y1852.040
F150
G1 Z   3.000
G0 Z  15.000 
M9 M5

(* SHAPE Nr: 65 *)
G0 X 572.920 Y1870.710
M3 M8
G0 Z   3.000 
G1 Z  -1.500
F400
G1 X 572.920 Y1927.140
G1 X 524.050 Y1955.350
G1 X 572.920 Y1983.570
G1 X 572.920 Y2040.000
G1 X 621.790 Y2011.790
G1 X 670.660 Y2040.000
G1 X 670.660 Y1983.570
G1 X 719.530 Y1955.350
G1 X 670.660 Y1927.140
G1 X 670.660 Y1870.710
G1 X 621.790 Y1898.930
G1 X 572.920 Y1870.710
F150
G1 Z  -3.000
F400
G1 X 572.920 Y1927.140
G1 X 524.050 Y1955.350
G1 X 572.920 Y1983.570
G1 X 572.920 Y2040.000
G1 X 621.790 Y2011.790
G1 X 670.660 Y2040.000
G1 X 670.660 Y1983.570
G1 X 719.530 Y1955.350
G1 X 670.660 Y1927.140
G1 X 670.660 Y1870.710
G1 X 621.790 Y1898.930
G1 X 572.920 Y1870.710
F150
G1 Z   3.000
G0 Z  15.000 
M9 M5

(* SHAPE Nr: 66 *)
G0 X 801.770 Y1854.090
M3 M8
G0 Z   3.000 
G1 Z  -1.500
F400
G1 X 805.060 Y1909.990
G1 X 752.900 Y1889.590
G1 X 788.420 Y1932.890
G1 X 734.240 Y1947.040
G1 X 788.420 Y1961.200
G1 X 752.900 Y2004.490
G1 X 805.060 Y1984.100
G1 X 801.770 Y2040.000
G1 X 831.980 Y1992.840
G1 X 862.180 Y2040.000
G1 X 858.900 Y1984.100
G1 X 911.050 Y2004.490
G1 X 875.530 Y1961.200
G1 X 929.720 Y1947.040
G1 X 875.530 Y1932.890
G1 X 911.050 Y1889.590
G1 X 858.900 Y1909.990
G1 X 862.180 Y1854.090
G1 X 831.980 Y1901.240
G1 X 801.770 Y1854.090
F150
G1 Z  -3.000
F400
G1 X 805.060 Y1909.990
G1 X 752.900 Y1889.590
G1 X 788.420 Y1932.890
G1 X 734.240 Y1947.040
G1 X 788.420 Y1961.200
G1 X 752.900 Y2004.490
G1 X 805.060 Y1984.100
G1 X 801.770 Y2040.000
G1 X 831.980 Y1992.840
G1 X 862.180 Y2040.000
G1 X 858.900 Y1984.100
G1 X 911.050 Y2004.490
G1 X 875.530 Y1961.200
G1 X 929.720 Y1947.040
G1 X 875.530 Y1932.890
G1 X 911.050 Y1889.590
G1 X 858.900 Y1909.990
G1 X 862.180 Y1854.090
G1 X 831.980 Y1901.240
G1 X 801.770 Y1854.090
F150
G1 Z   3.000
G0 Z  15.000 
M9 M5

(* SHAPE Nr: 67 *)
G0 X 973.380 Y1832.650
M3 M8
G0 Z   3.000 
G1 Z  -1.500
F400
G1 X 976.660 Y1888.550
G1 X 924.510 Y1868.150
G1 X 960.030 Y1911.450
G1 X 905.840 Y1925.600
G1 X 960.030 Y1939.760
G1 X 924.510 Y1983.050
G1 X 976.660 Y1962.660
G1 X 973.380 Y2018.560
G1 X1003.580 Y1971.400
G1 X1033.790 Y2018.560
G1 X1030.500 Y1962.660
G1 X1082.660 Y1983.050
G1 X1047.140 Y1939.760
G1 X1101.320 Y1925.600
G1 X1047.140 Y1911.450
G1 X1082.660 Y1868.150
G1 X1030.500 Y1888.550
G1 X1033.790 Y1832.650
G1 X1003.580 Y1879.800
G1 X 973.380 Y1832.650
F150
G1 Z  -3.000
F400
G1 X 976.660 Y1888.550
G1 X 924.510 Y1868.150
G1 X 960.030 Y1911.450
G1 X 905.840 Y1925.600
G1 X 960.030 Y1939.760
G1 X 924.510 Y1983.050
G1 X 976.660 Y1962.660
G1 X 973.380 Y2018.560
G1 X1003.580 Y1971.400
G1 X1033.790 Y2018.560
G1 X1030.500 Y1962.660
G1 X1082.660 Y1983.050
G1 X1047.140 Y1939.760
G1 X1101.320 Y1925.600
G1 X1047.140 Y1911.450
G1 X1082.660 Y1868.150
G1 X1030.500 Y1888.550
G1 X1033.790 Y1832.650
G1 X1003.580 Y1879.800
G1 X 973.380 Y1832.650
F150
G1 Z   3.000
G0 Z  15.000 
M9 M5

(* SHAPE Nr: 68 *)
G0 X 872.340 Y1388.850
M3 M8
G0 Z   3.000 
G1 Z  -1.500
F400
G1 X1068.260 Y1605.900
G1 X 872.340 Y1822.950
G1 X1158.270 Y1761.800
G1 X1248.280 Y2040.000
G1 X1338.290 Y1761.800
G1 X1624.220 Y1822.950
G1 X1428.300 Y1605.900
G1 X1624.220 Y1388.850
G1 X1338.290 Y1450.000
G1 X1248.280 Y1171.800
G1 X1158.270 Y1450.000
G1 X 872.340 Y1388.850
F150
G1 Z  -3.000
F400
G1 X1068.260 Y1605.900
G1 X 872.340 Y1822.950
G1 X1158.270 Y1761.800
G1 X1248.280 Y2040.000
G1 X1338.290 Y1761.800
G1 X1624.220 Y1822.950
G1 X1428.300 Y1605.900
G1 X1624.220 Y1388.850
G1 X1338.290 Y1450.000
G1 X1248.280 Y1171.800
G1 X1158.270 Y1450.000
G1 X 872.340 Y1388.850
F150
G1 Z   3.000
G0 Z  15.000 
M9 M5

(* SHAPE Nr: 69 *)
G0 X1319.360 Y1877.100
M3 M8
G0 Z   3.000 
G1 Z  -1.500
F400
G1 X1319.360 Y2007.420
G1 X1442.330 Y2040.000
G1 X1811.240 Y1991.130
G1 X1749.760 Y1971.580
G1 X1749.760 Y1912.940
G1 X1811.240 Y1893.390
G1 X1442.330 Y1844.520
G1 X1319.360 Y1877.100
F150
G1 Z  -3.000
F400
G1 X1319.360 Y2007.420
G1 X1442.330 Y2040.000
G1 X1811.240 Y1991.130
G1 X1749.760 Y1971.580
G1 X1749.760 Y1912.940
G1 X1811.240 Y1893.390
G1 X1442.330 Y1844.520
G1 X1319.360 Y1877.100
F150
G1 Z   3.000
G0 Z  15.000 
M9 M5

(* SHAPE Nr: 70 *)
G0 X1514.250 Y1562.550
M3 M8
G0 Z   3.000 
G1 Z  -1.500
F400
G1 X1549.760 Y1605.850
G1 X1495.580 Y1620.000
G1 X1549.760 Y1634.150
G1 X1514.250 Y1677.450
G1 X1566.400 Y1657.050
G1 X1563.120 Y1712.960
G1 X1593.320 Y1665.800
G1 X1623.520 Y1712.960
G1 X1620.240 Y1657.050
G1 X1672.390 Y1677.450
G1 X1636.880 Y1634.150
G1 X1691.060 Y1620.000
G1 X1636.880 Y1605.850
G1 X1672.390 Y1562.550
G1 X1620.240 Y1582.950
G1 X1623.520 Y1527.040
G1 X1593.320 Y1574.200
G1 X1563.120 Y1527.040
G1 X1566.400 Y1582.950
G1 X1514.250 Y1562.550
F150
G1 Z  -3.000
F400
G1 X1549.760 Y1605.850
G1 X1495.580 Y1620.000
G1 X1549.760 Y1634.150
G1 X1514.250 Y1677.450
G1 X1566.400 Y1657.050
G1 X1563.120 Y1712.960
G1 X1593.320 Y1665.800
G1 X1623.520 Y1712.960
G1 X1620.240 Y1657.050
G1 X1672.390 Y1677.450
G1 X1636.880 Y1634.150
G1 X1691.060 Y1620.000
G1 X1636.880 Y1605.850
G1 X1672.390 Y1562.550
G1 X1620.240 Y1582.950
G1 X1623.520 Y1527.040
G1 X1593.320 Y1574.200
G1 X1563.120 Y1527.040
G1 X1566.400 Y1582.950
G1 X1514.250 Y1562.550
F150
G1 Z   3.000
G0 Z  15.000 
M9 M5

(* SHAPE Nr: 71 *)
G0 X1548.240 Y 761.890
M3 M8
G0 Z   3.000 
G1 Z  -1.500
F400
G1 X1744.160 Y 978.940
G1 X1548.240 Y1195.990
G1 X1834.170 Y1134.840
G1 X1924.180 Y1413.040
G1 X2014.190 Y1134.840
G1 X2300.120 Y1195.990
G1 X2104.200 Y 978.940
G1 X2300.120 Y 761.890
G1 X2014.190 Y 823.040
G1 X1924.180 Y 544.840
G1 X1834.170 Y 823.040
G1 X1548.240 Y 761.890
F150
G1 Z  -3.000
F400
G1 X1744.160 Y 978.940
G1 X1548.240 Y1195.990
G1 X1834.170 Y1134.840
G1 X1924.180 Y1413.040
G1 X2014.190 Y1134.840
G1 X2300.120 Y1195.990
G1 X2104.200 Y 978.940
G1 X2300.120 Y 761.890
G1 X2014.190 Y 823.040
G1 X1924.180 Y 544.840
G1 X1834.170 Y 823.040
G1 X1548.240 Y 761.890
F150
G1 Z   3.000
G0 Z  15.000 
M9 M5

(* SHAPE Nr: 72 *)
G0 X2063.490 Y1254.130
M3 M8
G0 Z   3.000 
G1 Z  -1.500
F400
G1 X2120.940 Y1295.870
G1 X2098.990 Y1363.410
G1 X2156.440 Y1321.670
G1 X2213.890 Y1363.410
G1 X2191.950 Y1295.870
G1 X2249.400 Y1254.130
G1 X2178.390 Y1254.130
G1 X2156.440 Y1186.590
G1 X2134.500 Y1254.130
G1 X2063.490 Y1254.130
F150
G1 Z  -3.000
F400
G1 X2120.940 Y1295.870
G1 X2098.990 Y1363.410
G1 X2156.440 Y1321.670
G1 X2213.890 Y1363.410
G1 X2191.950 Y1295.870
G1 X2249.400 Y1254.130
G1 X2178.390 Y1254.130
G1 X2156.440 Y1186.590
G1 X2134.500 Y1254.130
G1 X2063.490 Y1254.130
F150
G1 Z   3.000
G0 Z  15.000 
M9 M5

(* SHAPE Nr: 73 *)
G0 X2240.930 Y1213.000
M3 M8
G0 Z   3.000 
G1 Z  -1.500
F400
G1 X2282.670 Y1270.450
G1 X2240.930 Y1327.900
G1 X2308.470 Y1305.960
G1 X2350.210 Y1363.410
G1 X2350.210 Y1292.400
G1 X2417.740 Y1270.450
G1 X2350.210 Y1248.510
G1 X2350.210 Y1177.490
G1 X2308.470 Y1234.940
G1 X2240.930 Y1213.000
F150
G1 Z  -3.000
F400
G1 X2282.670 Y1270.450
G1 X2240.930 Y1327.900
G1 X2308.470 Y1305.960
G1 X2350.210 Y1363.410
G1 X2350.210 Y1292.400
G1 X2417.740 Y1270.450
G1 X2350.210 Y1248.510
G1 X2350.210 Y1177.490
G1 X2308.470 Y1234.940
G1 X2240.930 Y1213.000
F150
G1 Z   3.000
G0 Z  15.000 
M9 M5

(* SHAPE Nr: 74 *)
G0 X2550.460 Y1171.800
M3 M8
G0 Z   3.000 
G1 Z  -1.500
F400
G2 X2550.460 Y2040.000 I 443.198 J 434.100
G1 X2633.070 Y2040.000
G3 X2633.070 Y1171.800 I 360.591 J-434.100
G1 X2550.460 Y1171.800
F150
G1 Z  -3.000
F400
G2 X2550.460 Y2040.000 I 443.198 J 434.100
G1 X2633.070 Y2040.000
G3 X2633.070 Y1171.800 I 360.591 J-434.100
G1 X2550.460 Y1171.800
F150
G1 Z   3.000
G0 Z  15.000 
M9 M5

(* SHAPE Nr: 75 *)
G0 X2654.450 Y1171.800
M3 M8
G0 Z   3.000 
G1 Z  -1.500
F400
G2 X2654.450 Y2040.000 I 443.198 J 434.100
G1 X2737.050 Y2040.000
G3 X2737.050 Y1171.800 I 360.591 J-434.100
G1 X2654.450 Y1171.800
F150
G1 Z  -3.000
F400
G2 X2654.450 Y2040.000 I 443.198 J 434.100
G1 X2737.050 Y2040.000
G3 X2737.050 Y1171.800 I 360.591 J-434.100
G1 X2654.450 Y1171.800
F150
G1 Z   3.000
G0 Z  15.000 
M9 M5

(* SHAPE Nr: 76 *)
G0 X2603.870 Y 985.000
M3 M8
G0 Z   3.000 
G1 Z  -1.500
F400
G1 X2671.410 Y1077.960
G1 X2780.680 Y1042.450
G1 X2780.680 Y 927.550
G1 X2671.410 Y 892.040
G1 X2603.870 Y 985.000
F150
G1 Z  -3.000
F400
G1 X2671.410 Y1077.960
G1 X2780.680 Y1042.450
G1 X2780.680 Y 927.550
G1 X2671.410 Y 892.040
G1 X2603.870 Y 985.000
F150
G1 Z   3.000
G0 Z  15.000 
M9 M5

(* SHAPE Nr: 77 *)
G0 X2438.030 Y 924.730
M3 M8
G0 Z   3.000 
G1 Z  -1.500
F400
G1 X2466.240 Y 973.600
G1 X2438.030 Y1022.470
G1 X2494.460 Y1022.470
G1 X2522.670 Y1071.340
G1 X2550.890 Y1022.470
G1 X2607.320 Y1022.470
G1 X2579.100 Y 973.600
G1 X2607.320 Y 924.730
G1 X2550.890 Y 924.730
G1 X2522.670 Y 875.860
G1 X2494.460 Y 924.730
G1 X2438.030 Y 924.730
F150
G1 Z  -3.000
F400
G1 X2466.240 Y 973.600
G1 X2438.030 Y1022.470
G1 X2494.460 Y1022.470
G1 X2522.670 Y1071.340
G1 X2550.890 Y1022.470
G1 X2607.320 Y1022.470
G1 X2579.100 Y 973.600
G1 X2607.320 Y 924.730
G1 X2550.890 Y 924.730
G1 X2522.670 Y 875.860
G1 X2494.460 Y 924.730
G1 X2438.030 Y 924.730
F150
G1 Z   3.000
G0 Z  15.000 
M9 M5

(* SHAPE Nr: 78 *)
G0 X2435.460 Y 793.720
M3 M8
G0 Z   3.000 
G1 Z  -1.500
F400
G1 X2484.330 Y 821.930
G1 X2484.330 Y 878.360
G1 X2533.200 Y 850.150
G1 X2582.070 Y 878.360
G1 X2582.070 Y 821.930
G1 X2630.940 Y 793.720
G1 X2582.070 Y 765.500
G1 X2582.070 Y 709.070
G1 X2533.200 Y 737.290
G1 X2484.330 Y 709.070
G1 X2484.330 Y 765.500
G1 X2435.460 Y 793.720
F150
G1 Z  -3.000
F400
G1 X2484.330 Y 821.930
G1 X2484.330 Y 878.360
G1 X2533.200 Y 850.150
G1 X2582.070 Y 878.360
G1 X2582.070 Y 821.930
G1 X2630.940 Y 793.720
G1 X2582.070 Y 765.500
G1 X2582.070 Y 709.070
G1 X2533.200 Y 737.290
G1 X2484.330 Y 709.070
G1 X2484.330 Y 765.500
G1 X2435.460 Y 793.720
F150
G1 Z   3.000
G0 Z  15.000 
M9 M5

(* SHAPE Nr: 79 *)
G0 X1964.040 Y 620.210
M3 M8
G0 Z   3.000 
G1 Z  -1.500
F400
G1 X2279.430 Y 620.210
G1 X2376.890 Y 920.170
G1 X2474.350 Y 620.210
G1 X2789.750 Y 620.210
G1 X2534.590 Y 434.830
G1 X2632.050 Y 134.880
G1 X2376.890 Y 320.260
G1 X2121.730 Y 134.880
G1 X2219.200 Y 434.830
G1 X1964.040 Y 620.210
F150
G1 Z  -3.000
F400
G1 X2279.430 Y 620.210
G1 X2376.890 Y 920.170
G1 X2474.350 Y 620.210
G1 X2789.750 Y 620.210
G1 X2534.590 Y 434.830
G1 X2632.050 Y 134.880
G1 X2376.890 Y 320.260
G1 X2121.730 Y 134.880
G1 X2219.200 Y 434.830
G1 X1964.040 Y 620.210
F150
G1 Z   3.000
G0 Z  15.000 
M9 M5

(* SHAPE Nr: 80 *)
G0 X2182.860 Y 927.550
M3 M8
G0 Z   3.000 
G1 Z  -1.500
F400
G1 X2218.380 Y 970.850
G1 X2164.190 Y 985.000
G1 X2218.380 Y 999.150
G1 X2182.860 Y1042.450
G1 X2235.010 Y1022.050
G1 X2231.730 Y1077.960
G1 X2261.930 Y1030.800
G1 X2292.140 Y1077.960
G1 X2288.850 Y1022.050
G1 X2341.010 Y1042.450
G1 X2305.490 Y 999.150
G1 X2359.670 Y 985.000
G1 X2305.490 Y 970.850
G1 X2341.010 Y 927.550
G1 X2288.850 Y 947.950
G1 X2292.140 Y 892.040
G1 X2261.930 Y 939.200
G1 X2231.730 Y 892.040
G1 X2235.010 Y 947.950
G1 X2182.860 Y 927.550
F150
G1 Z  -3.000
F400
G1 X2218.380 Y 970.850
G1 X2164.190 Y 985.000
G1 X2218.380 Y 999.150
G1 X2182.860 Y1042.450
G1 X2235.010 Y1022.050
G1 X2231.730 Y1077.960
G1 X2261.930 Y1030.800
G1 X2292.140 Y1077.960
G1 X2288.850 Y1022.050
G1 X2341.010 Y1042.450
G1 X2305.490 Y 999.150
G1 X2359.670 Y 985.000
G1 X2305.490 Y 970.850
G1 X2341.010 Y 927.550
G1 X2288.850 Y 947.950
G1 X2292.140 Y 892.040
G1 X2261.930 Y 939.200
G1 X2231.730 Y 892.040
G1 X2235.010 Y 947.950
G1 X2182.860 Y 927.550
F150
G1 Z   3.000
G0 Z  15.000 
M9 M5

(* SHAPE Nr: 81 *)
G0 X2332.590 Y1100.430
M3 M8
G0 Z   3.000 
G1 Z  -1.500
F400
G1 X2379.750 Y1130.640
G1 X2332.590 Y1160.840
G1 X2388.500 Y1157.560
G1 X2368.100 Y1209.710
G1 X2411.400 Y1174.190
G1 X2425.550 Y1228.380
G1 X2439.700 Y1174.190
G1 X2483.000 Y1209.710
G1 X2462.600 Y1157.560
G1 X2518.500 Y1160.840
G1 X2471.350 Y1130.640
G1 X2518.500 Y1100.430
G1 X2462.600 Y1103.720
G1 X2483.000 Y1051.560
G1 X2439.700 Y1087.080
G1 X2425.550 Y1032.900
G1 X2411.400 Y1087.080
G1 X2368.100 Y1051.560
G1 X2388.500 Y1103.720
G1 X2332.590 Y1100.430
F150
G1 Z  -3.000
F400
G1 X2379.750 Y1130.640
G1 X2332.590 Y1160.840
G1 X2388.500 Y1157.560
G1 X2368.100 Y1209.710
G1 X2411.400 Y1174.190
G1 X2425.550 Y1228.380
G1 X2439.700 Y1174.190
G1 X2483.000 Y1209.710
G1 X2462.600 Y1157.560
G1 X2518.500 Y1160.840
G1 X2471.350 Y1130.640
G1 X2518.500 Y1100.430
G1 X2462.600 Y1103.720
G1 X2483.000 Y1051.560
G1 X2439.700 Y1087.080
G1 X2425.550 Y1032.900
G1 X2411.400 Y1087.080
G1 X2368.100 Y1051.560
G1 X2388.500 Y1103.720
G1 X2332.590 Y1100.430
F150
G1 Z   3.000
G0 Z  15.000 
M9 M5

(* SHAPE Nr: 82 *)
G0 X2575.800 Y1442.810
M3 M8
G0 Z   3.000 
G1 Z  -1.500
F400
G1 X2604.010 Y1491.690
G1 X2575.800 Y1540.560
G1 X2632.230 Y1540.560
G1 X2660.440 Y1589.430
G1 X2688.660 Y1540.560
G1 X2745.090 Y1540.560
G1 X2716.870 Y1491.690
G1 X2745.090 Y1442.810
G1 X2688.660 Y1442.810
G1 X2660.440 Y1393.940
G1 X2632.230 Y1442.810
G1 X2575.800 Y1442.810
F150
G1 Z  -3.000
F400
G1 X2604.010 Y1491.690
G1 X2575.800 Y1540.560
G1 X2632.230 Y1540.560
G1 X2660.440 Y1589.430
G1 X2688.660 Y1540.560
G1 X2745.090 Y1540.560
G1 X2716.870 Y1491.690
G1 X2745.090 Y1442.810
G1 X2688.660 Y1442.810
G1 X2660.440 Y1393.940
G1 X2632.230 Y1442.810
G1 X2575.800 Y1442.810
F150
G1 Z   3.000
G0 Z  15.000 
M9 M5

(* SHAPE Nr: 83 *)
G0 X2276.430 Y1889.590
M3 M8
G0 Z   3.000 
G1 Z  -1.500
F400
G1 X2276.430 Y2004.490
G1 X2385.710 Y2040.000
G1 X2453.240 Y1947.040
G1 X2385.710 Y1854.090
G1 X2276.430 Y1889.590
F150
G1 Z  -3.000
F400
G1 X2276.430 Y2004.490
G1 X2385.710 Y2040.000
G1 X2453.240 Y1947.040
G1 X2385.710 Y1854.090
G1 X2276.430 Y1889.590
F150
G1 Z   3.000
G0 Z  15.000 
M9 M5

(* SHAPE Nr: 84 *)
G0 X2084.890 Y1889.590
M3 M8
G0 Z   3.000 
G1 Z  -1.500
F400
G1 X2120.400 Y1932.890
G1 X2066.220 Y1947.040
G1 X2120.400 Y1961.200
G1 X2084.890 Y2004.490
G1 X2137.040 Y1984.100
G1 X2133.760 Y2040.000
G1 X2163.960 Y1992.840
G1 X2194.160 Y2040.000
G1 X2190.880 Y1984.100
G1 X2243.030 Y2004.490
G1 X2207.520 Y1961.200
G1 X2261.700 Y1947.040
G1 X2207.520 Y1932.890
G1 X2243.030 Y1889.590
G1 X2190.880 Y1909.990
G1 X2194.160 Y1854.090
G1 X2163.960 Y1901.240
G1 X2133.760 Y1854.090
G1 X2137.040 Y1909.990
G1 X2084.890 Y1889.590
F150
G1 Z  -3.000
F400
G1 X2120.400 Y1932.890
G1 X2066.220 Y1947.040
G1 X2120.400 Y1961.200
G1 X2084.890 Y2004.490
G1 X2137.040 Y1984.100
G1 X2133.760 Y2040.000
G1 X2163.960 Y1992.840
G1 X2194.160 Y2040.000
G1 X2190.880 Y1984.100
G1 X2243.030 Y2004.490
G1 X2207.520 Y1961.200
G1 X2261.700 Y1947.040
G1 X2207.520 Y1932.890
G1 X2243.030 Y1889.590
G1 X2190.880 Y1909.990
G1 X2194.160 Y1854.090
G1 X2163.960 Y1901.240
G1 X2133.760 Y1854.090
G1 X2137.040 Y1909.990
G1 X2084.890 Y1889.590
F150
G1 Z   3.000
G0 Z  15.000 
M9 M5

(* SHAPE Nr: 85 *)
G0 X1641.790 Y1388.850
M3 M8
G0 Z   3.000 
G1 Z  -1.500
F400
G1 X1837.710 Y1605.900
G1 X1641.790 Y1822.950
G1 X1927.720 Y1761.800
G1 X2017.730 Y2040.000
G1 X2107.740 Y1761.800
G1 X2393.670 Y1822.950
G1 X2197.750 Y1605.900
G1 X2393.670 Y1388.850
G1 X2107.740 Y1450.000
G1 X2017.730 Y1171.800
G1 X1927.720 Y1450.000
G1 X1641.790 Y1388.850
F150
G1 Z  -3.000
F400
G1 X1837.710 Y1605.900
G1 X1641.790 Y1822.950
G1 X1927.720 Y1761.800
G1 X2017.730 Y2040.000
G1 X2107.740 Y1761.800
G1 X2393.670 Y1822.950
G1 X2197.750 Y1605.900
G1 X2393.670 Y1388.850
G1 X2107.740 Y1450.000
G1 X2017.730 Y1171.800
G1 X1927.720 Y1450.000
G1 X1641.790 Y1388.850
F150
G1 Z   3.000
G0 Z  15.000 
M9 M5

(* SHAPE Nr: 86 *)
G0 X2728.070 Y1581.070
M3 M8
G0 Z   3.000 
G1 Z  -1.500
F400
G2 X2714.110 Y1605.660 I 146.929 J  99.671
G2 X2702.070 Y1635.970 I 246.843 J 115.599
G2 X2692.290 Y1671.090 I 361.221 J 119.512
G2 X2685.090 Y1709.940 I 472.468 J 107.654
G2 X2680.690 Y1751.350 I 561.472 J  80.598
G2 X2679.200 Y1794.060 I 611.486 J  42.714
G2 X2680.690 Y1836.770 I 612.976 J  -0.004
G2 X2685.090 Y1878.180 I 565.872 J -39.188
G2 X2692.290 Y1917.030 I 479.668 J -68.804
G2 X2702.070 Y1952.150 I 371.001 J -84.392
G2 X2714.110 Y1982.460 I 258.883 J -85.289
G2 X2728.070 Y2007.050 I 160.893 J -75.083
G2 X2743.510 Y2025.170 I  87.861 J -59.228
G2 X2759.970 Y2036.260 I  42.093 J -44.715
G2 X2776.940 Y2040.000 I  17.158 J -37.484
G1 X2776.940 Y1548.120
G2 X2759.970 Y1551.860 I   0.188 J  41.224
G2 X2743.510 Y1562.950 I  25.633 J  55.805
G2 X2728.070 Y1581.070 I  72.421 J  77.348
F150
G1 Z  -3.000
F400
G2 X2714.110 Y1605.660 I 146.929 J  99.671
G2 X2702.070 Y1635.970 I 246.843 J 115.599
G2 X2692.290 Y1671.090 I 361.221 J 119.512
G2 X2685.090 Y1709.940 I 472.468 J 107.654
G2 X2680.690 Y1751.350 I 561.472 J  80.598
G2 X2679.200 Y1794.060 I 611.486 J  42.714
G2 X2680.690 Y1836.770 I 612.976 J  -0.004
G2 X2685.090 Y1878.180 I 565.872 J -39.188
G2 X2692.290 Y1917.030 I 479.668 J -68.804
G2 X2702.070 Y1952.150 I 371.001 J -84.392
G2 X2714.110 Y1982.460 I 258.883 J -85.289
G2 X2728.070 Y2007.050 I 160.893 J -75.083
G2 X2743.510 Y2025.170 I  87.861 J -59.228
G2 X2759.970 Y2036.260 I  42.093 J -44.715
G2 X2776.940 Y2040.000 I  17.158 J -37.484
G1 X2776.940 Y1548.120
G2 X2759.970 Y1551.860 I   0.188 J  41.224
G2 X2743.510 Y1562.950 I  25.633 J  55.805
G2 X2728.070 Y1581.070 I  72.421 J  77.348
F150
G1 Z   3.000
G0 Z  15.000 
M9 M5

(* SHAPE Nr: 87 *)
G0 X1355.570 Y1236.590
M3 M8
G0 Z   3.000 
G1 Z  -1.500
F400
G1 X1377.520 Y1304.130
G1 X1320.070 Y1345.870
G1 X1391.080 Y1345.870
G1 X1413.030 Y1413.410
G1 X1434.970 Y1345.870
G1 X1505.980 Y1345.870
G1 X1448.530 Y1304.130
G1 X1470.470 Y1236.590
G1 X1413.030 Y1278.330
G1 X1355.570 Y1236.590
F150
G1 Z  -3.000
F400
G1 X1377.520 Y1304.130
G1 X1320.070 Y1345.870
G1 X1391.080 Y1345.870
G1 X1413.030 Y1413.410
G1 X1434.970 Y1345.870
G1 X1505.980 Y1345.870
G1 X1448.530 Y1304.130
G1 X1470.470 Y1236.590
G1 X1413.030 Y1278.330
G1 X1355.570 Y1236.590
F150
G1 Z   3.000
G0 Z  15.000 
M9 M5

(* SHAPE Nr: 88 *)
G0 X 778.970 Y 761.200
M3 M8
G0 Z   3.000 
G1 Z  -1.500
F400
G1 X 974.890 Y 978.250
G1 X 778.970 Y1195.300
G1 X1064.900 Y1134.150
G1 X1154.910 Y1412.350
G1 X1244.920 Y1134.150
G1 X1530.850 Y1195.300
G1 X1334.930 Y 978.250
G1 X1530.850 Y 761.200
G1 X1244.920 Y 822.350
G1 X1154.910 Y 544.150
G1 X1064.900 Y 822.350
G1 X 778.970 Y 761.200
F150
G1 Z  -3.000
F400
G1 X 974.890 Y 978.250
G1 X 778.970 Y1195.300
G1 X1064.900 Y1134.150
G1 X1154.910 Y1412.350
G1 X1244.920 Y1134.150
G1 X1530.850 Y1195.300
G1 X1334.930 Y 978.250
G1 X1530.850 Y 761.200
G1 X1244.920 Y 822.350
G1 X1154.910 Y 544.150
G1 X1064.900 Y 822.350
G1 X 778.970 Y 761.200
F150
G1 Z   3.000
G0 Z  15.000 
M9 M5

(* SHAPE Nr: 89 *)
G0 X 789.490 Y1522.040
M3 M8
G0 Z   3.000 
G1 Z  -1.500
F400
G1 X 792.780 Y1577.950
G1 X 740.620 Y1557.550
G1 X 776.140 Y1600.850
G1 X 721.960 Y1615.000
G1 X 776.140 Y1629.150
G1 X 740.620 Y1672.450
G1 X 792.780 Y1652.050
G1 X 789.490 Y1707.960
G1 X 819.700 Y1660.800
G1 X 849.900 Y1707.960
G1 X 846.620 Y1652.050
G1 X 898.770 Y1672.450
G1 X 863.260 Y1629.150
G1 X 917.440 Y1615.000
G1 X 863.260 Y1600.850
G1 X 898.770 Y1557.550
G1 X 846.620 Y1577.950
G1 X 849.900 Y1522.040
G1 X 819.700 Y1569.200
G1 X 789.490 Y1522.040
F150
G1 Z  -3.000
F400
G1 X 792.780 Y1577.950
G1 X 740.620 Y1557.550
G1 X 776.140 Y1600.850
G1 X 721.960 Y1615.000
G1 X 776.140 Y1629.150
G1 X 740.620 Y1672.450
G1 X 792.780 Y1652.050
G1 X 789.490 Y1707.960
G1 X 819.700 Y1660.800
G1 X 849.900 Y1707.960
G1 X 846.620 Y1652.050
G1 X 898.770 Y1672.450
G1 X 863.260 Y1629.150
G1 X 917.440 Y1615.000
G1 X 863.260 Y1600.850
G1 X 898.770 Y1557.550
G1 X 846.620 Y1577.950
G1 X 849.900 Y1522.040
G1 X 819.700 Y1569.200
G1 X 789.490 Y1522.040
F150
G1 Z   3.000
G0 Z  15.000 
M9 M5

(* SHAPE Nr: 90 *)
G0 X1409.730 Y 922.550
M3 M8
G0 Z   3.000 
G1 Z  -1.500
F400
G1 X1445.240 Y 965.850
G1 X1391.060 Y 980.000
G1 X1445.240 Y 994.150
G1 X1409.730 Y1037.450
G1 X1461.880 Y1017.050
G1 X1458.600 Y1072.960
G1 X1488.800 Y1025.800
G1 X1519.010 Y1072.960
G1 X1515.720 Y1017.050
G1 X1567.880 Y1037.450
G1 X1532.360 Y 994.150
G1 X1586.540 Y 980.000
G1 X1532.360 Y 965.850
G1 X1567.880 Y 922.550
G1 X1515.720 Y 942.950
G1 X1519.010 Y 887.040
G1 X1488.800 Y 934.200
G1 X1458.600 Y 887.040
G1 X1461.880 Y 942.950
G1 X1409.730 Y 922.550
F150
G1 Z  -3.000
F400
G1 X1445.240 Y 965.850
G1 X1391.060 Y 980.000
G1 X1445.240 Y 994.150
G1 X1409.730 Y1037.450
G1 X1461.880 Y1017.050
G1 X1458.600 Y1072.960
G1 X1488.800 Y1025.800
G1 X1519.010 Y1072.960
G1 X1515.720 Y1017.050
G1 X1567.880 Y1037.450
G1 X1532.360 Y 994.150
G1 X1586.540 Y 980.000
G1 X1532.360 Y 965.850
G1 X1567.880 Y 922.550
G1 X1515.720 Y 942.950
G1 X1519.010 Y 887.040
G1 X1488.800 Y 934.200
G1 X1458.600 Y 887.040
G1 X1461.880 Y 942.950
G1 X1409.730 Y 922.550
F150
G1 Z   3.000
G0 Z  15.000 
M9 M5

(* SHAPE Nr: 91 *)
G0 X1603.300 Y 617.550
M3 M8
G0 Z   3.000 
G1 Z  -1.500
F400
G1 X1638.820 Y 660.850
G1 X1584.640 Y 675.000
G1 X1638.820 Y 689.150
G1 X1603.300 Y 732.450
G1 X1655.460 Y 712.050
G1 X1652.170 Y 767.960
G1 X1682.380 Y 720.800
G1 X1712.580 Y 767.960
G1 X1709.300 Y 712.050
G1 X1761.450 Y 732.450
G1 X1725.930 Y 689.150
G1 X1780.120 Y 675.000
G1 X1725.930 Y 660.850
G1 X1761.450 Y 617.550
G1 X1709.300 Y 637.950
G1 X1712.580 Y 582.040
G1 X1682.380 Y 629.200
G1 X1652.170 Y 582.040
G1 X1655.460 Y 637.950
G1 X1603.300 Y 617.550
F150
G1 Z  -3.000
F400
G1 X1638.820 Y 660.850
G1 X1584.640 Y 675.000
G1 X1638.820 Y 689.150
G1 X1603.300 Y 732.450
G1 X1655.460 Y 712.050
G1 X1652.170 Y 767.960
G1 X1682.380 Y 720.800
G1 X1712.580 Y 767.960
G1 X1709.300 Y 712.050
G1 X1761.450 Y 732.450
G1 X1725.930 Y 689.150
G1 X1780.120 Y 675.000
G1 X1725.930 Y 660.850
G1 X1761.450 Y 617.550
G1 X1709.300 Y 637.950
G1 X1712.580 Y 582.040
G1 X1682.380 Y 629.200
G1 X1652.170 Y 582.040
G1 X1655.460 Y 637.950
G1 X1603.300 Y 617.550
F150
G1 Z   3.000
G0 Z  15.000 
M9 M5

(* SHAPE Nr: 92 *)
G0 X1736.540 Y 319.360
M3 M8
G0 Z   3.000 
G1 Z  -1.500
F400
G2 X1732.130 Y 360.770 I 561.467 J  80.734
G2 X1730.640 Y 403.470 I 611.343 J  42.709
G2 X1732.130 Y 446.180 I 612.976 J  -0.004
G2 X1736.540 Y 487.590 I 565.877 J -39.324
G2 X1743.740 Y 526.440 I 479.668 J -68.804
G2 X1753.510 Y 561.560 I 370.996 J -84.288
G2 X1765.560 Y 591.870 I 258.896 J -85.376
G2 X1779.510 Y 616.460 I 160.888 J -75.020
G2 X1794.950 Y 634.580 I  87.859 J -59.227
G2 X1811.410 Y 645.680 I  42.123 J -44.710
G2 X1828.380 Y 649.410 I  17.135 J -37.489
G2 X1845.350 Y 645.680 I  -0.165 J -41.219
G2 X1861.810 Y 634.580 I -25.663 J -55.810
G2 X1877.250 Y 616.460 I -72.419 J -77.347
G2 X1891.210 Y 591.870 I-146.933 J -99.673
G2 X1903.260 Y 561.560 I-246.838 J-115.683
G2 X1913.030 Y 526.440 I-361.226 J-119.408
G2 X1920.230 Y 487.590 I-472.468 J-107.654
G2 X1924.640 Y 446.180 I-561.467 J -80.734
G2 X1926.120 Y 403.470 I-611.491 J -42.570
G2 X1924.640 Y 360.770 I-612.828 J  -0.135
G2 X1920.230 Y 319.360 I-565.877 J  39.324
G2 X1913.030 Y 280.500 I-479.791 J  68.799
G2 X1903.260 Y 245.380 I-370.996 J  84.288
G2 X1891.210 Y 215.070 I-258.888 J  85.373
G2 X1877.250 Y 190.480 I-160.893 J  75.083
G2 X1861.810 Y 172.360 I -87.861 J  59.228
G2 X1845.350 Y 161.270 I -42.093 J  44.715
G2 X1828.380 Y 157.530 I -17.158 J  37.484
G2 X1811.410 Y 161.270 I   0.188 J  41.224
G2 X1794.950 Y 172.360 I  25.633 J  55.805
G2 X1779.510 Y 190.480 I  72.419 J  77.347
G2 X1765.560 Y 215.070 I 146.938 J  99.610
G2 X1753.510 Y 245.380 I 246.838 J 115.683
G2 X1743.740 Y 280.500 I 361.226 J 119.408
G2 X1736.540 Y 319.360 I 472.591 J 107.659
F150
G1 Z  -3.000
F400
G2 X1732.130 Y 360.770 I 561.467 J  80.734
G2 X1730.640 Y 403.470 I 611.343 J  42.709
G2 X1732.130 Y 446.180 I 612.976 J  -0.004
G2 X1736.540 Y 487.590 I 565.877 J -39.324
G2 X1743.740 Y 526.440 I 479.668 J -68.804
G2 X1753.510 Y 561.560 I 370.996 J -84.288
G2 X1765.560 Y 591.870 I 258.896 J -85.376
G2 X1779.510 Y 616.460 I 160.888 J -75.020
G2 X1794.950 Y 634.580 I  87.859 J -59.227
G2 X1811.410 Y 645.680 I  42.123 J -44.710
G2 X1828.380 Y 649.410 I  17.135 J -37.489
G2 X1845.350 Y 645.680 I  -0.165 J -41.219
G2 X1861.810 Y 634.580 I -25.663 J -55.810
G2 X1877.250 Y 616.460 I -72.419 J -77.347
G2 X1891.210 Y 591.870 I-146.933 J -99.673
G2 X1903.260 Y 561.560 I-246.838 J-115.683
G2 X1913.030 Y 526.440 I-361.226 J-119.408
G2 X1920.230 Y 487.590 I-472.468 J-107.654
G2 X1924.640 Y 446.180 I-561.467 J -80.734
G2 X1926.120 Y 403.470 I-611.491 J -42.570
G2 X1924.640 Y 360.770 I-612.828 J  -0.135
G2 X1920.230 Y 319.360 I-565.877 J  39.324
G2 X1913.030 Y 280.500 I-479.791 J  68.799
G2 X1903.260 Y 245.380 I-370.996 J  84.288
G2 X1891.210 Y 215.070 I-258.888 J  85.373
G2 X1877.250 Y 190.480 I-160.893 J  75.083
G2 X1861.810 Y 172.360 I -87.861 J  59.228
G2 X1845.350 Y 161.270 I -42.093 J  44.715
G2 X1828.380 Y 157.530 I -17.158 J  37.484
G2 X1811.410 Y 161.270 I   0.188 J  41.224
G2 X1794.950 Y 172.360 I  25.633 J  55.805
G2 X1779.510 Y 190.480 I  72.419 J  77.347
G2 X1765.560 Y 215.070 I 146.938 J  99.610
G2 X1753.510 Y 245.380 I 246.838 J 115.683
G2 X1743.740 Y 280.500 I 361.226 J 119.408
G2 X1736.540 Y 319.360 I 472.591 J 107.659
F150
G1 Z   3.000
G0 Z  15.000 
M9 M5

(* SHAPE Nr: 93 *)
G0 X1155.130 Y 501.190
M3 M8
G0 Z   3.000 
G1 Z  -1.500
F400
G2 X1158.870 Y 518.160 I  41.224 J  -0.188
G2 X1169.960 Y 534.620 I  55.805 J -25.633
G2 X1188.080 Y 550.060 I  77.347 J -72.419
G2 X1212.670 Y 564.020 I  99.673 J-146.933
G2 X1242.990 Y 576.070 I 115.688 J-246.921
G2 X1278.100 Y 585.840 I 119.403 J-361.122
G2 X1316.960 Y 593.040 I 107.659 J-472.591
G2 X1358.370 Y 597.450 I  80.734 J-561.467
G2 X1401.070 Y 598.930 I  42.565 J-611.348
G2 X1443.780 Y 597.450 I   0.140 J-612.971
G2 X1485.190 Y 593.040 I -39.324 J-565.877
G2 X1524.040 Y 585.840 I -68.804 J-479.668
G2 X1559.160 Y 576.070 I -84.288 J-370.996
G2 X1589.470 Y 564.020 I -85.376 J-258.896
G2 X1614.060 Y 550.060 I -75.083 J-160.893
G2 X1632.180 Y 534.620 I -59.227 J -87.859
G2 X1643.280 Y 518.160 I -44.710 J -42.123
G2 X1647.010 Y 501.190 I -37.489 J -17.135
G1 X1155.130 Y 501.190
F150
G1 Z  -3.000
F400
G2 X1158.870 Y 518.160 I  41.224 J  -0.188
G2 X1169.960 Y 534.620 I  55.805 J -25.633
G2 X1188.080 Y 550.060 I  77.347 J -72.419
G2 X1212.670 Y 564.020 I  99.673 J-146.933
G2 X1242.990 Y 576.070 I 115.688 J-246.921
G2 X1278.100 Y 585.840 I 119.403 J-361.122
G2 X1316.960 Y 593.040 I 107.659 J-472.591
G2 X1358.370 Y 597.450 I  80.734 J-561.467
G2 X1401.070 Y 598.930 I  42.565 J-611.348
G2 X1443.780 Y 597.450 I   0.140 J-612.971
G2 X1485.190 Y 593.040 I -39.324 J-565.877
G2 X1524.040 Y 585.840 I -68.804 J-479.668
G2 X1559.160 Y 576.070 I -84.288 J-370.996
G2 X1589.470 Y 564.020 I -85.376 J-258.896
G2 X1614.060 Y 550.060 I -75.083 J-160.893
G2 X1632.180 Y 534.620 I -59.227 J -87.859
G2 X1643.280 Y 518.160 I -44.710 J -42.123
G2 X1647.010 Y 501.190 I -37.489 J -17.135
G1 X1155.130 Y 501.190
F150
G1 Z   3.000
G0 Z  15.000 
M9 M5

(* SHAPE Nr: 94 *)
G0 X1483.770 Y 130.000
M3 M8
G0 Z   3.000 
G1 Z  -1.500
F400
G1 X1537.950 Y 144.150
G1 X1502.440 Y 187.450
G1 X1554.590 Y 167.050
G1 X1551.310 Y 222.960
G1 X1581.510 Y 175.800
G1 X1611.720 Y 222.960
G1 X1608.430 Y 167.050
G1 X1660.590 Y 187.450
G1 X1625.070 Y 144.150
G1 X1679.250 Y 130.000
G1 X1625.070 Y 115.850
G1 X1660.590 Y  72.550
G1 X1608.430 Y  92.950
G1 X1611.720 Y  37.040
G1 X1581.510 Y  84.200
G1 X1551.310 Y  37.040
G1 X1554.590 Y  92.950
G1 X1502.440 Y  72.550
G1 X1537.950 Y 115.850
G1 X1483.770 Y 130.000
F150
G1 Z  -3.000
F400
G1 X1537.950 Y 144.150
G1 X1502.440 Y 187.450
G1 X1554.590 Y 167.050
G1 X1551.310 Y 222.960
G1 X1581.510 Y 175.800
G1 X1611.720 Y 222.960
G1 X1608.430 Y 167.050
G1 X1660.590 Y 187.450
G1 X1625.070 Y 144.150
G1 X1679.250 Y 130.000
G1 X1625.070 Y 115.850
G1 X1660.590 Y  72.550
G1 X1608.430 Y  92.950
G1 X1611.720 Y  37.040
G1 X1581.510 Y  84.200
G1 X1551.310 Y  37.040
G1 X1554.590 Y  92.950
G1 X1502.440 Y  72.550
G1 X1537.950 Y 115.850
G1 X1483.770 Y 130.000
F150
G1 Z   3.000
G0 Z  15.000 
M9 M5

(* SHAPE Nr: 95 *)
G0 X1311.590 Y  99.190
M3 M8
G0 Z   3.000 
G1 Z  -1.500
F400
G1 X1358.740 Y 129.400
G1 X1311.590 Y 159.600
G1 X1367.490 Y 156.320
G1 X1347.090 Y 208.470
G1 X1390.390 Y 172.950
G1 X1404.540 Y 227.130
G1 X1418.700 Y 172.950
G1 X1461.990 Y 208.470
G1 X1441.600 Y 156.320
G1 X1497.500 Y 159.600
G1 X1450.340 Y 129.400
G1 X1497.500 Y  99.190
G1 X1441.600 Y 102.470
G1 X1461.990 Y  50.320
G1 X1418.700 Y  85.840
G1 X1404.540 Y  31.660
G1 X1390.390 Y  85.840
G1 X1347.090 Y  50.320
G1 X1367.490 Y 102.470
G1 X1311.590 Y  99.190
F150
G1 Z  -3.000
F400
G1 X1358.740 Y 129.400
G1 X1311.590 Y 159.600
G1 X1367.490 Y 156.320
G1 X1347.090 Y 208.470
G1 X1390.390 Y 172.950
G1 X1404.540 Y 227.130
G1 X1418.700 Y 172.950
G1 X1461.990 Y 208.470
G1 X1441.600 Y 156.320
G1 X1497.500 Y 159.600
G1 X1450.340 Y 129.400
G1 X1497.500 Y  99.190
G1 X1441.600 Y 102.470
G1 X1461.990 Y  50.320
G1 X1418.700 Y  85.840
G1 X1404.540 Y  31.660
G1 X1390.390 Y  85.840
G1 X1347.090 Y  50.320
G1 X1367.490 Y 102.470
G1 X1311.590 Y  99.190
F150
G1 Z   3.000
G0 Z  15.000 
M9 M5

(* SHAPE Nr: 96 *)
G0 X 809.700 Y 129.400
M3 M8
G0 Z   3.000 
G1 Z  -1.500
F400
G2 X 813.430 Y 146.370 I  41.219 J  -0.165
G2 X 824.530 Y 162.820 I  55.779 J -25.668
G2 X 842.650 Y 178.260 I  77.348 J -72.421
G2 X 867.240 Y 192.220 I  99.673 J-146.933
G2 X 897.550 Y 204.270 I 115.683 J-246.838
G2 X 932.670 Y 214.040 I 119.408 J-361.226
G2 X 971.520 Y 221.240 I 107.654 J-472.468
G2 X1012.930 Y 225.650 I  80.734 J-561.467
G2 X1055.640 Y 227.130 I  42.570 J-611.491
G2 X1098.340 Y 225.650 I   0.135 J-612.828
G2 X1139.750 Y 221.240 I -39.324 J-565.877
G2 X1178.610 Y 214.040 I -68.799 J-479.791
G2 X1213.720 Y 204.270 I -84.293 J-370.892
G2 X1244.040 Y 192.220 I -85.368 J-258.971
G2 X1268.630 Y 178.260 I -75.083 J-160.893
G2 X1286.740 Y 162.820 I -59.232 J -87.815
G2 X1297.840 Y 146.370 I -44.679 J -42.118
G2 X1301.580 Y 129.400 I -37.484 J -17.158
G2 X1297.840 Y 112.420 I -41.247 J   0.183
G2 X1286.740 Y  95.970 I -55.779 J  25.668
G2 X1268.630 Y  80.530 I -77.342 J  72.375
G2 X1244.040 Y  66.570 I -99.673 J 146.933
G2 X1213.720 Y  54.520 I-115.688 J 246.921
G2 X1178.610 Y  44.750 I-119.403 J 361.122
G2 X1139.750 Y  37.550 I-107.659 J 472.591
G2 X1098.340 Y  33.140 I -80.734 J 561.467
G2 X1055.640 Y  31.660 I -42.565 J 611.348
G2 X1012.930 Y  33.140 I  -0.140 J 612.971
G2 X 971.520 Y  37.550 I  39.324 J 565.877
G2 X 932.670 Y  44.750 I  68.804 J 479.668
G2 X 897.550 Y  54.520 I  84.288 J 370.996
G2 X 867.240 Y  66.570 I  85.376 J 258.896
G2 X 842.650 Y  80.530 I  75.083 J 160.893
G2 X 824.530 Y  95.970 I  59.228 J  87.861
G2 X 813.430 Y 112.420 I  44.679 J  42.118
G2 X 809.700 Y 129.400 I  37.512 J  17.140
F150
G1 Z  -3.000
F400
G2 X 813.430 Y 146.370 I  41.219 J  -0.165
G2 X 824.530 Y 162.820 I  55.779 J -25.668
G2 X 842.650 Y 178.260 I  77.348 J -72.421
G2 X 867.240 Y 192.220 I  99.673 J-146.933
G2 X 897.550 Y 204.270 I 115.683 J-246.838
G2 X 932.670 Y 214.040 I 119.408 J-361.226
G2 X 971.520 Y 221.240 I 107.654 J-472.468
G2 X1012.930 Y 225.650 I  80.734 J-561.467
G2 X1055.640 Y 227.130 I  42.570 J-611.491
G2 X1098.340 Y 225.650 I   0.135 J-612.828
G2 X1139.750 Y 221.240 I -39.324 J-565.877
G2 X1178.610 Y 214.040 I -68.799 J-479.791
G2 X1213.720 Y 204.270 I -84.293 J-370.892
G2 X1244.040 Y 192.220 I -85.368 J-258.971
G2 X1268.630 Y 178.260 I -75.083 J-160.893
G2 X1286.740 Y 162.820 I -59.232 J -87.815
G2 X1297.840 Y 146.370 I -44.679 J -42.118
G2 X1301.580 Y 129.400 I -37.484 J -17.158
G2 X1297.840 Y 112.420 I -41.247 J   0.183
G2 X1286.740 Y  95.970 I -55.779 J  25.668
G2 X1268.630 Y  80.530 I -77.342 J  72.375
G2 X1244.040 Y  66.570 I -99.673 J 146.933
G2 X1213.720 Y  54.520 I-115.688 J 246.921
G2 X1178.610 Y  44.750 I-119.403 J 361.122
G2 X1139.750 Y  37.550 I-107.659 J 472.591
G2 X1098.340 Y  33.140 I -80.734 J 561.467
G2 X1055.640 Y  31.660 I -42.565 J 611.348
G2 X1012.930 Y  33.140 I  -0.140 J 612.971
G2 X 971.520 Y  37.550 I  39.324 J 565.877
G2 X 932.670 Y  44.750 I  68.804 J 479.668
G2 X 897.550 Y  54.520 I  84.288 J 370.996
G2 X 867.240 Y  66.570 I  85.376 J 258.896
G2 X 842.650 Y  80.530 I  75.083 J 160.893
G2 X 824.530 Y  95.970 I  59.228 J  87.861
G2 X 813.430 Y 112.420 I  44.679 J  42.118
G2 X 809.700 Y 129.400 I  37.512 J  17.140
F150
G1 Z   3.000
G0 Z  15.000 
M9 M5

(* SHAPE Nr: 97 *)
G0 X 306.820 Y 114.800
M3 M8
G0 Z   3.000 
G1 Z  -1.500
F400
G2 X 303.080 Y 131.780 I  37.507 J  17.163
G2 X 306.820 Y 148.750 I  41.224 J  -0.188
G2 X 317.920 Y 165.210 I  55.810 J -25.663
G2 X 336.030 Y 180.650 I  77.343 J -72.377
G2 X 360.620 Y 194.600 I  99.610 J-146.938
G2 X 390.940 Y 206.650 I 115.688 J-246.921
G2 X 426.050 Y 216.420 I 119.403 J-361.122
G2 X 464.910 Y 223.620 I 107.659 J-472.591
G2 X 506.320 Y 228.030 I  80.734 J-561.467
G2 X 549.020 Y 229.520 I  42.709 J-611.343
G2 X 591.730 Y 228.030 I  -0.004 J-612.976
G2 X 633.140 Y 223.620 I -39.324 J-565.877
G2 X 671.990 Y 216.420 I -68.804 J-479.668
G2 X 707.110 Y 206.650 I -84.288 J-370.996
G2 X 737.420 Y 194.600 I -85.373 J-258.888
G2 X 762.010 Y 180.650 I -75.020 J-160.888
G2 X 780.130 Y 165.210 I -59.227 J -87.859
G2 X 791.230 Y 148.750 I -44.710 J -42.123
G2 X 794.960 Y 131.780 I -37.489 J -17.135
G2 X 791.230 Y 114.800 I -41.242 J   0.160
G2 X 780.130 Y  98.350 I -55.779 J  25.668
G2 X 762.010 Y  82.910 I -77.348 J  72.421
G2 X 737.420 Y  68.950 I -99.673 J 146.933
G2 X 707.110 Y  56.900 I-115.683 J 246.838
G2 X 671.990 Y  47.130 I-119.408 J 361.226
G2 X 633.140 Y  39.930 I-107.654 J 472.468
G2 X 591.730 Y  35.520 I -80.734 J 561.467
G2 X 549.020 Y  34.040 I -42.570 J 611.491
G2 X 506.320 Y  35.520 I  -0.135 J 612.828
G2 X 464.910 Y  39.930 I  39.324 J 565.877
G2 X 426.050 Y  47.130 I  68.799 J 479.791
G2 X 390.940 Y  56.900 I  84.293 J 370.892
G2 X 360.620 Y  68.950 I  85.368 J 258.971
G2 X 336.030 Y  82.910 I  75.083 J 160.893
G2 X 317.920 Y  98.350 I  59.233 J  87.817
G2 X 306.820 Y 114.800 I  44.679 J  42.118
F150
G1 Z  -3.000
F400
G2 X 303.080 Y 131.780 I  37.507 J  17.163
G2 X 306.820 Y 148.750 I  41.224 J  -0.188
G2 X 317.920 Y 165.210 I  55.810 J -25.663
G2 X 336.030 Y 180.650 I  77.343 J -72.377
G2 X 360.620 Y 194.600 I  99.610 J-146.938
G2 X 390.940 Y 206.650 I 115.688 J-246.921
G2 X 426.050 Y 216.420 I 119.403 J-361.122
G2 X 464.910 Y 223.620 I 107.659 J-472.591
G2 X 506.320 Y 228.030 I  80.734 J-561.467
G2 X 549.020 Y 229.520 I  42.709 J-611.343
G2 X 591.730 Y 228.030 I  -0.004 J-612.976
G2 X 633.140 Y 223.620 I -39.324 J-565.877
G2 X 671.990 Y 216.420 I -68.804 J-479.668
G2 X 707.110 Y 206.650 I -84.288 J-370.996
G2 X 737.420 Y 194.600 I -85.373 J-258.888
G2 X 762.010 Y 180.650 I -75.020 J-160.888
G2 X 780.130 Y 165.210 I -59.227 J -87.859
G2 X 791.230 Y 148.750 I -44.710 J -42.123
G2 X 794.960 Y 131.780 I -37.489 J -17.135
G2 X 791.230 Y 114.800 I -41.242 J   0.160
G2 X 780.130 Y  98.350 I -55.779 J  25.668
G2 X 762.010 Y  82.910 I -77.348 J  72.421
G2 X 737.420 Y  68.950 I -99.673 J 146.933
G2 X 707.110 Y  56.900 I-115.683 J 246.838
G2 X 671.990 Y  47.130 I-119.408 J 361.226
G2 X 633.140 Y  39.930 I-107.654 J 472.468
G2 X 591.730 Y  35.520 I -80.734 J 561.467
G2 X 549.020 Y  34.040 I -42.570 J 611.491
G2 X 506.320 Y  35.520 I  -0.135 J 612.828
G2 X 464.910 Y  39.930 I  39.324 J 565.877
G2 X 426.050 Y  47.130 I  68.799 J 479.791
G2 X 390.940 Y  56.900 I  84.293 J 370.892
G2 X 360.620 Y  68.950 I  85.368 J 258.971
G2 X 336.030 Y  82.910 I  75.083 J 160.893
G2 X 317.920 Y  98.350 I  59.233 J  87.817
G2 X 306.820 Y 114.800 I  44.679 J  42.118
F150
G1 Z   3.000
G0 Z  15.000 
M9 M5

(* SHAPE Nr: 98 *)
G0 X  10.000 Y 521.570
M3 M8
G0 Z   3.000 
G1 Z  -1.500
F400
G1 X  71.390 Y 582.960
G3 X 685.300 Y 328.670 I 613.909 J 613.907
G1 X1715.900 Y 328.670
G1 X1715.900 Y 241.850
G1 X 685.300 Y 241.850
G2 X  10.000 Y 521.570 I -36.275 J 867.440
F150
G1 Z  -3.000
F400
G1 X  71.390 Y 582.960
G3 X 685.300 Y 328.670 I 613.909 J 613.907
G1 X1715.900 Y 328.670
G1 X1715.900 Y 241.850
G1 X 685.300 Y 241.850
G2 X  10.000 Y 521.570 I -36.275 J 867.440
F150
G1 Z   3.000
G0 Z  15.000 
M9 M5

(* SHAPE Nr: 99 *)
G0 X  10.000 Y 663.220
M3 M8
G0 Z   3.000 
G1 Z  -1.500
F400
G1 X  71.390 Y 724.610
