(Generated with: DXF2GCODE, Version: REMOVED, Date: $Date$)
(Created from file: )
(Output format description: G-CODE for LinuxCNC)
(Time: Thu Sep 13 16:00:50 2018)
G21 (Units in millimeters)
G90 (Absolute programming)
G64 (Default cutting) G17 (XY plane) G40 (Cancel radius comp.) G49 (Cancel length comp.)
G0 Z  15.000 

(*** LAYER: FRAME_Z18 ***)
T1 M6
S6000

(* SHAPE Nr: 48 *)
G0 X   0.000 Y   0.000
M3 M8
G0 Z   3.000 
F150
G1 Z  -1.500
F400
G1 X   0.000 Y2050.000
G1 X2800.000 Y2050.000
G1 X2800.000 Y   0.000
G1 X   0.000 Y   0.000
F150
G1 Z  -3.000
F400
G1 X   0.000 Y2050.000
G1 X2800.000 Y2050.000
G1 X2800.000 Y   0.000
G1 X   0.000 Y   0.000
F150
G1 Z   3.000
G0 Z  15.000 
M9 M5

(*** LAYER: BORDER_D0_T132_RK1_A0_W0_EM1_RI1_ID0006 ***)

(* SHAPE Nr: 0 *)
G0 X  77.540 Y 327.750
M3 M8
G0 Z   3.000 
G1 Z  -1.500
F400
G1 X  66.000 Y 363.260
G1 X  28.670 Y 363.260
G1 X  40.200 Y 398.760
G1 X  10.000 Y 420.710
G1 X  40.200 Y 442.650
G1 X  28.670 Y 478.160
G1 X  66.000 Y 478.160
G1 X  77.540 Y 513.660
G1 X 107.740 Y 491.720
G1 X 137.940 Y 513.660
G1 X 149.480 Y 478.160
G1 X 186.810 Y 478.160
G1 X 175.280 Y 442.650
G1 X 205.480 Y 420.710
G1 X 175.280 Y 398.760
G1 X 186.810 Y 363.260
G1 X 149.480 Y 363.260
G1 X 137.940 Y 327.750
G1 X 107.740 Y 349.690
G1 X  77.540 Y 327.750
F150
G1 Z  -3.000
F400
G1 X  66.000 Y 363.260
G1 X  28.670 Y 363.260
G1 X  40.200 Y 398.760
G1 X  10.000 Y 420.710
G1 X  40.200 Y 442.650
G1 X  28.670 Y 478.160
G1 X  66.000 Y 478.160
G1 X  77.540 Y 513.660
G1 X 107.740 Y 491.720
G1 X 137.940 Y 513.660
G1 X 149.480 Y 478.160
G1 X 186.810 Y 478.160
G1 X 175.280 Y 442.650
G1 X 205.480 Y 420.710
G1 X 175.280 Y 398.760
G1 X 186.810 Y 363.260
G1 X 149.480 Y 363.260
G1 X 137.940 Y 327.750
G1 X 107.740 Y 349.690
G1 X  77.540 Y 327.750
F150
G1 Z   3.000
G0 Z  15.000 
M9 M5

(* SHAPE Nr: 7 *)
G0 X2604.750 Y1889.600
M3 M8
G0 Z   3.000 
G1 Z  -1.500
F400
G1 X2616.280 Y1925.100
G1 X2586.080 Y1947.050
G1 X2616.280 Y1968.990
G1 X2604.750 Y2004.500
G1 X2642.080 Y2004.500
G1 X2653.620 Y2040.000
G1 X2683.820 Y2018.060
G1 X2714.020 Y2040.000
G1 X2725.560 Y2004.500
G1 X2762.890 Y2004.500
G1 X2751.360 Y1968.990
G1 X2781.560 Y1947.050
G1 X2751.360 Y1925.100
G1 X2762.890 Y1889.600
G1 X2725.560 Y1889.600
G1 X2714.020 Y1854.090
G1 X2683.820 Y1876.030
G1 X2653.620 Y1854.090
G1 X2642.080 Y1889.600
G1 X2604.750 Y1889.600
F150
G1 Z  -3.000
F400
G1 X2616.280 Y1925.100
G1 X2586.080 Y1947.050
G1 X2616.280 Y1968.990
G1 X2604.750 Y2004.500
G1 X2642.080 Y2004.500
G1 X2653.620 Y2040.000
G1 X2683.820 Y2018.060
G1 X2714.020 Y2040.000
G1 X2725.560 Y2004.500
G1 X2762.890 Y2004.500
G1 X2751.360 Y1968.990
G1 X2781.560 Y1947.050
G1 X2751.360 Y1925.100
G1 X2762.890 Y1889.600
G1 X2725.560 Y1889.600
G1 X2714.020 Y1854.090
G1 X2683.820 Y1876.030
G1 X2653.620 Y1854.090
G1 X2642.080 Y1889.600
G1 X2604.750 Y1889.600
F150
G1 Z   3.000
G0 Z  15.000 
M9 M5

(* SHAPE Nr: 21 *)
G0 X1806.130 Y 524.810
M3 M8
G0 Z   3.000 
G1 Z  -1.500
F400
G1 X1828.070 Y 555.010
G1 X1806.130 Y 585.210
G1 X1841.630 Y 596.750
G1 X1841.630 Y 634.070
G1 X1877.140 Y 622.540
G1 X1899.090 Y 652.750
G1 X1921.030 Y 622.540
G1 X1956.530 Y 634.070
G1 X1956.530 Y 596.750
G1 X1992.050 Y 585.210
G1 X1970.110 Y 555.010
G1 X1992.050 Y 524.810
G1 X1956.530 Y 513.270
G1 X1956.530 Y 475.940
G1 X1921.030 Y 487.470
G1 X1899.090 Y 457.270
G1 X1877.140 Y 487.470
G1 X1841.630 Y 475.940
G1 X1841.630 Y 513.270
G1 X1806.130 Y 524.810
F150
G1 Z  -3.000
F400
G1 X1828.070 Y 555.010
G1 X1806.130 Y 585.210
G1 X1841.630 Y 596.750
G1 X1841.630 Y 634.070
G1 X1877.140 Y 622.540
G1 X1899.090 Y 652.750
G1 X1921.030 Y 622.540
G1 X1956.530 Y 634.070
G1 X1956.530 Y 596.750
G1 X1992.050 Y 585.210
G1 X1970.110 Y 555.010
G1 X1992.050 Y 524.810
G1 X1956.530 Y 513.270
G1 X1956.530 Y 475.940
G1 X1921.030 Y 487.470
G1 X1899.090 Y 457.270
G1 X1877.140 Y 487.470
G1 X1841.630 Y 475.940
G1 X1841.630 Y 513.270
G1 X1806.130 Y 524.810
F150
G1 Z   3.000
G0 Z  15.000 
M9 M5

(*** LAYER: BORDER_D0_T132_RK1_A0_W0_EM1_RI1_ID0016 ***)

(* SHAPE Nr: 1 *)
G0 X  10.000 Y 577.610
M3 M8
G0 Z   3.000 
G1 Z  -1.500
F400
G1 X  10.000 Y 867.010
G1 X  10.000 Y1156.410
G1 X 396.470 Y1301.110
G1 X1555.900 Y1084.060
G1 X1362.660 Y 997.240
G1 X1362.660 Y 736.780
G1 X1555.900 Y 649.960
G1 X 396.470 Y 432.910
G1 X  10.000 Y 577.610
F150
G1 Z  -3.000
F400
G1 X  10.000 Y 867.010
G1 X  10.000 Y1156.410
G1 X 396.470 Y1301.110
G1 X1555.900 Y1084.060
G1 X1362.660 Y 997.240
G1 X1362.660 Y 736.780
G1 X1555.900 Y 649.960
G1 X 396.470 Y 432.910
G1 X  10.000 Y 577.610
F150
G1 Z   3.000
G0 Z  15.000 
M9 M5

(* SHAPE Nr: 5 *)
G0 X  10.000 Y1388.850
M3 M8
G0 Z   3.000 
G1 Z  -1.500
F400
G1 X 203.240 Y1475.670
G1 X 203.240 Y1736.130
G1 X  10.000 Y1822.950
G1 X1169.430 Y2040.000
G1 X1555.900 Y1895.300
G1 X1555.900 Y1605.900
G1 X1555.900 Y1316.500
G1 X1169.430 Y1171.800
G1 X  10.000 Y1388.850
F150
G1 Z  -3.000
F400
G1 X 203.240 Y1475.670
G1 X 203.240 Y1736.130
G1 X  10.000 Y1822.950
G1 X1169.430 Y2040.000
G1 X1555.900 Y1895.300
G1 X1555.900 Y1605.900
G1 X1555.900 Y1316.500
G1 X1169.430 Y1171.800
G1 X  10.000 Y1388.850
F150
G1 Z   3.000
G0 Z  15.000 
M9 M5

(*** LAYER: BORDER_D0_T132_RK1_A0_W0_EM1_RI1_ID0023 ***)

(* SHAPE Nr: 2 *)
G0 X  94.640 Y1572.450
M3 M8
G0 Z   3.000 
G1 Z  -1.500
F400
G1 X  10.000 Y1621.320
G1 X  10.000 Y1719.060
G1 X  94.640 Y1767.930
G1 X 179.280 Y1719.060
G1 X 179.280 Y1621.320
G1 X  94.640 Y1572.450
F150
G1 Z  -3.000
F400
G1 X  10.000 Y1621.320
G1 X  10.000 Y1719.060
G1 X  94.640 Y1767.930
G1 X 179.280 Y1719.060
G1 X 179.280 Y1621.320
G1 X  94.640 Y1572.450
F150
G1 Z   3.000
G0 Z  15.000 
M9 M5

(* SHAPE Nr: 3 *)
G0 X  58.870 Y1870.710
M3 M8
G0 Z   3.000 
G1 Z  -1.500
F400
G1 X  10.000 Y1955.350
G1 X  58.870 Y2040.000
G1 X 156.610 Y2040.000
G1 X 205.480 Y1955.350
G1 X 156.610 Y1870.710
G1 X  58.870 Y1870.710
F150
G1 Z  -3.000
F400
G1 X  10.000 Y1955.350
G1 X  58.870 Y2040.000
G1 X 156.610 Y2040.000
G1 X 205.480 Y1955.350
G1 X 156.610 Y1870.710
G1 X  58.870 Y1870.710
F150
G1 Z   3.000
G0 Z  15.000 
M9 M5

(*** LAYER: BORDER_D0_T132_RK1_A0_W0_EM1_RI1_ID0020 ***)

(* SHAPE Nr: 4 *)
G0 X 341.830 Y1948.150
M3 M8
G0 Z   3.000 
G1 Z  -1.500
F400
G2 X 302.980 Y1955.360 I  68.931 J 479.697
G2 X 267.860 Y1965.130 I  84.280 J 370.966
G2 X 237.550 Y1977.170 I  85.309 J 258.933
G2 X 212.960 Y1991.130 I  75.074 J 160.877
G2 X 194.840 Y2006.570 I  59.224 J  87.857
G2 X 183.750 Y2023.030 I  44.717 J  42.094
G2 X 180.010 Y2040.000 I  37.486 J  17.159
G1 X 425.950 Y2040.000
G1 X 671.890 Y2040.000
G2 X 668.150 Y2023.030 I -41.226 J   0.189
G2 X 657.060 Y2006.570 I -55.807 J  25.634
G2 X 638.940 Y1991.130 I -77.344 J  72.417
G2 X 614.350 Y1977.170 I -99.664 J 146.917
G2 X 584.040 Y1965.130 I-115.619 J 246.893
G2 X 548.920 Y1955.360 I-119.400 J 361.196
G2 X 510.070 Y1948.150 I-107.781 J 472.487
G2 X 468.660 Y1943.750 I -80.598 J 561.472
G2 X 425.950 Y1942.260 I -42.711 J 611.416
G2 X 383.240 Y1943.750 I   0.001 J 612.906
G2 X 341.830 Y1948.150 I  39.188 J 565.872
F150
G1 Z  -3.000
F400
G2 X 302.980 Y1955.360 I  68.931 J 479.697
G2 X 267.860 Y1965.130 I  84.280 J 370.966
G2 X 237.550 Y1977.170 I  85.309 J 258.933
G2 X 212.960 Y1991.130 I  75.074 J 160.877
G2 X 194.840 Y2006.570 I  59.224 J  87.857
G2 X 183.750 Y2023.030 I  44.717 J  42.094
G2 X 180.010 Y2040.000 I  37.486 J  17.159
G1 X 425.950 Y2040.000
G1 X 671.890 Y2040.000
G2 X 668.150 Y2023.030 I -41.226 J   0.189
G2 X 657.060 Y2006.570 I -55.807 J  25.634
G2 X 638.940 Y1991.130 I -77.344 J  72.417
G2 X 614.350 Y1977.170 I -99.664 J 146.917
G2 X 584.040 Y1965.130 I-115.619 J 246.893
G2 X 548.920 Y1955.360 I-119.400 J 361.196
G2 X 510.070 Y1948.150 I-107.781 J 472.487
G2 X 468.660 Y1943.750 I -80.598 J 561.472
G2 X 425.950 Y1942.260 I -42.711 J 611.416
G2 X 383.240 Y1943.750 I   0.001 J 612.906
G2 X 341.830 Y1948.150 I  39.188 J 565.872
F150
G1 Z   3.000
G0 Z  15.000 
M9 M5

(* SHAPE Nr: 8 *)
G0 X2698.300 Y 995.930
M3 M8
G0 Z   3.000 
G1 Z  -1.500
F400
G2 X2688.530 Y1031.050 I 361.196 J 119.400
G2 X2681.320 Y1069.900 I 472.487 J 107.781
G2 X2676.920 Y1111.310 I 561.472 J  80.598
G2 X2675.430 Y1154.020 I 611.451 J  42.712
G2 X2676.920 Y1196.730 I 612.941 J  -0.002
G2 X2681.320 Y1238.140 I 565.872 J -39.188
G2 X2688.530 Y1276.990 I 479.697 J -68.931
G2 X2698.300 Y1312.110 I 370.966 J -84.280
G2 X2710.340 Y1342.420 I 258.933 J -85.309
G2 X2724.300 Y1367.010 I 160.873 J -75.072
G2 X2739.740 Y1385.130 I  87.858 J -59.225
G2 X2756.200 Y1396.220 I  42.094 J -44.717
G2 X2773.170 Y1399.960 I  17.159 J -37.487
G1 X2773.170 Y1154.020
G1 X2773.170 Y 908.080
G2 X2756.200 Y 911.820 I   0.189 J  41.227
G2 X2739.740 Y 922.910 I  25.634 J  55.807
G2 X2724.300 Y 941.030 I  72.418 J  77.345
G2 X2710.340 Y 965.620 I 146.913 J  99.662
G2 X2698.300 Y 995.930 I 246.893 J 115.619
F150
G1 Z  -3.000
F400
G2 X2688.530 Y1031.050 I 361.196 J 119.400
G2 X2681.320 Y1069.900 I 472.487 J 107.781
G2 X2676.920 Y1111.310 I 561.472 J  80.598
G2 X2675.430 Y1154.020 I 611.451 J  42.712
G2 X2676.920 Y1196.730 I 612.941 J  -0.002
G2 X2681.320 Y1238.140 I 565.872 J -39.188
G2 X2688.530 Y1276.990 I 479.697 J -68.931
G2 X2698.300 Y1312.110 I 370.966 J -84.280
G2 X2710.340 Y1342.420 I 258.933 J -85.309
G2 X2724.300 Y1367.010 I 160.873 J -75.072
G2 X2739.740 Y1385.130 I  87.858 J -59.225
G2 X2756.200 Y1396.220 I  42.094 J -44.717
G2 X2773.170 Y1399.960 I  17.159 J -37.487
G1 X2773.170 Y1154.020
G1 X2773.170 Y 908.080
G2 X2756.200 Y 911.820 I   0.189 J  41.227
G2 X2739.740 Y 922.910 I  25.634 J  55.807
G2 X2724.300 Y 941.030 I  72.418 J  77.345
G2 X2710.340 Y 965.620 I 146.913 J  99.662
G2 X2698.300 Y 995.930 I 246.893 J 115.619
F150
G1 Z   3.000
G0 Z  15.000 
M9 M5

(* SHAPE Nr: 9 *)
G0 X2675.750 Y1359.150
M3 M8
G0 Z   3.000 
G1 Z  -1.500
F400
G1 X2675.750 Y1605.090
G1 X2675.750 Y1851.030
G2 X2692.720 Y1847.290 I  -0.189 J -41.227
G2 X2709.180 Y1836.200 I -25.634 J -55.807
G2 X2724.620 Y1818.080 I -72.418 J -77.345
G2 X2738.580 Y1793.490 I-146.917 J -99.664
G2 X2750.620 Y1763.180 I-246.893 J-115.619
G2 X2760.390 Y1728.060 I-361.196 J-119.400
G2 X2767.600 Y1689.210 I-472.487 J-107.781
G2 X2772.000 Y1647.800 I-561.472 J -80.598
G2 X2773.490 Y1605.090 I-611.416 J -42.711
G2 X2772.000 Y1562.380 I-612.906 J   0.001
G2 X2767.600 Y1520.970 I-565.872 J  39.188
G2 X2760.390 Y1482.120 I-479.697 J  68.931
G2 X2750.620 Y1447.000 I-370.966 J  84.280
G2 X2738.580 Y1416.690 I-258.933 J  85.309
G2 X2724.620 Y1392.100 I-160.877 J  75.074
G2 X2709.180 Y1373.980 I -87.857 J  59.224
G2 X2692.720 Y1362.890 I -42.094 J  44.717
G2 X2675.750 Y1359.150 I -17.159 J  37.487
F150
G1 Z  -3.000
F400
G1 X2675.750 Y1605.090
G1 X2675.750 Y1851.030
G2 X2692.720 Y1847.290 I  -0.189 J -41.227
G2 X2709.180 Y1836.200 I -25.634 J -55.807
G2 X2724.620 Y1818.080 I -72.418 J -77.345
G2 X2738.580 Y1793.490 I-146.917 J -99.664
G2 X2750.620 Y1763.180 I-246.893 J-115.619
G2 X2760.390 Y1728.060 I-361.196 J-119.400
G2 X2767.600 Y1689.210 I-472.487 J-107.781
G2 X2772.000 Y1647.800 I-561.472 J -80.598
G2 X2773.490 Y1605.090 I-611.416 J -42.711
G2 X2772.000 Y1562.380 I-612.906 J   0.001
G2 X2767.600 Y1520.970 I-565.872 J  39.188
G2 X2760.390 Y1482.120 I-479.697 J  68.931
G2 X2750.620 Y1447.000 I-370.966 J  84.280
G2 X2738.580 Y1416.690 I-258.933 J  85.309
G2 X2724.620 Y1392.100 I-160.877 J  75.074
G2 X2709.180 Y1373.980 I -87.857 J  59.224
G2 X2692.720 Y1362.890 I -42.094 J  44.717
G2 X2675.750 Y1359.150 I -17.159 J  37.487
F150
G1 Z   3.000
G0 Z  15.000 
M9 M5

(* SHAPE Nr: 10 *)
G0 X2459.000 Y 749.020
M3 M8
G0 Z   3.000 
G1 Z  -1.500
F400
G2 X2449.230 Y 784.140 I 361.196 J 119.400
G2 X2442.020 Y 822.990 I 472.487 J 107.781
G2 X2437.620 Y 864.400 I 561.472 J  80.598
G2 X2436.130 Y 907.110 I 611.451 J  42.712
G2 X2437.620 Y 949.820 I 612.906 J  -0.001
G2 X2442.020 Y 991.230 I 565.872 J -39.188
G2 X2449.230 Y1030.080 I 479.697 J -68.931
G2 X2459.000 Y1065.200 I 370.966 J -84.280
G2 X2471.040 Y1095.510 I 258.933 J -85.309
G2 X2485.000 Y1120.100 I 160.877 J -75.074
G2 X2500.440 Y1138.220 I  87.858 J -59.225
G2 X2516.900 Y1149.310 I  42.094 J -44.717
G2 X2533.870 Y1153.050 I  17.159 J -37.487
G1 X2533.870 Y 907.110
G1 X2533.870 Y 661.170
G2 X2516.900 Y 664.910 I   0.189 J  41.227
G2 X2500.440 Y 676.000 I  25.634 J  55.807
G2 X2485.000 Y 694.120 I  72.418 J  77.345
G2 X2471.040 Y 718.710 I 146.917 J  99.664
G2 X2459.000 Y 749.020 I 246.893 J 115.619
F150
G1 Z  -3.000
F400
G2 X2449.230 Y 784.140 I 361.196 J 119.400
G2 X2442.020 Y 822.990 I 472.487 J 107.781
G2 X2437.620 Y 864.400 I 561.472 J  80.598
G2 X2436.130 Y 907.110 I 611.451 J  42.712
G2 X2437.620 Y 949.820 I 612.906 J  -0.001
G2 X2442.020 Y 991.230 I 565.872 J -39.188
G2 X2449.230 Y1030.080 I 479.697 J -68.931
G2 X2459.000 Y1065.200 I 370.966 J -84.280
G2 X2471.040 Y1095.510 I 258.933 J -85.309
G2 X2485.000 Y1120.100 I 160.877 J -75.074
G2 X2500.440 Y1138.220 I  87.858 J -59.225
G2 X2516.900 Y1149.310 I  42.094 J -44.717
G2 X2533.870 Y1153.050 I  17.159 J -37.487
G1 X2533.870 Y 907.110
G1 X2533.870 Y 661.170
G2 X2516.900 Y 664.910 I   0.189 J  41.227
G2 X2500.440 Y 676.000 I  25.634 J  55.807
G2 X2485.000 Y 694.120 I  72.418 J  77.345
G2 X2471.040 Y 718.710 I 146.917 J  99.664
G2 X2459.000 Y 749.020 I 246.893 J 115.619
F150
G1 Z   3.000
G0 Z  15.000 
M9 M5

(* SHAPE Nr: 11 *)
G0 X2556.970 Y1084.320
M3 M8
G0 Z   3.000 
G1 Z  -1.500
F400
G1 X2556.970 Y1330.260
G1 X2556.970 Y1576.200
G2 X2573.940 Y1572.460 I  -0.189 J -41.227
G2 X2590.400 Y1561.370 I -25.634 J -55.807
G2 X2605.840 Y1543.250 I -72.417 J -77.344
G2 X2619.800 Y1518.660 I-146.917 J -99.664
G2 X2631.840 Y1488.350 I-246.893 J-115.619
G2 X2641.610 Y1453.230 I-361.196 J-119.400
G2 X2648.820 Y1414.380 I-472.487 J-107.781
G2 X2653.220 Y1372.970 I-561.472 J -80.598
G2 X2654.710 Y1330.260 I-611.416 J -42.711
G2 X2653.220 Y1287.550 I-612.906 J   0.001
G2 X2648.820 Y1246.140 I-565.872 J  39.188
G2 X2641.610 Y1207.290 I-479.697 J  68.931
G2 X2631.840 Y1172.170 I-370.966 J  84.280
G2 X2619.800 Y1141.860 I-258.933 J  85.309
G2 X2605.840 Y1117.270 I-160.877 J  75.074
G2 X2590.400 Y1099.150 I -87.857 J  59.224
G2 X2573.940 Y1088.060 I -42.094 J  44.717
G2 X2556.970 Y1084.320 I -17.159 J  37.487
F150
G1 Z  -3.000
F400
G1 X2556.970 Y1330.260
G1 X2556.970 Y1576.200
G2 X2573.940 Y1572.460 I  -0.189 J -41.227
G2 X2590.400 Y1561.370 I -25.634 J -55.807
G2 X2605.840 Y1543.250 I -72.417 J -77.344
G2 X2619.800 Y1518.660 I-146.917 J -99.664
G2 X2631.840 Y1488.350 I-246.893 J-115.619
G2 X2641.610 Y1453.230 I-361.196 J-119.400
G2 X2648.820 Y1414.380 I-472.487 J-107.781
G2 X2653.220 Y1372.970 I-561.472 J -80.598
G2 X2654.710 Y1330.260 I-611.416 J -42.711
G2 X2653.220 Y1287.550 I-612.906 J   0.001
G2 X2648.820 Y1246.140 I-565.872 J  39.188
G2 X2641.610 Y1207.290 I-479.697 J  68.931
G2 X2631.840 Y1172.170 I-370.966 J  84.280
G2 X2619.800 Y1141.860 I-258.933 J  85.309
G2 X2605.840 Y1117.270 I-160.877 J  75.074
G2 X2590.400 Y1099.150 I -87.857 J  59.224
G2 X2573.940 Y1088.060 I -42.094 J  44.717
G2 X2556.970 Y1084.320 I -17.159 J  37.487
F150
G1 Z   3.000
G0 Z  15.000 
M9 M5

(* SHAPE Nr: 13 *)
G0 X2598.340 Y 594.270
M3 M8
G0 Z   3.000 
G1 Z  -1.500
F400
G1 X2598.340 Y 840.210
G1 X2598.340 Y1086.150
G2 X2615.310 Y1082.410 I  -0.189 J -41.227
G2 X2631.770 Y1071.320 I -25.634 J -55.807
G2 X2647.210 Y1053.200 I -72.417 J -77.344
G2 X2661.170 Y1028.610 I-146.917 J -99.664
G2 X2673.210 Y 998.300 I-246.893 J-115.619
G2 X2682.980 Y 963.180 I-361.196 J-119.400
G2 X2690.190 Y 924.330 I-472.487 J-107.781
G2 X2694.590 Y 882.920 I-561.472 J -80.598
G2 X2696.080 Y 840.210 I-611.416 J -42.711
G2 X2694.590 Y 797.500 I-612.906 J   0.001
G2 X2690.190 Y 756.090 I-565.872 J  39.188
G2 X2682.980 Y 717.240 I-479.697 J  68.931
G2 X2673.210 Y 682.120 I-370.966 J  84.280
G2 X2661.170 Y 651.810 I-258.933 J  85.309
G2 X2647.210 Y 627.220 I-160.877 J  75.074
G2 X2631.770 Y 609.100 I -87.857 J  59.224
G2 X2615.310 Y 598.010 I -42.094 J  44.717
G2 X2598.340 Y 594.270 I -17.159 J  37.487
F150
G1 Z  -3.000
F400
G1 X2598.340 Y 840.210
G1 X2598.340 Y1086.150
G2 X2615.310 Y1082.410 I  -0.189 J -41.227
G2 X2631.770 Y1071.320 I -25.634 J -55.807
G2 X2647.210 Y1053.200 I -72.417 J -77.344
G2 X2661.170 Y1028.610 I-146.917 J -99.664
G2 X2673.210 Y 998.300 I-246.893 J-115.619
G2 X2682.980 Y 963.180 I-361.196 J-119.400
G2 X2690.190 Y 924.330 I-472.487 J-107.781
G2 X2694.590 Y 882.920 I-561.472 J -80.598
G2 X2696.080 Y 840.210 I-611.416 J -42.711
G2 X2694.590 Y 797.500 I-612.906 J   0.001
G2 X2690.190 Y 756.090 I-565.872 J  39.188
G2 X2682.980 Y 717.240 I-479.697 J  68.931
G2 X2673.210 Y 682.120 I-370.966 J  84.280
G2 X2661.170 Y 651.810 I-258.933 J  85.309
G2 X2647.210 Y 627.220 I-160.877 J  75.074
G2 X2631.770 Y 609.100 I -87.857 J  59.224
G2 X2615.310 Y 598.010 I -42.094 J  44.717
G2 X2598.340 Y 594.270 I -17.159 J  37.487
F150
G1 Z   3.000
G0 Z  15.000 
M9 M5

(* SHAPE Nr: 15 *)
G0 X2676.480 Y 155.090
M3 M8
G0 Z   3.000 
G1 Z  -1.500
F400
G1 X2676.480 Y 401.030
G1 X2676.480 Y 646.970
G2 X2693.450 Y 643.230 I  -0.189 J -41.227
G2 X2709.910 Y 632.140 I -25.634 J -55.807
G2 X2725.350 Y 614.020 I -72.417 J -77.344
G2 X2739.310 Y 589.430 I-146.917 J -99.664
G2 X2751.350 Y 559.120 I-246.893 J-115.619
G2 X2761.120 Y 524.000 I-361.196 J-119.400
G2 X2768.330 Y 485.150 I-472.487 J-107.781
G2 X2772.730 Y 443.740 I-561.472 J -80.598
G2 X2774.220 Y 401.030 I-611.416 J -42.711
G2 X2772.730 Y 358.320 I-612.906 J   0.001
G2 X2768.330 Y 316.910 I-565.872 J  39.188
G2 X2761.120 Y 278.060 I-479.697 J  68.931
G2 X2751.350 Y 242.940 I-370.966 J  84.280
G2 X2739.310 Y 212.630 I-258.933 J  85.309
G2 X2725.350 Y 188.040 I-160.877 J  75.074
G2 X2709.910 Y 169.920 I -87.857 J  59.224
G2 X2693.450 Y 158.830 I -42.094 J  44.717
G2 X2676.480 Y 155.090 I -17.159 J  37.487
F150
G1 Z  -3.000
F400
G1 X2676.480 Y 401.030
G1 X2676.480 Y 646.970
G2 X2693.450 Y 643.230 I  -0.189 J -41.227
G2 X2709.910 Y 632.140 I -25.634 J -55.807
G2 X2725.350 Y 614.020 I -72.417 J -77.344
G2 X2739.310 Y 589.430 I-146.917 J -99.664
G2 X2751.350 Y 559.120 I-246.893 J-115.619
G2 X2761.120 Y 524.000 I-361.196 J-119.400
G2 X2768.330 Y 485.150 I-472.487 J-107.781
G2 X2772.730 Y 443.740 I-561.472 J -80.598
G2 X2774.220 Y 401.030 I-611.416 J -42.711
G2 X2772.730 Y 358.320 I-612.906 J   0.001
G2 X2768.330 Y 316.910 I-565.872 J  39.188
G2 X2761.120 Y 278.060 I-479.697 J  68.931
G2 X2751.350 Y 242.940 I-370.966 J  84.280
G2 X2739.310 Y 212.630 I-258.933 J  85.309
G2 X2725.350 Y 188.040 I-160.877 J  75.074
G2 X2709.910 Y 169.920 I -87.857 J  59.224
G2 X2693.450 Y 158.830 I -42.094 J  44.717
G2 X2676.480 Y 155.090 I -17.159 J  37.487
F150
G1 Z   3.000
G0 Z  15.000 
M9 M5

(*** LAYER: BORDER_D0_T132_RK1_A0_W0_EM1_RI1_ID0018 ***)

(* SHAPE Nr: 6 *)
G0 X2443.680 Y1581.070
M3 M8
G0 Z   3.000 
G1 Z  -1.500
F400
G2 X2429.720 Y1605.660 I 146.913 J  99.662
G2 X2417.680 Y1635.970 I 246.893 J 115.619
G2 X2407.910 Y1671.090 I 361.196 J 119.400
G2 X2400.700 Y1709.940 I 472.487 J 107.781
G2 X2396.300 Y1751.350 I 561.472 J  80.598
G2 X2394.810 Y1794.060 I 611.416 J  42.711
G2 X2396.300 Y1836.770 I 612.941 J  -0.002
G2 X2400.700 Y1878.180 I 565.872 J -39.188
G2 X2407.910 Y1917.030 I 479.697 J -68.931
G2 X2417.680 Y1952.150 I 370.966 J -84.280
G2 X2429.720 Y1982.460 I 258.933 J -85.309
G2 X2443.680 Y2007.050 I 160.873 J -75.072
G2 X2459.120 Y2025.170 I  87.858 J -59.225
G2 X2475.580 Y2036.260 I  42.094 J -44.717
G2 X2492.550 Y2040.000 I  17.159 J -37.487
G2 X2509.520 Y2036.260 I  -0.189 J -41.227
G2 X2525.980 Y2025.170 I -25.634 J -55.807
G2 X2541.420 Y2007.050 I -72.417 J -77.344
G2 X2555.380 Y1982.460 I-146.917 J -99.664
G2 X2567.420 Y1952.150 I-246.893 J-115.619
G2 X2577.190 Y1917.030 I-361.196 J-119.400
G2 X2584.400 Y1878.180 I-472.487 J-107.781
G2 X2588.800 Y1836.770 I-561.472 J -80.598
G2 X2590.290 Y1794.060 I-611.416 J -42.711
G2 X2588.800 Y1751.350 I-612.906 J   0.001
G2 X2584.400 Y1709.940 I-565.872 J  39.188
G2 X2577.190 Y1671.090 I-479.697 J  68.931
G2 X2567.420 Y1635.970 I-370.966 J  84.280
G2 X2555.380 Y1605.660 I-258.933 J  85.309
G2 X2541.420 Y1581.070 I-160.877 J  75.074
G2 X2525.980 Y1562.950 I -87.857 J  59.224
G2 X2509.520 Y1551.860 I -42.094 J  44.717
G2 X2492.550 Y1548.120 I -17.159 J  37.487
G2 X2475.580 Y1551.860 I   0.189 J  41.227
G2 X2459.120 Y1562.950 I  25.634 J  55.807
G2 X2443.680 Y1581.070 I  72.418 J  77.345
F150
G1 Z  -3.000
F400
G2 X2429.720 Y1605.660 I 146.913 J  99.662
G2 X2417.680 Y1635.970 I 246.893 J 115.619
G2 X2407.910 Y1671.090 I 361.196 J 119.400
G2 X2400.700 Y1709.940 I 472.487 J 107.781
G2 X2396.300 Y1751.350 I 561.472 J  80.598
G2 X2394.810 Y1794.060 I 611.416 J  42.711
G2 X2396.300 Y1836.770 I 612.941 J  -0.002
G2 X2400.700 Y1878.180 I 565.872 J -39.188
G2 X2407.910 Y1917.030 I 479.697 J -68.931
G2 X2417.680 Y1952.150 I 370.966 J -84.280
G2 X2429.720 Y1982.460 I 258.933 J -85.309
G2 X2443.680 Y2007.050 I 160.873 J -75.072
G2 X2459.120 Y2025.170 I  87.858 J -59.225
G2 X2475.580 Y2036.260 I  42.094 J -44.717
G2 X2492.550 Y2040.000 I  17.159 J -37.487
G2 X2509.520 Y2036.260 I  -0.189 J -41.227
G2 X2525.980 Y2025.170 I -25.634 J -55.807
G2 X2541.420 Y2007.050 I -72.417 J -77.344
G2 X2555.380 Y1982.460 I-146.917 J -99.664
G2 X2567.420 Y1952.150 I-246.893 J-115.619
G2 X2577.190 Y1917.030 I-361.196 J-119.400
G2 X2584.400 Y1878.180 I-472.487 J-107.781
G2 X2588.800 Y1836.770 I-561.472 J -80.598
G2 X2590.290 Y1794.060 I-611.416 J -42.711
G2 X2588.800 Y1751.350 I-612.906 J   0.001
G2 X2584.400 Y1709.940 I-565.872 J  39.188
G2 X2577.190 Y1671.090 I-479.697 J  68.931
G2 X2567.420 Y1635.970 I-370.966 J  84.280
G2 X2555.380 Y1605.660 I-258.933 J  85.309
G2 X2541.420 Y1581.070 I-160.877 J  75.074
G2 X2525.980 Y1562.950 I -87.857 J  59.224
G2 X2509.520 Y1551.860 I -42.094 J  44.717
G2 X2492.550 Y1548.120 I -17.159 J  37.487
G2 X2475.580 Y1551.860 I   0.189 J  41.227
G2 X2459.120 Y1562.950 I  25.634 J  55.807
G2 X2443.680 Y1581.070 I  72.418 J  77.345
F150
G1 Z   3.000
G0 Z  15.000 
M9 M5

(* SHAPE Nr: 12 *)
G0 X2280.720 Y 387.370
M3 M8
G0 Z   3.000 
G1 Z  -1.500
F400
G2 X2276.320 Y 428.780 I 561.472 J  80.598
G2 X2274.830 Y 471.490 I 611.451 J  42.712
G2 X2276.320 Y 514.200 I 612.906 J  -0.001
G2 X2280.720 Y 555.610 I 565.872 J -39.188
G2 X2287.930 Y 594.460 I 479.697 J -68.931
G2 X2297.700 Y 629.580 I 370.966 J -84.280
G2 X2309.740 Y 659.890 I 258.933 J -85.309
G2 X2323.700 Y 684.480 I 160.877 J -75.074
G2 X2339.140 Y 702.600 I  87.858 J -59.225
G2 X2355.600 Y 713.690 I  42.094 J -44.717
G2 X2372.570 Y 717.430 I  17.159 J -37.487
G2 X2389.540 Y 713.690 I  -0.189 J -41.227
G2 X2406.000 Y 702.600 I -25.634 J -55.807
G2 X2421.440 Y 684.480 I -72.417 J -77.344
G2 X2435.400 Y 659.890 I-146.917 J -99.664
G2 X2447.440 Y 629.580 I-246.893 J-115.619
G2 X2457.210 Y 594.460 I-361.196 J-119.400
G2 X2464.420 Y 555.610 I-472.487 J-107.781
G2 X2468.820 Y 514.200 I-561.472 J -80.598
G2 X2470.310 Y 471.490 I-611.416 J -42.711
G2 X2468.820 Y 428.780 I-612.906 J   0.001
G2 X2464.420 Y 387.370 I-565.872 J  39.188
G2 X2457.210 Y 348.520 I-479.697 J  68.931
G2 X2447.440 Y 313.400 I-370.966 J  84.280
G2 X2435.400 Y 283.090 I-258.933 J  85.309
G2 X2421.440 Y 258.500 I-160.877 J  75.074
G2 X2406.000 Y 240.380 I -87.857 J  59.224
G2 X2389.540 Y 229.290 I -42.094 J  44.717
G2 X2372.570 Y 225.550 I -17.159 J  37.487
G2 X2355.600 Y 229.290 I   0.189 J  41.227
G2 X2339.140 Y 240.380 I  25.634 J  55.807
G2 X2323.700 Y 258.500 I  72.418 J  77.345
G2 X2309.740 Y 283.090 I 146.913 J  99.662
G2 X2297.700 Y 313.400 I 246.893 J 115.619
G2 X2287.930 Y 348.520 I 361.196 J 119.400
G2 X2280.720 Y 387.370 I 472.487 J 107.781
F150
G1 Z  -3.000
F400
G2 X2276.320 Y 428.780 I 561.472 J  80.598
G2 X2274.830 Y 471.490 I 611.451 J  42.712
G2 X2276.320 Y 514.200 I 612.906 J  -0.001
G2 X2280.720 Y 555.610 I 565.872 J -39.188
G2 X2287.930 Y 594.460 I 479.697 J -68.931
G2 X2297.700 Y 629.580 I 370.966 J -84.280
G2 X2309.740 Y 659.890 I 258.933 J -85.309
G2 X2323.700 Y 684.480 I 160.877 J -75.074
G2 X2339.140 Y 702.600 I  87.858 J -59.225
G2 X2355.600 Y 713.690 I  42.094 J -44.717
G2 X2372.570 Y 717.430 I  17.159 J -37.487
G2 X2389.540 Y 713.690 I  -0.189 J -41.227
G2 X2406.000 Y 702.600 I -25.634 J -55.807
G2 X2421.440 Y 684.480 I -72.417 J -77.344
G2 X2435.400 Y 659.890 I-146.917 J -99.664
G2 X2447.440 Y 629.580 I-246.893 J-115.619
G2 X2457.210 Y 594.460 I-361.196 J-119.400
G2 X2464.420 Y 555.610 I-472.487 J-107.781
G2 X2468.820 Y 514.200 I-561.472 J -80.598
G2 X2470.310 Y 471.490 I-611.416 J -42.711
G2 X2468.820 Y 428.780 I-612.906 J   0.001
G2 X2464.420 Y 387.370 I-565.872 J  39.188
G2 X2457.210 Y 348.520 I-479.697 J  68.931
G2 X2447.440 Y 313.400 I-370.966 J  84.280
G2 X2435.400 Y 283.090 I-258.933 J  85.309
G2 X2421.440 Y 258.500 I-160.877 J  75.074
G2 X2406.000 Y 240.380 I -87.857 J  59.224
G2 X2389.540 Y 229.290 I -42.094 J  44.717
G2 X2372.570 Y 225.550 I -17.159 J  37.487
G2 X2355.600 Y 229.290 I   0.189 J  41.227
G2 X2339.140 Y 240.380 I  25.634 J  55.807
G2 X2323.700 Y 258.500 I  72.418 J  77.345
G2 X2309.740 Y 283.090 I 146.913 J  99.662
G2 X2297.700 Y 313.400 I 246.893 J 115.619
G2 X2287.930 Y 348.520 I 361.196 J 119.400
G2 X2280.720 Y 387.370 I 472.487 J 107.781
F150
G1 Z   3.000
G0 Z  15.000 
M9 M5

(* SHAPE Nr: 14 *)
G0 X2467.760 Y 216.860
M3 M8
G0 Z   3.000 
G1 Z  -1.500
F400
G2 X2466.270 Y 259.570 I 611.451 J  42.712
G2 X2467.760 Y 302.280 I 612.906 J  -0.001
G2 X2472.160 Y 343.690 I 565.872 J -39.188
G2 X2479.370 Y 382.540 I 479.697 J -68.931
G2 X2489.140 Y 417.660 I 370.966 J -84.280
G2 X2501.180 Y 447.970 I 258.933 J -85.309
G2 X2515.140 Y 472.560 I 160.873 J -75.072
G2 X2530.580 Y 490.680 I  87.858 J -59.225
G2 X2547.040 Y 501.770 I  42.094 J -44.717
G2 X2564.010 Y 505.510 I  17.159 J -37.487
G2 X2580.980 Y 501.770 I  -0.189 J -41.227
G2 X2597.440 Y 490.680 I -25.634 J -55.807
G2 X2612.880 Y 472.560 I -72.417 J -77.344
G2 X2626.840 Y 447.970 I-146.917 J -99.664
G2 X2638.880 Y 417.660 I-246.893 J-115.619
G2 X2648.650 Y 382.540 I-361.196 J-119.400
G2 X2655.860 Y 343.690 I-472.487 J-107.781
G2 X2660.260 Y 302.280 I-561.472 J -80.598
G2 X2661.750 Y 259.570 I-611.416 J -42.711
G2 X2660.260 Y 216.860 I-612.906 J   0.001
G2 X2655.860 Y 175.450 I-565.872 J  39.188
G2 X2648.650 Y 136.600 I-479.697 J  68.931
G2 X2638.880 Y 101.480 I-370.966 J  84.280
G2 X2626.840 Y  71.170 I-258.933 J  85.309
G2 X2612.880 Y  46.580 I-160.877 J  75.074
G2 X2597.440 Y  28.460 I -87.857 J  59.224
G2 X2580.980 Y  17.370 I -42.094 J  44.717
G2 X2564.010 Y  13.630 I -17.159 J  37.487
G2 X2547.040 Y  17.370 I   0.189 J  41.227
G2 X2530.580 Y  28.460 I  25.634 J  55.807
G2 X2515.140 Y  46.580 I  72.418 J  77.345
G2 X2501.180 Y  71.170 I 146.913 J  99.662
G2 X2489.140 Y 101.480 I 246.893 J 115.619
G2 X2479.370 Y 136.600 I 361.196 J 119.400
G2 X2472.160 Y 175.450 I 472.487 J 107.781
G2 X2467.760 Y 216.860 I 561.472 J  80.598
F150
G1 Z  -3.000
F400
G2 X2466.270 Y 259.570 I 611.451 J  42.712
G2 X2467.760 Y 302.280 I 612.906 J  -0.001
G2 X2472.160 Y 343.690 I 565.872 J -39.188
G2 X2479.370 Y 382.540 I 479.697 J -68.931
G2 X2489.140 Y 417.660 I 370.966 J -84.280
G2 X2501.180 Y 447.970 I 258.933 J -85.309
G2 X2515.140 Y 472.560 I 160.873 J -75.072
G2 X2530.580 Y 490.680 I  87.858 J -59.225
G2 X2547.040 Y 501.770 I  42.094 J -44.717
G2 X2564.010 Y 505.510 I  17.159 J -37.487
G2 X2580.980 Y 501.770 I  -0.189 J -41.227
G2 X2597.440 Y 490.680 I -25.634 J -55.807
G2 X2612.880 Y 472.560 I -72.417 J -77.344
G2 X2626.840 Y 447.970 I-146.917 J -99.664
G2 X2638.880 Y 417.660 I-246.893 J-115.619
G2 X2648.650 Y 382.540 I-361.196 J-119.400
G2 X2655.860 Y 343.690 I-472.487 J-107.781
G2 X2660.260 Y 302.280 I-561.472 J -80.598
G2 X2661.750 Y 259.570 I-611.416 J -42.711
G2 X2660.260 Y 216.860 I-612.906 J   0.001
G2 X2655.860 Y 175.450 I-565.872 J  39.188
G2 X2648.650 Y 136.600 I-479.697 J  68.931
G2 X2638.880 Y 101.480 I-370.966 J  84.280
G2 X2626.840 Y  71.170 I-258.933 J  85.309
G2 X2612.880 Y  46.580 I-160.877 J  75.074
G2 X2597.440 Y  28.460 I -87.857 J  59.224
G2 X2580.980 Y  17.370 I -42.094 J  44.717
G2 X2564.010 Y  13.630 I -17.159 J  37.487
G2 X2547.040 Y  17.370 I   0.189 J  41.227
G2 X2530.580 Y  28.460 I  25.634 J  55.807
G2 X2515.140 Y  46.580 I  72.418 J  77.345
G2 X2501.180 Y  71.170 I 146.913 J  99.662
G2 X2489.140 Y 101.480 I 246.893 J 115.619
G2 X2479.370 Y 136.600 I 361.196 J 119.400
G2 X2472.160 Y 175.450 I 472.487 J 107.781
G2 X2467.760 Y 216.860 I 561.472 J  80.598
F150
G1 Z   3.000
G0 Z  15.000 
M9 M5

(* SHAPE Nr: 17 *)
G0 X1530.470 Y 186.850
M3 M8
G0 Z   3.000 
G1 Z  -1.500
F400
G2 X1534.210 Y 203.820 I  41.227 J  -0.189
G2 X1545.300 Y 220.280 I  55.807 J -25.634
G2 X1563.420 Y 235.720 I  77.345 J -72.418
G2 X1588.010 Y 249.680 I  99.664 J-146.917
G2 X1618.320 Y 261.720 I 115.619 J-246.893
G2 X1653.440 Y 271.490 I 119.400 J-361.196
G2 X1692.290 Y 278.700 I 107.781 J-472.487
G2 X1733.700 Y 283.100 I  80.598 J-561.472
G2 X1776.410 Y 284.590 I  42.711 J-611.416
G2 X1819.120 Y 283.100 I  -0.001 J-612.906
G2 X1860.530 Y 278.700 I -39.188 J-565.872
G2 X1899.380 Y 271.490 I -68.931 J-479.697
G2 X1934.500 Y 261.720 I -84.280 J-370.966
G2 X1964.810 Y 249.680 I -85.309 J-258.933
G2 X1989.400 Y 235.720 I -75.074 J-160.877
G2 X2007.520 Y 220.280 I -59.224 J -87.857
G2 X2018.610 Y 203.820 I -44.717 J -42.094
G2 X2022.350 Y 186.850 I -37.487 J -17.159
G2 X2018.610 Y 169.880 I -41.227 J   0.189
G2 X2007.520 Y 153.420 I -55.807 J  25.634
G2 X1989.400 Y 137.980 I -77.345 J  72.418
G2 X1964.810 Y 124.020 I -99.664 J 146.917
G2 X1934.500 Y 111.980 I-115.619 J 246.893
G2 X1899.380 Y 102.210 I-119.400 J 361.196
G2 X1860.530 Y  95.000 I-107.781 J 472.487
G2 X1819.120 Y  90.600 I -80.598 J 561.472
G2 X1776.410 Y  89.110 I -42.712 J 611.451
G2 X1733.700 Y  90.600 I   0.002 J 612.941
G2 X1692.290 Y  95.000 I  39.188 J 565.872
G2 X1653.440 Y 102.210 I  68.931 J 479.697
G2 X1618.320 Y 111.980 I  84.280 J 370.966
G2 X1588.010 Y 124.020 I  85.309 J 258.933
G2 X1563.420 Y 137.980 I  75.074 J 160.877
G2 X1545.300 Y 153.420 I  59.225 J  87.858
G2 X1534.210 Y 169.880 I  44.717 J  42.094
G2 X1530.470 Y 186.850 I  37.487 J  17.159
F150
G1 Z  -3.000
F400
G2 X1534.210 Y 203.820 I  41.227 J  -0.189
G2 X1545.300 Y 220.280 I  55.807 J -25.634
G2 X1563.420 Y 235.720 I  77.345 J -72.418
G2 X1588.010 Y 249.680 I  99.664 J-146.917
G2 X1618.320 Y 261.720 I 115.619 J-246.893
G2 X1653.440 Y 271.490 I 119.400 J-361.196
G2 X1692.290 Y 278.700 I 107.781 J-472.487
G2 X1733.700 Y 283.100 I  80.598 J-561.472
G2 X1776.410 Y 284.590 I  42.711 J-611.416
G2 X1819.120 Y 283.100 I  -0.001 J-612.906
G2 X1860.530 Y 278.700 I -39.188 J-565.872
G2 X1899.380 Y 271.490 I -68.931 J-479.697
G2 X1934.500 Y 261.720 I -84.280 J-370.966
G2 X1964.810 Y 249.680 I -85.309 J-258.933
G2 X1989.400 Y 235.720 I -75.074 J-160.877
G2 X2007.520 Y 220.280 I -59.224 J -87.857
G2 X2018.610 Y 203.820 I -44.717 J -42.094
G2 X2022.350 Y 186.850 I -37.487 J -17.159
G2 X2018.610 Y 169.880 I -41.227 J   0.189
G2 X2007.520 Y 153.420 I -55.807 J  25.634
G2 X1989.400 Y 137.980 I -77.345 J  72.418
G2 X1964.810 Y 124.020 I -99.664 J 146.917
G2 X1934.500 Y 111.980 I-115.619 J 246.893
G2 X1899.380 Y 102.210 I-119.400 J 361.196
G2 X1860.530 Y  95.000 I-107.781 J 472.487
G2 X1819.120 Y  90.600 I -80.598 J 561.472
G2 X1776.410 Y  89.110 I -42.712 J 611.451
G2 X1733.700 Y  90.600 I   0.002 J 612.941
G2 X1692.290 Y  95.000 I  39.188 J 565.872
G2 X1653.440 Y 102.210 I  68.931 J 479.697
G2 X1618.320 Y 111.980 I  84.280 J 370.966
G2 X1588.010 Y 124.020 I  85.309 J 258.933
G2 X1563.420 Y 137.980 I  75.074 J 160.877
G2 X1545.300 Y 153.420 I  59.225 J  87.858
G2 X1534.210 Y 169.880 I  44.717 J  42.094
G2 X1530.470 Y 186.850 I  37.487 J  17.159
F150
G1 Z   3.000
G0 Z  15.000 
M9 M5

(* SHAPE Nr: 18 *)
G0 X1341.320 Y 364.680
M3 M8
G0 Z   3.000 
G1 Z  -1.500
F400
G2 X1337.580 Y 381.650 I  37.487 J  17.159
G2 X1341.320 Y 398.620 I  41.227 J  -0.189
G2 X1352.410 Y 415.080 I  55.807 J -25.634
G2 X1370.530 Y 430.520 I  77.344 J -72.417
G2 X1395.120 Y 444.480 I  99.664 J-146.917
G2 X1425.430 Y 456.520 I 115.619 J-246.893
G2 X1460.550 Y 466.290 I 119.400 J-361.196
G2 X1499.400 Y 473.500 I 107.781 J-472.487
G2 X1540.810 Y 477.900 I  80.598 J-561.472
G2 X1583.520 Y 479.390 I  42.711 J-611.416
G2 X1626.230 Y 477.900 I  -0.001 J-612.906
G2 X1667.640 Y 473.500 I -39.188 J-565.872
G2 X1706.490 Y 466.290 I -68.931 J-479.697
G2 X1741.610 Y 456.520 I -84.280 J-370.966
G2 X1771.920 Y 444.480 I -85.309 J-258.933
G2 X1796.510 Y 430.520 I -75.074 J-160.877
G2 X1814.630 Y 415.080 I -59.224 J -87.857
G2 X1825.720 Y 398.620 I -44.717 J -42.094
G2 X1829.460 Y 381.650 I -37.487 J -17.159
G2 X1825.720 Y 364.680 I -41.227 J   0.189
G2 X1814.630 Y 348.220 I -55.807 J  25.634
G2 X1796.510 Y 332.780 I -77.345 J  72.418
G2 X1771.920 Y 318.820 I -99.664 J 146.917
G2 X1741.610 Y 306.780 I-115.619 J 246.893
G2 X1706.490 Y 297.010 I-119.400 J 361.196
G2 X1667.640 Y 289.800 I-107.781 J 472.487
G2 X1626.230 Y 285.400 I -80.598 J 561.472
G2 X1583.520 Y 283.910 I -42.711 J 611.416
G2 X1540.810 Y 285.400 I   0.001 J 612.906
G2 X1499.400 Y 289.800 I  39.188 J 565.872
G2 X1460.550 Y 297.010 I  68.931 J 479.697
G2 X1425.430 Y 306.780 I  84.280 J 370.966
G2 X1395.120 Y 318.820 I  85.309 J 258.933
G2 X1370.530 Y 332.780 I  75.074 J 160.877
G2 X1352.410 Y 348.220 I  59.225 J  87.858
G2 X1341.320 Y 364.680 I  44.717 J  42.094
F150
G1 Z  -3.000
F400
G2 X1337.580 Y 381.650 I  37.487 J  17.159
G2 X1341.320 Y 398.620 I  41.227 J  -0.189
G2 X1352.410 Y 415.080 I  55.807 J -25.634
G2 X1370.530 Y 430.520 I  77.344 J -72.417
G2 X1395.120 Y 444.480 I  99.664 J-146.917
G2 X1425.430 Y 456.520 I 115.619 J-246.893
G2 X1460.550 Y 466.290 I 119.400 J-361.196
G2 X1499.400 Y 473.500 I 107.781 J-472.487
G2 X1540.810 Y 477.900 I  80.598 J-561.472
G2 X1583.520 Y 479.390 I  42.711 J-611.416
G2 X1626.230 Y 477.900 I  -0.001 J-612.906
G2 X1667.640 Y 473.500 I -39.188 J-565.872
G2 X1706.490 Y 466.290 I -68.931 J-479.697
G2 X1741.610 Y 456.520 I -84.280 J-370.966
G2 X1771.920 Y 444.480 I -85.309 J-258.933
G2 X1796.510 Y 430.520 I -75.074 J-160.877
G2 X1814.630 Y 415.080 I -59.224 J -87.857
G2 X1825.720 Y 398.620 I -44.717 J -42.094
G2 X1829.460 Y 381.650 I -37.487 J -17.159
G2 X1825.720 Y 364.680 I -41.227 J   0.189
G2 X1814.630 Y 348.220 I -55.807 J  25.634
G2 X1796.510 Y 332.780 I -77.345 J  72.418
G2 X1771.920 Y 318.820 I -99.664 J 146.917
G2 X1741.610 Y 306.780 I-115.619 J 246.893
G2 X1706.490 Y 297.010 I-119.400 J 361.196
G2 X1667.640 Y 289.800 I-107.781 J 472.487
G2 X1626.230 Y 285.400 I -80.598 J 561.472
G2 X1583.520 Y 283.910 I -42.711 J 611.416
G2 X1540.810 Y 285.400 I   0.001 J 612.906
G2 X1499.400 Y 289.800 I  39.188 J 565.872
G2 X1460.550 Y 297.010 I  68.931 J 479.697
G2 X1425.430 Y 306.780 I  84.280 J 370.966
G2 X1395.120 Y 318.820 I  85.309 J 258.933
G2 X1370.530 Y 332.780 I  75.074 J 160.877
G2 X1352.410 Y 348.220 I  59.225 J  87.858
G2 X1341.320 Y 364.680 I  44.717 J  42.094
F150
G1 Z   3.000
G0 Z  15.000 
M9 M5

(* SHAPE Nr: 20 *)
G0 X2065.470 Y 224.500
M3 M8
G0 Z   3.000 
G1 Z  -1.500
F400
G2 X2063.980 Y 267.210 I 611.451 J  42.712
G2 X2065.470 Y 309.920 I 612.906 J  -0.001
G2 X2069.870 Y 351.330 I 565.872 J -39.188
G2 X2077.080 Y 390.180 I 479.697 J -68.931
G2 X2086.850 Y 425.300 I 370.966 J -84.280
G2 X2098.890 Y 455.610 I 258.933 J -85.309
G2 X2112.850 Y 480.200 I 160.873 J -75.072
G2 X2128.290 Y 498.320 I  87.858 J -59.225
G2 X2144.750 Y 509.410 I  42.094 J -44.717
G2 X2161.720 Y 513.150 I  17.159 J -37.487
G2 X2178.690 Y 509.410 I  -0.189 J -41.227
G2 X2195.150 Y 498.320 I -25.634 J -55.807
G2 X2210.590 Y 480.200 I -72.417 J -77.344
G2 X2224.550 Y 455.610 I-146.917 J -99.664
G2 X2236.590 Y 425.300 I-246.893 J-115.619
G2 X2246.360 Y 390.180 I-361.196 J-119.400
G2 X2253.570 Y 351.330 I-472.487 J-107.781
G2 X2257.970 Y 309.920 I-561.472 J -80.598
G2 X2259.460 Y 267.210 I-611.416 J -42.711
G2 X2257.970 Y 224.500 I-612.906 J   0.001
G2 X2253.570 Y 183.090 I-565.872 J  39.188
G2 X2246.360 Y 144.240 I-479.697 J  68.931
G2 X2236.590 Y 109.120 I-370.966 J  84.280
G2 X2224.550 Y  78.810 I-258.933 J  85.309
G2 X2210.590 Y  54.220 I-160.877 J  75.074
G2 X2195.150 Y  36.100 I -87.857 J  59.224
G2 X2178.690 Y  25.010 I -42.094 J  44.717
G2 X2161.720 Y  21.270 I -17.159 J  37.487
G2 X2144.750 Y  25.010 I   0.189 J  41.227
G2 X2128.290 Y  36.100 I  25.634 J  55.807
G2 X2112.850 Y  54.220 I  72.418 J  77.345
G2 X2098.890 Y  78.810 I 146.913 J  99.662
G2 X2086.850 Y 109.120 I 246.893 J 115.619
G2 X2077.080 Y 144.240 I 361.196 J 119.400
G2 X2069.870 Y 183.090 I 472.487 J 107.781
G2 X2065.470 Y 224.500 I 561.472 J  80.598
F150
G1 Z  -3.000
F400
G2 X2063.980 Y 267.210 I 611.451 J  42.712
G2 X2065.470 Y 309.920 I 612.906 J  -0.001
G2 X2069.870 Y 351.330 I 565.872 J -39.188
G2 X2077.080 Y 390.180 I 479.697 J -68.931
G2 X2086.850 Y 425.300 I 370.966 J -84.280
G2 X2098.890 Y 455.610 I 258.933 J -85.309
G2 X2112.850 Y 480.200 I 160.873 J -75.072
G2 X2128.290 Y 498.320 I  87.858 J -59.225
G2 X2144.750 Y 509.410 I  42.094 J -44.717
G2 X2161.720 Y 513.150 I  17.159 J -37.487
G2 X2178.690 Y 509.410 I  -0.189 J -41.227
G2 X2195.150 Y 498.320 I -25.634 J -55.807
G2 X2210.590 Y 480.200 I -72.417 J -77.344
G2 X2224.550 Y 455.610 I-146.917 J -99.664
G2 X2236.590 Y 425.300 I-246.893 J-115.619
G2 X2246.360 Y 390.180 I-361.196 J-119.400
G2 X2253.570 Y 351.330 I-472.487 J-107.781
G2 X2257.970 Y 309.920 I-561.472 J -80.598
G2 X2259.460 Y 267.210 I-611.416 J -42.711
G2 X2257.970 Y 224.500 I-612.906 J   0.001
G2 X2253.570 Y 183.090 I-565.872 J  39.188
G2 X2246.360 Y 144.240 I-479.697 J  68.931
G2 X2236.590 Y 109.120 I-370.966 J  84.280
G2 X2224.550 Y  78.810 I-258.933 J  85.309
G2 X2210.590 Y  54.220 I-160.877 J  75.074
G2 X2195.150 Y  36.100 I -87.857 J  59.224
G2 X2178.690 Y  25.010 I -42.094 J  44.717
G2 X2161.720 Y  21.270 I -17.159 J  37.487
G2 X2144.750 Y  25.010 I   0.189 J  41.227
G2 X2128.290 Y  36.100 I  25.634 J  55.807
G2 X2112.850 Y  54.220 I  72.418 J  77.345
G2 X2098.890 Y  78.810 I 146.913 J  99.662
G2 X2086.850 Y 109.120 I 246.893 J 115.619
G2 X2077.080 Y 144.240 I 361.196 J 119.400
G2 X2069.870 Y 183.090 I 472.487 J 107.781
G2 X2065.470 Y 224.500 I 561.472 J  80.598
F150
G1 Z   3.000
G0 Z  15.000 
M9 M5

(*** LAYER: BORDER_D0_T132_RK1_A0_W0_EM1_RI1_ID0007 ***)

(* SHAPE Nr: 16 *)
G0 X2254.140 Y 104.270
M3 M8
G0 Z   3.000 
G1 Z  -1.500
F400
G1 X2311.590 Y 146.010
G1 X2289.650 Y 213.550
G1 X2347.100 Y 171.810
G1 X2404.550 Y 213.550
G1 X2382.600 Y 146.010
G1 X2440.050 Y 104.270
G1 X2369.040 Y 104.270
G1 X2347.100 Y  36.740
G1 X2325.150 Y 104.270
G1 X2254.140 Y 104.270
F150
G1 Z  -3.000
F400
G1 X2311.590 Y 146.010
G1 X2289.650 Y 213.550
G1 X2347.100 Y 171.810
G1 X2404.550 Y 213.550
G1 X2382.600 Y 146.010
G1 X2440.050 Y 104.270
G1 X2369.040 Y 104.270
G1 X2347.100 Y  36.740
G1 X2325.150 Y 104.270
G1 X2254.140 Y 104.270
F150
G1 Z   3.000
G0 Z  15.000 
M9 M5

(*** LAYER: BORDER_D0_T132_RK1_A0_W0_EM1_RI1_ID0019 ***)

(* SHAPE Nr: 19 *)
G0 X2020.730 Y 494.100
M3 M8
G0 Z   3.000 
G1 Z  -1.500
F400
G1 X2020.730 Y1267.050
G1 X2020.730 Y2040.000
G2 X2096.110 Y2028.260 I  -0.309 J-249.852
G2 X2169.200 Y1993.380 I -90.982 J-284.669
G2 X2237.780 Y1936.440 I-218.686 J-333.161
G2 X2299.760 Y1859.160 I-394.050 J-379.530
G2 X2353.270 Y1763.890 I-611.530 J-406.139
G2 X2396.670 Y1653.520 I-850.056 J-397.979
G2 X2428.650 Y1531.410 I-1077.138 J-347.340
G2 X2448.240 Y1401.270 I-1256.951 J-255.754
G2 X2454.830 Y1267.050 I-1359.017 J-133.997
G2 X2448.240 Y1132.830 I-1365.551 J  -0.225
G2 X2428.650 Y1002.690 I-1276.541 J 125.614
G2 X2396.670 Y 880.570 I-1109.129 J 225.204
G2 X2353.270 Y 770.210 I-893.432 J 287.636
G2 X2299.760 Y 674.940 I-665.040 J 310.869
G2 X2237.780 Y 597.660 I-456.030 J 302.250
G2 X2169.200 Y 540.710 I-287.293 J 276.195
G2 X2096.110 Y 505.840 I-164.043 J 249.810
G2 X2020.730 Y 494.100 I -75.689 J 238.112
F150
G1 Z  -3.000
F400
G1 X2020.730 Y1267.050
G1 X2020.730 Y2040.000
G2 X2096.110 Y2028.260 I  -0.309 J-249.852
G2 X2169.200 Y1993.380 I -90.982 J-284.669
G2 X2237.780 Y1936.440 I-218.686 J-333.161
G2 X2299.760 Y1859.160 I-394.050 J-379.530
G2 X2353.270 Y1763.890 I-611.530 J-406.139
G2 X2396.670 Y1653.520 I-850.056 J-397.979
G2 X2428.650 Y1531.410 I-1077.138 J-347.340
G2 X2448.240 Y1401.270 I-1256.951 J-255.754
G2 X2454.830 Y1267.050 I-1359.017 J-133.997
G2 X2448.240 Y1132.830 I-1365.551 J  -0.225
G2 X2428.650 Y1002.690 I-1276.541 J 125.614
G2 X2396.670 Y 880.570 I-1109.129 J 225.204
G2 X2353.270 Y 770.210 I-893.432 J 287.636
G2 X2299.760 Y 674.940 I-665.040 J 310.869
G2 X2237.780 Y 597.660 I-456.030 J 302.250
G2 X2169.200 Y 540.710 I-287.293 J 276.195
G2 X2096.110 Y 505.840 I-164.043 J 249.810
G2 X2020.730 Y 494.100 I -75.689 J 238.112
F150
G1 Z   3.000
G0 Z  15.000 
M9 M5

(* SHAPE Nr: 22 *)
G0 X1571.930 Y 494.100
M3 M8
G0 Z   3.000 
G1 Z  -1.500
F400
G1 X1571.930 Y1267.050
G1 X1571.930 Y2040.000
G2 X1647.310 Y2028.260 I  -0.309 J-249.852
G2 X1720.400 Y1993.380 I -90.982 J-284.669
G2 X1788.980 Y1936.440 I-218.686 J-333.161
G2 X1850.960 Y1859.160 I-394.050 J-379.530
G2 X1904.470 Y1763.890 I-611.530 J-406.139
G2 X1947.870 Y1653.520 I-850.056 J-397.979
G2 X1979.850 Y1531.410 I-1077.138 J-347.340
G2 X1999.440 Y1401.270 I-1256.951 J-255.754
G2 X2006.030 Y1267.050 I-1359.017 J-133.997
G2 X1999.440 Y1132.830 I-1365.551 J  -0.225
G2 X1979.850 Y1002.690 I-1276.541 J 125.614
G2 X1947.870 Y 880.570 I-1109.129 J 225.204
G2 X1904.470 Y 770.210 I-893.432 J 287.636
G2 X1850.960 Y 674.940 I-665.040 J 310.869
G2 X1788.980 Y 597.660 I-456.030 J 302.250
G2 X1720.400 Y 540.710 I-287.293 J 276.195
G2 X1647.310 Y 505.840 I-164.043 J 249.810
G2 X1571.930 Y 494.100 I -75.689 J 238.112
F150
G1 Z  -3.000
F400
G1 X1571.930 Y1267.050
G1 X1571.930 Y2040.000
G2 X1647.310 Y2028.260 I  -0.309 J-249.852
G2 X1720.400 Y1993.380 I -90.982 J-284.669
G2 X1788.980 Y1936.440 I-218.686 J-333.161
G2 X1850.960 Y1859.160 I-394.050 J-379.530
G2 X1904.470 Y1763.890 I-611.530 J-406.139
G2 X1947.870 Y1653.520 I-850.056 J-397.979
G2 X1979.850 Y1531.410 I-1077.138 J-347.340
G2 X1999.440 Y1401.270 I-1256.951 J-255.754
G2 X2006.030 Y1267.050 I-1359.017 J-133.997
G2 X1999.440 Y1132.830 I-1365.551 J  -0.225
G2 X1979.850 Y1002.690 I-1276.541 J 125.614
G2 X1947.870 Y 880.570 I-1109.129 J 225.204
G2 X1904.470 Y 770.210 I-893.432 J 287.636
G2 X1850.960 Y 674.940 I-665.040 J 310.869
G2 X1788.980 Y 597.660 I-456.030 J 302.250
G2 X1720.400 Y 540.710 I-287.293 J 276.195
G2 X1647.310 Y 505.840 I-164.043 J 249.810
G2 X1571.930 Y 494.100 I -75.689 J 238.112
F150
G1 Z   3.000
G0 Z  15.000 
M9 M5

(* SHAPE Nr: 23 *)
G0 X  10.610 Y  32.760
M3 M8
G0 Z   3.000 
G1 Z  -1.500
F400
G2 X  22.350 Y 108.140 I 249.852 J  -0.309
G2 X  57.230 Y 181.230 I 284.669 J -90.982
G2 X 114.170 Y 249.810 I 333.161 J-218.686
G2 X 191.450 Y 311.790 I 379.530 J-394.050
G2 X 286.720 Y 365.300 I 406.139 J-611.530
G2 X 397.090 Y 408.700 I 397.979 J-850.056
G2 X 519.200 Y 440.680 I 347.340 J-1077.138
G2 X 649.340 Y 460.270 I 255.754 J-1256.951
G2 X 783.560 Y 466.860 I 133.995 J-1358.961
G2 X 917.780 Y 460.270 I   0.225 J-1365.551
G2 X1047.920 Y 440.680 I-125.614 J-1276.541
G2 X1170.040 Y 408.700 I-225.204 J-1109.129
G2 X1280.400 Y 365.300 I-287.636 J-893.432
G2 X1375.670 Y 311.790 I-310.869 J-665.040
G2 X1452.950 Y 249.810 I-302.250 J-456.030
G2 X1509.900 Y 181.230 I-276.195 J-287.293
G2 X1544.770 Y 108.140 I-249.810 J-164.043
G2 X1556.510 Y  32.760 I-238.112 J -75.689
G1 X 783.560 Y  32.760
G1 X  10.610 Y  32.760
F150
G1 Z  -3.000
F400
G2 X  22.350 Y 108.140 I 249.852 J  -0.309
G2 X  57.230 Y 181.230 I 284.669 J -90.982
G2 X 114.170 Y 249.810 I 333.161 J-218.686
G2 X 191.450 Y 311.790 I 379.530 J-394.050
G2 X 286.720 Y 365.300 I 406.139 J-611.530
G2 X 397.090 Y 408.700 I 397.979 J-850.056
G2 X 519.200 Y 440.680 I 347.340 J-1077.138
G2 X 649.340 Y 460.270 I 255.754 J-1256.951
G2 X 783.560 Y 466.860 I 133.995 J-1358.961
G2 X 917.780 Y 460.270 I   0.225 J-1365.551
G2 X1047.920 Y 440.680 I-125.614 J-1276.541
G2 X1170.040 Y 408.700 I-225.204 J-1109.129
G2 X1280.400 Y 365.300 I-287.636 J-893.432
G2 X1375.670 Y 311.790 I-310.869 J-665.040
G2 X1452.950 Y 249.810 I-302.250 J-456.030
G2 X1509.900 Y 181.230 I-276.195 J-287.293
G2 X1544.770 Y 108.140 I-249.810 J-164.043
G2 X1556.510 Y  32.760 I-238.112 J -75.689
G1 X 783.560 Y  32.760
G1 X  10.610 Y  32.760
F150
G1 Z   3.000
G0 Z  15.000 
M9 M5

(*** LAYER: BORDER_D0_T132.1_RK1_A0_W0_EM1 ***)

(* SHAPE Nr: 24 *)
G0 X  77.540 Y 327.750
M3 M8
G0 Z   3.000 
G1 Z  -1.500
F400
G1 X  66.000 Y 363.250
G1 X  28.670 Y 363.250
G1 X  40.200 Y 398.760
G1 X  10.000 Y 420.700
G1 X  40.200 Y 442.650
G1 X  28.670 Y 478.150
G1 X  66.000 Y 478.150
G1 X  77.540 Y 513.660
G1 X 107.740 Y 491.720
G1 X 137.940 Y 513.660
G1 X 149.480 Y 478.150
G1 X 186.810 Y 478.150
G1 X 175.280 Y 442.650
G1 X 205.480 Y 420.700
G1 X 175.280 Y 398.760
G1 X 186.810 Y 363.250
G1 X 149.480 Y 363.250
G1 X 137.940 Y 327.750
G1 X 107.740 Y 349.690
G1 X  77.540 Y 327.750
F150
G1 Z  -3.000
F400
G1 X  66.000 Y 363.250
G1 X  28.670 Y 363.250
G1 X  40.200 Y 398.760
G1 X  10.000 Y 420.700
G1 X  40.200 Y 442.650
G1 X  28.670 Y 478.150
G1 X  66.000 Y 478.150
G1 X  77.540 Y 513.660
G1 X 107.740 Y 491.720
G1 X 137.940 Y 513.660
G1 X 149.480 Y 478.150
G1 X 186.810 Y 478.150
G1 X 175.280 Y 442.650
G1 X 205.480 Y 420.700
G1 X 175.280 Y 398.760
G1 X 186.810 Y 363.250
G1 X 149.480 Y 363.250
G1 X 137.940 Y 327.750
G1 X 107.740 Y 349.690
G1 X  77.540 Y 327.750
F150
G1 Z   3.000
G0 Z  15.000 
M9 M5

(* SHAPE Nr: 25 *)
G0 X  10.000 Y 577.610
M3 M8
G0 Z   3.000 
G1 Z  -1.500
F400
G1 X  10.000 Y1156.410
G1 X 396.480 Y1301.110
G1 X1555.900 Y1084.060
G1 X1362.660 Y 997.240
G1 X1362.660 Y 736.780
G1 X1555.900 Y 649.960
G1 X 396.480 Y 432.910
G1 X  10.000 Y 577.610
F150
G1 Z  -3.000
F400
G1 X  10.000 Y1156.410
G1 X 396.480 Y1301.110
G1 X1555.900 Y1084.060
G1 X1362.660 Y 997.240
G1 X1362.660 Y 736.780
G1 X1555.900 Y 649.960
G1 X 396.480 Y 432.910
G1 X  10.000 Y 577.610
F150
G1 Z   3.000
G0 Z  15.000 
M9 M5

(* SHAPE Nr: 26 *)
G0 X  94.640 Y1572.460
M3 M8
G0 Z   3.000 
G1 Z  -1.500
F400
G1 X  10.000 Y1621.330
G1 X  10.000 Y1719.070
G1 X  94.640 Y1767.940
G1 X 179.290 Y1719.070
G1 X 179.290 Y1621.330
G1 X  94.640 Y1572.460
F150
G1 Z  -3.000
F400
G1 X  10.000 Y1621.330
G1 X  10.000 Y1719.070
G1 X  94.640 Y1767.940
G1 X 179.290 Y1719.070
G1 X 179.290 Y1621.330
G1 X  94.640 Y1572.460
F150
G1 Z   3.000
G0 Z  15.000 
M9 M5

(* SHAPE Nr: 27 *)
G0 X  58.870 Y1870.710
M3 M8
G0 Z   3.000 
G1 Z  -1.500
F400
G1 X  10.000 Y1955.350
G1 X  58.870 Y2040.000
G1 X 156.610 Y2040.000
G1 X 205.480 Y1955.350
G1 X 156.610 Y1870.710
G1 X  58.870 Y1870.710
F150
G1 Z  -3.000
F400
G1 X  10.000 Y1955.350
G1 X  58.870 Y2040.000
G1 X 156.610 Y2040.000
G1 X 205.480 Y1955.350
G1 X 156.610 Y1870.710
G1 X  58.870 Y1870.710
F150
G1 Z   3.000
G0 Z  15.000 
M9 M5

(* SHAPE Nr: 28 *)
G0 X 341.840 Y1948.150
M3 M8
G0 Z   3.000 
G1 Z  -1.500
F400
G2 X 302.980 Y1955.350 I  68.799 J 479.791
G2 X 267.870 Y1965.130 I  84.397 J 370.897
G2 X 237.550 Y1977.170 I  85.284 J 258.966
G2 X 212.960 Y1991.130 I  75.083 J 160.893
G2 X 194.850 Y2006.570 I  59.233 J  87.817
G2 X 183.750 Y2023.030 I  44.710 J  42.124
G2 X 180.010 Y2040.000 I  37.484 J  17.158
G1 X 671.900 Y2040.000
G2 X 668.160 Y2023.030 I -41.224 J   0.188
G2 X 657.060 Y2006.570 I -55.810 J  25.664
G2 X 638.950 Y1991.130 I -77.343 J  72.377
G2 X 614.360 Y1977.170 I -99.673 J 146.933
G2 X 584.040 Y1965.130 I-115.604 J 246.926
G2 X 548.920 Y1955.350 I-119.512 J 361.221
G2 X 510.070 Y1948.150 I-107.654 J 472.468
G2 X 468.660 Y1943.740 I -80.734 J 561.467
G2 X 425.950 Y1942.260 I -42.570 J 611.491
G2 X 383.250 Y1943.740 I  -0.135 J 612.828
G2 X 341.840 Y1948.150 I  39.324 J 565.877
F150
G1 Z  -3.000
F400
G2 X 302.980 Y1955.350 I  68.799 J 479.791
G2 X 267.870 Y1965.130 I  84.397 J 370.897
G2 X 237.550 Y1977.170 I  85.284 J 258.966
G2 X 212.960 Y1991.130 I  75.083 J 160.893
G2 X 194.850 Y2006.570 I  59.233 J  87.817
G2 X 183.750 Y2023.030 I  44.710 J  42.124
G2 X 180.010 Y2040.000 I  37.484 J  17.158
G1 X 671.900 Y2040.000
G2 X 668.160 Y2023.030 I -41.224 J   0.188
G2 X 657.060 Y2006.570 I -55.810 J  25.664
G2 X 638.950 Y1991.130 I -77.343 J  72.377
G2 X 614.360 Y1977.170 I -99.673 J 146.933
G2 X 584.040 Y1965.130 I-115.604 J 246.926
G2 X 548.920 Y1955.350 I-119.512 J 361.221
G2 X 510.070 Y1948.150 I-107.654 J 472.468
G2 X 468.660 Y1943.740 I -80.734 J 561.467
G2 X 425.950 Y1942.260 I -42.570 J 611.491
G2 X 383.250 Y1943.740 I  -0.135 J 612.828
G2 X 341.840 Y1948.150 I  39.324 J 565.877
F150
G1 Z   3.000
G0 Z  15.000 
M9 M5

(* SHAPE Nr: 29 *)
G0 X  10.000 Y1388.850
M3 M8
G0 Z   3.000 
G1 Z  -1.500
F400
G1 X 203.240 Y1475.670
G1 X 203.240 Y1736.130
G1 X  10.000 Y1822.950
G1 X1169.430 Y2040.000
G1 X1555.900 Y1895.300
G1 X1555.900 Y1316.500
G1 X1169.430 Y1171.800
G1 X  10.000 Y1388.850
F150
G1 Z  -3.000
F400
G1 X 203.240 Y1475.670
G1 X 203.240 Y1736.130
G1 X  10.000 Y1822.950
G1 X1169.430 Y2040.000
G1 X1555.900 Y1895.300
G1 X1555.900 Y1316.500
G1 X1169.430 Y1171.800
G1 X  10.000 Y1388.850
F150
G1 Z   3.000
G0 Z  15.000 
M9 M5

(* SHAPE Nr: 30 *)
G0 X2443.680 Y1581.070
M3 M8
G0 Z   3.000 
G1 Z  -1.500
F400
G2 X2429.720 Y1605.660 I 146.929 J  99.671
G2 X2417.680 Y1635.970 I 246.843 J 115.599
G2 X2407.900 Y1671.090 I 361.221 J 119.512
G2 X2400.700 Y1709.940 I 472.468 J 107.654
G2 X2396.290 Y1751.350 I 561.467 J  80.734
G2 X2394.810 Y1794.060 I 611.491 J  42.570
G2 X2396.290 Y1836.770 I 612.971 J   0.140
G2 X2400.700 Y1878.180 I 565.877 J -39.324
G2 X2407.900 Y1917.030 I 479.668 J -68.804
G2 X2417.680 Y1952.150 I 371.001 J -84.392
G2 X2429.720 Y1982.460 I 258.883 J -85.289
G2 X2443.680 Y2007.050 I 160.893 J -75.083
G2 X2459.120 Y2025.170 I  87.861 J -59.228
G2 X2475.580 Y2036.260 I  42.093 J -44.715
G2 X2492.550 Y2040.000 I  17.158 J -37.484
G2 X2509.520 Y2036.260 I  -0.188 J -41.224
G2 X2525.980 Y2025.170 I -25.633 J -55.805
G2 X2541.420 Y2007.050 I -72.421 J -77.348
G2 X2555.370 Y1982.460 I-146.938 J -99.610
G2 X2567.420 Y1952.150 I-246.838 J-115.683
G2 X2577.190 Y1917.030 I-361.226 J-119.408
G2 X2584.390 Y1878.180 I-472.468 J-107.654
G2 X2588.800 Y1836.770 I-561.467 J -80.734
G2 X2590.290 Y1794.060 I-611.486 J -42.714
G2 X2588.800 Y1751.350 I-612.976 J   0.004
G2 X2584.390 Y1709.940 I-565.877 J  39.324
G2 X2577.190 Y1671.090 I-479.668 J  68.804
G2 X2567.420 Y1635.970 I-370.996 J  84.288
G2 X2555.370 Y1605.660 I-258.896 J  85.376
G2 X2541.420 Y1581.070 I-160.884 J  75.018
G2 X2525.980 Y1562.950 I -87.861 J  59.228
G2 X2509.520 Y1551.860 I -42.093 J  44.715
G2 X2492.550 Y1548.120 I -17.158 J  37.484
G2 X2475.580 Y1551.860 I   0.188 J  41.224
G2 X2459.120 Y1562.950 I  25.633 J  55.805
G2 X2443.680 Y1581.070 I  72.421 J  77.348
F150
G1 Z  -3.000
F400
G2 X2429.720 Y1605.660 I 146.929 J  99.671
G2 X2417.680 Y1635.970 I 246.843 J 115.599
G2 X2407.900 Y1671.090 I 361.221 J 119.512
G2 X2400.700 Y1709.940 I 472.468 J 107.654
G2 X2396.290 Y1751.350 I 561.467 J  80.734
G2 X2394.810 Y1794.060 I 611.491 J  42.570
G2 X2396.290 Y1836.770 I 612.971 J   0.140
G2 X2400.700 Y1878.180 I 565.877 J -39.324
G2 X2407.900 Y1917.030 I 479.668 J -68.804
G2 X2417.680 Y1952.150 I 371.001 J -84.392
G2 X2429.720 Y1982.460 I 258.883 J -85.289
G2 X2443.680 Y2007.050 I 160.893 J -75.083
G2 X2459.120 Y2025.170 I  87.861 J -59.228
G2 X2475.580 Y2036.260 I  42.093 J -44.715
G2 X2492.550 Y2040.000 I  17.158 J -37.484
G2 X2509.520 Y2036.260 I  -0.188 J -41.224
G2 X2525.980 Y2025.170 I -25.633 J -55.805
G2 X2541.420 Y2007.050 I -72.421 J -77.348
G2 X2555.370 Y1982.460 I-146.938 J -99.610
G2 X2567.420 Y1952.150 I-246.838 J-115.683
G2 X2577.190 Y1917.030 I-361.226 J-119.408
G2 X2584.390 Y1878.180 I-472.468 J-107.654
G2 X2588.800 Y1836.770 I-561.467 J -80.734
G2 X2590.290 Y1794.060 I-611.486 J -42.714
G2 X2588.800 Y1751.350 I-612.976 J   0.004
G2 X2584.390 Y1709.940 I-565.877 J  39.324
G2 X2577.190 Y1671.090 I-479.668 J  68.804
G2 X2567.420 Y1635.970 I-370.996 J  84.288
G2 X2555.370 Y1605.660 I-258.896 J  85.376
G2 X2541.420 Y1581.070 I-160.884 J  75.018
G2 X2525.980 Y1562.950 I -87.861 J  59.228
G2 X2509.520 Y1551.860 I -42.093 J  44.715
G2 X2492.550 Y1548.120 I -17.158 J  37.484
G2 X2475.580 Y1551.860 I   0.188 J  41.224
G2 X2459.120 Y1562.950 I  25.633 J  55.805
G2 X2443.680 Y1581.070 I  72.421 J  77.348
F150
G1 Z   3.000
G0 Z  15.000 
M9 M5

(* SHAPE Nr: 31 *)
G0 X2604.750 Y1889.590
M3 M8
G0 Z   3.000 
G1 Z  -1.500
F400
G1 X2616.290 Y1925.100
G1 X2586.080 Y1947.040
G1 X2616.290 Y1968.990
G1 X2604.750 Y2004.490
G1 X2642.080 Y2004.490
G1 X2653.620 Y2040.000
G1 X2683.820 Y2018.060
G1 X2714.030 Y2040.000
G1 X2725.560 Y2004.490
G1 X2762.900 Y2004.490
G1 X2751.360 Y1968.990
G1 X2781.560 Y1947.040
G1 X2751.360 Y1925.100
G1 X2762.900 Y1889.590
G1 X2725.560 Y1889.590
G1 X2714.030 Y1854.090
G1 X2683.820 Y1876.030
G1 X2653.620 Y1854.090
G1 X2642.080 Y1889.590
G1 X2604.750 Y1889.590
F150
G1 Z  -3.000
F400
G1 X2616.290 Y1925.100
G1 X2586.080 Y1947.040
G1 X2616.290 Y1968.990
G1 X2604.750 Y2004.490
G1 X2642.080 Y2004.490
G1 X2653.620 Y2040.000
G1 X2683.820 Y2018.060
G1 X2714.030 Y2040.000
G1 X2725.560 Y2004.490
G1 X2762.900 Y2004.490
G1 X2751.360 Y1968.990
G1 X2781.560 Y1947.040
G1 X2751.360 Y1925.100
G1 X2762.900 Y1889.590
G1 X2725.560 Y1889.590
G1 X2714.030 Y1854.090
G1 X2683.820 Y1876.030
G1 X2653.620 Y1854.090
G1 X2642.080 Y1889.590
G1 X2604.750 Y1889.590
F150
G1 Z   3.000
G0 Z  15.000 
M9 M5

(* SHAPE Nr: 32 *)
G0 X2698.300 Y 995.930
M3 M8
G0 Z   3.000 
G1 Z  -1.500
F400
G2 X2688.530 Y1031.050 I 361.226 J 119.408
G2 X2681.330 Y1069.900 I 472.468 J 107.654
G2 X2676.920 Y1111.310 I 561.467 J  80.734
G2 X2675.440 Y1154.020 I 611.491 J  42.570
G2 X2676.920 Y1196.720 I 612.828 J   0.135
G2 X2681.330 Y1238.130 I 565.877 J -39.324
G2 X2688.530 Y1276.990 I 479.791 J -68.799
G2 X2698.300 Y1312.100 I 370.892 J -84.293
G2 X2710.350 Y1342.420 I 258.971 J -85.368
G2 X2724.300 Y1367.010 I 160.888 J -75.020
G2 X2739.750 Y1385.120 I  87.820 J -59.276
G2 X2756.200 Y1396.220 I  42.119 J -44.680
G2 X2773.180 Y1399.960 I  17.163 J -37.507
G1 X2773.180 Y 908.080
G2 X2756.200 Y 911.810 I   0.160 J  41.242
G2 X2739.750 Y 922.910 I  25.669 J  55.780
G2 X2724.300 Y 941.030 I  72.414 J  77.391
G2 X2710.350 Y 965.610 I 146.875 J  99.605
G2 X2698.300 Y 995.930 I 246.921 J 115.688
F150
G1 Z  -3.000
F400
G2 X2688.530 Y1031.050 I 361.226 J 119.408
G2 X2681.330 Y1069.900 I 472.468 J 107.654
G2 X2676.920 Y1111.310 I 561.467 J  80.734
G2 X2675.440 Y1154.020 I 611.491 J  42.570
G2 X2676.920 Y1196.720 I 612.828 J   0.135
G2 X2681.330 Y1238.130 I 565.877 J -39.324
G2 X2688.530 Y1276.990 I 479.791 J -68.799
G2 X2698.300 Y1312.100 I 370.892 J -84.293
G2 X2710.350 Y1342.420 I 258.971 J -85.368
G2 X2724.300 Y1367.010 I 160.888 J -75.020
G2 X2739.750 Y1385.120 I  87.820 J -59.276
G2 X2756.200 Y1396.220 I  42.119 J -44.680
G2 X2773.180 Y1399.960 I  17.163 J -37.507
G1 X2773.180 Y 908.080
G2 X2756.200 Y 911.810 I   0.160 J  41.242
G2 X2739.750 Y 922.910 I  25.669 J  55.780
G2 X2724.300 Y 941.030 I  72.414 J  77.391
G2 X2710.350 Y 965.610 I 146.875 J  99.605
G2 X2698.300 Y 995.930 I 246.921 J 115.688
F150
G1 Z   3.000
G0 Z  15.000 
M9 M5

(* SHAPE Nr: 33 *)
G0 X2675.750 Y1359.150
M3 M8
G0 Z   3.000 
G1 Z  -1.500
F400
G1 X2675.750 Y1851.030
G2 X2692.720 Y1847.300 I  -0.165 J -41.219
G2 X2709.180 Y1836.200 I -25.663 J -55.810
G2 X2724.620 Y1818.080 I -72.419 J -77.347
G2 X2738.580 Y1793.490 I-146.933 J -99.673
G2 X2750.620 Y1763.180 I-246.843 J-115.599
G2 X2760.400 Y1728.060 I-361.221 J-119.512
G2 X2767.600 Y1689.210 I-472.468 J-107.654
G2 X2772.000 Y1647.800 I-561.472 J -80.598
G2 X2773.490 Y1605.090 I-611.486 J -42.714
G2 X2772.000 Y1562.380 I-612.976 J   0.004
G2 X2767.600 Y1520.970 I-565.872 J  39.188
G2 X2760.400 Y1482.120 I-479.668 J  68.804
G2 X2750.620 Y1447.000 I-371.001 J  84.392
G2 X2738.580 Y1416.690 I-258.883 J  85.289
G2 X2724.620 Y1392.100 I-160.893 J  75.083
G2 X2709.180 Y1373.980 I -87.861 J  59.228
G2 X2692.720 Y1362.890 I -42.093 J  44.715
G2 X2675.750 Y1359.150 I -17.158 J  37.484
F150
G1 Z  -3.000
F400
G1 X2675.750 Y1851.030
G2 X2692.720 Y1847.300 I  -0.165 J -41.219
G2 X2709.180 Y1836.200 I -25.663 J -55.810
G2 X2724.620 Y1818.080 I -72.419 J -77.347
G2 X2738.580 Y1793.490 I-146.933 J -99.673
G2 X2750.620 Y1763.180 I-246.843 J-115.599
G2 X2760.400 Y1728.060 I-361.221 J-119.512
G2 X2767.600 Y1689.210 I-472.468 J-107.654
G2 X2772.000 Y1647.800 I-561.472 J -80.598
G2 X2773.490 Y1605.090 I-611.486 J -42.714
G2 X2772.000 Y1562.380 I-612.976 J   0.004
G2 X2767.600 Y1520.970 I-565.872 J  39.188
G2 X2760.400 Y1482.120 I-479.668 J  68.804
G2 X2750.620 Y1447.000 I-371.001 J  84.392
G2 X2738.580 Y1416.690 I-258.883 J  85.289
G2 X2724.620 Y1392.100 I-160.893 J  75.083
G2 X2709.180 Y1373.980 I -87.861 J  59.228
G2 X2692.720 Y1362.890 I -42.093 J  44.715
G2 X2675.750 Y1359.150 I -17.158 J  37.484
F150
G1 Z   3.000
G0 Z  15.000 
M9 M5

(* SHAPE Nr: 34 *)
G0 X2459.000 Y 749.020
M3 M8
G0 Z   3.000 
G1 Z  -1.500
F400
G2 X2449.230 Y 784.140 I 361.226 J 119.408
G2 X2442.020 Y 822.990 I 472.463 J 107.776
G2 X2437.610 Y 864.400 I 561.467 J  80.734
G2 X2436.130 Y 907.110 I 611.491 J  42.570
G2 X2437.610 Y 949.820 I 612.971 J   0.140
G2 X2442.020 Y 991.220 I 565.740 J -39.329
G2 X2449.230 Y1030.080 I 479.796 J -68.921
G2 X2459.000 Y1065.200 I 370.996 J -84.288
G2 X2471.040 Y1095.510 I 258.883 J -85.289
G2 X2485.000 Y1120.100 I 160.893 J -75.083
G2 X2500.440 Y1138.220 I  87.861 J -59.228
G2 X2516.900 Y1149.310 I  42.093 J -44.715
G2 X2533.870 Y1153.050 I  17.158 J -37.484
G1 X2533.870 Y 661.170
G2 X2516.900 Y 664.910 I   0.188 J  41.224
G2 X2500.440 Y 676.000 I  25.633 J  55.805
G2 X2485.000 Y 694.120 I  72.421 J  77.348
G2 X2471.040 Y 718.710 I 146.933 J  99.673
G2 X2459.000 Y 749.020 I 246.843 J 115.599
F150
G1 Z  -3.000
F400
G2 X2449.230 Y 784.140 I 361.226 J 119.408
G2 X2442.020 Y 822.990 I 472.463 J 107.776
G2 X2437.610 Y 864.400 I 561.467 J  80.734
G2 X2436.130 Y 907.110 I 611.491 J  42.570
G2 X2437.610 Y 949.820 I 612.971 J   0.140
G2 X2442.020 Y 991.220 I 565.740 J -39.329
G2 X2449.230 Y1030.080 I 479.796 J -68.921
G2 X2459.000 Y1065.200 I 370.996 J -84.288
G2 X2471.040 Y1095.510 I 258.883 J -85.289
G2 X2485.000 Y1120.100 I 160.893 J -75.083
G2 X2500.440 Y1138.220 I  87.861 J -59.228
G2 X2516.900 Y1149.310 I  42.093 J -44.715
G2 X2533.870 Y1153.050 I  17.158 J -37.484
G1 X2533.870 Y 661.170
G2 X2516.900 Y 664.910 I   0.188 J  41.224
G2 X2500.440 Y 676.000 I  25.633 J  55.805
G2 X2485.000 Y 694.120 I  72.421 J  77.348
G2 X2471.040 Y 718.710 I 146.933 J  99.673
G2 X2459.000 Y 749.020 I 246.843 J 115.599
F150
G1 Z   3.000
G0 Z  15.000 
M9 M5

(* SHAPE Nr: 35 *)
G0 X2556.970 Y1084.320
M3 M8
G0 Z   3.000 
G1 Z  -1.500
F400
G1 X2556.970 Y1576.200
G2 X2573.940 Y1572.470 I  -0.165 J -41.219
G2 X2590.400 Y1561.370 I -25.664 J -55.810
G2 X2605.840 Y1543.250 I -72.419 J -77.347
G2 X2619.800 Y1518.670 I-146.870 J -99.668
G2 X2631.840 Y1488.350 I-246.926 J-115.604
G2 X2641.620 Y1453.230 I-361.221 J-119.512
G2 X2648.820 Y1414.380 I-472.468 J-107.654
G2 X2653.230 Y1372.970 I-561.467 J -80.734
G2 X2654.710 Y1330.260 I-611.491 J -42.570
G2 X2653.230 Y1287.560 I-612.828 J  -0.135
G2 X2648.820 Y1246.150 I-565.877 J  39.324
G2 X2641.620 Y1207.290 I-479.791 J  68.799
G2 X2631.840 Y1172.180 I-370.897 J  84.397
G2 X2619.800 Y1141.860 I-258.966 J  85.284
G2 X2605.840 Y1117.270 I-160.893 J  75.083
G2 X2590.400 Y1099.160 I -87.815 J  59.232
G2 X2573.940 Y1088.060 I -42.124 J  44.710
G2 X2556.970 Y1084.320 I -17.158 J  37.484
F150
G1 Z  -3.000
F400
G1 X2556.970 Y1576.200
G2 X2573.940 Y1572.470 I  -0.165 J -41.219
G2 X2590.400 Y1561.370 I -25.664 J -55.810
G2 X2605.840 Y1543.250 I -72.419 J -77.347
G2 X2619.800 Y1518.670 I-146.870 J -99.668
G2 X2631.840 Y1488.350 I-246.926 J-115.604
G2 X2641.620 Y1453.230 I-361.221 J-119.512
G2 X2648.820 Y1414.380 I-472.468 J-107.654
G2 X2653.230 Y1372.970 I-561.467 J -80.734
G2 X2654.710 Y1330.260 I-611.491 J -42.570
G2 X2653.230 Y1287.560 I-612.828 J  -0.135
G2 X2648.820 Y1246.150 I-565.877 J  39.324
G2 X2641.620 Y1207.290 I-479.791 J  68.799
G2 X2631.840 Y1172.180 I-370.897 J  84.397
G2 X2619.800 Y1141.860 I-258.966 J  85.284
G2 X2605.840 Y1117.270 I-160.893 J  75.083
G2 X2590.400 Y1099.160 I -87.815 J  59.232
G2 X2573.940 Y1088.060 I -42.124 J  44.710
G2 X2556.970 Y1084.320 I -17.158 J  37.484
F150
G1 Z   3.000
G0 Z  15.000 
M9 M5

(* SHAPE Nr: 36 *)
G0 X2280.720 Y 387.370
M3 M8
G0 Z   3.000 
G1 Z  -1.500
F400
G2 X2276.310 Y 428.780 I 561.467 J  80.734
G2 X2274.830 Y 471.490 I 611.491 J  42.570
G2 X2276.310 Y 514.200 I 612.971 J   0.140
G2 X2280.720 Y 555.600 I 565.740 J -39.329
G2 X2287.930 Y 594.460 I 479.796 J -68.921
G2 X2297.700 Y 629.580 I 370.996 J -84.288
G2 X2309.740 Y 659.890 I 258.883 J -85.289
G2 X2323.700 Y 684.480 I 160.893 J -75.083
G2 X2339.140 Y 702.600 I  87.859 J -59.227
G2 X2355.600 Y 713.690 I  42.093 J -44.715
G2 X2372.570 Y 717.430 I  17.158 J -37.484
G2 X2389.540 Y 713.690 I  -0.188 J -41.224
G2 X2406.000 Y 702.600 I -25.633 J -55.805
G2 X2421.440 Y 684.480 I -72.421 J -77.348
G2 X2435.400 Y 659.890 I-146.933 J -99.673
G2 X2447.440 Y 629.580 I-246.843 J-115.599
G2 X2457.220 Y 594.460 I-361.221 J-119.512
G2 X2464.420 Y 555.600 I-472.591 J-107.659
G2 X2468.820 Y 514.200 I-561.335 J -80.593
G2 X2470.310 Y 471.490 I-611.486 J -42.714
G2 X2468.820 Y 428.780 I-612.976 J   0.004
G2 X2464.420 Y 387.370 I-565.872 J  39.188
G2 X2457.220 Y 348.520 I-479.668 J  68.804
G2 X2447.440 Y 313.400 I-371.001 J  84.392
G2 X2435.400 Y 283.090 I-258.883 J  85.289
G2 X2421.440 Y 258.500 I-160.893 J  75.083
G2 X2406.000 Y 240.380 I -87.861 J  59.228
G2 X2389.540 Y 229.280 I -42.123 J  44.710
G2 X2372.570 Y 225.550 I -17.135 J  37.489
G2 X2355.600 Y 229.280 I   0.165 J  41.219
G2 X2339.140 Y 240.380 I  25.664 J  55.810
G2 X2323.700 Y 258.500 I  72.419 J  77.347
G2 X2309.740 Y 283.090 I 146.933 J  99.673
G2 X2297.700 Y 313.400 I 246.843 J 115.599
G2 X2287.930 Y 348.520 I 361.226 J 119.408
G2 X2280.720 Y 387.370 I 472.463 J 107.776
F150
G1 Z  -3.000
F400
G2 X2276.310 Y 428.780 I 561.467 J  80.734
G2 X2274.830 Y 471.490 I 611.491 J  42.570
G2 X2276.310 Y 514.200 I 612.971 J   0.140
G2 X2280.720 Y 555.600 I 565.740 J -39.329
G2 X2287.930 Y 594.460 I 479.796 J -68.921
G2 X2297.700 Y 629.580 I 370.996 J -84.288
G2 X2309.740 Y 659.890 I 258.883 J -85.289
G2 X2323.700 Y 684.480 I 160.893 J -75.083
G2 X2339.140 Y 702.600 I  87.859 J -59.227
G2 X2355.600 Y 713.690 I  42.093 J -44.715
G2 X2372.570 Y 717.430 I  17.158 J -37.484
G2 X2389.540 Y 713.690 I  -0.188 J -41.224
G2 X2406.000 Y 702.600 I -25.633 J -55.805
G2 X2421.440 Y 684.480 I -72.421 J -77.348
G2 X2435.400 Y 659.890 I-146.933 J -99.673
G2 X2447.440 Y 629.580 I-246.843 J-115.599
G2 X2457.220 Y 594.460 I-361.221 J-119.512
G2 X2464.420 Y 555.600 I-472.591 J-107.659
G2 X2468.820 Y 514.200 I-561.335 J -80.593
G2 X2470.310 Y 471.490 I-611.486 J -42.714
G2 X2468.820 Y 428.780 I-612.976 J   0.004
G2 X2464.420 Y 387.370 I-565.872 J  39.188
G2 X2457.220 Y 348.520 I-479.668 J  68.804
G2 X2447.440 Y 313.400 I-371.001 J  84.392
G2 X2435.400 Y 283.090 I-258.883 J  85.289
G2 X2421.440 Y 258.500 I-160.893 J  75.083
G2 X2406.000 Y 240.380 I -87.861 J  59.228
G2 X2389.540 Y 229.280 I -42.123 J  44.710
G2 X2372.570 Y 225.550 I -17.135 J  37.489
G2 X2355.600 Y 229.280 I   0.165 J  41.219
G2 X2339.140 Y 240.380 I  25.664 J  55.810
G2 X2323.700 Y 258.500 I  72.419 J  77.347
G2 X2309.740 Y 283.090 I 146.933 J  99.673
G2 X2297.700 Y 313.400 I 246.843 J 115.599
G2 X2287.930 Y 348.520 I 361.226 J 119.408
G2 X2280.720 Y 387.370 I 472.463 J 107.776
F150
G1 Z   3.000
G0 Z  15.000 
M9 M5

(* SHAPE Nr: 37 *)
G0 X2598.340 Y 594.270
M3 M8
G0 Z   3.000 
G1 Z  -1.500
F400
G1 X2598.340 Y1086.150
G2 X2615.310 Y1082.410 I  -0.188 J -41.224
G2 X2631.760 Y1071.310 I -25.669 J -55.780
G2 X2647.210 Y1053.200 I -72.370 J -77.386
G2 X2661.160 Y1028.610 I-146.938 J -99.610
G2 X2673.210 Y 998.290 I-246.921 J-115.688
G2 X2682.980 Y 963.180 I-361.122 J-119.403
G2 X2690.180 Y 924.320 I-472.591 J-107.659
G2 X2694.590 Y 882.910 I-561.467 J -80.734
G2 X2696.080 Y 840.210 I-611.343 J -42.709
G2 X2694.590 Y 797.500 I-612.976 J   0.004
G2 X2690.180 Y 756.090 I-565.877 J  39.324
G2 X2682.980 Y 717.240 I-479.668 J  68.804
G2 X2673.210 Y 682.120 I-370.996 J  84.288
G2 X2661.160 Y 651.810 I-258.888 J  85.373
G2 X2647.210 Y 627.220 I-160.884 J  75.018
G2 X2631.760 Y 609.100 I -87.864 J  59.271
G2 X2615.310 Y 598.000 I -42.119 J  44.680
G2 X2598.340 Y 594.270 I -17.135 J  37.489
F150
G1 Z  -3.000
F400
G1 X2598.340 Y1086.150
G2 X2615.310 Y1082.410 I  -0.188 J -41.224
G2 X2631.760 Y1071.310 I -25.669 J -55.780
G2 X2647.210 Y1053.200 I -72.370 J -77.386
G2 X2661.160 Y1028.610 I-146.938 J -99.610
G2 X2673.210 Y 998.290 I-246.921 J-115.688
G2 X2682.980 Y 963.180 I-361.122 J-119.403
G2 X2690.180 Y 924.320 I-472.591 J-107.659
G2 X2694.590 Y 882.910 I-561.467 J -80.734
G2 X2696.080 Y 840.210 I-611.343 J -42.709
G2 X2694.590 Y 797.500 I-612.976 J   0.004
G2 X2690.180 Y 756.090 I-565.877 J  39.324
G2 X2682.980 Y 717.240 I-479.668 J  68.804
G2 X2673.210 Y 682.120 I-370.996 J  84.288
G2 X2661.160 Y 651.810 I-258.888 J  85.373
G2 X2647.210 Y 627.220 I-160.884 J  75.018
G2 X2631.760 Y 609.100 I -87.864 J  59.271
G2 X2615.310 Y 598.000 I -42.119 J  44.680
G2 X2598.340 Y 594.270 I -17.135 J  37.489
F150
G1 Z   3.000
G0 Z  15.000 
M9 M5

(* SHAPE Nr: 38 *)
G0 X2467.750 Y 216.860
M3 M8
G0 Z   3.000 
G1 Z  -1.500
F400
G2 X2466.270 Y 259.570 I 611.491 J  42.570
G2 X2467.750 Y 302.270 I 612.828 J   0.135
G2 X2472.160 Y 343.680 I 565.877 J -39.324
G2 X2479.360 Y 382.540 I 479.791 J -68.799
G2 X2489.130 Y 417.650 I 370.892 J -84.293
G2 X2501.180 Y 447.970 I 258.980 J -85.371
G2 X2515.140 Y 472.560 I 160.893 J -75.083
G2 X2530.580 Y 490.680 I  87.861 J -59.228
G2 X2547.030 Y 501.770 I  42.088 J -44.684
G2 X2564.010 Y 505.510 I  17.163 J -37.507
G2 X2580.980 Y 501.770 I  -0.188 J -41.224
G2 X2597.440 Y 490.680 I -25.633 J -55.805
G2 X2612.880 Y 472.560 I -72.421 J -77.348
G2 X2626.830 Y 447.970 I-146.938 J -99.610
G2 X2638.880 Y 417.650 I-246.930 J-115.691
G2 X2648.650 Y 382.540 I-361.122 J-119.403
G2 X2655.850 Y 343.680 I-472.591 J-107.659
G2 X2660.260 Y 302.270 I-561.467 J -80.734
G2 X2661.750 Y 259.570 I-611.343 J -42.709
G2 X2660.260 Y 216.860 I-612.976 J   0.004
G2 X2655.850 Y 175.450 I-565.877 J  39.324
G2 X2648.650 Y 136.600 I-479.668 J  68.804
G2 X2638.880 Y 101.480 I-370.996 J  84.288
G2 X2626.830 Y  71.170 I-258.888 J  85.373
G2 X2612.880 Y  46.580 I-160.888 J  75.020
G2 X2597.440 Y  28.460 I -87.861 J  59.228
G2 X2580.980 Y  17.360 I -42.123 J  44.710
G2 X2564.010 Y  13.630 I -17.135 J  37.489
G2 X2547.030 Y  17.360 I   0.160 J  41.242
G2 X2530.580 Y  28.460 I  25.668 J  55.779
G2 X2515.140 Y  46.580 I  72.421 J  77.348
G2 X2501.180 Y  71.170 I 146.933 J  99.673
G2 X2489.130 Y 101.480 I 246.846 J 115.686
G2 X2479.360 Y 136.600 I 361.226 J 119.408
G2 X2472.160 Y 175.450 I 472.468 J 107.654
G2 X2467.750 Y 216.860 I 561.467 J  80.734
F150
G1 Z  -3.000
F400
G2 X2466.270 Y 259.570 I 611.491 J  42.570
G2 X2467.750 Y 302.270 I 612.828 J   0.135
G2 X2472.160 Y 343.680 I 565.877 J -39.324
G2 X2479.360 Y 382.540 I 479.791 J -68.799
G2 X2489.130 Y 417.650 I 370.892 J -84.293
G2 X2501.180 Y 447.970 I 258.980 J -85.371
G2 X2515.140 Y 472.560 I 160.893 J -75.083
G2 X2530.580 Y 490.680 I  87.861 J -59.228
G2 X2547.030 Y 501.770 I  42.088 J -44.684
G2 X2564.010 Y 505.510 I  17.163 J -37.507
G2 X2580.980 Y 501.770 I  -0.188 J -41.224
G2 X2597.440 Y 490.680 I -25.633 J -55.805
G2 X2612.880 Y 472.560 I -72.421 J -77.348
G2 X2626.830 Y 447.970 I-146.938 J -99.610
G2 X2638.880 Y 417.650 I-246.930 J-115.691
G2 X2648.650 Y 382.540 I-361.122 J-119.403
G2 X2655.850 Y 343.680 I-472.591 J-107.659
G2 X2660.260 Y 302.270 I-561.467 J -80.734
G2 X2661.750 Y 259.570 I-611.343 J -42.709
G2 X2660.260 Y 216.860 I-612.976 J   0.004
G2 X2655.850 Y 175.450 I-565.877 J  39.324
G2 X2648.650 Y 136.600 I-479.668 J  68.804
G2 X2638.880 Y 101.480 I-370.996 J  84.288
G2 X2626.830 Y  71.170 I-258.888 J  85.373
G2 X2612.880 Y  46.580 I-160.888 J  75.020
G2 X2597.440 Y  28.460 I -87.861 J  59.228
G2 X2580.980 Y  17.360 I -42.123 J  44.710
G2 X2564.010 Y  13.630 I -17.135 J  37.489
G2 X2547.030 Y  17.360 I   0.160 J  41.242
G2 X2530.580 Y  28.460 I  25.668 J  55.779
G2 X2515.140 Y  46.580 I  72.421 J  77.348
G2 X2501.180 Y  71.170 I 146.933 J  99.673
G2 X2489.130 Y 101.480 I 246.846 J 115.686
G2 X2479.360 Y 136.600 I 361.226 J 119.408
G2 X2472.160 Y 175.450 I 472.468 J 107.654
G2 X2467.750 Y 216.860 I 561.467 J  80.734
F150
G1 Z   3.000
G0 Z  15.000 
M9 M5

(* SHAPE Nr: 39 *)
G0 X2676.480 Y 155.090
M3 M8
G0 Z   3.000 
G1 Z  -1.500
F400
G1 X2676.480 Y 646.970
G2 X2693.450 Y 643.230 I  -0.188 J -41.224
G2 X2709.910 Y 632.140 I -25.633 J -55.805
G2 X2725.350 Y 614.020 I -72.419 J -77.347
G2 X2739.310 Y 589.430 I-146.933 J -99.673
G2 X2751.350 Y 559.110 I-246.926 J-115.604
G2 X2761.130 Y 524.000 I-361.117 J-119.507
G2 X2768.330 Y 485.140 I-472.591 J-107.659
G2 X2772.740 Y 443.730 I-561.467 J -80.734
G2 X2774.220 Y 401.030 I-611.348 J -42.565
G2 X2772.740 Y 358.320 I-612.971 J  -0.140
G2 X2768.330 Y 316.910 I-565.877 J  39.324
G2 X2761.130 Y 278.060 I-479.668 J  68.804
G2 X2751.350 Y 242.940 I-371.001 J  84.392
G2 X2739.310 Y 212.630 I-258.883 J  85.289
G2 X2725.350 Y 188.040 I-160.893 J  75.083
G2 X2709.910 Y 169.920 I -87.859 J  59.227
G2 X2693.450 Y 158.820 I -42.124 J  44.710
G2 X2676.480 Y 155.090 I -17.135 J  37.489
F150
G1 Z  -3.000
F400
G1 X2676.480 Y 646.970
G2 X2693.450 Y 643.230 I  -0.188 J -41.224
G2 X2709.910 Y 632.140 I -25.633 J -55.805
G2 X2725.350 Y 614.020 I -72.419 J -77.347
G2 X2739.310 Y 589.430 I-146.933 J -99.673
G2 X2751.350 Y 559.110 I-246.926 J-115.604
G2 X2761.130 Y 524.000 I-361.117 J-119.507
G2 X2768.330 Y 485.140 I-472.591 J-107.659
G2 X2772.740 Y 443.730 I-561.467 J -80.734
G2 X2774.220 Y 401.030 I-611.348 J -42.565
G2 X2772.740 Y 358.320 I-612.971 J  -0.140
G2 X2768.330 Y 316.910 I-565.877 J  39.324
G2 X2761.130 Y 278.060 I-479.668 J  68.804
G2 X2751.350 Y 242.940 I-371.001 J  84.392
G2 X2739.310 Y 212.630 I-258.883 J  85.289
G2 X2725.350 Y 188.040 I-160.893 J  75.083
G2 X2709.910 Y 169.920 I -87.859 J  59.227
G2 X2693.450 Y 158.820 I -42.124 J  44.710
G2 X2676.480 Y 155.090 I -17.135 J  37.489
F150
G1 Z   3.000
G0 Z  15.000 
M9 M5

(* SHAPE Nr: 40 *)
G0 X2254.140 Y 104.280
M3 M8
G0 Z   3.000 
G1 Z  -1.500
F400
G1 X2311.590 Y 146.010
G1 X2289.650 Y 213.550
G1 X2347.100 Y 171.810
G1 X2404.550 Y 213.550
G1 X2382.600 Y 146.010
G1 X2440.050 Y 104.280
G1 X2369.040 Y 104.280
G1 X2347.100 Y  36.740
G1 X2325.150 Y 104.280
G1 X2254.140 Y 104.280
F150
G1 Z  -3.000
F400
G1 X2311.590 Y 146.010
G1 X2289.650 Y 213.550
G1 X2347.100 Y 171.810
G1 X2404.550 Y 213.550
G1 X2382.600 Y 146.010
G1 X2440.050 Y 104.280
G1 X2369.040 Y 104.280
G1 X2347.100 Y  36.740
G1 X2325.150 Y 104.280
G1 X2254.140 Y 104.280
F150
G1 Z   3.000
G0 Z  15.000 
M9 M5

(* SHAPE Nr: 41 *)
G0 X1530.460 Y 186.850
M3 M8
G0 Z   3.000 
G1 Z  -1.500
F400
G2 X1534.200 Y 203.820 I  41.224 J  -0.188
G2 X1545.300 Y 220.280 I  55.810 J -25.663
G2 X1563.420 Y 235.720 I  77.347 J -72.419
G2 X1588.000 Y 249.680 I  99.668 J-146.870
G2 X1618.320 Y 261.720 I 115.604 J-246.926
G2 X1653.440 Y 271.500 I 119.512 J-361.221
G2 X1692.290 Y 278.700 I 107.654 J-472.468
G2 X1733.700 Y 283.110 I  80.734 J-561.467
G2 X1776.410 Y 284.590 I  42.570 J-611.491
G2 X1819.110 Y 283.110 I   0.135 J-612.828
G2 X1860.520 Y 278.700 I -39.324 J-565.877
G2 X1899.380 Y 271.500 I -68.799 J-479.791
G2 X1934.490 Y 261.720 I -84.397 J-370.897
G2 X1964.810 Y 249.680 I -85.284 J-258.966
G2 X1989.400 Y 235.720 I -75.083 J-160.893
G2 X2007.510 Y 220.280 I -59.233 J -87.817
G2 X2018.610 Y 203.820 I -44.710 J -42.123
G2 X2022.340 Y 186.850 I -37.489 J -17.135
G2 X2018.610 Y 169.880 I -41.219 J   0.165
G2 X2007.510 Y 153.420 I -55.810 J  25.663
G2 X1989.400 Y 137.980 I -77.343 J  72.377
G2 X1964.810 Y 124.030 I -99.610 J 146.938
G2 X1934.490 Y 111.980 I-115.688 J 246.921
G2 X1899.380 Y 102.210 I-119.403 J 361.122
G2 X1860.520 Y  95.000 I-107.781 J 472.586
G2 X1819.110 Y  90.600 I -80.598 J 561.472
G2 X1776.410 Y  89.110 I -42.709 J 611.343
G2 X1733.700 Y  90.600 I   0.004 J 612.976
G2 X1692.290 Y  95.000 I  39.188 J 565.872
G2 X1653.440 Y 102.210 I  68.926 J 479.673
G2 X1618.320 Y 111.980 I  84.288 J 370.996
G2 X1588.000 Y 124.030 I  85.368 J 258.971
G2 X1563.420 Y 137.980 I  75.025 J 160.825
G2 X1545.300 Y 153.420 I  59.227 J  87.859
G2 X1534.200 Y 169.880 I  44.710 J  42.123
G2 X1530.460 Y 186.850 I  37.484 J  17.158
F150
G1 Z  -3.000
F400
G2 X1534.200 Y 203.820 I  41.224 J  -0.188
G2 X1545.300 Y 220.280 I  55.810 J -25.663
G2 X1563.420 Y 235.720 I  77.347 J -72.419
G2 X1588.000 Y 249.680 I  99.668 J-146.870
G2 X1618.320 Y 261.720 I 115.604 J-246.926
G2 X1653.440 Y 271.500 I 119.512 J-361.221
G2 X1692.290 Y 278.700 I 107.654 J-472.468
G2 X1733.700 Y 283.110 I  80.734 J-561.467
G2 X1776.410 Y 284.590 I  42.570 J-611.491
G2 X1819.110 Y 283.110 I   0.135 J-612.828
G2 X1860.520 Y 278.700 I -39.324 J-565.877
G2 X1899.380 Y 271.500 I -68.799 J-479.791
G2 X1934.490 Y 261.720 I -84.397 J-370.897
G2 X1964.810 Y 249.680 I -85.284 J-258.966
G2 X1989.400 Y 235.720 I -75.083 J-160.893
G2 X2007.510 Y 220.280 I -59.233 J -87.817
G2 X2018.610 Y 203.820 I -44.710 J -42.123
G2 X2022.340 Y 186.850 I -37.489 J -17.135
G2 X2018.610 Y 169.880 I -41.219 J   0.165
G2 X2007.510 Y 153.420 I -55.810 J  25.663
G2 X1989.400 Y 137.980 I -77.343 J  72.377
G2 X1964.810 Y 124.030 I -99.610 J 146.938
G2 X1934.490 Y 111.980 I-115.688 J 246.921
G2 X1899.380 Y 102.210 I-119.403 J 361.122
G2 X1860.520 Y  95.000 I-107.781 J 472.586
G2 X1819.110 Y  90.600 I -80.598 J 561.472
G2 X1776.410 Y  89.110 I -42.709 J 611.343
G2 X1733.700 Y  90.600 I   0.004 J 612.976
G2 X1692.290 Y  95.000 I  39.188 J 565.872
G2 X1653.440 Y 102.210 I  68.926 J 479.673
G2 X1618.320 Y 111.980 I  84.288 J 370.996
G2 X1588.000 Y 124.030 I  85.368 J 258.971
G2 X1563.420 Y 137.980 I  75.025 J 160.825
G2 X1545.300 Y 153.420 I  59.227 J  87.859
G2 X1534.200 Y 169.880 I  44.710 J  42.123
G2 X1530.460 Y 186.850 I  37.484 J  17.158
F150
G1 Z   3.000
G0 Z  15.000 
M9 M5

(* SHAPE Nr: 42 *)
G0 X1341.320 Y 364.670
M3 M8
G0 Z   3.000 
G1 Z  -1.500
F400
G2 X1337.580 Y 381.640 I  37.484 J  17.158
G2 X1341.320 Y 398.620 I  41.247 J  -0.183
G2 X1352.420 Y 415.070 I  55.779 J -25.668
G2 X1370.530 Y 430.520 I  77.387 J -72.372
G2 X1395.120 Y 444.470 I  99.610 J-146.938
G2 X1425.440 Y 456.520 I 115.688 J-246.921
G2 X1460.550 Y 466.290 I 119.403 J-361.122
G2 X1499.410 Y 473.490 I 107.659 J-472.591
G2 X1540.820 Y 477.900 I  80.734 J-561.467
G2 X1583.520 Y 479.390 I  42.709 J-611.343
G2 X1626.230 Y 477.900 I  -0.004 J-612.976
G2 X1667.640 Y 473.490 I -39.324 J-565.877
G2 X1706.490 Y 466.290 I -68.804 J-479.668
G2 X1741.610 Y 456.520 I -84.288 J-370.996
G2 X1771.920 Y 444.470 I -85.376 J-258.896
G2 X1796.510 Y 430.520 I -75.020 J-160.888
G2 X1814.630 Y 415.070 I -59.271 J -87.864
G2 X1825.730 Y 398.620 I -44.679 J -42.118
G2 X1829.460 Y 381.640 I -37.512 J -17.140
G2 X1825.730 Y 364.670 I -41.219 J   0.165
G2 X1814.630 Y 348.220 I -55.779 J  25.668
G2 X1796.510 Y 332.770 I -77.391 J  72.414
G2 X1771.920 Y 318.820 I -99.610 J 146.938
G2 X1741.610 Y 306.770 I-115.683 J 246.838
G2 X1706.490 Y 297.000 I-119.408 J 361.226
G2 X1667.640 Y 289.800 I-107.654 J 472.468
G2 X1626.230 Y 285.390 I -80.734 J 561.467
G2 X1583.520 Y 283.900 I -42.714 J 611.486
G2 X1540.820 Y 285.390 I   0.009 J 612.833
G2 X1499.410 Y 289.800 I  39.324 J 565.877
G2 X1460.550 Y 297.000 I  68.799 J 479.791
G2 X1425.440 Y 306.770 I  84.293 J 370.892
G2 X1395.120 Y 318.820 I  85.368 J 258.971
G2 X1370.530 Y 332.770 I  75.020 J 160.888
G2 X1352.420 Y 348.220 I  59.277 J  87.822
G2 X1341.320 Y 364.670 I  44.679 J  42.118
F150
G1 Z  -3.000
F400
G2 X1337.580 Y 381.640 I  37.484 J  17.158
G2 X1341.320 Y 398.620 I  41.247 J  -0.183
G2 X1352.420 Y 415.070 I  55.779 J -25.668
G2 X1370.530 Y 430.520 I  77.387 J -72.372
G2 X1395.120 Y 444.470 I  99.610 J-146.938
G2 X1425.440 Y 456.520 I 115.688 J-246.921
G2 X1460.550 Y 466.290 I 119.403 J-361.122
G2 X1499.410 Y 473.490 I 107.659 J-472.591
G2 X1540.820 Y 477.900 I  80.734 J-561.467
G2 X1583.520 Y 479.390 I  42.709 J-611.343
G2 X1626.230 Y 477.900 I  -0.004 J-612.976
G2 X1667.640 Y 473.490 I -39.324 J-565.877
G2 X1706.490 Y 466.290 I -68.804 J-479.668
G2 X1741.610 Y 456.520 I -84.288 J-370.996
G2 X1771.920 Y 444.470 I -85.376 J-258.896
G2 X1796.510 Y 430.520 I -75.020 J-160.888
G2 X1814.630 Y 415.070 I -59.271 J -87.864
G2 X1825.730 Y 398.620 I -44.679 J -42.118
G2 X1829.460 Y 381.640 I -37.512 J -17.140
G2 X1825.730 Y 364.670 I -41.219 J   0.165
G2 X1814.630 Y 348.220 I -55.779 J  25.668
G2 X1796.510 Y 332.770 I -77.391 J  72.414
G2 X1771.920 Y 318.820 I -99.610 J 146.938
G2 X1741.610 Y 306.770 I-115.683 J 246.838
G2 X1706.490 Y 297.000 I-119.408 J 361.226
G2 X1667.640 Y 289.800 I-107.654 J 472.468
G2 X1626.230 Y 285.390 I -80.734 J 561.467
G2 X1583.520 Y 283.900 I -42.714 J 611.486
G2 X1540.820 Y 285.390 I   0.009 J 612.833
G2 X1499.410 Y 289.800 I  39.324 J 565.877
G2 X1460.550 Y 297.000 I  68.799 J 479.791
G2 X1425.440 Y 306.770 I  84.293 J 370.892
G2 X1395.120 Y 318.820 I  85.368 J 258.971
G2 X1370.530 Y 332.770 I  75.020 J 160.888
G2 X1352.420 Y 348.220 I  59.277 J  87.822
G2 X1341.320 Y 364.670 I  44.679 J  42.118
F150
G1 Z   3.000
G0 Z  15.000 
M9 M5

(* SHAPE Nr: 43 *)
G0 X2020.570 Y 494.100
M3 M8
G0 Z   3.000 
G1 Z  -1.500
F400
G1 X2020.570 Y2040.000
G2 X2095.960 Y2028.260 I  -0.303 J-249.878
G2 X2169.040 Y1993.390 I -90.956 J-284.639
G2 X2237.620 Y1936.440 I-218.731 J-333.166
G2 X2299.610 Y1859.160 I-394.036 J-379.578
G2 X2353.110 Y1763.890 I-611.535 J-406.072
G2 X2396.520 Y1653.530 I-849.972 J-398.053
G2 X2428.500 Y1531.410 I-1077.227 J-347.345
G2 X2448.080 Y1401.270 I-1256.956 J-255.656
G2 X2454.670 Y1267.050 I-1358.961 J-133.995
G2 X2448.080 Y1132.830 I-1365.551 J  -0.225
G2 X2428.500 Y1002.690 I-1276.536 J 125.516
G2 X2396.520 Y 880.580 I-1109.118 J 225.230
G2 X2353.110 Y 770.210 I-893.461 J 287.688
G2 X2299.610 Y 674.940 I-665.035 J 310.802
G2 X2237.620 Y 597.660 I-456.026 J 302.298
G2 X2169.040 Y 540.720 I-287.266 J 276.221
G2 X2095.960 Y 505.840 I-164.073 J 249.764
G2 X2020.570 Y 494.100 I -75.693 J 238.138
F150
G1 Z  -3.000
F400
G1 X2020.570 Y2040.000
G2 X2095.960 Y2028.260 I  -0.303 J-249.878
G2 X2169.040 Y1993.390 I -90.956 J-284.639
G2 X2237.620 Y1936.440 I-218.731 J-333.166
G2 X2299.610 Y1859.160 I-394.036 J-379.578
G2 X2353.110 Y1763.890 I-611.535 J-406.072
G2 X2396.520 Y1653.530 I-849.972 J-398.053
G2 X2428.500 Y1531.410 I-1077.227 J-347.345
G2 X2448.080 Y1401.270 I-1256.956 J-255.656
G2 X2454.670 Y1267.050 I-1358.961 J-133.995
G2 X2448.080 Y1132.830 I-1365.551 J  -0.225
G2 X2428.500 Y1002.690 I-1276.536 J 125.516
G2 X2396.520 Y 880.580 I-1109.118 J 225.230
G2 X2353.110 Y 770.210 I-893.461 J 287.688
G2 X2299.610 Y 674.940 I-665.035 J 310.802
G2 X2237.620 Y 597.660 I-456.026 J 302.298
G2 X2169.040 Y 540.720 I-287.266 J 276.221
G2 X2095.960 Y 505.840 I-164.073 J 249.764
G2 X2020.570 Y 494.100 I -75.693 J 238.138
F150
G1 Z   3.000
G0 Z  15.000 
M9 M5

(* SHAPE Nr: 44 *)
G0 X2065.470 Y 224.500
M3 M8
G0 Z   3.000 
G1 Z  -1.500
F400
G2 X2063.980 Y 267.210 I 611.486 J  42.714
G2 X2065.470 Y 309.910 I 612.833 J  -0.009
G2 X2069.870 Y 351.320 I 565.872 J -39.188
G2 X2077.070 Y 390.180 I 479.791 J -68.799
G2 X2086.850 Y 425.290 I 370.897 J -84.397
G2 X2098.890 Y 455.610 I 258.966 J -85.284
G2 X2112.850 Y 480.200 I 160.893 J -75.083
G2 X2128.290 Y 498.310 I  87.817 J -59.233
G2 X2144.750 Y 509.410 I  42.123 J -44.710
G2 X2161.720 Y 513.150 I  17.158 J -37.484
G2 X2178.690 Y 509.410 I  -0.188 J -41.224
G2 X2195.150 Y 498.310 I -25.663 J -55.810
G2 X2210.590 Y 480.200 I -72.375 J -77.342
G2 X2224.550 Y 455.610 I-146.933 J -99.673
G2 X2236.590 Y 425.290 I-246.926 J-115.604
G2 X2246.360 Y 390.180 I-361.122 J-119.403
G2 X2253.570 Y 351.320 I-472.586 J-107.781
G2 X2257.980 Y 309.910 I-561.467 J -80.734
G2 X2259.460 Y 267.210 I-611.348 J -42.565
G2 X2257.980 Y 224.500 I-612.971 J  -0.140
G2 X2253.570 Y 183.090 I-565.877 J  39.324
G2 X2246.360 Y 144.240 I-479.673 J  68.926
G2 X2236.590 Y 109.120 I-370.996 J  84.288
G2 X2224.550 Y  78.810 I-258.883 J  85.289
G2 X2210.590 Y  54.220 I-160.893 J  75.083
G2 X2195.150 Y  36.100 I -87.859 J  59.227
G2 X2178.690 Y  25.000 I -42.123 J  44.710
G2 X2161.720 Y  21.270 I -17.135 J  37.489
G2 X2144.750 Y  25.000 I   0.165 J  41.219
G2 X2128.290 Y  36.100 I  25.663 J  55.810
G2 X2112.850 Y  54.220 I  72.421 J  77.348
G2 X2098.890 Y  78.810 I 146.933 J  99.673
G2 X2086.850 Y 109.120 I 246.843 J 115.599
G2 X2077.070 Y 144.240 I 361.221 J 119.512
G2 X2069.870 Y 183.090 I 472.468 J 107.654
G2 X2065.470 Y 224.500 I 561.472 J  80.598
F150
G1 Z  -3.000
F400
G2 X2063.980 Y 267.210 I 611.486 J  42.714
G2 X2065.470 Y 309.910 I 612.833 J  -0.009
G2 X2069.870 Y 351.320 I 565.872 J -39.188
G2 X2077.070 Y 390.180 I 479.791 J -68.799
G2 X2086.850 Y 425.290 I 370.897 J -84.397
G2 X2098.890 Y 455.610 I 258.966 J -85.284
G2 X2112.850 Y 480.200 I 160.893 J -75.083
G2 X2128.290 Y 498.310 I  87.817 J -59.233
G2 X2144.750 Y 509.410 I  42.123 J -44.710
G2 X2161.720 Y 513.150 I  17.158 J -37.484
G2 X2178.690 Y 509.410 I  -0.188 J -41.224
G2 X2195.150 Y 498.310 I -25.663 J -55.810
G2 X2210.590 Y 480.200 I -72.375 J -77.342
G2 X2224.550 Y 455.610 I-146.933 J -99.673
G2 X2236.590 Y 425.290 I-246.926 J-115.604
G2 X2246.360 Y 390.180 I-361.122 J-119.403
G2 X2253.570 Y 351.320 I-472.586 J-107.781
G2 X2257.980 Y 309.910 I-561.467 J -80.734
G2 X2259.460 Y 267.210 I-611.348 J -42.565
G2 X2257.980 Y 224.500 I-612.971 J  -0.140
G2 X2253.570 Y 183.090 I-565.877 J  39.324
G2 X2246.360 Y 144.240 I-479.673 J  68.926
G2 X2236.590 Y 109.120 I-370.996 J  84.288
G2 X2224.550 Y  78.810 I-258.883 J  85.289
G2 X2210.590 Y  54.220 I-160.893 J  75.083
G2 X2195.150 Y  36.100 I -87.859 J  59.227
G2 X2178.690 Y  25.000 I -42.123 J  44.710
G2 X2161.720 Y  21.270 I -17.135 J  37.489
G2 X2144.750 Y  25.000 I   0.165 J  41.219
G2 X2128.290 Y  36.100 I  25.663 J  55.810
G2 X2112.850 Y  54.220 I  72.421 J  77.348
G2 X2098.890 Y  78.810 I 146.933 J  99.673
G2 X2086.850 Y 109.120 I 246.843 J 115.599
G2 X2077.070 Y 144.240 I 361.221 J 119.512
G2 X2069.870 Y 183.090 I 472.468 J 107.654
G2 X2065.470 Y 224.500 I 561.472 J  80.598
F150
G1 Z   3.000
G0 Z  15.000 
M9 M5

(* SHAPE Nr: 45 *)
G0 X1806.130 Y 524.800
M3 M8
G0 Z   3.000 
G1 Z  -1.500
F400
G1 X1828.070 Y 555.000
G1 X1806.130 Y 585.200
G1 X1841.640 Y 596.740
G1 X1841.640 Y 634.070
G1 X1877.140 Y 622.540
G1 X1899.090 Y 652.740
G1 X1921.030 Y 622.540
G1 X1956.540 Y 634.070
G1 X1956.540 Y 596.740
G1 X1992.040 Y 585.200
G1 X1970.100 Y 555.000
G1 X1992.040 Y 524.800
G1 X1956.540 Y 513.260
G1 X1956.540 Y 475.930
G1 X1921.030 Y 487.460
G1 X1899.090 Y 457.260
G1 X1877.140 Y 487.460
G1 X1841.640 Y 475.930
G1 X1841.640 Y 513.260
G1 X1806.130 Y 524.800
F150
G1 Z  -3.000
F400
G1 X1828.070 Y 555.000
G1 X1806.130 Y 585.200
G1 X1841.640 Y 596.740
G1 X1841.640 Y 634.070
G1 X1877.140 Y 622.540
G1 X1899.090 Y 652.740
G1 X1921.030 Y 622.540
G1 X1956.540 Y 634.070
G1 X1956.540 Y 596.740
G1 X1992.040 Y 585.200
G1 X1970.100 Y 555.000
G1 X1992.040 Y 524.800
G1 X1956.540 Y 513.260
G1 X1956.540 Y 475.930
G1 X1921.030 Y 487.460
G1 X1899.090 Y 457.260
G1 X1877.140 Y 487.460
G1 X1841.640 Y 475.930
G1 X1841.640 Y 513.260
G1 X1806.130 Y 524.800
F150
G1 Z   3.000
G0 Z  15.000 
M9 M5

(* SHAPE Nr: 46 *)
G0 X1571.770 Y 494.100
M3 M8
G0 Z   3.000 
G1 Z  -1.500
F400
G1 X1571.770 Y2040.000
G2 X1647.160 Y2028.260 I  -0.303 J-249.878
G2 X1720.240 Y1993.390 I -90.956 J-284.639
G2 X1788.820 Y1936.440 I-218.731 J-333.166
G2 X1850.810 Y1859.160 I-394.036 J-379.578
G2 X1904.310 Y1763.890 I-611.535 J-406.072
G2 X1947.720 Y1653.530 I-849.972 J-398.053
G2 X1979.690 Y1531.410 I-1077.232 J-347.255
G2 X1999.280 Y1401.270 I-1256.951 J-255.754
G2 X2005.870 Y1267.050 I-1358.961 J-133.995
G2 X1999.280 Y1132.830 I-1365.551 J  -0.225
G2 X1979.690 Y1002.690 I-1276.541 J 125.614
G2 X1947.720 Y 880.580 I-1109.113 J 225.140
G2 X1904.310 Y 770.210 I-893.461 J 287.688
G2 X1850.810 Y 674.940 I-665.035 J 310.802
G2 X1788.820 Y 597.660 I-456.026 J 302.298
G2 X1720.240 Y 540.720 I-287.266 J 276.221
G2 X1647.160 Y 505.840 I-164.073 J 249.764
G2 X1571.770 Y 494.100 I -75.693 J 238.138
F150
G1 Z  -3.000
F400
G1 X1571.770 Y2040.000
G2 X1647.160 Y2028.260 I  -0.303 J-249.878
G2 X1720.240 Y1993.390 I -90.956 J-284.639
G2 X1788.820 Y1936.440 I-218.731 J-333.166
G2 X1850.810 Y1859.160 I-394.036 J-379.578
G2 X1904.310 Y1763.890 I-611.535 J-406.072
G2 X1947.720 Y1653.530 I-849.972 J-398.053
G2 X1979.690 Y1531.410 I-1077.232 J-347.255
G2 X1999.280 Y1401.270 I-1256.951 J-255.754
G2 X2005.870 Y1267.050 I-1358.961 J-133.995
G2 X1999.280 Y1132.830 I-1365.551 J  -0.225
G2 X1979.690 Y1002.690 I-1276.541 J 125.614
G2 X1947.720 Y 880.580 I-1109.113 J 225.140
G2 X1904.310 Y 770.210 I-893.461 J 287.688
G2 X1850.810 Y 674.940 I-665.035 J 310.802
G2 X1788.820 Y 597.660 I-456.026 J 302.298
G2 X1720.240 Y 540.720 I-287.266 J 276.221
G2 X1647.160 Y 505.840 I-164.073 J 249.764
G2 X1571.770 Y 494.100 I -75.693 J 238.138
F150
G1 Z   3.000
G0 Z  15.000 
M9 M5

(* SHAPE Nr: 47 *)
G0 X  10.610 Y  32.600
M3 M8
G0 Z   3.000 
G1 Z  -1.500
F400
G2 X  22.350 Y 107.980 I 249.845 J  -0.308
G2 X  57.220 Y 181.070 I 284.676 J -90.951
G2 X 114.170 Y 249.650 I 333.166 J-218.731
G2 X 191.450 Y 311.630 I 379.523 J-394.041
G2 X 286.720 Y 365.140 I 406.139 J-611.530
G2 X 397.080 Y 408.540 I 397.974 J-849.977
G2 X 519.200 Y 440.520 I 347.345 J-1077.227
G2 X 649.340 Y 460.100 I 255.656 J-1256.956
G2 X 783.560 Y 466.700 I 134.096 J-1358.956
G2 X 917.780 Y 460.100 I   0.124 J-1365.556
G2 X1047.920 Y 440.520 I-125.516 J-1276.536
G2 X1170.040 Y 408.540 I-225.225 J-1109.207
G2 X1280.400 Y 365.140 I-287.614 J-893.377
G2 X1375.670 Y 311.630 I-310.869 J-665.040
G2 X1452.950 Y 249.650 I-302.243 J-456.021
G2 X1509.900 Y 181.070 I-276.216 J-287.311
G2 X1544.770 Y 107.980 I-249.806 J-164.041
G2 X1556.510 Y  32.600 I-238.105 J -75.688
G1 X  10.610 Y  32.600
F150
G1 Z  -3.000
F400
G2 X  22.350 Y 107.980 I 249.845 J  -0.308
G2 X  57.220 Y 181.070 I 284.676 J -90.951
G2 X 114.170 Y 249.650 I 333.166 J-218.731
G2 X 191.450 Y 311.630 I 379.523 J-394.041
G2 X 286.720 Y 365.140 I 406.139 J-611.530
G2 X 397.080 Y 408.540 I 397.974 J-849.977
G2 X 519.200 Y 440.520 I 347.345 J-1077.227
G2 X 649.340 Y 460.100 I 255.656 J-1256.956
G2 X 783.560 Y 466.700 I 134.096 J-1358.956
G2 X 917.780 Y 460.100 I   0.124 J-1365.556
G2 X1047.920 Y 440.520 I-125.516 J-1276.536
G2 X1170.040 Y 408.540 I-225.225 J-1109.207
G2 X1280.400 Y 365.140 I-287.614 J-893.377
G2 X1375.670 Y 311.630 I-310.869 J-665.040
G2 X1452.950 Y 249.650 I-302.243 J-456.021
G2 X1509.900 Y 181.070 I-276.216 J-287.311
G2 X1544.770 Y 107.980 I-249.806 J-164.041
G2 X1556.510 Y  32.600 I-238.105 J -75.688
G1 X  10.610 Y  32.600
F150
G1 Z   3.000
G0 Z  15.000 
M9 M5
G0 X   0.000 Y   0.000
M2 (Program end)