(Generated with: DXF2GCODE, Version: REMOVED, Date: $Date$)
(Created from file: )
(Output format description: G-CODE for LinuxCNC)
(Time: Thu Sep 13 16:01:11 2018)
G21 (Units in millimeters)
G90 (Absolute programming)
G64 (Default cutting) G17 (XY plane) G40 (Cancel radius comp.) G49 (Cancel length comp.)
G0 Z  15.000 

(*** LAYER: FRAME_Z18 ***)
T1 M6
S6000

(* SHAPE Nr: 77 *)
G0 X   0.000 Y   0.000
M3 M8
G0 Z   3.000 
F150
G1 Z  -1.500
F400
G1 X   0.000 Y2050.000
G1 X2800.000 Y2050.000
G1 X2800.000 Y   0.000
G1 X   0.000 Y   0.000
F150
G1 Z  -3.000
F400
G1 X   0.000 Y2050.000
G1 X2800.000 Y2050.000
G1 X2800.000 Y   0.000
G1 X   0.000 Y   0.000
F150
G1 Z   3.000
G0 Z  15.000 
M9 M5

(*** LAYER: CONTOUR_D0 ***)

(* SHAPE Nr: 0 *)
G0 X  82.390 Y 142.070
M3 M8
G0 Z   3.000 
G1 Z  -1.500
F400
G2 X  59.740 Y 153.260 I  64.432 J 158.937
G2 X  43.060 Y 165.630 I  48.163 J  82.374
G2 X  32.830 Y 178.820 I  33.386 J  36.456
G2 X  29.390 Y 192.430 I  25.958 J  13.801
G2 X  32.830 Y 206.030 I  29.398 J  -0.201
G2 X  43.060 Y 219.230 I  43.627 J -23.247
G2 X  59.740 Y 231.600 I  64.843 J -70.004
G2 X  82.390 Y 242.790 I  53.219 J -79.203
G2 X 110.320 Y 252.450 I  69.814 J-156.647
G2 X 142.670 Y 260.280 I 108.355 J-376.932
G2 X 178.460 Y 266.050 I  98.510 J-497.151
G2 X 216.600 Y 269.590 I  74.306 J-593.345
G2 X 255.940 Y 270.780 I  39.269 J-647.318
G2 X 295.280 Y 269.590 I   0.071 J-648.508
G2 X 333.420 Y 266.050 I -36.166 J-596.885
G2 X 369.210 Y 260.280 I -62.720 J-502.921
G2 X 401.560 Y 252.450 I -76.005 J-384.762
G2 X 429.480 Y 242.790 I -75.622 J-263.746
G2 X 452.140 Y 231.600 I -64.400 J-158.951
G2 X 468.830 Y 219.230 I -48.136 J -82.391
G2 X 479.050 Y 206.030 I -33.416 J -36.429
G2 X 482.490 Y 192.430 I -25.958 J -13.801
G2 X 479.050 Y 178.820 I -29.398 J   0.191
G2 X 468.830 Y 165.630 I -43.626 J  23.248
G2 X 452.140 Y 153.260 I -64.826 J  70.021
G2 X 429.480 Y 142.070 I -87.060 J 147.761
G2 X 401.560 Y 132.410 I-103.542 J 254.086
G2 X 369.210 Y 124.580 I-108.355 J 376.932
G2 X 333.420 Y 118.810 I -98.510 J 497.151
G2 X 295.280 Y 115.270 I -74.306 J 593.345
G2 X 255.940 Y 114.080 I -39.269 J 647.318
G2 X 216.600 Y 115.270 I  -0.071 J 648.508
G2 X 178.460 Y 118.810 I  36.166 J 596.885
G2 X 142.670 Y 124.580 I  62.720 J 502.921
G2 X 110.320 Y 132.410 I  76.005 J 384.762
G2 X  82.390 Y 142.070 I  75.587 J 263.752
F150
G1 Z  -3.000
F400
G2 X  59.740 Y 153.260 I  64.432 J 158.937
G2 X  43.060 Y 165.630 I  48.163 J  82.374
G2 X  32.830 Y 178.820 I  33.386 J  36.456
G2 X  29.390 Y 192.430 I  25.958 J  13.801
G2 X  32.830 Y 206.030 I  29.398 J  -0.201
G2 X  43.060 Y 219.230 I  43.627 J -23.247
G2 X  59.740 Y 231.600 I  64.843 J -70.004
G2 X  82.390 Y 242.790 I  53.219 J -79.203
G2 X 110.320 Y 252.450 I  69.814 J-156.647
G2 X 142.670 Y 260.280 I 108.355 J-376.932
G2 X 178.460 Y 266.050 I  98.510 J-497.151
G2 X 216.600 Y 269.590 I  74.306 J-593.345
G2 X 255.940 Y 270.780 I  39.269 J-647.318
G2 X 295.280 Y 269.590 I   0.071 J-648.508
G2 X 333.420 Y 266.050 I -36.166 J-596.885
G2 X 369.210 Y 260.280 I -62.720 J-502.921
G2 X 401.560 Y 252.450 I -76.005 J-384.762
G2 X 429.480 Y 242.790 I -75.622 J-263.746
G2 X 452.140 Y 231.600 I -64.400 J-158.951
G2 X 468.830 Y 219.230 I -48.136 J -82.391
G2 X 479.050 Y 206.030 I -33.416 J -36.429
G2 X 482.490 Y 192.430 I -25.958 J -13.801
G2 X 479.050 Y 178.820 I -29.398 J   0.191
G2 X 468.830 Y 165.630 I -43.626 J  23.248
G2 X 452.140 Y 153.260 I -64.826 J  70.021
G2 X 429.480 Y 142.070 I -87.060 J 147.761
G2 X 401.560 Y 132.410 I-103.542 J 254.086
G2 X 369.210 Y 124.580 I-108.355 J 376.932
G2 X 333.420 Y 118.810 I -98.510 J 497.151
G2 X 295.280 Y 115.270 I -74.306 J 593.345
G2 X 255.940 Y 114.080 I -39.269 J 647.318
G2 X 216.600 Y 115.270 I  -0.071 J 648.508
G2 X 178.460 Y 118.810 I  36.166 J 596.885
G2 X 142.670 Y 124.580 I  62.720 J 502.921
G2 X 110.320 Y 132.410 I  76.005 J 384.762
G2 X  82.390 Y 142.070 I  75.587 J 263.752
F150
G1 Z   3.000
G0 Z  15.000 
M9 M5

(* SHAPE Nr: 1 *)
G0 X 110.320 Y 342.590
M3 M8
G0 Z   3.000 
G1 Z  -1.500
F400
G2 X  82.390 Y 352.250 I  75.587 J 263.752
G2 X  59.740 Y 363.440 I  64.432 J 158.937
G2 X  43.060 Y 375.810 I  48.163 J  82.374
G2 X  32.830 Y 389.000 I  33.386 J  36.456
G2 X  29.390 Y 402.610 I  25.958 J  13.801
G2 X  32.830 Y 416.210 I  29.398 J  -0.201
G2 X  43.060 Y 429.410 I  43.627 J -23.247
G2 X  59.740 Y 441.780 I  64.844 J -70.006
G2 X  82.390 Y 452.970 I  53.219 J -79.203
G2 X 110.320 Y 462.630 I  69.814 J-156.647
G2 X 142.670 Y 470.460 I 108.355 J-376.932
G2 X 178.460 Y 476.230 I  98.510 J-497.151
G2 X 216.600 Y 479.770 I  74.306 J-593.345
G2 X 255.940 Y 480.960 I  39.269 J-647.318
G2 X 295.280 Y 479.770 I   0.071 J-648.508
G2 X 333.420 Y 476.230 I -36.166 J-596.885
G2 X 369.210 Y 470.460 I -62.720 J-502.921
G2 X 401.560 Y 462.630 I -76.005 J-384.762
G2 X 429.480 Y 452.970 I -75.622 J-263.746
G2 X 452.140 Y 441.780 I -64.400 J-158.951
G2 X 468.830 Y 429.410 I -48.136 J -82.391
G2 X 479.050 Y 416.210 I -33.416 J -36.429
G2 X 482.490 Y 402.610 I -25.958 J -13.801
G2 X 479.050 Y 389.000 I -29.398 J   0.191
G2 X 468.830 Y 375.810 I -43.626 J  23.248
G2 X 452.140 Y 363.440 I -64.826 J  70.021
G2 X 429.480 Y 352.250 I -87.060 J 147.761
G2 X 401.560 Y 342.590 I-103.542 J 254.086
G2 X 369.210 Y 334.760 I-108.355 J 376.932
G2 X 333.420 Y 328.990 I -98.510 J 497.151
G2 X 295.280 Y 325.450 I -74.306 J 593.345
G2 X 255.940 Y 324.260 I -39.269 J 647.318
G2 X 216.600 Y 325.450 I  -0.071 J 648.508
G2 X 178.460 Y 328.990 I  36.166 J 596.885
G2 X 142.670 Y 334.760 I  62.720 J 502.921
G2 X 110.320 Y 342.590 I  76.005 J 384.762
F150
G1 Z  -3.000
F400
G2 X  82.390 Y 352.250 I  75.587 J 263.752
G2 X  59.740 Y 363.440 I  64.432 J 158.937
G2 X  43.060 Y 375.810 I  48.163 J  82.374
G2 X  32.830 Y 389.000 I  33.386 J  36.456
G2 X  29.390 Y 402.610 I  25.958 J  13.801
G2 X  32.830 Y 416.210 I  29.398 J  -0.201
G2 X  43.060 Y 429.410 I  43.627 J -23.247
G2 X  59.740 Y 441.780 I  64.844 J -70.006
G2 X  82.390 Y 452.970 I  53.219 J -79.203
G2 X 110.320 Y 462.630 I  69.814 J-156.647
G2 X 142.670 Y 470.460 I 108.355 J-376.932
G2 X 178.460 Y 476.230 I  98.510 J-497.151
G2 X 216.600 Y 479.770 I  74.306 J-593.345
G2 X 255.940 Y 480.960 I  39.269 J-647.318
G2 X 295.280 Y 479.770 I   0.071 J-648.508
G2 X 333.420 Y 476.230 I -36.166 J-596.885
G2 X 369.210 Y 470.460 I -62.720 J-502.921
G2 X 401.560 Y 462.630 I -76.005 J-384.762
G2 X 429.480 Y 452.970 I -75.622 J-263.746
G2 X 452.140 Y 441.780 I -64.400 J-158.951
G2 X 468.830 Y 429.410 I -48.136 J -82.391
G2 X 479.050 Y 416.210 I -33.416 J -36.429
G2 X 482.490 Y 402.610 I -25.958 J -13.801
G2 X 479.050 Y 389.000 I -29.398 J   0.191
G2 X 468.830 Y 375.810 I -43.626 J  23.248
G2 X 452.140 Y 363.440 I -64.826 J  70.021
G2 X 429.480 Y 352.250 I -87.060 J 147.761
G2 X 401.560 Y 342.590 I-103.542 J 254.086
G2 X 369.210 Y 334.760 I-108.355 J 376.932
G2 X 333.420 Y 328.990 I -98.510 J 497.151
G2 X 295.280 Y 325.450 I -74.306 J 593.345
G2 X 255.940 Y 324.260 I -39.269 J 647.318
G2 X 216.600 Y 325.450 I  -0.071 J 648.508
G2 X 178.460 Y 328.990 I  36.166 J 596.885
G2 X 142.670 Y 334.760 I  62.720 J 502.921
G2 X 110.320 Y 342.590 I  76.005 J 384.762
F150
G1 Z   3.000
G0 Z  15.000 
M9 M5

(* SHAPE Nr: 2 *)
G0 X 893.730 Y 373.350
M3 M8
G0 Z   3.000 
G1 Z  -1.500
F400
G2 X 890.290 Y 386.960 I  25.958 J  13.801
G2 X 893.730 Y 400.560 I  29.398 J  -0.201
G2 X 903.960 Y 413.760 I  43.627 J -23.247
G2 X 920.640 Y 426.130 I  64.844 J -70.006
G2 X 943.290 Y 437.320 I  53.219 J -79.203
G2 X 971.220 Y 446.980 I  69.814 J-156.647
G2 X1003.570 Y 454.810 I 108.355 J-376.932
G2 X1039.360 Y 460.580 I  98.510 J-497.151
G2 X1077.500 Y 464.120 I  74.306 J-593.345
G2 X1116.840 Y 465.310 I  39.269 J-647.318
G2 X1156.180 Y 464.120 I   0.071 J-648.508
G2 X1194.320 Y 460.580 I -36.166 J-596.885
G2 X1230.110 Y 454.810 I -62.720 J-502.921
G2 X1262.460 Y 446.980 I -76.005 J-384.762
G2 X1290.380 Y 437.320 I -75.622 J-263.746
G2 X1313.040 Y 426.130 I -64.400 J-158.951
G2 X1329.730 Y 413.760 I -48.136 J -82.391
G2 X1339.950 Y 400.560 I -33.416 J -36.429
G2 X1343.390 Y 386.960 I -25.958 J -13.801
G2 X1339.950 Y 373.350 I -29.398 J   0.191
G2 X1329.730 Y 360.160 I -43.626 J  23.248
G2 X1313.040 Y 347.790 I -64.826 J  70.021
G2 X1290.380 Y 336.600 I -87.060 J 147.761
G2 X1262.460 Y 326.940 I-103.542 J 254.086
G2 X1230.110 Y 319.110 I-108.355 J 376.932
G2 X1194.320 Y 313.340 I -98.510 J 497.151
G2 X1156.180 Y 309.800 I -74.306 J 593.345
G2 X1116.840 Y 308.610 I -39.269 J 647.318
G2 X1077.500 Y 309.800 I  -0.071 J 648.508
G2 X1039.360 Y 313.340 I  36.166 J 596.885
G2 X1003.570 Y 319.110 I  62.720 J 502.921
G2 X 971.220 Y 326.940 I  76.005 J 384.762
G2 X 943.290 Y 336.600 I  75.590 J 263.762
G2 X 920.640 Y 347.790 I  64.432 J 158.937
G2 X 903.960 Y 360.160 I  48.163 J  82.374
G2 X 893.730 Y 373.350 I  33.386 J  36.456
F150
G1 Z  -3.000
F400
G2 X 890.290 Y 386.960 I  25.958 J  13.801
G2 X 893.730 Y 400.560 I  29.398 J  -0.201
G2 X 903.960 Y 413.760 I  43.627 J -23.247
G2 X 920.640 Y 426.130 I  64.844 J -70.006
G2 X 943.290 Y 437.320 I  53.219 J -79.203
G2 X 971.220 Y 446.980 I  69.814 J-156.647
G2 X1003.570 Y 454.810 I 108.355 J-376.932
G2 X1039.360 Y 460.580 I  98.510 J-497.151
G2 X1077.500 Y 464.120 I  74.306 J-593.345
G2 X1116.840 Y 465.310 I  39.269 J-647.318
G2 X1156.180 Y 464.120 I   0.071 J-648.508
G2 X1194.320 Y 460.580 I -36.166 J-596.885
G2 X1230.110 Y 454.810 I -62.720 J-502.921
G2 X1262.460 Y 446.980 I -76.005 J-384.762
G2 X1290.380 Y 437.320 I -75.622 J-263.746
G2 X1313.040 Y 426.130 I -64.400 J-158.951
G2 X1329.730 Y 413.760 I -48.136 J -82.391
G2 X1339.950 Y 400.560 I -33.416 J -36.429
G2 X1343.390 Y 386.960 I -25.958 J -13.801
G2 X1339.950 Y 373.350 I -29.398 J   0.191
G2 X1329.730 Y 360.160 I -43.626 J  23.248
G2 X1313.040 Y 347.790 I -64.826 J  70.021
G2 X1290.380 Y 336.600 I -87.060 J 147.761
G2 X1262.460 Y 326.940 I-103.542 J 254.086
G2 X1230.110 Y 319.110 I-108.355 J 376.932
G2 X1194.320 Y 313.340 I -98.510 J 497.151
G2 X1156.180 Y 309.800 I -74.306 J 593.345
G2 X1116.840 Y 308.610 I -39.269 J 647.318
G2 X1077.500 Y 309.800 I  -0.071 J 648.508
G2 X1039.360 Y 313.340 I  36.166 J 596.885
G2 X1003.570 Y 319.110 I  62.720 J 502.921
G2 X 971.220 Y 326.940 I  76.005 J 384.762
G2 X 943.290 Y 336.600 I  75.590 J 263.762
G2 X 920.640 Y 347.790 I  64.432 J 158.937
G2 X 903.960 Y 360.160 I  48.163 J  82.374
G2 X 893.730 Y 373.350 I  33.386 J  36.456
F150
G1 Z   3.000
G0 Z  15.000 
M9 M5

(* SHAPE Nr: 3 *)
G0 X 974.830 Y 179.650
M3 M8
G0 Z   3.000 
G1 Z  -1.500
F400
G2 X 978.270 Y 193.250 I  29.398 J  -0.201
G2 X 988.500 Y 206.450 I  43.627 J -23.247
G2 X1005.180 Y 218.820 I  64.844 J -70.006
G2 X1027.830 Y 230.010 I  53.219 J -79.203
G2 X1055.760 Y 239.670 I  69.814 J-156.647
G2 X1088.110 Y 247.500 I 108.355 J-376.932
G2 X1123.900 Y 253.270 I  98.510 J-497.151
G2 X1162.040 Y 256.810 I  74.306 J-593.345
G2 X1201.380 Y 258.000 I  39.269 J-647.318
G2 X1240.720 Y 256.810 I   0.071 J-648.508
G2 X1278.860 Y 253.270 I -36.166 J-596.885
G2 X1314.650 Y 247.500 I -62.720 J-502.921
G2 X1347.000 Y 239.670 I -76.005 J-384.762
G2 X1374.920 Y 230.010 I -75.622 J-263.746
G2 X1397.580 Y 218.820 I -64.400 J-158.951
G2 X1414.270 Y 206.450 I -48.136 J -82.391
G2 X1424.490 Y 193.250 I -33.416 J -36.429
G2 X1427.930 Y 179.650 I -25.958 J -13.801
G2 X1424.490 Y 166.040 I -29.398 J   0.191
G2 X1414.270 Y 152.850 I -43.626 J  23.248
G2 X1397.580 Y 140.480 I -64.826 J  70.021
G2 X1374.920 Y 129.290 I -87.060 J 147.761
G2 X1347.000 Y 119.630 I-103.542 J 254.086
G2 X1314.650 Y 111.800 I-108.355 J 376.932
G2 X1278.860 Y 106.030 I -98.510 J 497.151
G2 X1240.720 Y 102.490 I -74.306 J 593.345
G2 X1201.380 Y 101.300 I -39.269 J 647.318
G2 X1162.040 Y 102.490 I  -0.071 J 648.508
G2 X1123.900 Y 106.030 I  36.166 J 596.885
G2 X1088.110 Y 111.800 I  62.720 J 502.921
G2 X1055.760 Y 119.630 I  76.005 J 384.762
G2 X1027.830 Y 129.290 I  75.590 J 263.762
G2 X1005.180 Y 140.480 I  64.432 J 158.937
G2 X 988.500 Y 152.850 I  48.163 J  82.374
G2 X 978.270 Y 166.040 I  33.386 J  36.456
G2 X 974.830 Y 179.650 I  25.958 J  13.801
F150
G1 Z  -3.000
F400
G2 X 978.270 Y 193.250 I  29.398 J  -0.201
G2 X 988.500 Y 206.450 I  43.627 J -23.247
G2 X1005.180 Y 218.820 I  64.844 J -70.006
G2 X1027.830 Y 230.010 I  53.219 J -79.203
G2 X1055.760 Y 239.670 I  69.814 J-156.647
G2 X1088.110 Y 247.500 I 108.355 J-376.932
G2 X1123.900 Y 253.270 I  98.510 J-497.151
G2 X1162.040 Y 256.810 I  74.306 J-593.345
G2 X1201.380 Y 258.000 I  39.269 J-647.318
G2 X1240.720 Y 256.810 I   0.071 J-648.508
G2 X1278.860 Y 253.270 I -36.166 J-596.885
G2 X1314.650 Y 247.500 I -62.720 J-502.921
G2 X1347.000 Y 239.670 I -76.005 J-384.762
G2 X1374.920 Y 230.010 I -75.622 J-263.746
G2 X1397.580 Y 218.820 I -64.400 J-158.951
G2 X1414.270 Y 206.450 I -48.136 J -82.391
G2 X1424.490 Y 193.250 I -33.416 J -36.429
G2 X1427.930 Y 179.650 I -25.958 J -13.801
G2 X1424.490 Y 166.040 I -29.398 J   0.191
G2 X1414.270 Y 152.850 I -43.626 J  23.248
G2 X1397.580 Y 140.480 I -64.826 J  70.021
G2 X1374.920 Y 129.290 I -87.060 J 147.761
G2 X1347.000 Y 119.630 I-103.542 J 254.086
G2 X1314.650 Y 111.800 I-108.355 J 376.932
G2 X1278.860 Y 106.030 I -98.510 J 497.151
G2 X1240.720 Y 102.490 I -74.306 J 593.345
G2 X1201.380 Y 101.300 I -39.269 J 647.318
G2 X1162.040 Y 102.490 I  -0.071 J 648.508
G2 X1123.900 Y 106.030 I  36.166 J 596.885
G2 X1088.110 Y 111.800 I  62.720 J 502.921
G2 X1055.760 Y 119.630 I  76.005 J 384.762
G2 X1027.830 Y 129.290 I  75.590 J 263.762
G2 X1005.180 Y 140.480 I  64.432 J 158.937
G2 X 988.500 Y 152.850 I  48.163 J  82.374
G2 X 978.270 Y 166.040 I  33.386 J  36.456
G2 X 974.830 Y 179.650 I  25.958 J  13.801
F150
G1 Z   3.000
G0 Z  15.000 
M9 M5

(* SHAPE Nr: 4 *)
G0 X 494.840 Y 107.740
M3 M8
G0 Z   3.000 
G1 Z  -1.500
F400
G2 X 498.280 Y 121.340 I  29.398 J  -0.201
G2 X 508.510 Y 134.540 I  43.627 J -23.247
G2 X 525.190 Y 146.910 I  64.844 J -70.006
G2 X 547.840 Y 158.100 I  53.219 J -79.203
G2 X 575.770 Y 167.760 I  69.814 J-156.647
G2 X 608.120 Y 175.590 I 108.355 J-376.932
G2 X 643.910 Y 181.360 I  98.510 J-497.151
G2 X 682.050 Y 184.900 I  74.306 J-593.345
G2 X 721.390 Y 186.090 I  39.269 J-647.318
G2 X 760.730 Y 184.900 I   0.071 J-648.508
G2 X 798.870 Y 181.360 I -36.166 J-596.885
G2 X 834.660 Y 175.590 I -62.720 J-502.921
G2 X 867.010 Y 167.760 I -76.005 J-384.762
G2 X 894.930 Y 158.100 I -75.622 J-263.746
G2 X 917.590 Y 146.910 I -64.400 J-158.951
G2 X 934.280 Y 134.540 I -48.136 J -82.391
G2 X 944.500 Y 121.340 I -33.416 J -36.429
G2 X 947.940 Y 107.740 I -25.958 J -13.801
G2 X 944.500 Y  94.130 I -29.398 J   0.191
G2 X 934.280 Y  80.940 I -43.626 J  23.248
G2 X 917.590 Y  68.570 I -64.826 J  70.021
G2 X 894.930 Y  57.380 I -87.060 J 147.761
G2 X 867.010 Y  47.720 I-103.542 J 254.086
G2 X 834.660 Y  39.890 I-108.355 J 376.932
G2 X 798.870 Y  34.120 I -98.510 J 497.151
G2 X 760.730 Y  30.580 I -74.306 J 593.345
G2 X 721.390 Y  29.390 I -39.269 J 647.318
G2 X 682.050 Y  30.580 I  -0.071 J 648.508
G2 X 643.910 Y  34.120 I  36.166 J 596.885
G2 X 608.120 Y  39.890 I  62.720 J 502.921
G2 X 575.770 Y  47.720 I  76.005 J 384.762
G2 X 547.840 Y  57.380 I  75.587 J 263.752
G2 X 525.190 Y  68.570 I  64.432 J 158.937
G2 X 508.510 Y  80.940 I  48.163 J  82.374
G2 X 498.280 Y  94.130 I  33.386 J  36.456
G2 X 494.840 Y 107.740 I  25.958 J  13.801
F150
G1 Z  -3.000
F400
G2 X 498.280 Y 121.340 I  29.398 J  -0.201
G2 X 508.510 Y 134.540 I  43.627 J -23.247
G2 X 525.190 Y 146.910 I  64.844 J -70.006
G2 X 547.840 Y 158.100 I  53.219 J -79.203
G2 X 575.770 Y 167.760 I  69.814 J-156.647
G2 X 608.120 Y 175.590 I 108.355 J-376.932
G2 X 643.910 Y 181.360 I  98.510 J-497.151
G2 X 682.050 Y 184.900 I  74.306 J-593.345
G2 X 721.390 Y 186.090 I  39.269 J-647.318
G2 X 760.730 Y 184.900 I   0.071 J-648.508
G2 X 798.870 Y 181.360 I -36.166 J-596.885
G2 X 834.660 Y 175.590 I -62.720 J-502.921
G2 X 867.010 Y 167.760 I -76.005 J-384.762
G2 X 894.930 Y 158.100 I -75.622 J-263.746
G2 X 917.590 Y 146.910 I -64.400 J-158.951
G2 X 934.280 Y 134.540 I -48.136 J -82.391
G2 X 944.500 Y 121.340 I -33.416 J -36.429
G2 X 947.940 Y 107.740 I -25.958 J -13.801
G2 X 944.500 Y  94.130 I -29.398 J   0.191
G2 X 934.280 Y  80.940 I -43.626 J  23.248
G2 X 917.590 Y  68.570 I -64.826 J  70.021
G2 X 894.930 Y  57.380 I -87.060 J 147.761
G2 X 867.010 Y  47.720 I-103.542 J 254.086
G2 X 834.660 Y  39.890 I-108.355 J 376.932
G2 X 798.870 Y  34.120 I -98.510 J 497.151
G2 X 760.730 Y  30.580 I -74.306 J 593.345
G2 X 721.390 Y  29.390 I -39.269 J 647.318
G2 X 682.050 Y  30.580 I  -0.071 J 648.508
G2 X 643.910 Y  34.120 I  36.166 J 596.885
G2 X 608.120 Y  39.890 I  62.720 J 502.921
G2 X 575.770 Y  47.720 I  76.005 J 384.762
G2 X 547.840 Y  57.380 I  75.587 J 263.752
G2 X 525.190 Y  68.570 I  64.432 J 158.937
G2 X 508.510 Y  80.940 I  48.163 J  82.374
G2 X 498.280 Y  94.130 I  33.386 J  36.456
G2 X 494.840 Y 107.740 I  25.958 J  13.801
F150
G1 Z   3.000
G0 Z  15.000 
M9 M5

(* SHAPE Nr: 5 *)
G0 X1103.330 Y 740.920
M3 M8
G0 Z   3.000 
G1 Z  -1.500
F400
G2 X1060.440 Y 825.570 I 405.579 J 258.687
G2 X1025.650 Y 923.640 I 820.093 J 346.131
G2 X1000.020 Y1032.140 I1051.305 J 305.618
G2 X 984.320 Y1147.780 I1235.026 J 226.560
G2 X 979.030 Y1267.050 I1338.856 J 119.135
G2 X 984.320 Y1386.320 I1344.206 J   0.133
G2 X1000.020 Y1501.960 I1250.726 J-110.920
G2 X1025.650 Y1610.460 I1076.935 J-197.118
G2 X1060.440 Y1708.530 I 854.883 J-248.061
G2 X1103.330 Y1793.180 I 622.267 J-262.096
G2 X1153.010 Y1861.850 I 413.077 J-246.539
G2 X1207.990 Y1912.450 I 249.161 J-215.559
G2 X1266.580 Y1943.430 I 135.686 J-185.718
G2 X1327.000 Y1953.870 I  60.781 J-171.702
G2 X1387.420 Y1943.430 I  -0.361 J-182.142
G2 X1446.010 Y1912.450 I -77.096 J-216.698
G2 X1500.990 Y1861.850 I-194.181 J-266.159
G2 X1550.670 Y1793.180 I-363.397 J-315.209
G2 X1593.560 Y1708.530 I-579.377 J-346.746
G2 X1628.350 Y1610.460 I-820.093 J-346.131
G2 X1653.980 Y1501.960 I-1051.305 J-305.618
G2 X1669.680 Y1386.320 I-1235.026 J-226.560
G2 X1674.970 Y1267.050 I-1338.916 J-119.137
G2 X1669.680 Y1147.780 I-1344.146 J  -0.135
G2 X1653.980 Y1032.140 I-1250.726 J 110.920
G2 X1628.350 Y 923.640 I-1076.935 J 197.118
G2 X1593.560 Y 825.570 I-854.883 J 248.061
G2 X1550.670 Y 740.920 I-622.267 J 262.096
G2 X1500.990 Y 672.250 I-413.077 J 246.539
G2 X1446.010 Y 621.650 I-249.161 J 215.559
G2 X1387.420 Y 590.670 I-135.686 J 185.718
G2 X1327.000 Y 580.230 I -60.781 J 171.702
G2 X1266.580 Y 590.670 I   0.361 J 182.142
G2 X1207.990 Y 621.650 I  77.096 J 216.698
G2 X1153.010 Y 672.250 I 194.181 J 266.159
G2 X1103.330 Y 740.920 I 239.876 J 225.847
F150
G1 Z  -3.000
F400
G2 X1060.440 Y 825.570 I 405.579 J 258.687
G2 X1025.650 Y 923.640 I 820.093 J 346.131
G2 X1000.020 Y1032.140 I1051.305 J 305.618
G2 X 984.320 Y1147.780 I1235.026 J 226.560
G2 X 979.030 Y1267.050 I1338.856 J 119.135
G2 X 984.320 Y1386.320 I1344.206 J   0.133
G2 X1000.020 Y1501.960 I1250.726 J-110.920
G2 X1025.650 Y1610.460 I1076.935 J-197.118
G2 X1060.440 Y1708.530 I 854.883 J-248.061
G2 X1103.330 Y1793.180 I 622.267 J-262.096
G2 X1153.010 Y1861.850 I 413.077 J-246.539
G2 X1207.990 Y1912.450 I 249.161 J-215.559
G2 X1266.580 Y1943.430 I 135.686 J-185.718
G2 X1327.000 Y1953.870 I  60.781 J-171.702
G2 X1387.420 Y1943.430 I  -0.361 J-182.142
G2 X1446.010 Y1912.450 I -77.096 J-216.698
G2 X1500.990 Y1861.850 I-194.181 J-266.159
G2 X1550.670 Y1793.180 I-363.397 J-315.209
G2 X1593.560 Y1708.530 I-579.377 J-346.746
G2 X1628.350 Y1610.460 I-820.093 J-346.131
G2 X1653.980 Y1501.960 I-1051.305 J-305.618
G2 X1669.680 Y1386.320 I-1235.026 J-226.560
G2 X1674.970 Y1267.050 I-1338.916 J-119.137
G2 X1669.680 Y1147.780 I-1344.146 J  -0.135
G2 X1653.980 Y1032.140 I-1250.726 J 110.920
G2 X1628.350 Y 923.640 I-1076.935 J 197.118
G2 X1593.560 Y 825.570 I-854.883 J 248.061
G2 X1550.670 Y 740.920 I-622.267 J 262.096
G2 X1500.990 Y 672.250 I-413.077 J 246.539
G2 X1446.010 Y 621.650 I-249.161 J 215.559
G2 X1387.420 Y 590.670 I-135.686 J 185.718
G2 X1327.000 Y 580.230 I -60.781 J 171.702
G2 X1266.580 Y 590.670 I   0.361 J 182.142
G2 X1207.990 Y 621.650 I  77.096 J 216.698
G2 X1153.010 Y 672.250 I 194.181 J 266.159
G2 X1103.330 Y 740.920 I 239.876 J 225.847
F150
G1 Z   3.000
G0 Z  15.000 
M9 M5

(* SHAPE Nr: 6 *)
G0 X2609.370 Y1597.860
M3 M8
G0 Z   3.000 
G1 Z  -1.500
F400
G2 X2598.180 Y1620.510 I  79.202 J  53.218
G2 X2588.520 Y1648.440 I 156.647 J  69.814
G2 X2580.690 Y1680.790 I 376.932 J 108.355
G2 X2574.920 Y1716.580 I 497.151 J  98.510
G2 X2571.380 Y1754.720 I 593.345 J  74.306
G2 X2570.190 Y1794.060 I 647.318 J  39.269
G2 X2571.380 Y1833.400 I 648.508 J   0.071
G2 X2574.920 Y1871.540 I 596.885 J -36.166
G2 X2580.690 Y1907.330 I 502.921 J -62.720
G2 X2588.520 Y1939.680 I 384.762 J -76.005
G2 X2598.180 Y1967.600 I 263.746 J -75.622
G2 X2609.370 Y1990.260 I 158.947 J -64.398
G2 X2621.740 Y2006.950 I  82.392 J -48.137
G2 X2634.940 Y2017.170 I  36.429 J -33.416
G2 X2648.540 Y2020.610 I  13.801 J -25.958
G2 X2662.150 Y2017.170 I  -0.191 J -29.398
G2 X2675.340 Y2006.950 I -23.248 J -43.626
G2 X2687.710 Y1990.260 I -70.022 J -64.827
G2 X2698.900 Y1967.600 I-147.761 J -87.060
G2 X2708.560 Y1939.680 I-254.086 J-103.542
G2 X2716.390 Y1907.330 I-376.932 J-108.355
G2 X2722.160 Y1871.540 I-497.151 J -98.510
G2 X2725.700 Y1833.400 I-593.345 J -74.306
G2 X2726.890 Y1794.060 I-647.318 J -39.269
G2 X2725.700 Y1754.720 I-648.508 J  -0.071
G2 X2722.160 Y1716.580 I-596.885 J  36.166
G2 X2716.390 Y1680.790 I-502.921 J  62.720
G2 X2708.560 Y1648.440 I-384.762 J  76.005
G2 X2698.900 Y1620.510 I-263.762 J  75.590
G2 X2687.710 Y1597.860 I-158.937 J  64.432
G2 X2675.340 Y1581.180 I -82.376 J  48.164
G2 X2662.150 Y1570.950 I -36.456 J  33.386
G2 X2648.540 Y1567.510 I -13.801 J  25.958
G2 X2634.940 Y1570.950 I   0.201 J  29.398
G2 X2621.740 Y1581.180 I  23.247 J  43.627
G2 X2609.370 Y1597.860 I  70.006 J  64.844
F150
G1 Z  -3.000
F400
G2 X2598.180 Y1620.510 I  79.202 J  53.218
G2 X2588.520 Y1648.440 I 156.647 J  69.814
G2 X2580.690 Y1680.790 I 376.932 J 108.355
G2 X2574.920 Y1716.580 I 497.151 J  98.510
G2 X2571.380 Y1754.720 I 593.345 J  74.306
G2 X2570.190 Y1794.060 I 647.318 J  39.269
G2 X2571.380 Y1833.400 I 648.508 J   0.071
G2 X2574.920 Y1871.540 I 596.885 J -36.166
G2 X2580.690 Y1907.330 I 502.921 J -62.720
G2 X2588.520 Y1939.680 I 384.762 J -76.005
G2 X2598.180 Y1967.600 I 263.746 J -75.622
G2 X2609.370 Y1990.260 I 158.947 J -64.398
G2 X2621.740 Y2006.950 I  82.392 J -48.137
G2 X2634.940 Y2017.170 I  36.429 J -33.416
G2 X2648.540 Y2020.610 I  13.801 J -25.958
G2 X2662.150 Y2017.170 I  -0.191 J -29.398
G2 X2675.340 Y2006.950 I -23.248 J -43.626
G2 X2687.710 Y1990.260 I -70.022 J -64.827
G2 X2698.900 Y1967.600 I-147.761 J -87.060
G2 X2708.560 Y1939.680 I-254.086 J-103.542
G2 X2716.390 Y1907.330 I-376.932 J-108.355
G2 X2722.160 Y1871.540 I-497.151 J -98.510
G2 X2725.700 Y1833.400 I-593.345 J -74.306
G2 X2726.890 Y1794.060 I-647.318 J -39.269
G2 X2725.700 Y1754.720 I-648.508 J  -0.071
G2 X2722.160 Y1716.580 I-596.885 J  36.166
G2 X2716.390 Y1680.790 I-502.921 J  62.720
G2 X2708.560 Y1648.440 I-384.762 J  76.005
G2 X2698.900 Y1620.510 I-263.762 J  75.590
G2 X2687.710 Y1597.860 I-158.937 J  64.432
G2 X2675.340 Y1581.180 I -82.376 J  48.164
G2 X2662.150 Y1570.950 I -36.456 J  33.386
G2 X2648.540 Y1567.510 I -13.801 J  25.958
G2 X2634.940 Y1570.950 I   0.201 J  29.398
G2 X2621.740 Y1581.180 I  23.247 J  43.627
G2 X2609.370 Y1597.860 I  70.006 J  64.844
F150
G1 Z   3.000
G0 Z  15.000 
M9 M5

(* SHAPE Nr: 7 *)
G0 X2445.640 Y 266.680
M3 M8
G0 Z   3.000 
G1 Z  -1.500
F400
G2 X2442.100 Y 304.820 I 593.345 J  74.306
G2 X2440.910 Y 344.160 I 647.318 J  39.269
G2 X2442.100 Y 383.500 I 648.508 J   0.071
G2 X2445.640 Y 421.640 I 596.885 J -36.166
G2 X2451.410 Y 457.430 I 502.921 J -62.720
G2 X2459.240 Y 489.780 I 384.762 J -76.005
G2 X2468.900 Y 517.700 I 263.746 J -75.622
G2 X2480.090 Y 540.360 I 158.951 J -64.400
G2 X2492.460 Y 557.050 I  82.391 J -48.136
G2 X2505.660 Y 567.270 I  36.429 J -33.416
G2 X2519.260 Y 570.710 I  13.801 J -25.958
G2 X2532.870 Y 567.270 I  -0.191 J -29.398
G2 X2546.060 Y 557.050 I -23.248 J -43.626
G2 X2558.430 Y 540.360 I -70.021 J -64.826
G2 X2569.620 Y 517.700 I-147.761 J -87.060
G2 X2579.280 Y 489.780 I-254.086 J-103.542
G2 X2587.110 Y 457.430 I-376.932 J-108.355
G2 X2592.880 Y 421.640 I-497.151 J -98.510
G2 X2596.420 Y 383.500 I-593.345 J -74.306
G2 X2597.610 Y 344.160 I-647.318 J -39.269
G2 X2596.420 Y 304.820 I-648.508 J  -0.071
G2 X2592.880 Y 266.680 I-596.885 J  36.166
G2 X2587.110 Y 230.890 I-502.921 J  62.720
G2 X2579.280 Y 198.540 I-384.762 J  76.005
G2 X2569.620 Y 170.610 I-263.752 J  75.587
G2 X2558.430 Y 147.960 I-158.937 J  64.432
G2 X2546.060 Y 131.280 I -82.376 J  48.164
G2 X2532.870 Y 121.050 I -36.456 J  33.386
G2 X2519.260 Y 117.610 I -13.801 J  25.958
G2 X2505.660 Y 121.050 I   0.201 J  29.398
G2 X2492.460 Y 131.280 I  23.247 J  43.627
G2 X2480.090 Y 147.960 I  70.006 J  64.844
G2 X2468.900 Y 170.610 I  79.203 J  53.219
G2 X2459.240 Y 198.540 I 156.647 J  69.814
G2 X2451.410 Y 230.890 I 376.932 J 108.355
G2 X2445.640 Y 266.680 I 497.151 J  98.510
F150
G1 Z  -3.000
F400
G2 X2442.100 Y 304.820 I 593.345 J  74.306
G2 X2440.910 Y 344.160 I 647.318 J  39.269
G2 X2442.100 Y 383.500 I 648.508 J   0.071
G2 X2445.640 Y 421.640 I 596.885 J -36.166
G2 X2451.410 Y 457.430 I 502.921 J -62.720
G2 X2459.240 Y 489.780 I 384.762 J -76.005
G2 X2468.900 Y 517.700 I 263.746 J -75.622
G2 X2480.090 Y 540.360 I 158.951 J -64.400
G2 X2492.460 Y 557.050 I  82.391 J -48.136
G2 X2505.660 Y 567.270 I  36.429 J -33.416
G2 X2519.260 Y 570.710 I  13.801 J -25.958
G2 X2532.870 Y 567.270 I  -0.191 J -29.398
G2 X2546.060 Y 557.050 I -23.248 J -43.626
G2 X2558.430 Y 540.360 I -70.021 J -64.826
G2 X2569.620 Y 517.700 I-147.761 J -87.060
G2 X2579.280 Y 489.780 I-254.086 J-103.542
G2 X2587.110 Y 457.430 I-376.932 J-108.355
G2 X2592.880 Y 421.640 I-497.151 J -98.510
G2 X2596.420 Y 383.500 I-593.345 J -74.306
G2 X2597.610 Y 344.160 I-647.318 J -39.269
G2 X2596.420 Y 304.820 I-648.508 J  -0.071
G2 X2592.880 Y 266.680 I-596.885 J  36.166
G2 X2587.110 Y 230.890 I-502.921 J  62.720
G2 X2579.280 Y 198.540 I-384.762 J  76.005
G2 X2569.620 Y 170.610 I-263.752 J  75.587
G2 X2558.430 Y 147.960 I-158.937 J  64.432
G2 X2546.060 Y 131.280 I -82.376 J  48.164
G2 X2532.870 Y 121.050 I -36.456 J  33.386
G2 X2519.260 Y 117.610 I -13.801 J  25.958
G2 X2505.660 Y 121.050 I   0.201 J  29.398
G2 X2492.460 Y 131.280 I  23.247 J  43.627
G2 X2480.090 Y 147.960 I  70.006 J  64.844
G2 X2468.900 Y 170.610 I  79.203 J  53.219
G2 X2459.240 Y 198.540 I 156.647 J  69.814
G2 X2451.410 Y 230.890 I 376.932 J 108.355
G2 X2445.640 Y 266.680 I 497.151 J  98.510
F150
G1 Z   3.000
G0 Z  15.000 
M9 M5

(* SHAPE Nr: 8 *)
G0 X2224.500 Y 194.830
M3 M8
G0 Z   3.000 
G1 Z  -1.500
F400
G2 X2220.960 Y 232.970 I 593.345 J  74.306
G2 X2219.770 Y 272.310 I 647.318 J  39.269
G2 X2220.960 Y 311.650 I 648.508 J   0.071
G2 X2224.500 Y 349.790 I 596.885 J -36.166
G2 X2230.270 Y 385.580 I 502.921 J -62.720
G2 X2238.100 Y 417.930 I 384.762 J -76.005
G2 X2247.760 Y 445.850 I 263.746 J -75.622
G2 X2258.950 Y 468.510 I 158.951 J -64.400
G2 X2271.320 Y 485.200 I  82.391 J -48.136
G2 X2284.520 Y 495.420 I  36.429 J -33.416
G2 X2298.120 Y 498.860 I  13.801 J -25.958
G2 X2311.730 Y 495.420 I  -0.191 J -29.398
G2 X2324.920 Y 485.200 I -23.248 J -43.626
G2 X2337.290 Y 468.510 I -70.021 J -64.826
G2 X2348.480 Y 445.850 I-147.761 J -87.060
G2 X2358.140 Y 417.930 I-254.086 J-103.542
G2 X2365.970 Y 385.580 I-376.932 J-108.355
G2 X2371.740 Y 349.790 I-497.151 J -98.510
G2 X2375.280 Y 311.650 I-593.345 J -74.306
G2 X2376.470 Y 272.310 I-647.318 J -39.269
G2 X2375.280 Y 232.970 I-648.508 J  -0.071
G2 X2371.740 Y 194.830 I-596.885 J  36.166
G2 X2365.970 Y 159.040 I-502.921 J  62.720
G2 X2358.140 Y 126.690 I-384.762 J  76.005
G2 X2348.480 Y  98.760 I-263.752 J  75.587
G2 X2337.290 Y  76.110 I-158.937 J  64.432
G2 X2324.920 Y  59.430 I -82.376 J  48.164
G2 X2311.730 Y  49.200 I -36.456 J  33.386
G2 X2298.120 Y  45.760 I -13.801 J  25.958
G2 X2284.520 Y  49.200 I   0.201 J  29.398
G2 X2271.320 Y  59.430 I  23.247 J  43.627
G2 X2258.950 Y  76.110 I  70.006 J  64.844
G2 X2247.760 Y  98.760 I  79.203 J  53.219
G2 X2238.100 Y 126.690 I 156.647 J  69.814
G2 X2230.270 Y 159.040 I 376.932 J 108.355
G2 X2224.500 Y 194.830 I 497.151 J  98.510
F150
G1 Z  -3.000
F400
G2 X2220.960 Y 232.970 I 593.345 J  74.306
G2 X2219.770 Y 272.310 I 647.318 J  39.269
G2 X2220.960 Y 311.650 I 648.508 J   0.071
G2 X2224.500 Y 349.790 I 596.885 J -36.166
G2 X2230.270 Y 385.580 I 502.921 J -62.720
G2 X2238.100 Y 417.930 I 384.762 J -76.005
G2 X2247.760 Y 445.850 I 263.746 J -75.622
G2 X2258.950 Y 468.510 I 158.951 J -64.400
G2 X2271.320 Y 485.200 I  82.391 J -48.136
G2 X2284.520 Y 495.420 I  36.429 J -33.416
G2 X2298.120 Y 498.860 I  13.801 J -25.958
G2 X2311.730 Y 495.420 I  -0.191 J -29.398
G2 X2324.920 Y 485.200 I -23.248 J -43.626
G2 X2337.290 Y 468.510 I -70.021 J -64.826
G2 X2348.480 Y 445.850 I-147.761 J -87.060
G2 X2358.140 Y 417.930 I-254.086 J-103.542
G2 X2365.970 Y 385.580 I-376.932 J-108.355
G2 X2371.740 Y 349.790 I-497.151 J -98.510
G2 X2375.280 Y 311.650 I-593.345 J -74.306
G2 X2376.470 Y 272.310 I-647.318 J -39.269
G2 X2375.280 Y 232.970 I-648.508 J  -0.071
G2 X2371.740 Y 194.830 I-596.885 J  36.166
G2 X2365.970 Y 159.040 I-502.921 J  62.720
G2 X2358.140 Y 126.690 I-384.762 J  76.005
G2 X2348.480 Y  98.760 I-263.752 J  75.587
G2 X2337.290 Y  76.110 I-158.937 J  64.432
G2 X2324.920 Y  59.430 I -82.376 J  48.164
G2 X2311.730 Y  49.200 I -36.456 J  33.386
G2 X2298.120 Y  45.760 I -13.801 J  25.958
G2 X2284.520 Y  49.200 I   0.201 J  29.398
G2 X2271.320 Y  59.430 I  23.247 J  43.627
G2 X2258.950 Y  76.110 I  70.006 J  64.844
G2 X2247.760 Y  98.760 I  79.203 J  53.219
G2 X2238.100 Y 126.690 I 156.647 J  69.814
G2 X2230.270 Y 159.040 I 376.932 J 108.355
G2 X2224.500 Y 194.830 I 497.151 J  98.510
F150
G1 Z   3.000
G0 Z  15.000 
M9 M5

(* SHAPE Nr: 9 *)
G0 X1413.160 Y 431.390
M3 M8
G0 Z   3.000 
G1 Z  -1.500
F400
G2 X1409.720 Y 445.000 I  25.958 J  13.801
G2 X1413.160 Y 458.600 I  29.398 J  -0.201
G2 X1423.390 Y 471.800 I  43.627 J -23.247
G2 X1440.070 Y 484.170 I  64.843 J -70.004
G2 X1462.720 Y 495.360 I  53.219 J -79.203
G2 X1490.650 Y 505.020 I  69.814 J-156.647
G2 X1523.000 Y 512.850 I 108.355 J-376.932
G2 X1558.790 Y 518.620 I  98.510 J-497.151
G2 X1596.930 Y 522.160 I  74.306 J-593.345
G2 X1636.270 Y 523.350 I  39.269 J-647.318
G2 X1675.610 Y 522.160 I   0.071 J-648.508
G2 X1713.750 Y 518.620 I -36.166 J-596.885
G2 X1749.540 Y 512.850 I -62.720 J-502.921
G2 X1781.890 Y 505.020 I -76.005 J-384.762
G2 X1809.810 Y 495.360 I -75.622 J-263.746
G2 X1832.470 Y 484.170 I -64.400 J-158.951
G2 X1849.160 Y 471.800 I -48.136 J -82.391
G2 X1859.380 Y 458.600 I -33.416 J -36.429
G2 X1862.820 Y 445.000 I -25.958 J -13.801
G2 X1859.380 Y 431.390 I -29.398 J   0.191
G2 X1849.160 Y 418.200 I -43.626 J  23.248
G2 X1832.470 Y 405.830 I -64.826 J  70.021
G2 X1809.810 Y 394.640 I -87.060 J 147.761
G2 X1781.890 Y 384.980 I-103.542 J 254.086
G2 X1749.540 Y 377.150 I-108.355 J 376.932
G2 X1713.750 Y 371.380 I -98.510 J 497.151
G2 X1675.610 Y 367.840 I -74.306 J 593.345
G2 X1636.270 Y 366.650 I -39.269 J 647.318
G2 X1596.930 Y 367.840 I  -0.071 J 648.508
G2 X1558.790 Y 371.380 I  36.166 J 596.885
G2 X1523.000 Y 377.150 I  62.720 J 502.921
G2 X1490.650 Y 384.980 I  76.005 J 384.762
G2 X1462.720 Y 394.640 I  75.587 J 263.752
G2 X1440.070 Y 405.830 I  64.432 J 158.937
G2 X1423.390 Y 418.200 I  48.163 J  82.374
G2 X1413.160 Y 431.390 I  33.386 J  36.456
F150
G1 Z  -3.000
F400
G2 X1409.720 Y 445.000 I  25.958 J  13.801
G2 X1413.160 Y 458.600 I  29.398 J  -0.201
G2 X1423.390 Y 471.800 I  43.627 J -23.247
G2 X1440.070 Y 484.170 I  64.843 J -70.004
G2 X1462.720 Y 495.360 I  53.219 J -79.203
G2 X1490.650 Y 505.020 I  69.814 J-156.647
G2 X1523.000 Y 512.850 I 108.355 J-376.932
G2 X1558.790 Y 518.620 I  98.510 J-497.151
G2 X1596.930 Y 522.160 I  74.306 J-593.345
G2 X1636.270 Y 523.350 I  39.269 J-647.318
G2 X1675.610 Y 522.160 I   0.071 J-648.508
G2 X1713.750 Y 518.620 I -36.166 J-596.885
G2 X1749.540 Y 512.850 I -62.720 J-502.921
G2 X1781.890 Y 505.020 I -76.005 J-384.762
G2 X1809.810 Y 495.360 I -75.622 J-263.746
G2 X1832.470 Y 484.170 I -64.400 J-158.951
G2 X1849.160 Y 471.800 I -48.136 J -82.391
G2 X1859.380 Y 458.600 I -33.416 J -36.429
G2 X1862.820 Y 445.000 I -25.958 J -13.801
G2 X1859.380 Y 431.390 I -29.398 J   0.191
G2 X1849.160 Y 418.200 I -43.626 J  23.248
G2 X1832.470 Y 405.830 I -64.826 J  70.021
G2 X1809.810 Y 394.640 I -87.060 J 147.761
G2 X1781.890 Y 384.980 I-103.542 J 254.086
G2 X1749.540 Y 377.150 I-108.355 J 376.932
G2 X1713.750 Y 371.380 I -98.510 J 497.151
G2 X1675.610 Y 367.840 I -74.306 J 593.345
G2 X1636.270 Y 366.650 I -39.269 J 647.318
G2 X1596.930 Y 367.840 I  -0.071 J 648.508
G2 X1558.790 Y 371.380 I  36.166 J 596.885
G2 X1523.000 Y 377.150 I  62.720 J 502.921
G2 X1490.650 Y 384.980 I  76.005 J 384.762
G2 X1462.720 Y 394.640 I  75.587 J 263.752
G2 X1440.070 Y 405.830 I  64.432 J 158.937
G2 X1423.390 Y 418.200 I  48.163 J  82.374
G2 X1413.160 Y 431.390 I  33.386 J  36.456
F150
G1 Z   3.000
G0 Z  15.000 
M9 M5

(* SHAPE Nr: 10 *)
G0 X1522.060 Y 125.000
M3 M8
G0 Z   3.000 
G1 Z  -1.500
F400
G2 X1525.500 Y 138.600 I  29.398 J  -0.201
G2 X1535.730 Y 151.800 I  43.627 J -23.247
G2 X1552.410 Y 164.170 I  64.843 J -70.004
G2 X1575.060 Y 175.360 I  53.219 J -79.203
G2 X1602.990 Y 185.020 I  69.814 J-156.647
G2 X1635.340 Y 192.850 I 108.355 J-376.932
G2 X1671.130 Y 198.620 I  98.510 J-497.151
G2 X1709.270 Y 202.160 I  74.306 J-593.345
G2 X1748.610 Y 203.350 I  39.269 J-647.318
G2 X1787.950 Y 202.160 I   0.071 J-648.508
G2 X1826.090 Y 198.620 I -36.166 J-596.885
G2 X1861.880 Y 192.850 I -62.720 J-502.921
G2 X1894.230 Y 185.020 I -76.005 J-384.762
G2 X1922.150 Y 175.360 I -75.622 J-263.746
G2 X1944.810 Y 164.170 I -64.400 J-158.951
G2 X1961.500 Y 151.800 I -48.136 J -82.391
G2 X1971.720 Y 138.600 I -33.416 J -36.429
G2 X1975.160 Y 125.000 I -25.958 J -13.801
G2 X1971.720 Y 111.390 I -29.398 J   0.191
G2 X1961.500 Y  98.200 I -43.626 J  23.248
G2 X1944.810 Y  85.830 I -64.826 J  70.021
G2 X1922.150 Y  74.640 I -87.060 J 147.761
G2 X1894.230 Y  64.980 I-103.542 J 254.086
G2 X1861.880 Y  57.150 I-108.355 J 376.932
G2 X1826.090 Y  51.380 I -98.510 J 497.151
G2 X1787.950 Y  47.840 I -74.306 J 593.345
G2 X1748.610 Y  46.650 I -39.269 J 647.318
G2 X1709.270 Y  47.840 I  -0.071 J 648.508
G2 X1671.130 Y  51.380 I  36.166 J 596.885
G2 X1635.340 Y  57.150 I  62.720 J 502.921
G2 X1602.990 Y  64.980 I  76.005 J 384.762
G2 X1575.060 Y  74.640 I  75.587 J 263.752
G2 X1552.410 Y  85.830 I  64.432 J 158.937
G2 X1535.730 Y  98.200 I  48.163 J  82.374
G2 X1525.500 Y 111.390 I  33.386 J  36.456
G2 X1522.060 Y 125.000 I  25.958 J  13.801
F150
G1 Z  -3.000
F400
G2 X1525.500 Y 138.600 I  29.398 J  -0.201
G2 X1535.730 Y 151.800 I  43.627 J -23.247
G2 X1552.410 Y 164.170 I  64.843 J -70.004
G2 X1575.060 Y 175.360 I  53.219 J -79.203
G2 X1602.990 Y 185.020 I  69.814 J-156.647
G2 X1635.340 Y 192.850 I 108.355 J-376.932
G2 X1671.130 Y 198.620 I  98.510 J-497.151
G2 X1709.270 Y 202.160 I  74.306 J-593.345
G2 X1748.610 Y 203.350 I  39.269 J-647.318
G2 X1787.950 Y 202.160 I   0.071 J-648.508
G2 X1826.090 Y 198.620 I -36.166 J-596.885
G2 X1861.880 Y 192.850 I -62.720 J-502.921
G2 X1894.230 Y 185.020 I -76.005 J-384.762
G2 X1922.150 Y 175.360 I -75.622 J-263.746
G2 X1944.810 Y 164.170 I -64.400 J-158.951
G2 X1961.500 Y 151.800 I -48.136 J -82.391
G2 X1971.720 Y 138.600 I -33.416 J -36.429
G2 X1975.160 Y 125.000 I -25.958 J -13.801
G2 X1971.720 Y 111.390 I -29.398 J   0.191
G2 X1961.500 Y  98.200 I -43.626 J  23.248
G2 X1944.810 Y  85.830 I -64.826 J  70.021
G2 X1922.150 Y  74.640 I -87.060 J 147.761
G2 X1894.230 Y  64.980 I-103.542 J 254.086
G2 X1861.880 Y  57.150 I-108.355 J 376.932
G2 X1826.090 Y  51.380 I -98.510 J 497.151
G2 X1787.950 Y  47.840 I -74.306 J 593.345
G2 X1748.610 Y  46.650 I -39.269 J 647.318
G2 X1709.270 Y  47.840 I  -0.071 J 648.508
G2 X1671.130 Y  51.380 I  36.166 J 596.885
G2 X1635.340 Y  57.150 I  62.720 J 502.921
G2 X1602.990 Y  64.980 I  76.005 J 384.762
G2 X1575.060 Y  74.640 I  75.587 J 263.752
G2 X1552.410 Y  85.830 I  64.432 J 158.937
G2 X1535.730 Y  98.200 I  48.163 J  82.374
G2 X1525.500 Y 111.390 I  33.386 J  36.456
G2 X1522.060 Y 125.000 I  25.958 J  13.801
F150
G1 Z   3.000
G0 Z  15.000 
M9 M5

(*** LAYER: BORDER_D0_T132_RK1_A0_W0_EM1_RI1_ID0021 ***)

(* SHAPE Nr: 11 *)
G0 X  67.540 Y 129.600
M3 M8
G0 Z   3.000 
G1 Z  -1.500
F400
G2 X  42.950 Y 143.560 I  75.074 J 160.877
G2 X  24.830 Y 159.000 I  59.225 J  87.858
G2 X  13.740 Y 175.460 I  44.717 J  42.094
G2 X  10.000 Y 192.430 I  37.487 J  17.159
G2 X  13.740 Y 209.400 I  41.227 J  -0.189
G2 X  24.830 Y 225.860 I  55.807 J -25.634
G2 X  42.950 Y 241.300 I  77.344 J -72.417
G2 X  67.540 Y 255.260 I  99.664 J-146.917
G2 X  97.850 Y 267.300 I 115.619 J-246.893
G2 X 132.970 Y 277.070 I 119.400 J-361.196
G2 X 171.820 Y 284.280 I 107.781 J-472.487
G2 X 213.230 Y 288.680 I  80.598 J-561.472
G2 X 255.940 Y 290.170 I  42.711 J-611.416
G2 X 298.650 Y 288.680 I  -0.001 J-612.906
G2 X 340.060 Y 284.280 I -39.188 J-565.872
G2 X 378.910 Y 277.070 I -68.931 J-479.697
G2 X 414.030 Y 267.300 I -84.280 J-370.966
G2 X 444.340 Y 255.260 I -85.309 J-258.933
G2 X 468.930 Y 241.300 I -75.074 J-160.877
G2 X 487.050 Y 225.860 I -59.224 J -87.857
G2 X 498.140 Y 209.400 I -44.717 J -42.094
G2 X 501.880 Y 192.430 I -37.487 J -17.159
G2 X 498.140 Y 175.460 I -41.227 J   0.189
G2 X 487.050 Y 159.000 I -55.807 J  25.634
G2 X 468.930 Y 143.560 I -77.345 J  72.418
G2 X 444.340 Y 129.600 I -99.664 J 146.917
G2 X 414.030 Y 117.560 I-115.619 J 246.893
G2 X 378.910 Y 107.790 I-119.400 J 361.196
G2 X 340.060 Y 100.580 I-107.781 J 472.487
G2 X 298.650 Y  96.180 I -80.598 J 561.472
G2 X 255.940 Y  94.690 I -42.712 J 611.451
G2 X 213.230 Y  96.180 I   0.001 J 612.906
G2 X 171.820 Y 100.580 I  39.188 J 565.872
G2 X 132.970 Y 107.790 I  68.931 J 479.697
G2 X  97.850 Y 117.560 I  84.280 J 370.966
G2 X  67.540 Y 129.600 I  85.309 J 258.933
F150
G1 Z  -3.000
F400
G2 X  42.950 Y 143.560 I  75.074 J 160.877
G2 X  24.830 Y 159.000 I  59.225 J  87.858
G2 X  13.740 Y 175.460 I  44.717 J  42.094
G2 X  10.000 Y 192.430 I  37.487 J  17.159
G2 X  13.740 Y 209.400 I  41.227 J  -0.189
G2 X  24.830 Y 225.860 I  55.807 J -25.634
G2 X  42.950 Y 241.300 I  77.344 J -72.417
G2 X  67.540 Y 255.260 I  99.664 J-146.917
G2 X  97.850 Y 267.300 I 115.619 J-246.893
G2 X 132.970 Y 277.070 I 119.400 J-361.196
G2 X 171.820 Y 284.280 I 107.781 J-472.487
G2 X 213.230 Y 288.680 I  80.598 J-561.472
G2 X 255.940 Y 290.170 I  42.711 J-611.416
G2 X 298.650 Y 288.680 I  -0.001 J-612.906
G2 X 340.060 Y 284.280 I -39.188 J-565.872
G2 X 378.910 Y 277.070 I -68.931 J-479.697
G2 X 414.030 Y 267.300 I -84.280 J-370.966
G2 X 444.340 Y 255.260 I -85.309 J-258.933
G2 X 468.930 Y 241.300 I -75.074 J-160.877
G2 X 487.050 Y 225.860 I -59.224 J -87.857
G2 X 498.140 Y 209.400 I -44.717 J -42.094
G2 X 501.880 Y 192.430 I -37.487 J -17.159
G2 X 498.140 Y 175.460 I -41.227 J   0.189
G2 X 487.050 Y 159.000 I -55.807 J  25.634
G2 X 468.930 Y 143.560 I -77.345 J  72.418
G2 X 444.340 Y 129.600 I -99.664 J 146.917
G2 X 414.030 Y 117.560 I-115.619 J 246.893
G2 X 378.910 Y 107.790 I-119.400 J 361.196
G2 X 340.060 Y 100.580 I-107.781 J 472.487
G2 X 298.650 Y  96.180 I -80.598 J 561.472
G2 X 255.940 Y  94.690 I -42.712 J 611.451
G2 X 213.230 Y  96.180 I   0.001 J 612.906
G2 X 171.820 Y 100.580 I  39.188 J 565.872
G2 X 132.970 Y 107.790 I  68.931 J 479.697
G2 X  97.850 Y 117.560 I  84.280 J 370.966
G2 X  67.540 Y 129.600 I  85.309 J 258.933
F150
G1 Z   3.000
G0 Z  15.000 
M9 M5

(* SHAPE Nr: 13 *)
G0 X  97.850 Y 327.740
M3 M8
G0 Z   3.000 
G1 Z  -1.500
F400
G2 X  67.540 Y 339.780 I  85.309 J 258.933
G2 X  42.950 Y 353.740 I  75.074 J 160.877
G2 X  24.830 Y 369.180 I  59.224 J  87.857
G2 X  13.740 Y 385.640 I  44.717 J  42.094
G2 X  10.000 Y 402.610 I  37.487 J  17.159
G2 X  13.740 Y 419.580 I  41.227 J  -0.189
G2 X  24.830 Y 436.040 I  55.807 J -25.634
G2 X  42.950 Y 451.480 I  77.345 J -72.418
G2 X  67.540 Y 465.440 I  99.664 J-146.917
G2 X  97.850 Y 477.480 I 115.619 J-246.893
G2 X 132.970 Y 487.250 I 119.400 J-361.196
G2 X 171.820 Y 494.460 I 107.781 J-472.487
G2 X 213.230 Y 498.860 I  80.598 J-561.472
G2 X 255.940 Y 500.350 I  42.711 J-611.416
G2 X 298.650 Y 498.860 I  -0.001 J-612.906
G2 X 340.060 Y 494.460 I -39.188 J-565.872
G2 X 378.910 Y 487.250 I -68.931 J-479.697
G2 X 414.030 Y 477.480 I -84.280 J-370.966
G2 X 444.340 Y 465.440 I -85.309 J-258.933
G2 X 468.930 Y 451.480 I -75.074 J-160.877
G2 X 487.050 Y 436.040 I -59.224 J -87.857
G2 X 498.140 Y 419.580 I -44.717 J -42.094
G2 X 501.880 Y 402.610 I -37.487 J -17.159
G2 X 498.140 Y 385.640 I -41.227 J   0.189
G2 X 487.050 Y 369.180 I -55.807 J  25.634
G2 X 468.930 Y 353.740 I -77.345 J  72.418
G2 X 444.340 Y 339.780 I -99.664 J 146.917
G2 X 414.030 Y 327.740 I-115.619 J 246.893
G2 X 378.910 Y 317.970 I-119.400 J 361.196
G2 X 340.060 Y 310.760 I-107.781 J 472.487
G2 X 298.650 Y 306.360 I -80.598 J 561.472
G2 X 255.940 Y 304.870 I -42.711 J 611.416
G2 X 213.230 Y 306.360 I   0.001 J 612.906
G2 X 171.820 Y 310.760 I  39.188 J 565.872
G2 X 132.970 Y 317.970 I  68.931 J 479.697
G2 X  97.850 Y 327.740 I  84.280 J 370.966
F150
G1 Z  -3.000
F400
G2 X  67.540 Y 339.780 I  85.309 J 258.933
G2 X  42.950 Y 353.740 I  75.074 J 160.877
G2 X  24.830 Y 369.180 I  59.224 J  87.857
G2 X  13.740 Y 385.640 I  44.717 J  42.094
G2 X  10.000 Y 402.610 I  37.487 J  17.159
G2 X  13.740 Y 419.580 I  41.227 J  -0.189
G2 X  24.830 Y 436.040 I  55.807 J -25.634
G2 X  42.950 Y 451.480 I  77.345 J -72.418
G2 X  67.540 Y 465.440 I  99.664 J-146.917
G2 X  97.850 Y 477.480 I 115.619 J-246.893
G2 X 132.970 Y 487.250 I 119.400 J-361.196
G2 X 171.820 Y 494.460 I 107.781 J-472.487
G2 X 213.230 Y 498.860 I  80.598 J-561.472
G2 X 255.940 Y 500.350 I  42.711 J-611.416
G2 X 298.650 Y 498.860 I  -0.001 J-612.906
G2 X 340.060 Y 494.460 I -39.188 J-565.872
G2 X 378.910 Y 487.250 I -68.931 J-479.697
G2 X 414.030 Y 477.480 I -84.280 J-370.966
G2 X 444.340 Y 465.440 I -85.309 J-258.933
G2 X 468.930 Y 451.480 I -75.074 J-160.877
G2 X 487.050 Y 436.040 I -59.224 J -87.857
G2 X 498.140 Y 419.580 I -44.717 J -42.094
G2 X 501.880 Y 402.610 I -37.487 J -17.159
G2 X 498.140 Y 385.640 I -41.227 J   0.189
G2 X 487.050 Y 369.180 I -55.807 J  25.634
G2 X 468.930 Y 353.740 I -77.345 J  72.418
G2 X 444.340 Y 339.780 I -99.664 J 146.917
G2 X 414.030 Y 327.740 I-115.619 J 246.893
G2 X 378.910 Y 317.970 I-119.400 J 361.196
G2 X 340.060 Y 310.760 I-107.781 J 472.487
G2 X 298.650 Y 306.360 I -80.598 J 561.472
G2 X 255.940 Y 304.870 I -42.711 J 611.416
G2 X 213.230 Y 306.360 I   0.001 J 612.906
G2 X 171.820 Y 310.760 I  39.188 J 565.872
G2 X 132.970 Y 317.970 I  68.931 J 479.697
G2 X  97.850 Y 327.740 I  84.280 J 370.966
F150
G1 Z   3.000
G0 Z  15.000 
M9 M5

(* SHAPE Nr: 16 *)
G0 X 874.640 Y 369.990
M3 M8
G0 Z   3.000 
G1 Z  -1.500
F400
G2 X 870.900 Y 386.960 I  37.487 J  17.159
G2 X 874.640 Y 403.930 I  41.227 J  -0.189
G2 X 885.730 Y 420.390 I  55.807 J -25.634
G2 X 903.850 Y 435.830 I  77.344 J -72.417
G2 X 928.440 Y 449.790 I  99.664 J-146.917
G2 X 958.750 Y 461.830 I 115.619 J-246.893
G2 X 993.870 Y 471.600 I 119.400 J-361.196
G2 X1032.720 Y 478.810 I 107.781 J-472.487
G2 X1074.130 Y 483.210 I  80.598 J-561.472
G2 X1116.840 Y 484.700 I  42.711 J-611.416
G2 X1159.550 Y 483.210 I  -0.001 J-612.906
G2 X1200.960 Y 478.810 I -39.188 J-565.872
G2 X1239.810 Y 471.600 I -68.931 J-479.697
G2 X1274.930 Y 461.830 I -84.280 J-370.966
G2 X1305.240 Y 449.790 I -85.309 J-258.933
G2 X1329.830 Y 435.830 I -75.074 J-160.877
G2 X1347.950 Y 420.390 I -59.224 J -87.857
G2 X1359.040 Y 403.930 I -44.717 J -42.094
G2 X1362.780 Y 386.960 I -37.487 J -17.159
G2 X1359.040 Y 369.990 I -41.227 J   0.189
G2 X1347.950 Y 353.530 I -55.807 J  25.634
G2 X1329.830 Y 338.090 I -77.345 J  72.418
G2 X1305.240 Y 324.130 I -99.664 J 146.917
G2 X1274.930 Y 312.090 I-115.619 J 246.893
G2 X1239.810 Y 302.320 I-119.400 J 361.196
G2 X1200.960 Y 295.110 I-107.781 J 472.487
G2 X1159.550 Y 290.710 I -80.598 J 561.472
G2 X1116.840 Y 289.220 I -42.711 J 611.416
G2 X1074.130 Y 290.710 I   0.001 J 612.906
G2 X1032.720 Y 295.110 I  39.188 J 565.872
G2 X 993.870 Y 302.320 I  68.931 J 479.697
G2 X 958.750 Y 312.090 I  84.280 J 370.966
G2 X 928.440 Y 324.130 I  85.309 J 258.933
G2 X 903.850 Y 338.090 I  75.074 J 160.877
G2 X 885.730 Y 353.530 I  59.225 J  87.858
G2 X 874.640 Y 369.990 I  44.717 J  42.094
F150
G1 Z  -3.000
F400
G2 X 870.900 Y 386.960 I  37.487 J  17.159
G2 X 874.640 Y 403.930 I  41.227 J  -0.189
G2 X 885.730 Y 420.390 I  55.807 J -25.634
G2 X 903.850 Y 435.830 I  77.344 J -72.417
G2 X 928.440 Y 449.790 I  99.664 J-146.917
G2 X 958.750 Y 461.830 I 115.619 J-246.893
G2 X 993.870 Y 471.600 I 119.400 J-361.196
G2 X1032.720 Y 478.810 I 107.781 J-472.487
G2 X1074.130 Y 483.210 I  80.598 J-561.472
G2 X1116.840 Y 484.700 I  42.711 J-611.416
G2 X1159.550 Y 483.210 I  -0.001 J-612.906
G2 X1200.960 Y 478.810 I -39.188 J-565.872
G2 X1239.810 Y 471.600 I -68.931 J-479.697
G2 X1274.930 Y 461.830 I -84.280 J-370.966
G2 X1305.240 Y 449.790 I -85.309 J-258.933
G2 X1329.830 Y 435.830 I -75.074 J-160.877
G2 X1347.950 Y 420.390 I -59.224 J -87.857
G2 X1359.040 Y 403.930 I -44.717 J -42.094
G2 X1362.780 Y 386.960 I -37.487 J -17.159
G2 X1359.040 Y 369.990 I -41.227 J   0.189
G2 X1347.950 Y 353.530 I -55.807 J  25.634
G2 X1329.830 Y 338.090 I -77.345 J  72.418
G2 X1305.240 Y 324.130 I -99.664 J 146.917
G2 X1274.930 Y 312.090 I-115.619 J 246.893
G2 X1239.810 Y 302.320 I-119.400 J 361.196
G2 X1200.960 Y 295.110 I-107.781 J 472.487
G2 X1159.550 Y 290.710 I -80.598 J 561.472
G2 X1116.840 Y 289.220 I -42.711 J 611.416
G2 X1074.130 Y 290.710 I   0.001 J 612.906
G2 X1032.720 Y 295.110 I  39.188 J 565.872
G2 X 993.870 Y 302.320 I  68.931 J 479.697
G2 X 958.750 Y 312.090 I  84.280 J 370.966
G2 X 928.440 Y 324.130 I  85.309 J 258.933
G2 X 903.850 Y 338.090 I  75.074 J 160.877
G2 X 885.730 Y 353.530 I  59.225 J  87.858
G2 X 874.640 Y 369.990 I  44.717 J  42.094
F150
G1 Z   3.000
G0 Z  15.000 
M9 M5

(* SHAPE Nr: 18 *)
G0 X 955.440 Y 179.650
M3 M8
G0 Z   3.000 
G1 Z  -1.500
F400
G2 X 959.180 Y 196.620 I  41.227 J  -0.189
G2 X 970.270 Y 213.080 I  55.807 J -25.634
G2 X 988.390 Y 228.520 I  77.344 J -72.417
G2 X1012.980 Y 242.480 I  99.664 J-146.917
G2 X1043.290 Y 254.520 I 115.619 J-246.893
G2 X1078.410 Y 264.290 I 119.400 J-361.196
G2 X1117.260 Y 271.500 I 107.781 J-472.487
G2 X1158.670 Y 275.900 I  80.598 J-561.472
G2 X1201.380 Y 277.390 I  42.711 J-611.416
G2 X1244.090 Y 275.900 I  -0.001 J-612.906
G2 X1285.500 Y 271.500 I -39.188 J-565.872
G2 X1324.350 Y 264.290 I -68.931 J-479.697
G2 X1359.470 Y 254.520 I -84.280 J-370.966
G2 X1389.780 Y 242.480 I -85.309 J-258.933
G2 X1414.370 Y 228.520 I -75.074 J-160.877
G2 X1432.490 Y 213.080 I -59.224 J -87.857
G2 X1443.580 Y 196.620 I -44.717 J -42.094
G2 X1447.320 Y 179.650 I -37.487 J -17.159
G2 X1443.580 Y 162.680 I -41.227 J   0.189
G2 X1432.490 Y 146.220 I -55.807 J  25.634
G2 X1414.370 Y 130.780 I -77.345 J  72.418
G2 X1389.780 Y 116.820 I -99.664 J 146.917
G2 X1359.470 Y 104.780 I-115.619 J 246.893
G2 X1324.350 Y  95.010 I-119.400 J 361.196
G2 X1285.500 Y  87.800 I-107.781 J 472.487
G2 X1244.090 Y  83.400 I -80.598 J 561.472
G2 X1201.380 Y  81.910 I -42.712 J 611.451
G2 X1158.670 Y  83.400 I   0.002 J 612.941
G2 X1117.260 Y  87.800 I  39.188 J 565.872
G2 X1078.410 Y  95.010 I  68.931 J 479.697
G2 X1043.290 Y 104.780 I  84.280 J 370.966
G2 X1012.980 Y 116.820 I  85.309 J 258.933
G2 X 988.390 Y 130.780 I  75.074 J 160.877
G2 X 970.270 Y 146.220 I  59.224 J  87.857
G2 X 959.180 Y 162.680 I  44.717 J  42.094
G2 X 955.440 Y 179.650 I  37.487 J  17.159
F150
G1 Z  -3.000
F400
G2 X 959.180 Y 196.620 I  41.227 J  -0.189
G2 X 970.270 Y 213.080 I  55.807 J -25.634
G2 X 988.390 Y 228.520 I  77.344 J -72.417
G2 X1012.980 Y 242.480 I  99.664 J-146.917
G2 X1043.290 Y 254.520 I 115.619 J-246.893
G2 X1078.410 Y 264.290 I 119.400 J-361.196
G2 X1117.260 Y 271.500 I 107.781 J-472.487
G2 X1158.670 Y 275.900 I  80.598 J-561.472
G2 X1201.380 Y 277.390 I  42.711 J-611.416
G2 X1244.090 Y 275.900 I  -0.001 J-612.906
G2 X1285.500 Y 271.500 I -39.188 J-565.872
G2 X1324.350 Y 264.290 I -68.931 J-479.697
G2 X1359.470 Y 254.520 I -84.280 J-370.966
G2 X1389.780 Y 242.480 I -85.309 J-258.933
G2 X1414.370 Y 228.520 I -75.074 J-160.877
G2 X1432.490 Y 213.080 I -59.224 J -87.857
G2 X1443.580 Y 196.620 I -44.717 J -42.094
G2 X1447.320 Y 179.650 I -37.487 J -17.159
G2 X1443.580 Y 162.680 I -41.227 J   0.189
G2 X1432.490 Y 146.220 I -55.807 J  25.634
G2 X1414.370 Y 130.780 I -77.345 J  72.418
G2 X1389.780 Y 116.820 I -99.664 J 146.917
G2 X1359.470 Y 104.780 I-115.619 J 246.893
G2 X1324.350 Y  95.010 I-119.400 J 361.196
G2 X1285.500 Y  87.800 I-107.781 J 472.487
G2 X1244.090 Y  83.400 I -80.598 J 561.472
G2 X1201.380 Y  81.910 I -42.712 J 611.451
G2 X1158.670 Y  83.400 I   0.002 J 612.941
G2 X1117.260 Y  87.800 I  39.188 J 565.872
G2 X1078.410 Y  95.010 I  68.931 J 479.697
G2 X1043.290 Y 104.780 I  84.280 J 370.966
G2 X1012.980 Y 116.820 I  85.309 J 258.933
G2 X 988.390 Y 130.780 I  75.074 J 160.877
G2 X 970.270 Y 146.220 I  59.224 J  87.857
G2 X 959.180 Y 162.680 I  44.717 J  42.094
G2 X 955.440 Y 179.650 I  37.487 J  17.159
F150
G1 Z   3.000
G0 Z  15.000 
M9 M5

(* SHAPE Nr: 19 *)
G0 X 475.450 Y 107.740
M3 M8
G0 Z   3.000 
G1 Z  -1.500
F400
G2 X 479.190 Y 124.710 I  41.227 J  -0.189
G2 X 490.280 Y 141.170 I  55.807 J -25.634
G2 X 508.400 Y 156.610 I  77.345 J -72.418
G2 X 532.990 Y 170.570 I  99.664 J-146.917
G2 X 563.300 Y 182.610 I 115.619 J-246.893
G2 X 598.420 Y 192.380 I 119.400 J-361.196
G2 X 637.270 Y 199.590 I 107.781 J-472.487
G2 X 678.680 Y 203.990 I  80.598 J-561.472
G2 X 721.390 Y 205.480 I  42.711 J-611.416
G2 X 764.100 Y 203.990 I  -0.001 J-612.906
G2 X 805.510 Y 199.590 I -39.188 J-565.872
G2 X 844.360 Y 192.380 I -68.931 J-479.697
G2 X 879.480 Y 182.610 I -84.280 J-370.966
G2 X 909.790 Y 170.570 I -85.309 J-258.933
G2 X 934.380 Y 156.610 I -75.074 J-160.877
G2 X 952.500 Y 141.170 I -59.224 J -87.857
G2 X 963.590 Y 124.710 I -44.717 J -42.094
G2 X 967.330 Y 107.740 I -37.487 J -17.159
G2 X 963.590 Y  90.770 I -41.227 J   0.189
G2 X 952.500 Y  74.310 I -55.807 J  25.634
G2 X 934.380 Y  58.870 I -77.345 J  72.418
G2 X 909.790 Y  44.910 I -99.664 J 146.917
G2 X 879.480 Y  32.870 I-115.619 J 246.893
G2 X 844.360 Y  23.100 I-119.400 J 361.196
G2 X 805.510 Y  15.890 I-107.781 J 472.487
G2 X 764.100 Y  11.490 I -80.598 J 561.472
G2 X 721.390 Y  10.000 I -42.711 J 611.416
G2 X 678.680 Y  11.490 I   0.002 J 612.941
G2 X 637.270 Y  15.890 I  39.188 J 565.872
G2 X 598.420 Y  23.100 I  68.931 J 479.697
G2 X 563.300 Y  32.870 I  84.280 J 370.966
G2 X 532.990 Y  44.910 I  85.309 J 258.933
G2 X 508.400 Y  58.870 I  75.074 J 160.877
G2 X 490.280 Y  74.310 I  59.224 J  87.857
G2 X 479.190 Y  90.770 I  44.717 J  42.094
G2 X 475.450 Y 107.740 I  37.487 J  17.159
F150
G1 Z  -3.000
F400
G2 X 479.190 Y 124.710 I  41.227 J  -0.189
G2 X 490.280 Y 141.170 I  55.807 J -25.634
G2 X 508.400 Y 156.610 I  77.345 J -72.418
G2 X 532.990 Y 170.570 I  99.664 J-146.917
G2 X 563.300 Y 182.610 I 115.619 J-246.893
G2 X 598.420 Y 192.380 I 119.400 J-361.196
G2 X 637.270 Y 199.590 I 107.781 J-472.487
G2 X 678.680 Y 203.990 I  80.598 J-561.472
G2 X 721.390 Y 205.480 I  42.711 J-611.416
G2 X 764.100 Y 203.990 I  -0.001 J-612.906
G2 X 805.510 Y 199.590 I -39.188 J-565.872
G2 X 844.360 Y 192.380 I -68.931 J-479.697
G2 X 879.480 Y 182.610 I -84.280 J-370.966
G2 X 909.790 Y 170.570 I -85.309 J-258.933
G2 X 934.380 Y 156.610 I -75.074 J-160.877
G2 X 952.500 Y 141.170 I -59.224 J -87.857
G2 X 963.590 Y 124.710 I -44.717 J -42.094
G2 X 967.330 Y 107.740 I -37.487 J -17.159
G2 X 963.590 Y  90.770 I -41.227 J   0.189
G2 X 952.500 Y  74.310 I -55.807 J  25.634
G2 X 934.380 Y  58.870 I -77.345 J  72.418
G2 X 909.790 Y  44.910 I -99.664 J 146.917
G2 X 879.480 Y  32.870 I-115.619 J 246.893
G2 X 844.360 Y  23.100 I-119.400 J 361.196
G2 X 805.510 Y  15.890 I-107.781 J 472.487
G2 X 764.100 Y  11.490 I -80.598 J 561.472
G2 X 721.390 Y  10.000 I -42.711 J 611.416
G2 X 678.680 Y  11.490 I   0.002 J 612.941
G2 X 637.270 Y  15.890 I  39.188 J 565.872
G2 X 598.420 Y  23.100 I  68.931 J 479.697
G2 X 563.300 Y  32.870 I  84.280 J 370.966
G2 X 532.990 Y  44.910 I  85.309 J 258.933
G2 X 508.400 Y  58.870 I  75.074 J 160.877
G2 X 490.280 Y  74.310 I  59.224 J  87.857
G2 X 479.190 Y  90.770 I  44.717 J  42.094
G2 X 475.450 Y 107.740 I  37.487 J  17.159
F150
G1 Z   3.000
G0 Z  15.000 
M9 M5

(* SHAPE Nr: 28 *)
G0 X2599.670 Y1581.070
M3 M8
G0 Z   3.000 
G1 Z  -1.500
F400
G2 X2585.710 Y1605.660 I 146.913 J  99.662
G2 X2573.670 Y1635.970 I 246.893 J 115.619
G2 X2563.900 Y1671.090 I 361.196 J 119.400
G2 X2556.690 Y1709.940 I 472.487 J 107.781
G2 X2552.290 Y1751.350 I 561.472 J  80.598
G2 X2550.800 Y1794.060 I 611.416 J  42.711
G2 X2552.290 Y1836.770 I 612.941 J  -0.002
G2 X2556.690 Y1878.180 I 565.872 J -39.188
G2 X2563.900 Y1917.030 I 479.697 J -68.931
G2 X2573.670 Y1952.150 I 370.966 J -84.280
G2 X2585.710 Y1982.460 I 258.933 J -85.309
G2 X2599.670 Y2007.050 I 160.873 J -75.072
G2 X2615.110 Y2025.170 I  87.858 J -59.225
G2 X2631.570 Y2036.260 I  42.094 J -44.717
G2 X2648.540 Y2040.000 I  17.159 J -37.487
G2 X2665.510 Y2036.260 I  -0.189 J -41.227
G2 X2681.970 Y2025.170 I -25.634 J -55.807
G2 X2697.410 Y2007.050 I -72.418 J -77.345
G2 X2711.370 Y1982.460 I-146.917 J -99.664
G2 X2723.410 Y1952.150 I-246.893 J-115.619
G2 X2733.180 Y1917.030 I-361.196 J-119.400
G2 X2740.390 Y1878.180 I-472.487 J-107.781
G2 X2744.790 Y1836.770 I-561.472 J -80.598
G2 X2746.280 Y1794.060 I-611.416 J -42.711
G2 X2744.790 Y1751.350 I-612.906 J   0.001
G2 X2740.390 Y1709.940 I-565.872 J  39.188
G2 X2733.180 Y1671.090 I-479.697 J  68.931
G2 X2723.410 Y1635.970 I-370.966 J  84.280
G2 X2711.370 Y1605.660 I-258.933 J  85.309
G2 X2697.410 Y1581.070 I-160.877 J  75.074
G2 X2681.970 Y1562.950 I -87.857 J  59.224
G2 X2665.510 Y1551.860 I -42.094 J  44.717
G2 X2648.540 Y1548.120 I -17.159 J  37.487
G2 X2631.570 Y1551.860 I   0.189 J  41.227
G2 X2615.110 Y1562.950 I  25.634 J  55.807
G2 X2599.670 Y1581.070 I  72.418 J  77.345
F150
G1 Z  -3.000
F400
G2 X2585.710 Y1605.660 I 146.913 J  99.662
G2 X2573.670 Y1635.970 I 246.893 J 115.619
G2 X2563.900 Y1671.090 I 361.196 J 119.400
G2 X2556.690 Y1709.940 I 472.487 J 107.781
G2 X2552.290 Y1751.350 I 561.472 J  80.598
G2 X2550.800 Y1794.060 I 611.416 J  42.711
G2 X2552.290 Y1836.770 I 612.941 J  -0.002
G2 X2556.690 Y1878.180 I 565.872 J -39.188
G2 X2563.900 Y1917.030 I 479.697 J -68.931
G2 X2573.670 Y1952.150 I 370.966 J -84.280
G2 X2585.710 Y1982.460 I 258.933 J -85.309
G2 X2599.670 Y2007.050 I 160.873 J -75.072
G2 X2615.110 Y2025.170 I  87.858 J -59.225
G2 X2631.570 Y2036.260 I  42.094 J -44.717
G2 X2648.540 Y2040.000 I  17.159 J -37.487
G2 X2665.510 Y2036.260 I  -0.189 J -41.227
G2 X2681.970 Y2025.170 I -25.634 J -55.807
G2 X2697.410 Y2007.050 I -72.418 J -77.345
G2 X2711.370 Y1982.460 I-146.917 J -99.664
G2 X2723.410 Y1952.150 I-246.893 J-115.619
G2 X2733.180 Y1917.030 I-361.196 J-119.400
G2 X2740.390 Y1878.180 I-472.487 J-107.781
G2 X2744.790 Y1836.770 I-561.472 J -80.598
G2 X2746.280 Y1794.060 I-611.416 J -42.711
G2 X2744.790 Y1751.350 I-612.906 J   0.001
G2 X2740.390 Y1709.940 I-565.872 J  39.188
G2 X2733.180 Y1671.090 I-479.697 J  68.931
G2 X2723.410 Y1635.970 I-370.966 J  84.280
G2 X2711.370 Y1605.660 I-258.933 J  85.309
G2 X2697.410 Y1581.070 I-160.877 J  75.074
G2 X2681.970 Y1562.950 I -87.857 J  59.224
G2 X2665.510 Y1551.860 I -42.094 J  44.717
G2 X2648.540 Y1548.120 I -17.159 J  37.487
G2 X2631.570 Y1551.860 I   0.189 J  41.227
G2 X2615.110 Y1562.950 I  25.634 J  55.807
G2 X2599.670 Y1581.070 I  72.418 J  77.345
F150
G1 Z   3.000
G0 Z  15.000 
M9 M5

(* SHAPE Nr: 34 *)
G0 X2427.410 Y 260.040
M3 M8
G0 Z   3.000 
G1 Z  -1.500
F400
G2 X2423.010 Y 301.450 I 561.472 J  80.598
G2 X2421.520 Y 344.160 I 611.451 J  42.712
G2 X2423.010 Y 386.870 I 612.906 J  -0.001
G2 X2427.410 Y 428.280 I 565.872 J -39.188
G2 X2434.620 Y 467.130 I 479.697 J -68.931
G2 X2444.390 Y 502.250 I 370.966 J -84.280
G2 X2456.430 Y 532.560 I 258.933 J -85.309
G2 X2470.390 Y 557.150 I 160.873 J -75.072
G2 X2485.830 Y 575.270 I  87.858 J -59.225
G2 X2502.290 Y 586.360 I  42.094 J -44.717
G2 X2519.260 Y 590.100 I  17.159 J -37.487
G2 X2536.230 Y 586.360 I  -0.189 J -41.227
G2 X2552.690 Y 575.270 I -25.634 J -55.807
G2 X2568.130 Y 557.150 I -72.417 J -77.344
G2 X2582.090 Y 532.560 I-146.917 J -99.664
G2 X2594.130 Y 502.250 I-246.893 J-115.619
G2 X2603.900 Y 467.130 I-361.196 J-119.400
G2 X2611.110 Y 428.280 I-472.487 J-107.781
G2 X2615.510 Y 386.870 I-561.472 J -80.598
G2 X2617.000 Y 344.160 I-611.416 J -42.711
G2 X2615.510 Y 301.450 I-612.906 J   0.001
G2 X2611.110 Y 260.040 I-565.872 J  39.188
G2 X2603.900 Y 221.190 I-479.697 J  68.931
G2 X2594.130 Y 186.070 I-370.966 J  84.280
G2 X2582.090 Y 155.760 I-258.933 J  85.309
G2 X2568.130 Y 131.170 I-160.877 J  75.074
G2 X2552.690 Y 113.050 I -87.857 J  59.224
G2 X2536.230 Y 101.960 I -42.094 J  44.717
G2 X2519.260 Y  98.220 I -17.159 J  37.487
G2 X2502.290 Y 101.960 I   0.189 J  41.227
G2 X2485.830 Y 113.050 I  25.634 J  55.807
G2 X2470.390 Y 131.170 I  72.418 J  77.345
G2 X2456.430 Y 155.760 I 146.913 J  99.662
G2 X2444.390 Y 186.070 I 246.893 J 115.619
G2 X2434.620 Y 221.190 I 361.196 J 119.400
G2 X2427.410 Y 260.040 I 472.487 J 107.781
F150
G1 Z  -3.000
F400
G2 X2423.010 Y 301.450 I 561.472 J  80.598
G2 X2421.520 Y 344.160 I 611.451 J  42.712
G2 X2423.010 Y 386.870 I 612.906 J  -0.001
G2 X2427.410 Y 428.280 I 565.872 J -39.188
G2 X2434.620 Y 467.130 I 479.697 J -68.931
G2 X2444.390 Y 502.250 I 370.966 J -84.280
G2 X2456.430 Y 532.560 I 258.933 J -85.309
G2 X2470.390 Y 557.150 I 160.873 J -75.072
G2 X2485.830 Y 575.270 I  87.858 J -59.225
G2 X2502.290 Y 586.360 I  42.094 J -44.717
G2 X2519.260 Y 590.100 I  17.159 J -37.487
G2 X2536.230 Y 586.360 I  -0.189 J -41.227
G2 X2552.690 Y 575.270 I -25.634 J -55.807
G2 X2568.130 Y 557.150 I -72.417 J -77.344
G2 X2582.090 Y 532.560 I-146.917 J -99.664
G2 X2594.130 Y 502.250 I-246.893 J-115.619
G2 X2603.900 Y 467.130 I-361.196 J-119.400
G2 X2611.110 Y 428.280 I-472.487 J-107.781
G2 X2615.510 Y 386.870 I-561.472 J -80.598
G2 X2617.000 Y 344.160 I-611.416 J -42.711
G2 X2615.510 Y 301.450 I-612.906 J   0.001
G2 X2611.110 Y 260.040 I-565.872 J  39.188
G2 X2603.900 Y 221.190 I-479.697 J  68.931
G2 X2594.130 Y 186.070 I-370.966 J  84.280
G2 X2582.090 Y 155.760 I-258.933 J  85.309
G2 X2568.130 Y 131.170 I-160.877 J  75.074
G2 X2552.690 Y 113.050 I -87.857 J  59.224
G2 X2536.230 Y 101.960 I -42.094 J  44.717
G2 X2519.260 Y  98.220 I -17.159 J  37.487
G2 X2502.290 Y 101.960 I   0.189 J  41.227
G2 X2485.830 Y 113.050 I  25.634 J  55.807
G2 X2470.390 Y 131.170 I  72.418 J  77.345
G2 X2456.430 Y 155.760 I 146.913 J  99.662
G2 X2444.390 Y 186.070 I 246.893 J 115.619
G2 X2434.620 Y 221.190 I 361.196 J 119.400
G2 X2427.410 Y 260.040 I 472.487 J 107.781
F150
G1 Z   3.000
G0 Z  15.000 
M9 M5

(* SHAPE Nr: 36 *)
G0 X2201.870 Y 229.600
M3 M8
G0 Z   3.000 
G1 Z  -1.500
F400
G2 X2200.380 Y 272.310 I 611.451 J  42.712
G2 X2201.870 Y 315.020 I 612.906 J  -0.001
G2 X2206.270 Y 356.430 I 565.872 J -39.188
G2 X2213.480 Y 395.280 I 479.697 J -68.931
G2 X2223.250 Y 430.400 I 370.966 J -84.280
G2 X2235.290 Y 460.710 I 258.933 J -85.309
G2 X2249.250 Y 485.300 I 160.873 J -75.072
G2 X2264.690 Y 503.420 I  87.858 J -59.225
G2 X2281.150 Y 514.510 I  42.094 J -44.717
G2 X2298.120 Y 518.250 I  17.159 J -37.487
G2 X2315.090 Y 514.510 I  -0.189 J -41.227
G2 X2331.550 Y 503.420 I -25.634 J -55.807
G2 X2346.990 Y 485.300 I -72.417 J -77.344
G2 X2360.950 Y 460.710 I-146.917 J -99.664
G2 X2372.990 Y 430.400 I-246.893 J-115.619
G2 X2382.760 Y 395.280 I-361.196 J-119.400
G2 X2389.970 Y 356.430 I-472.487 J-107.781
G2 X2394.370 Y 315.020 I-561.472 J -80.598
G2 X2395.860 Y 272.310 I-611.416 J -42.711
G2 X2394.370 Y 229.600 I-612.906 J   0.001
G2 X2389.970 Y 188.190 I-565.872 J  39.188
G2 X2382.760 Y 149.340 I-479.697 J  68.931
G2 X2372.990 Y 114.220 I-370.966 J  84.280
G2 X2360.950 Y  83.910 I-258.933 J  85.309
G2 X2346.990 Y  59.320 I-160.877 J  75.074
G2 X2331.550 Y  41.200 I -87.857 J  59.224
G2 X2315.090 Y  30.110 I -42.094 J  44.717
G2 X2298.120 Y  26.370 I -17.159 J  37.487
G2 X2281.150 Y  30.110 I   0.189 J  41.227
G2 X2264.690 Y  41.200 I  25.634 J  55.807
G2 X2249.250 Y  59.320 I  72.418 J  77.345
G2 X2235.290 Y  83.910 I 146.917 J  99.664
G2 X2223.250 Y 114.220 I 246.893 J 115.619
G2 X2213.480 Y 149.340 I 361.196 J 119.400
G2 X2206.270 Y 188.190 I 472.487 J 107.781
G2 X2201.870 Y 229.600 I 561.472 J  80.598
F150
G1 Z  -3.000
F400
G2 X2200.380 Y 272.310 I 611.451 J  42.712
G2 X2201.870 Y 315.020 I 612.906 J  -0.001
G2 X2206.270 Y 356.430 I 565.872 J -39.188
G2 X2213.480 Y 395.280 I 479.697 J -68.931
G2 X2223.250 Y 430.400 I 370.966 J -84.280
G2 X2235.290 Y 460.710 I 258.933 J -85.309
G2 X2249.250 Y 485.300 I 160.873 J -75.072
G2 X2264.690 Y 503.420 I  87.858 J -59.225
G2 X2281.150 Y 514.510 I  42.094 J -44.717
G2 X2298.120 Y 518.250 I  17.159 J -37.487
G2 X2315.090 Y 514.510 I  -0.189 J -41.227
G2 X2331.550 Y 503.420 I -25.634 J -55.807
G2 X2346.990 Y 485.300 I -72.417 J -77.344
G2 X2360.950 Y 460.710 I-146.917 J -99.664
G2 X2372.990 Y 430.400 I-246.893 J-115.619
G2 X2382.760 Y 395.280 I-361.196 J-119.400
G2 X2389.970 Y 356.430 I-472.487 J-107.781
G2 X2394.370 Y 315.020 I-561.472 J -80.598
G2 X2395.860 Y 272.310 I-611.416 J -42.711
G2 X2394.370 Y 229.600 I-612.906 J   0.001
G2 X2389.970 Y 188.190 I-565.872 J  39.188
G2 X2382.760 Y 149.340 I-479.697 J  68.931
G2 X2372.990 Y 114.220 I-370.966 J  84.280
G2 X2360.950 Y  83.910 I-258.933 J  85.309
G2 X2346.990 Y  59.320 I-160.877 J  75.074
G2 X2331.550 Y  41.200 I -87.857 J  59.224
G2 X2315.090 Y  30.110 I -42.094 J  44.717
G2 X2298.120 Y  26.370 I -17.159 J  37.487
G2 X2281.150 Y  30.110 I   0.189 J  41.227
G2 X2264.690 Y  41.200 I  25.634 J  55.807
G2 X2249.250 Y  59.320 I  72.418 J  77.345
G2 X2235.290 Y  83.910 I 146.917 J  99.664
G2 X2223.250 Y 114.220 I 246.893 J 115.619
G2 X2213.480 Y 149.340 I 361.196 J 119.400
G2 X2206.270 Y 188.190 I 472.487 J 107.781
G2 X2201.870 Y 229.600 I 561.472 J  80.598
F150
G1 Z   3.000
G0 Z  15.000 
M9 M5

(* SHAPE Nr: 38 *)
G0 X1394.070 Y 428.030
M3 M8
G0 Z   3.000 
G1 Z  -1.500
F400
G2 X1390.330 Y 445.000 I  37.487 J  17.159
G2 X1394.070 Y 461.970 I  41.227 J  -0.189
G2 X1405.160 Y 478.430 I  55.807 J -25.634
G2 X1423.280 Y 493.870 I  77.344 J -72.417
G2 X1447.870 Y 507.830 I  99.664 J-146.917
G2 X1478.180 Y 519.870 I 115.619 J-246.893
G2 X1513.300 Y 529.640 I 119.400 J-361.196
G2 X1552.150 Y 536.850 I 107.781 J-472.487
G2 X1593.560 Y 541.250 I  80.598 J-561.472
G2 X1636.270 Y 542.740 I  42.711 J-611.416
G2 X1678.980 Y 541.250 I  -0.001 J-612.906
G2 X1720.390 Y 536.850 I -39.188 J-565.872
G2 X1759.240 Y 529.640 I -68.931 J-479.697
G2 X1794.360 Y 519.870 I -84.280 J-370.966
G2 X1824.670 Y 507.830 I -85.309 J-258.933
G2 X1849.260 Y 493.870 I -75.074 J-160.877
G2 X1867.380 Y 478.430 I -59.224 J -87.857
G2 X1878.470 Y 461.970 I -44.717 J -42.094
G2 X1882.210 Y 445.000 I -37.487 J -17.159
G2 X1878.470 Y 428.030 I -41.227 J   0.189
G2 X1867.380 Y 411.570 I -55.807 J  25.634
G2 X1849.260 Y 396.130 I -77.344 J  72.417
G2 X1824.670 Y 382.170 I -99.664 J 146.917
G2 X1794.360 Y 370.130 I-115.619 J 246.893
G2 X1759.240 Y 360.360 I-119.400 J 361.196
G2 X1720.390 Y 353.150 I-107.781 J 472.487
G2 X1678.980 Y 348.750 I -80.598 J 561.472
G2 X1636.270 Y 347.260 I -42.711 J 611.416
G2 X1593.560 Y 348.750 I   0.001 J 612.906
G2 X1552.150 Y 353.150 I  39.188 J 565.872
G2 X1513.300 Y 360.360 I  68.931 J 479.697
G2 X1478.180 Y 370.130 I  84.280 J 370.966
G2 X1447.870 Y 382.170 I  85.309 J 258.933
G2 X1423.280 Y 396.130 I  75.074 J 160.877
G2 X1405.160 Y 411.570 I  59.224 J  87.857
G2 X1394.070 Y 428.030 I  44.717 J  42.094
F150
G1 Z  -3.000
F400
G2 X1390.330 Y 445.000 I  37.487 J  17.159
G2 X1394.070 Y 461.970 I  41.227 J  -0.189
G2 X1405.160 Y 478.430 I  55.807 J -25.634
G2 X1423.280 Y 493.870 I  77.344 J -72.417
G2 X1447.870 Y 507.830 I  99.664 J-146.917
G2 X1478.180 Y 519.870 I 115.619 J-246.893
G2 X1513.300 Y 529.640 I 119.400 J-361.196
G2 X1552.150 Y 536.850 I 107.781 J-472.487
G2 X1593.560 Y 541.250 I  80.598 J-561.472
G2 X1636.270 Y 542.740 I  42.711 J-611.416
G2 X1678.980 Y 541.250 I  -0.001 J-612.906
G2 X1720.390 Y 536.850 I -39.188 J-565.872
G2 X1759.240 Y 529.640 I -68.931 J-479.697
G2 X1794.360 Y 519.870 I -84.280 J-370.966
G2 X1824.670 Y 507.830 I -85.309 J-258.933
G2 X1849.260 Y 493.870 I -75.074 J-160.877
G2 X1867.380 Y 478.430 I -59.224 J -87.857
G2 X1878.470 Y 461.970 I -44.717 J -42.094
G2 X1882.210 Y 445.000 I -37.487 J -17.159
G2 X1878.470 Y 428.030 I -41.227 J   0.189
G2 X1867.380 Y 411.570 I -55.807 J  25.634
G2 X1849.260 Y 396.130 I -77.344 J  72.417
G2 X1824.670 Y 382.170 I -99.664 J 146.917
G2 X1794.360 Y 370.130 I-115.619 J 246.893
G2 X1759.240 Y 360.360 I-119.400 J 361.196
G2 X1720.390 Y 353.150 I-107.781 J 472.487
G2 X1678.980 Y 348.750 I -80.598 J 561.472
G2 X1636.270 Y 347.260 I -42.711 J 611.416
G2 X1593.560 Y 348.750 I   0.001 J 612.906
G2 X1552.150 Y 353.150 I  39.188 J 565.872
G2 X1513.300 Y 360.360 I  68.931 J 479.697
G2 X1478.180 Y 370.130 I  84.280 J 370.966
G2 X1447.870 Y 382.170 I  85.309 J 258.933
G2 X1423.280 Y 396.130 I  75.074 J 160.877
G2 X1405.160 Y 411.570 I  59.224 J  87.857
G2 X1394.070 Y 428.030 I  44.717 J  42.094
F150
G1 Z   3.000
G0 Z  15.000 
M9 M5

(* SHAPE Nr: 41 *)
G0 X1502.670 Y 125.000
M3 M8
G0 Z   3.000 
G1 Z  -1.500
F400
G2 X1506.410 Y 141.970 I  41.227 J  -0.189
G2 X1517.500 Y 158.430 I  55.807 J -25.634
G2 X1535.620 Y 173.870 I  77.345 J -72.418
G2 X1560.210 Y 187.830 I  99.664 J-146.917
G2 X1590.520 Y 199.870 I 115.619 J-246.893
G2 X1625.640 Y 209.640 I 119.400 J-361.196
G2 X1664.490 Y 216.850 I 107.781 J-472.487
G2 X1705.900 Y 221.250 I  80.598 J-561.472
G2 X1748.610 Y 222.740 I  42.711 J-611.416
G2 X1791.320 Y 221.250 I  -0.001 J-612.906
G2 X1832.730 Y 216.850 I -39.188 J-565.872
G2 X1871.580 Y 209.640 I -68.931 J-479.697
G2 X1906.700 Y 199.870 I -84.280 J-370.966
G2 X1937.010 Y 187.830 I -85.309 J-258.933
G2 X1961.600 Y 173.870 I -75.074 J-160.877
G2 X1979.720 Y 158.430 I -59.224 J -87.857
G2 X1990.810 Y 141.970 I -44.717 J -42.094
G2 X1994.550 Y 125.000 I -37.487 J -17.159
G2 X1990.810 Y 108.030 I -41.227 J   0.189
G2 X1979.720 Y  91.570 I -55.807 J  25.634
G2 X1961.600 Y  76.130 I -77.345 J  72.418
G2 X1937.010 Y  62.170 I -99.664 J 146.917
G2 X1906.700 Y  50.130 I-115.619 J 246.893
G2 X1871.580 Y  40.360 I-119.400 J 361.196
G2 X1832.730 Y  33.150 I-107.781 J 472.487
G2 X1791.320 Y  28.750 I -80.598 J 561.472
G2 X1748.610 Y  27.260 I -42.712 J 611.451
G2 X1705.900 Y  28.750 I   0.002 J 612.941
G2 X1664.490 Y  33.150 I  39.188 J 565.872
G2 X1625.640 Y  40.360 I  68.931 J 479.697
G2 X1590.520 Y  50.130 I  84.280 J 370.966
G2 X1560.210 Y  62.170 I  85.309 J 258.933
G2 X1535.620 Y  76.130 I  75.074 J 160.877
G2 X1517.500 Y  91.570 I  59.225 J  87.858
G2 X1506.410 Y 108.030 I  44.717 J  42.094
G2 X1502.670 Y 125.000 I  37.487 J  17.159
F150
G1 Z  -3.000
F400
G2 X1506.410 Y 141.970 I  41.227 J  -0.189
G2 X1517.500 Y 158.430 I  55.807 J -25.634
G2 X1535.620 Y 173.870 I  77.345 J -72.418
G2 X1560.210 Y 187.830 I  99.664 J-146.917
G2 X1590.520 Y 199.870 I 115.619 J-246.893
G2 X1625.640 Y 209.640 I 119.400 J-361.196
G2 X1664.490 Y 216.850 I 107.781 J-472.487
G2 X1705.900 Y 221.250 I  80.598 J-561.472
G2 X1748.610 Y 222.740 I  42.711 J-611.416
G2 X1791.320 Y 221.250 I  -0.001 J-612.906
G2 X1832.730 Y 216.850 I -39.188 J-565.872
G2 X1871.580 Y 209.640 I -68.931 J-479.697
G2 X1906.700 Y 199.870 I -84.280 J-370.966
G2 X1937.010 Y 187.830 I -85.309 J-258.933
G2 X1961.600 Y 173.870 I -75.074 J-160.877
G2 X1979.720 Y 158.430 I -59.224 J -87.857
G2 X1990.810 Y 141.970 I -44.717 J -42.094
G2 X1994.550 Y 125.000 I -37.487 J -17.159
G2 X1990.810 Y 108.030 I -41.227 J   0.189
G2 X1979.720 Y  91.570 I -55.807 J  25.634
G2 X1961.600 Y  76.130 I -77.345 J  72.418
G2 X1937.010 Y  62.170 I -99.664 J 146.917
G2 X1906.700 Y  50.130 I-115.619 J 246.893
G2 X1871.580 Y  40.360 I-119.400 J 361.196
G2 X1832.730 Y  33.150 I-107.781 J 472.487
G2 X1791.320 Y  28.750 I -80.598 J 561.472
G2 X1748.610 Y  27.260 I -42.712 J 611.451
G2 X1705.900 Y  28.750 I   0.002 J 612.941
G2 X1664.490 Y  33.150 I  39.188 J 565.872
G2 X1625.640 Y  40.360 I  68.931 J 479.697
G2 X1590.520 Y  50.130 I  84.280 J 370.966
G2 X1560.210 Y  62.170 I  85.309 J 258.933
G2 X1535.620 Y  76.130 I  75.074 J 160.877
G2 X1517.500 Y  91.570 I  59.225 J  87.858
G2 X1506.410 Y 108.030 I  44.717 J  42.094
G2 X1502.670 Y 125.000 I  37.487 J  17.159
F150
G1 Z   3.000
G0 Z  15.000 
M9 M5

(*** LAYER: BORDER_D0_T132_RK1_A0_W0_EM1_RI1_ID0011 ***)

(* SHAPE Nr: 12 *)
G0 X 511.430 Y 376.120
M3 M8
G0 Z   3.000 
G1 Z  -1.500
F400
G1 X 539.650 Y 424.990
G1 X 511.430 Y 473.860
G1 X 567.860 Y 473.860
G1 X 596.070 Y 522.730
G1 X 624.290 Y 473.860
G1 X 680.710 Y 473.860
G1 X 652.510 Y 424.990
G1 X 680.710 Y 376.120
G1 X 624.290 Y 376.120
G1 X 596.070 Y 327.250
G1 X 567.860 Y 376.120
G1 X 511.430 Y 376.120
F150
G1 Z  -3.000
F400
G1 X 539.650 Y 424.990
G1 X 511.430 Y 473.860
G1 X 567.860 Y 473.860
G1 X 596.070 Y 522.730
G1 X 624.290 Y 473.860
G1 X 680.710 Y 473.860
G1 X 652.510 Y 424.990
G1 X 680.710 Y 376.120
G1 X 624.290 Y 376.120
G1 X 596.070 Y 327.250
G1 X 567.860 Y 376.120
G1 X 511.430 Y 376.120
F150
G1 Z   3.000
G0 Z  15.000 
M9 M5

(* SHAPE Nr: 14 *)
G0 X 672.140 Y 424.990
M3 M8
G0 Z   3.000 
G1 Z  -1.500
F400
G1 X 721.010 Y 453.210
G1 X 721.010 Y 509.640
G1 X 769.880 Y 481.430
G1 X 818.750 Y 509.640
G1 X 818.750 Y 453.210
G1 X 867.620 Y 424.990
G1 X 818.750 Y 396.780
G1 X 818.750 Y 340.350
G1 X 769.880 Y 368.570
G1 X 721.010 Y 340.350
G1 X 721.010 Y 396.780
G1 X 672.140 Y 424.990
F150
G1 Z  -3.000
F400
G1 X 721.010 Y 453.210
G1 X 721.010 Y 509.640
G1 X 769.880 Y 481.430
G1 X 818.750 Y 509.640
G1 X 818.750 Y 453.210
G1 X 867.620 Y 424.990
G1 X 818.750 Y 396.780
G1 X 818.750 Y 340.350
G1 X 769.880 Y 368.570
G1 X 721.010 Y 340.350
G1 X 721.010 Y 396.780
G1 X 672.140 Y 424.990
F150
G1 Z   3.000
G0 Z  15.000 
M9 M5

(* SHAPE Nr: 15 *)
G0 X 764.660 Y 540.440
M3 M8
G0 Z   3.000 
G1 Z  -1.500
F400
G1 X 764.660 Y 596.870
G1 X 715.790 Y 625.080
G1 X 764.660 Y 653.300
G1 X 764.660 Y 709.730
G1 X 813.530 Y 681.520
G1 X 862.400 Y 709.730
G1 X 862.400 Y 653.300
G1 X 911.270 Y 625.080
G1 X 862.400 Y 596.870
G1 X 862.400 Y 540.440
G1 X 813.530 Y 568.660
G1 X 764.660 Y 540.440
F150
G1 Z  -3.000
F400
G1 X 764.660 Y 596.870
G1 X 715.790 Y 625.080
G1 X 764.660 Y 653.300
G1 X 764.660 Y 709.730
G1 X 813.530 Y 681.520
G1 X 862.400 Y 709.730
G1 X 862.400 Y 653.300
G1 X 911.270 Y 625.080
G1 X 862.400 Y 596.870
G1 X 862.400 Y 540.440
G1 X 813.530 Y 568.660
G1 X 764.660 Y 540.440
F150
G1 Z   3.000
G0 Z  15.000 
M9 M5

(* SHAPE Nr: 24 *)
G0 X 735.880 Y1870.710
M3 M8
G0 Z   3.000 
G1 Z  -1.500
F400
G1 X 735.880 Y1927.140
G1 X 687.010 Y1955.350
G1 X 735.880 Y1983.570
G1 X 735.880 Y2040.000
G1 X 784.750 Y2011.790
G1 X 833.620 Y2040.000
G1 X 833.620 Y1983.570
G1 X 882.490 Y1955.350
G1 X 833.620 Y1927.140
G1 X 833.620 Y1870.710
G1 X 784.750 Y1898.930
G1 X 735.880 Y1870.710
F150
G1 Z  -3.000
F400
G1 X 735.880 Y1927.140
G1 X 687.010 Y1955.350
G1 X 735.880 Y1983.570
G1 X 735.880 Y2040.000
G1 X 784.750 Y2011.790
G1 X 833.620 Y2040.000
G1 X 833.620 Y1983.570
G1 X 882.490 Y1955.350
G1 X 833.620 Y1927.140
G1 X 833.620 Y1870.710
G1 X 784.750 Y1898.930
G1 X 735.880 Y1870.710
F150
G1 Z   3.000
G0 Z  15.000 
M9 M5

(* SHAPE Nr: 26 *)
G0 X1618.720 Y1870.710
M3 M8
G0 Z   3.000 
G1 Z  -1.500
F400
G1 X1618.720 Y1927.140
G1 X1569.850 Y1955.350
G1 X1618.720 Y1983.570
G1 X1618.720 Y2040.000
G1 X1667.590 Y2011.790
G1 X1716.460 Y2040.000
G1 X1716.460 Y1983.570
G1 X1765.330 Y1955.350
G1 X1716.460 Y1927.140
G1 X1716.460 Y1870.710
G1 X1667.590 Y1898.930
G1 X1618.720 Y1870.710
F150
G1 Z  -3.000
F400
G1 X1618.720 Y1927.140
G1 X1569.850 Y1955.350
G1 X1618.720 Y1983.570
G1 X1618.720 Y2040.000
G1 X1667.590 Y2011.790
G1 X1716.460 Y2040.000
G1 X1716.460 Y1983.570
G1 X1765.330 Y1955.350
G1 X1716.460 Y1927.140
G1 X1716.460 Y1870.710
G1 X1667.590 Y1898.930
G1 X1618.720 Y1870.710
F150
G1 Z   3.000
G0 Z  15.000 
M9 M5

(* SHAPE Nr: 29 *)
G0 X2363.990 Y1236.120
M3 M8
G0 Z   3.000 
G1 Z  -1.500
F400
G1 X2392.210 Y1284.990
G1 X2363.990 Y1333.860
G1 X2420.420 Y1333.860
G1 X2448.630 Y1382.730
G1 X2476.850 Y1333.860
G1 X2533.270 Y1333.860
G1 X2505.070 Y1284.990
G1 X2533.270 Y1236.120
G1 X2476.850 Y1236.120
G1 X2448.630 Y1187.250
G1 X2420.420 Y1236.120
G1 X2363.990 Y1236.120
F150
G1 Z  -3.000
F400
G1 X2392.210 Y1284.990
G1 X2363.990 Y1333.860
G1 X2420.420 Y1333.860
G1 X2448.630 Y1382.730
G1 X2476.850 Y1333.860
G1 X2533.270 Y1333.860
G1 X2505.070 Y1284.990
G1 X2533.270 Y1236.120
G1 X2476.850 Y1236.120
G1 X2448.630 Y1187.250
G1 X2420.420 Y1236.120
G1 X2363.990 Y1236.120
F150
G1 Z   3.000
G0 Z  15.000 
M9 M5

(* SHAPE Nr: 37 *)
G0 X2014.230 Y 307.050
M3 M8
G0 Z   3.000 
G1 Z  -1.500
F400
G1 X2042.430 Y 355.920
G1 X2014.230 Y 404.780
G1 X2070.650 Y 404.780
G1 X2098.870 Y 453.650
G1 X2127.080 Y 404.780
G1 X2183.510 Y 404.780
G1 X2155.290 Y 355.920
G1 X2183.510 Y 307.050
G1 X2127.080 Y 307.050
G1 X2098.870 Y 258.180
G1 X2070.650 Y 307.050
G1 X2014.230 Y 307.050
F150
G1 Z  -3.000
F400
G1 X2042.430 Y 355.920
G1 X2014.230 Y 404.780
G1 X2070.650 Y 404.780
G1 X2098.870 Y 453.650
G1 X2127.080 Y 404.780
G1 X2183.510 Y 404.780
G1 X2155.290 Y 355.920
G1 X2183.510 Y 307.050
G1 X2127.080 Y 307.050
G1 X2098.870 Y 258.180
G1 X2070.650 Y 307.050
G1 X2014.230 Y 307.050
F150
G1 Z   3.000
G0 Z  15.000 
M9 M5

(* SHAPE Nr: 39 *)
G0 X1845.710 Y 276.120
M3 M8
G0 Z   3.000 
G1 Z  -1.500
F400
G1 X1873.930 Y 324.990
G1 X1845.710 Y 373.860
G1 X1902.140 Y 373.860
G1 X1930.350 Y 422.730
G1 X1958.570 Y 373.860
G1 X2014.990 Y 373.860
G1 X1986.790 Y 324.990
G1 X2014.990 Y 276.120
G1 X1958.570 Y 276.120
G1 X1930.350 Y 227.250
G1 X1902.140 Y 276.120
G1 X1845.710 Y 276.120
F150
G1 Z  -3.000
F400
G1 X1873.930 Y 324.990
G1 X1845.710 Y 373.860
G1 X1902.140 Y 373.860
G1 X1930.350 Y 422.730
G1 X1958.570 Y 373.860
G1 X2014.990 Y 373.860
G1 X1986.790 Y 324.990
G1 X2014.990 Y 276.120
G1 X1958.570 Y 276.120
G1 X1930.350 Y 227.250
G1 X1902.140 Y 276.120
G1 X1845.710 Y 276.120
F150
G1 Z   3.000
G0 Z  15.000 
M9 M5

(* SHAPE Nr: 42 *)
G0 X1629.820 Y 680.120
M3 M8
G0 Z   3.000 
G1 Z  -1.500
F400
G1 X1678.690 Y 708.340
G1 X1678.690 Y 764.770
G1 X1727.560 Y 736.560
G1 X1776.430 Y 764.770
G1 X1776.430 Y 708.340
G1 X1825.300 Y 680.120
G1 X1776.430 Y 651.910
G1 X1776.430 Y 595.480
G1 X1727.560 Y 623.700
G1 X1678.690 Y 595.480
G1 X1678.690 Y 651.910
G1 X1629.820 Y 680.120
F150
G1 Z  -3.000
F400
G1 X1678.690 Y 708.340
G1 X1678.690 Y 764.770
G1 X1727.560 Y 736.560
G1 X1776.430 Y 764.770
G1 X1776.430 Y 708.340
G1 X1825.300 Y 680.120
G1 X1776.430 Y 651.910
G1 X1776.430 Y 595.480
G1 X1727.560 Y 623.700
G1 X1678.690 Y 595.480
G1 X1678.690 Y 651.910
G1 X1629.820 Y 680.120
F150
G1 Z   3.000
G0 Z  15.000 
M9 M5

(*** LAYER: BORDER_D0_T132_RK1_A0_W0_EM1_RI1_ID0020 ***)

(* SHAPE Nr: 17 *)
G0 X1340.440 Y 306.900
M3 M8
G0 Z   3.000 
G1 Z  -1.500
F400
G2 X1336.700 Y 323.870 I  37.487 J  17.159
G1 X1582.640 Y 323.870
G1 X1828.580 Y 323.870
G2 X1824.840 Y 306.900 I -41.227 J   0.189
G2 X1813.750 Y 290.440 I -55.807 J  25.634
G2 X1795.630 Y 275.000 I -77.345 J  72.418
G2 X1771.040 Y 261.040 I -99.664 J 146.917
G2 X1740.730 Y 249.000 I-115.619 J 246.893
G2 X1705.610 Y 239.230 I-119.400 J 361.196
G2 X1666.760 Y 232.020 I-107.781 J 472.487
G2 X1625.350 Y 227.620 I -80.598 J 561.472
G2 X1582.640 Y 226.130 I -42.711 J 611.416
G2 X1539.930 Y 227.620 I   0.001 J 612.906
G2 X1498.520 Y 232.020 I  39.188 J 565.872
G2 X1459.670 Y 239.230 I  68.931 J 479.697
G2 X1424.550 Y 249.000 I  84.280 J 370.966
G2 X1394.240 Y 261.040 I  85.309 J 258.933
G2 X1369.650 Y 275.000 I  75.074 J 160.877
G2 X1351.530 Y 290.440 I  59.224 J  87.857
G2 X1340.440 Y 306.900 I  44.717 J  42.094
F150
G1 Z  -3.000
F400
G2 X1336.700 Y 323.870 I  37.487 J  17.159
G1 X1582.640 Y 323.870
G1 X1828.580 Y 323.870
G2 X1824.840 Y 306.900 I -41.227 J   0.189
G2 X1813.750 Y 290.440 I -55.807 J  25.634
G2 X1795.630 Y 275.000 I -77.345 J  72.418
G2 X1771.040 Y 261.040 I -99.664 J 146.917
G2 X1740.730 Y 249.000 I-115.619 J 246.893
G2 X1705.610 Y 239.230 I-119.400 J 361.196
G2 X1666.760 Y 232.020 I-107.781 J 472.487
G2 X1625.350 Y 227.620 I -80.598 J 561.472
G2 X1582.640 Y 226.130 I -42.711 J 611.416
G2 X1539.930 Y 227.620 I   0.001 J 612.906
G2 X1498.520 Y 232.020 I  39.188 J 565.872
G2 X1459.670 Y 239.230 I  68.931 J 479.697
G2 X1424.550 Y 249.000 I  84.280 J 370.966
G2 X1394.240 Y 261.040 I  85.309 J 258.933
G2 X1369.650 Y 275.000 I  75.074 J 160.877
G2 X1351.530 Y 290.440 I  59.224 J  87.857
G2 X1340.440 Y 306.900 I  44.717 J  42.094
F150
G1 Z   3.000
G0 Z  15.000 
M9 M5

(* SHAPE Nr: 30 *)
G0 X2550.260 Y1098.090
M3 M8
G0 Z   3.000 
G1 Z  -1.500
F400
G1 X2550.260 Y1344.030
G1 X2550.260 Y1589.970
G2 X2567.230 Y1586.230 I  -0.189 J -41.227
G2 X2583.690 Y1575.140 I -25.634 J -55.807
G2 X2599.130 Y1557.020 I -72.417 J -77.344
G2 X2613.090 Y1532.430 I-146.917 J -99.664
G2 X2625.130 Y1502.120 I-246.893 J-115.619
G2 X2634.900 Y1467.000 I-361.196 J-119.400
G2 X2642.110 Y1428.150 I-472.487 J-107.781
G2 X2646.510 Y1386.740 I-561.472 J -80.598
G2 X2648.000 Y1344.030 I-611.416 J -42.711
G2 X2646.510 Y1301.320 I-612.906 J   0.001
G2 X2642.110 Y1259.910 I-565.872 J  39.188
G2 X2634.900 Y1221.060 I-479.697 J  68.931
G2 X2625.130 Y1185.940 I-370.966 J  84.280
G2 X2613.090 Y1155.630 I-258.933 J  85.309
G2 X2599.130 Y1131.040 I-160.877 J  75.074
G2 X2583.690 Y1112.920 I -87.857 J  59.224
G2 X2567.230 Y1101.830 I -42.094 J  44.717
G2 X2550.260 Y1098.090 I -17.159 J  37.487
F150
G1 Z  -3.000
F400
G1 X2550.260 Y1344.030
G1 X2550.260 Y1589.970
G2 X2567.230 Y1586.230 I  -0.189 J -41.227
G2 X2583.690 Y1575.140 I -25.634 J -55.807
G2 X2599.130 Y1557.020 I -72.417 J -77.344
G2 X2613.090 Y1532.430 I-146.917 J -99.664
G2 X2625.130 Y1502.120 I-246.893 J-115.619
G2 X2634.900 Y1467.000 I-361.196 J-119.400
G2 X2642.110 Y1428.150 I-472.487 J-107.781
G2 X2646.510 Y1386.740 I-561.472 J -80.598
G2 X2648.000 Y1344.030 I-611.416 J -42.711
G2 X2646.510 Y1301.320 I-612.906 J   0.001
G2 X2642.110 Y1259.910 I-565.872 J  39.188
G2 X2634.900 Y1221.060 I-479.697 J  68.931
G2 X2625.130 Y1185.940 I-370.966 J  84.280
G2 X2613.090 Y1155.630 I-258.933 J  85.309
G2 X2599.130 Y1131.040 I-160.877 J  75.074
G2 X2583.690 Y1112.920 I -87.857 J  59.224
G2 X2567.230 Y1101.830 I -42.094 J  44.717
G2 X2550.260 Y1098.090 I -17.159 J  37.487
F150
G1 Z   3.000
G0 Z  15.000 
M9 M5

(* SHAPE Nr: 31 *)
G0 X2575.430 Y 738.160
M3 M8
G0 Z   3.000 
G1 Z  -1.500
F400
G2 X2565.660 Y 773.280 I 361.196 J 119.400
G2 X2558.450 Y 812.130 I 472.487 J 107.781
G2 X2554.050 Y 853.540 I 561.472 J  80.598
G2 X2552.560 Y 896.250 I 611.451 J  42.712
G2 X2554.050 Y 938.960 I 612.906 J  -0.001
G2 X2558.450 Y 980.370 I 565.872 J -39.188
G2 X2565.660 Y1019.220 I 479.697 J -68.931
G2 X2575.430 Y1054.340 I 370.966 J -84.280
G2 X2587.470 Y1084.650 I 258.933 J -85.309
G2 X2601.430 Y1109.240 I 160.877 J -75.074
G2 X2616.870 Y1127.360 I  87.858 J -59.225
G2 X2633.330 Y1138.450 I  42.094 J -44.717
G2 X2650.300 Y1142.190 I  17.159 J -37.487
G1 X2650.300 Y 896.250
G1 X2650.300 Y 650.310
G2 X2633.330 Y 654.050 I   0.189 J  41.227
G2 X2616.870 Y 665.140 I  25.634 J  55.807
G2 X2601.430 Y 683.260 I  72.418 J  77.345
G2 X2587.470 Y 707.850 I 146.917 J  99.664
G2 X2575.430 Y 738.160 I 246.893 J 115.619
F150
G1 Z  -3.000
F400
G2 X2565.660 Y 773.280 I 361.196 J 119.400
G2 X2558.450 Y 812.130 I 472.487 J 107.781
G2 X2554.050 Y 853.540 I 561.472 J  80.598
G2 X2552.560 Y 896.250 I 611.451 J  42.712
G2 X2554.050 Y 938.960 I 612.906 J  -0.001
G2 X2558.450 Y 980.370 I 565.872 J -39.188
G2 X2565.660 Y1019.220 I 479.697 J -68.931
G2 X2575.430 Y1054.340 I 370.966 J -84.280
G2 X2587.470 Y1084.650 I 258.933 J -85.309
G2 X2601.430 Y1109.240 I 160.877 J -75.074
G2 X2616.870 Y1127.360 I  87.858 J -59.225
G2 X2633.330 Y1138.450 I  42.094 J -44.717
G2 X2650.300 Y1142.190 I  17.159 J -37.487
G1 X2650.300 Y 896.250
G1 X2650.300 Y 650.310
G2 X2633.330 Y 654.050 I   0.189 J  41.227
G2 X2616.870 Y 665.140 I  25.634 J  55.807
G2 X2601.430 Y 683.260 I  72.418 J  77.345
G2 X2587.470 Y 707.850 I 146.917 J  99.664
G2 X2575.430 Y 738.160 I 246.893 J 115.619
F150
G1 Z   3.000
G0 Z  15.000 
M9 M5

(* SHAPE Nr: 32 *)
G0 X2665.000 Y1042.880
M3 M8
G0 Z   3.000 
G1 Z  -1.500
F400
G1 X2665.000 Y1288.820
G1 X2665.000 Y1534.760
G2 X2681.970 Y1531.020 I  -0.189 J -41.227
G2 X2698.430 Y1519.930 I -25.634 J -55.807
G2 X2713.870 Y1501.810 I -72.418 J -77.345
G2 X2727.830 Y1477.220 I-146.917 J -99.664
G2 X2739.870 Y1446.910 I-246.893 J-115.619
G2 X2749.640 Y1411.790 I-361.196 J-119.400
G2 X2756.850 Y1372.940 I-472.487 J-107.781
G2 X2761.250 Y1331.530 I-561.472 J -80.598
G2 X2762.740 Y1288.820 I-611.416 J -42.711
G2 X2761.250 Y1246.110 I-612.906 J   0.001
G2 X2756.850 Y1204.700 I-565.872 J  39.188
G2 X2749.640 Y1165.850 I-479.697 J  68.931
G2 X2739.870 Y1130.730 I-370.966 J  84.280
G2 X2727.830 Y1100.420 I-258.933 J  85.309
G2 X2713.870 Y1075.830 I-160.877 J  75.074
G2 X2698.430 Y1057.710 I -87.857 J  59.224
G2 X2681.970 Y1046.620 I -42.094 J  44.717
G2 X2665.000 Y1042.880 I -17.159 J  37.487
F150
G1 Z  -3.000
F400
G1 X2665.000 Y1288.820
G1 X2665.000 Y1534.760
G2 X2681.970 Y1531.020 I  -0.189 J -41.227
G2 X2698.430 Y1519.930 I -25.634 J -55.807
G2 X2713.870 Y1501.810 I -72.418 J -77.345
G2 X2727.830 Y1477.220 I-146.917 J -99.664
G2 X2739.870 Y1446.910 I-246.893 J-115.619
G2 X2749.640 Y1411.790 I-361.196 J-119.400
G2 X2756.850 Y1372.940 I-472.487 J-107.781
G2 X2761.250 Y1331.530 I-561.472 J -80.598
G2 X2762.740 Y1288.820 I-611.416 J -42.711
G2 X2761.250 Y1246.110 I-612.906 J   0.001
G2 X2756.850 Y1204.700 I-565.872 J  39.188
G2 X2749.640 Y1165.850 I-479.697 J  68.931
G2 X2739.870 Y1130.730 I-370.966 J  84.280
G2 X2727.830 Y1100.420 I-258.933 J  85.309
G2 X2713.870 Y1075.830 I-160.877 J  75.074
G2 X2698.430 Y1057.710 I -87.857 J  59.224
G2 X2681.970 Y1046.620 I -42.094 J  44.717
G2 X2665.000 Y1042.880 I -17.159 J  37.487
F150
G1 Z   3.000
G0 Z  15.000 
M9 M5

(* SHAPE Nr: 33 *)
G0 X2678.190 Y 715.290
M3 M8
G0 Z   3.000 
G1 Z  -1.500
F400
G2 X2670.980 Y 754.140 I 472.487 J 107.781
G2 X2666.580 Y 795.550 I 561.472 J  80.598
G2 X2665.090 Y 838.260 I 611.451 J  42.712
G2 X2666.580 Y 880.970 I 612.906 J  -0.001
G2 X2670.980 Y 922.380 I 565.872 J -39.188
G2 X2678.190 Y 961.230 I 479.697 J -68.931
G2 X2687.960 Y 996.350 I 370.966 J -84.280
G2 X2700.000 Y1026.660 I 258.933 J -85.309
G2 X2713.960 Y1051.250 I 160.873 J -75.072
G2 X2729.400 Y1069.370 I  87.858 J -59.225
G2 X2745.860 Y1080.460 I  42.094 J -44.717
G2 X2762.830 Y1084.200 I  17.159 J -37.487
G1 X2762.830 Y 838.260
G1 X2762.830 Y 592.320
G2 X2745.860 Y 596.060 I   0.189 J  41.227
G2 X2729.400 Y 607.150 I  25.634 J  55.807
G2 X2713.960 Y 625.270 I  72.418 J  77.345
G2 X2700.000 Y 649.860 I 146.913 J  99.662
G2 X2687.960 Y 680.170 I 246.893 J 115.619
G2 X2678.190 Y 715.290 I 361.196 J 119.400
F150
G1 Z  -3.000
F400
G2 X2670.980 Y 754.140 I 472.487 J 107.781
G2 X2666.580 Y 795.550 I 561.472 J  80.598
G2 X2665.090 Y 838.260 I 611.451 J  42.712
G2 X2666.580 Y 880.970 I 612.906 J  -0.001
G2 X2670.980 Y 922.380 I 565.872 J -39.188
G2 X2678.190 Y 961.230 I 479.697 J -68.931
G2 X2687.960 Y 996.350 I 370.966 J -84.280
G2 X2700.000 Y1026.660 I 258.933 J -85.309
G2 X2713.960 Y1051.250 I 160.873 J -75.072
G2 X2729.400 Y1069.370 I  87.858 J -59.225
G2 X2745.860 Y1080.460 I  42.094 J -44.717
G2 X2762.830 Y1084.200 I  17.159 J -37.487
G1 X2762.830 Y 838.260
G1 X2762.830 Y 592.320
G2 X2745.860 Y 596.060 I   0.189 J  41.227
G2 X2729.400 Y 607.150 I  25.634 J  55.807
G2 X2713.960 Y 625.270 I  72.418 J  77.345
G2 X2700.000 Y 649.860 I 146.913 J  99.662
G2 X2687.960 Y 680.170 I 246.893 J 115.619
G2 X2678.190 Y 715.290 I 361.196 J 119.400
F150
G1 Z   3.000
G0 Z  15.000 
M9 M5

(* SHAPE Nr: 35 *)
G0 X2631.930 Y 245.370
M3 M8
G0 Z   3.000 
G1 Z  -1.500
F400
G2 X2630.440 Y 288.080 I 611.451 J  42.712
G2 X2631.930 Y 330.790 I 612.906 J  -0.001
G2 X2636.330 Y 372.200 I 565.872 J -39.188
G2 X2643.540 Y 411.050 I 479.697 J -68.931
G2 X2653.310 Y 446.170 I 370.966 J -84.280
G2 X2665.350 Y 476.480 I 258.933 J -85.309
G2 X2679.310 Y 501.070 I 160.873 J -75.072
G2 X2694.750 Y 519.190 I  87.858 J -59.225
G2 X2711.210 Y 530.280 I  42.094 J -44.717
G2 X2728.180 Y 534.020 I  17.159 J -37.487
G1 X2728.180 Y 288.080
G1 X2728.180 Y  42.140
G2 X2711.210 Y  45.880 I   0.189 J  41.227
G2 X2694.750 Y  56.970 I  25.634 J  55.807
G2 X2679.310 Y  75.090 I  72.418 J  77.345
G2 X2665.350 Y  99.680 I 146.917 J  99.664
G2 X2653.310 Y 129.990 I 246.893 J 115.619
G2 X2643.540 Y 165.110 I 361.196 J 119.400
G2 X2636.330 Y 203.960 I 472.487 J 107.781
G2 X2631.930 Y 245.370 I 561.472 J  80.598
F150
G1 Z  -3.000
F400
G2 X2630.440 Y 288.080 I 611.451 J  42.712
G2 X2631.930 Y 330.790 I 612.906 J  -0.001
G2 X2636.330 Y 372.200 I 565.872 J -39.188
G2 X2643.540 Y 411.050 I 479.697 J -68.931
G2 X2653.310 Y 446.170 I 370.966 J -84.280
G2 X2665.350 Y 476.480 I 258.933 J -85.309
G2 X2679.310 Y 501.070 I 160.873 J -75.072
G2 X2694.750 Y 519.190 I  87.858 J -59.225
G2 X2711.210 Y 530.280 I  42.094 J -44.717
G2 X2728.180 Y 534.020 I  17.159 J -37.487
G1 X2728.180 Y 288.080
G1 X2728.180 Y  42.140
G2 X2711.210 Y  45.880 I   0.189 J  41.227
G2 X2694.750 Y  56.970 I  25.634 J  55.807
G2 X2679.310 Y  75.090 I  72.418 J  77.345
G2 X2665.350 Y  99.680 I 146.917 J  99.664
G2 X2653.310 Y 129.990 I 246.893 J 115.619
G2 X2643.540 Y 165.110 I 361.196 J 119.400
G2 X2636.330 Y 203.960 I 472.487 J 107.781
G2 X2631.930 Y 245.370 I 561.472 J  80.598
F150
G1 Z   3.000
G0 Z  15.000 
M9 M5

(*** LAYER: BORDER_D0_T132_RK1_A0_W0_EM1_RI1_ID0007 ***)

(* SHAPE Nr: 20 *)
G0 X 119.280 Y 522.390
M3 M8
G0 Z   3.000 
G1 Z  -1.500
F400
G1 X  77.540 Y 579.840
G1 X  10.000 Y 557.900
G1 X  51.740 Y 615.350
G1 X  10.000 Y 672.800
G1 X  77.540 Y 650.850
G1 X 119.280 Y 708.300
G1 X 119.280 Y 637.290
G1 X 186.810 Y 615.350
G1 X 119.280 Y 593.400
G1 X 119.280 Y 522.390
F150
G1 Z  -3.000
F400
G1 X  77.540 Y 579.840
G1 X  10.000 Y 557.900
G1 X  51.740 Y 615.350
G1 X  10.000 Y 672.800
G1 X  77.540 Y 650.850
G1 X 119.280 Y 708.300
G1 X 119.280 Y 637.290
G1 X 186.810 Y 615.350
G1 X 119.280 Y 593.400
G1 X 119.280 Y 522.390
F150
G1 Z   3.000
G0 Z  15.000 
M9 M5

(* SHAPE Nr: 21 *)
G0 X 119.280 Y1854.090
M3 M8
G0 Z   3.000 
G1 Z  -1.500
F400
G1 X  77.540 Y1911.540
G1 X  10.000 Y1889.600
G1 X  51.740 Y1947.050
G1 X  10.000 Y2004.500
G1 X  77.540 Y1982.550
G1 X 119.280 Y2040.000
G1 X 119.280 Y1968.990
G1 X 186.810 Y1947.050
G1 X 119.280 Y1925.100
G1 X 119.280 Y1854.090
F150
G1 Z  -3.000
F400
G1 X  77.540 Y1911.540
G1 X  10.000 Y1889.600
G1 X  51.740 Y1947.050
G1 X  10.000 Y2004.500
G1 X  77.540 Y1982.550
G1 X 119.280 Y2040.000
G1 X 119.280 Y1968.990
G1 X 186.810 Y1947.050
G1 X 119.280 Y1925.100
G1 X 119.280 Y1854.090
F150
G1 Z   3.000
G0 Z  15.000 
M9 M5

(* SHAPE Nr: 23 *)
G0 X 848.320 Y1730.540
M3 M8
G0 Z   3.000 
G1 Z  -1.500
F400
G1 X 848.320 Y1801.550
G1 X 780.790 Y1823.490
G1 X 848.320 Y1845.440
G1 X 848.320 Y1916.450
G1 X 890.060 Y1859.000
G1 X 957.600 Y1880.940
G1 X 915.860 Y1823.490
G1 X 957.600 Y1766.040
G1 X 890.060 Y1787.990
G1 X 848.320 Y1730.540
F150
G1 Z  -3.000
F400
G1 X 848.320 Y1801.550
G1 X 780.790 Y1823.490
G1 X 848.320 Y1845.440
G1 X 848.320 Y1916.450
G1 X 890.060 Y1859.000
G1 X 957.600 Y1880.940
G1 X 915.860 Y1823.490
G1 X 957.600 Y1766.040
G1 X 890.060 Y1787.990
G1 X 848.320 Y1730.540
F150
G1 Z   3.000
G0 Z  15.000 
M9 M5

(* SHAPE Nr: 40 *)
G0 X1964.450 Y 196.800
M3 M8
G0 Z   3.000 
G1 Z  -1.500
F400
G1 X2031.980 Y 218.750
G1 X2031.980 Y 289.760
G1 X2073.720 Y 232.310
G1 X2141.260 Y 254.250
G1 X2099.520 Y 196.800
G1 X2141.260 Y 139.350
G1 X2073.720 Y 161.300
G1 X2031.980 Y 103.850
G1 X2031.980 Y 174.860
G1 X1964.450 Y 196.800
F150
G1 Z  -3.000
F400
G1 X2031.980 Y 218.750
G1 X2031.980 Y 289.760
G1 X2073.720 Y 232.310
G1 X2141.260 Y 254.250
G1 X2099.520 Y 196.800
G1 X2141.260 Y 139.350
G1 X2073.720 Y 161.300
G1 X2031.980 Y 103.850
G1 X2031.980 Y 174.860
G1 X1964.450 Y 196.800
F150
G1 Z   3.000
G0 Z  15.000 
M9 M5

(*** LAYER: BORDER_D0_T132_RK1_A0_W0_EM1_RI1_ID0017 ***)

(* SHAPE Nr: 22 *)
G0 X 295.630 Y 540.720
M3 M8
G0 Z   3.000 
G1 Z  -1.500
F400
G2 X 227.050 Y 597.660 I 218.686 J 333.161
G2 X 165.070 Y 674.940 I 394.050 J 379.530
G2 X 111.560 Y 770.210 I 611.530 J 406.139
G2 X  68.160 Y 880.580 I 850.056 J 397.979
G2 X  36.180 Y1002.690 I1077.138 J 347.340
G2 X  16.590 Y1132.830 I1256.951 J 255.754
G2 X  10.000 Y1267.050 I1358.961 J 133.995
G2 X  16.590 Y1401.270 I1365.551 J   0.225
G2 X  36.180 Y1531.410 I1276.541 J-125.614
G2 X  68.160 Y1653.530 I1109.129 J-225.204
G2 X 111.560 Y1763.890 I 893.432 J-287.636
G2 X 165.070 Y1859.160 I 665.040 J-310.869
G2 X 227.050 Y1936.440 I 456.030 J-302.250
G2 X 295.630 Y1993.390 I 287.293 J-276.195
G2 X 368.720 Y2028.260 I 164.043 J-249.810
G2 X 444.100 Y2040.000 I  75.689 J-238.112
G2 X 519.480 Y2028.260 I  -0.309 J-249.852
G2 X 592.570 Y1993.390 I -90.953 J-284.680
G2 X 661.150 Y1936.440 I-218.713 J-333.145
G2 X 723.130 Y1859.160 I-394.050 J-379.530
G2 X 776.640 Y1763.890 I-611.530 J-406.139
G2 X 820.040 Y1653.530 I-850.032 J-397.996
G2 X 852.020 Y1531.410 I-1077.149 J-347.324
G2 X 871.600 Y1401.270 I-1257.005 J-255.664
G2 X 878.200 Y1267.050 I-1358.956 J-134.096
G2 X 871.600 Y1132.830 I-1365.556 J  -0.124
G2 X 852.020 Y1002.690 I-1276.585 J 125.524
G2 X 820.040 Y 880.580 I-1109.118 J 225.230
G2 X 776.640 Y 770.210 I-893.456 J 287.609
G2 X 723.130 Y 674.940 I-665.040 J 310.869
G2 X 661.150 Y 597.660 I-456.030 J 302.250
G2 X 592.570 Y 540.720 I-287.266 J 276.221
G2 X 519.480 Y 505.840 I-164.072 J 249.789
G2 X 444.100 Y 494.100 I -75.689 J 238.112
G2 X 368.720 Y 505.840 I   0.309 J 249.852
G2 X 295.630 Y 540.720 I  90.982 J 284.669
F150
G1 Z  -3.000
F400
G2 X 227.050 Y 597.660 I 218.686 J 333.161
G2 X 165.070 Y 674.940 I 394.050 J 379.530
G2 X 111.560 Y 770.210 I 611.530 J 406.139
G2 X  68.160 Y 880.580 I 850.056 J 397.979
G2 X  36.180 Y1002.690 I1077.138 J 347.340
G2 X  16.590 Y1132.830 I1256.951 J 255.754
G2 X  10.000 Y1267.050 I1358.961 J 133.995
G2 X  16.590 Y1401.270 I1365.551 J   0.225
G2 X  36.180 Y1531.410 I1276.541 J-125.614
G2 X  68.160 Y1653.530 I1109.129 J-225.204
G2 X 111.560 Y1763.890 I 893.432 J-287.636
G2 X 165.070 Y1859.160 I 665.040 J-310.869
G2 X 227.050 Y1936.440 I 456.030 J-302.250
G2 X 295.630 Y1993.390 I 287.293 J-276.195
G2 X 368.720 Y2028.260 I 164.043 J-249.810
G2 X 444.100 Y2040.000 I  75.689 J-238.112
G2 X 519.480 Y2028.260 I  -0.309 J-249.852
G2 X 592.570 Y1993.390 I -90.953 J-284.680
G2 X 661.150 Y1936.440 I-218.713 J-333.145
G2 X 723.130 Y1859.160 I-394.050 J-379.530
G2 X 776.640 Y1763.890 I-611.530 J-406.139
G2 X 820.040 Y1653.530 I-850.032 J-397.996
G2 X 852.020 Y1531.410 I-1077.149 J-347.324
G2 X 871.600 Y1401.270 I-1257.005 J-255.664
G2 X 878.200 Y1267.050 I-1358.956 J-134.096
G2 X 871.600 Y1132.830 I-1365.556 J  -0.124
G2 X 852.020 Y1002.690 I-1276.585 J 125.524
G2 X 820.040 Y 880.580 I-1109.118 J 225.230
G2 X 776.640 Y 770.210 I-893.456 J 287.609
G2 X 723.130 Y 674.940 I-665.040 J 310.869
G2 X 661.150 Y 597.660 I-456.030 J 302.250
G2 X 592.570 Y 540.720 I-287.266 J 276.221
G2 X 519.480 Y 505.840 I-164.072 J 249.789
G2 X 444.100 Y 494.100 I -75.689 J 238.112
G2 X 368.720 Y 505.840 I   0.309 J 249.852
G2 X 295.630 Y 540.720 I  90.982 J 284.669
F150
G1 Z   3.000
G0 Z  15.000 
M9 M5

(*** LAYER: BORDER_D0_T132_RK1_A0_W0_EM1_RI1_ID0022 ***)

(* SHAPE Nr: 25 *)
G0 X1047.970 Y 674.940
M3 M8
G0 Z   3.000 
G1 Z  -1.500
F400
G2 X 994.460 Y 770.210 I 611.530 J 406.139
G2 X 951.060 Y 880.580 I 850.056 J 397.979
G2 X 919.080 Y1002.690 I1077.138 J 347.340
G2 X 899.490 Y1132.830 I1256.951 J 255.754
G2 X 892.900 Y1267.050 I1358.961 J 133.995
G2 X 899.490 Y1401.270 I1365.551 J   0.225
G2 X 919.080 Y1531.410 I1276.541 J-125.614
G2 X 951.060 Y1653.530 I1109.129 J-225.204
G2 X 994.460 Y1763.890 I 893.432 J-287.636
G2 X1047.970 Y1859.160 I 665.040 J-310.869
G2 X1109.950 Y1936.440 I 456.030 J-302.250
G2 X1178.530 Y1993.390 I 287.293 J-276.195
G2 X1251.620 Y2028.260 I 164.043 J-249.810
G2 X1327.000 Y2040.000 I  75.689 J-238.112
G2 X1402.380 Y2028.260 I  -0.309 J-249.852
G2 X1475.470 Y1993.390 I -90.953 J-284.680
G2 X1544.050 Y1936.440 I-218.713 J-333.145
G2 X1606.030 Y1859.160 I-394.050 J-379.530
G2 X1659.540 Y1763.890 I-611.530 J-406.139
G2 X1702.940 Y1653.530 I-850.032 J-397.996
G2 X1734.920 Y1531.410 I-1077.149 J-347.324
G2 X1754.500 Y1401.270 I-1257.005 J-255.664
G2 X1761.100 Y1267.050 I-1358.956 J-134.096
G2 X1754.500 Y1132.830 I-1365.556 J  -0.124
G2 X1734.920 Y1002.690 I-1276.585 J 125.524
G2 X1702.940 Y 880.580 I-1109.118 J 225.230
G2 X1659.540 Y 770.210 I-893.456 J 287.609
G2 X1606.030 Y 674.940 I-665.040 J 310.869
G2 X1544.050 Y 597.660 I-456.030 J 302.250
G2 X1475.470 Y 540.720 I-287.266 J 276.221
G2 X1402.380 Y 505.840 I-164.072 J 249.789
G2 X1327.000 Y 494.100 I -75.689 J 238.112
G2 X1251.620 Y 505.840 I   0.309 J 249.852
G2 X1178.530 Y 540.720 I  90.982 J 284.669
G2 X1109.950 Y 597.660 I 218.686 J 333.161
G2 X1047.970 Y 674.940 I 394.050 J 379.530
F150
G1 Z  -3.000
F400
G2 X 994.460 Y 770.210 I 611.530 J 406.139
G2 X 951.060 Y 880.580 I 850.056 J 397.979
G2 X 919.080 Y1002.690 I1077.138 J 347.340
G2 X 899.490 Y1132.830 I1256.951 J 255.754
G2 X 892.900 Y1267.050 I1358.961 J 133.995
G2 X 899.490 Y1401.270 I1365.551 J   0.225
G2 X 919.080 Y1531.410 I1276.541 J-125.614
G2 X 951.060 Y1653.530 I1109.129 J-225.204
G2 X 994.460 Y1763.890 I 893.432 J-287.636
G2 X1047.970 Y1859.160 I 665.040 J-310.869
G2 X1109.950 Y1936.440 I 456.030 J-302.250
G2 X1178.530 Y1993.390 I 287.293 J-276.195
G2 X1251.620 Y2028.260 I 164.043 J-249.810
G2 X1327.000 Y2040.000 I  75.689 J-238.112
G2 X1402.380 Y2028.260 I  -0.309 J-249.852
G2 X1475.470 Y1993.390 I -90.953 J-284.680
G2 X1544.050 Y1936.440 I-218.713 J-333.145
G2 X1606.030 Y1859.160 I-394.050 J-379.530
G2 X1659.540 Y1763.890 I-611.530 J-406.139
G2 X1702.940 Y1653.530 I-850.032 J-397.996
G2 X1734.920 Y1531.410 I-1077.149 J-347.324
G2 X1754.500 Y1401.270 I-1257.005 J-255.664
G2 X1761.100 Y1267.050 I-1358.956 J-134.096
G2 X1754.500 Y1132.830 I-1365.556 J  -0.124
G2 X1734.920 Y1002.690 I-1276.585 J 125.524
G2 X1702.940 Y 880.580 I-1109.118 J 225.230
G2 X1659.540 Y 770.210 I-893.456 J 287.609
G2 X1606.030 Y 674.940 I-665.040 J 310.869
G2 X1544.050 Y 597.660 I-456.030 J 302.250
G2 X1475.470 Y 540.720 I-287.266 J 276.221
G2 X1402.380 Y 505.840 I-164.072 J 249.789
G2 X1327.000 Y 494.100 I -75.689 J 238.112
G2 X1251.620 Y 505.840 I   0.309 J 249.852
G2 X1178.530 Y 540.720 I  90.982 J 284.669
G2 X1109.950 Y 597.660 I 218.686 J 333.161
G2 X1047.970 Y 674.940 I 394.050 J 379.530
F150
G1 Z   3.000
G0 Z  15.000 
M9 M5

(*** LAYER: BORDER_D0_T132_RK1_A0_W0_EM1_RI1_ID0026 ***)

(* SHAPE Nr: 27 *)
G0 X1772.600 Y1371.990
M3 M8
G0 Z   3.000 
G1 Z  -1.500
F400
G1 X1772.600 Y1882.300
G1 X2257.940 Y2040.000
G1 X2557.890 Y1627.140
G1 X2257.940 Y1214.290
G1 X1772.600 Y1371.990
F150
G1 Z  -3.000
F400
G1 X1772.600 Y1882.300
G1 X2257.940 Y2040.000
G1 X2557.890 Y1627.140
G1 X2257.940 Y1214.290
G1 X1772.600 Y1371.990
F150
G1 Z   3.000
G0 Z  15.000 
M9 M5

(* SHAPE Nr: 43 *)
G0 X1727.580 Y 860.800
M3 M8
G0 Z   3.000 
G1 Z  -1.500
F400
G1 X2027.530 Y1273.650
G1 X2512.870 Y1115.950
G1 X2512.870 Y 605.640
G1 X2027.530 Y 447.940
G1 X1727.580 Y 860.800
F150
G1 Z  -3.000
F400
G1 X2027.530 Y1273.650
G1 X2512.870 Y1115.950
G1 X2512.870 Y 605.640
G1 X2027.530 Y 447.940
G1 X1727.580 Y 860.800
F150
G1 Z   3.000
G0 Z  15.000 
M9 M5

(*** LAYER: BORDER_D0_T132.1_RK1_A0_W0_EM1 ***)

(* SHAPE Nr: 44 *)
G0 X  67.540 Y 129.600
M3 M8
G0 Z   3.000 
G1 Z  -1.500
F400
G2 X  42.950 Y 143.560 I  75.083 J 160.893
G2 X  24.830 Y 159.000 I  59.228 J  87.861
G2 X  13.740 Y 175.460 I  44.715 J  42.093
G2 X  10.000 Y 192.430 I  37.484 J  17.158
G2 X  13.740 Y 209.400 I  41.224 J  -0.188
G2 X  24.830 Y 225.860 I  55.805 J -25.633
G2 X  42.950 Y 241.300 I  77.348 J -72.421
G2 X  67.540 Y 255.250 I  99.610 J-146.938
G2 X  97.850 Y 267.300 I 115.683 J-246.838
G2 X 132.970 Y 277.070 I 119.408 J-361.226
G2 X 171.820 Y 284.270 I 107.654 J-472.468
G2 X 213.230 Y 288.680 I  80.734 J-561.467
G2 X 255.940 Y 290.170 I  42.714 J-611.486
G2 X 298.650 Y 288.680 I  -0.004 J-612.976
G2 X 340.060 Y 284.270 I -39.324 J-565.877
G2 X 378.910 Y 277.070 I -68.804 J-479.668
G2 X 414.030 Y 267.300 I -84.288 J-370.996
G2 X 444.340 Y 255.250 I -85.373 J-258.888
G2 X 468.930 Y 241.300 I -75.020 J-160.888
G2 X 487.050 Y 225.860 I -59.228 J -87.861
G2 X 498.140 Y 209.400 I -44.715 J -42.093
G2 X 501.880 Y 192.430 I -37.484 J -17.158
G2 X 498.140 Y 175.460 I -41.224 J   0.188
G2 X 487.050 Y 159.000 I -55.805 J  25.633
G2 X 468.930 Y 143.560 I -77.348 J  72.421
G2 X 444.340 Y 129.600 I -99.673 J 146.933
G2 X 414.030 Y 117.560 I-115.603 J 246.851
G2 X 378.910 Y 107.780 I-119.512 J 361.221
G2 X 340.060 Y 100.580 I-107.654 J 472.468
G2 X 298.650 Y  96.170 I -80.734 J 561.467
G2 X 255.940 Y  94.690 I -42.570 J 611.491
G2 X 213.230 Y  96.170 I  -0.140 J 612.971
G2 X 171.820 Y 100.580 I  39.324 J 565.877
G2 X 132.970 Y 107.780 I  68.804 J 479.668
G2 X  97.850 Y 117.560 I  84.392 J 371.001
G2 X  67.540 Y 129.600 I  85.289 J 258.883
F150
G1 Z  -3.000
F400
G2 X  42.950 Y 143.560 I  75.083 J 160.893
G2 X  24.830 Y 159.000 I  59.228 J  87.861
G2 X  13.740 Y 175.460 I  44.715 J  42.093
G2 X  10.000 Y 192.430 I  37.484 J  17.158
G2 X  13.740 Y 209.400 I  41.224 J  -0.188
G2 X  24.830 Y 225.860 I  55.805 J -25.633
G2 X  42.950 Y 241.300 I  77.348 J -72.421
G2 X  67.540 Y 255.250 I  99.610 J-146.938
G2 X  97.850 Y 267.300 I 115.683 J-246.838
G2 X 132.970 Y 277.070 I 119.408 J-361.226
G2 X 171.820 Y 284.270 I 107.654 J-472.468
G2 X 213.230 Y 288.680 I  80.734 J-561.467
G2 X 255.940 Y 290.170 I  42.714 J-611.486
G2 X 298.650 Y 288.680 I  -0.004 J-612.976
G2 X 340.060 Y 284.270 I -39.324 J-565.877
G2 X 378.910 Y 277.070 I -68.804 J-479.668
G2 X 414.030 Y 267.300 I -84.288 J-370.996
G2 X 444.340 Y 255.250 I -85.373 J-258.888
G2 X 468.930 Y 241.300 I -75.020 J-160.888
G2 X 487.050 Y 225.860 I -59.228 J -87.861
G2 X 498.140 Y 209.400 I -44.715 J -42.093
G2 X 501.880 Y 192.430 I -37.484 J -17.158
G2 X 498.140 Y 175.460 I -41.224 J   0.188
G2 X 487.050 Y 159.000 I -55.805 J  25.633
G2 X 468.930 Y 143.560 I -77.348 J  72.421
G2 X 444.340 Y 129.600 I -99.673 J 146.933
G2 X 414.030 Y 117.560 I-115.603 J 246.851
G2 X 378.910 Y 107.780 I-119.512 J 361.221
G2 X 340.060 Y 100.580 I-107.654 J 472.468
G2 X 298.650 Y  96.170 I -80.734 J 561.467
G2 X 255.940 Y  94.690 I -42.570 J 611.491
G2 X 213.230 Y  96.170 I  -0.140 J 612.971
G2 X 171.820 Y 100.580 I  39.324 J 565.877
G2 X 132.970 Y 107.780 I  68.804 J 479.668
G2 X  97.850 Y 117.560 I  84.392 J 371.001
G2 X  67.540 Y 129.600 I  85.289 J 258.883
F150
G1 Z   3.000
G0 Z  15.000 
M9 M5

(* SHAPE Nr: 45 *)
G0 X 511.430 Y 376.130
M3 M8
G0 Z   3.000 
G1 Z  -1.500
F400
G1 X 539.640 Y 425.000
G1 X 511.430 Y 473.870
G1 X 567.860 Y 473.870
G1 X 596.070 Y 522.740
G1 X 624.290 Y 473.870
G1 X 680.720 Y 473.870
G1 X 652.500 Y 425.000
G1 X 680.720 Y 376.130
G1 X 624.290 Y 376.130
G1 X 596.070 Y 327.260
G1 X 567.860 Y 376.130
G1 X 511.430 Y 376.130
F150
G1 Z  -3.000
F400
G1 X 539.640 Y 425.000
G1 X 511.430 Y 473.870
G1 X 567.860 Y 473.870
G1 X 596.070 Y 522.740
G1 X 624.290 Y 473.870
G1 X 680.720 Y 473.870
G1 X 652.500 Y 425.000
G1 X 680.720 Y 376.130
G1 X 624.290 Y 376.130
G1 X 596.070 Y 327.260
G1 X 567.860 Y 376.130
G1 X 511.430 Y 376.130
F150
G1 Z   3.000
G0 Z  15.000 
M9 M5

(* SHAPE Nr: 46 *)
G0 X  97.850 Y 327.730
M3 M8
G0 Z   3.000 
G1 Z  -1.500
F400
G2 X  67.540 Y 339.780 I  85.373 J 258.888
G2 X  42.950 Y 353.740 I  75.083 J 160.893
G2 X  24.830 Y 369.180 I  59.228 J  87.861
G2 X  13.740 Y 385.640 I  44.715 J  42.093
G2 X  10.000 Y 402.610 I  37.484 J  17.158
