(Generated with: DXF2GCODE, Version: REMOVED, Date: $Date$)
(Created from file: )
(Output format description: G-CODE for LinuxCNC)
(Time: Thu Sep 13 16:00:54 2018)
G21 (Units in millimeters)
G90 (Absolute programming)
G64 (Default cutting) G17 (XY plane) G40 (Cancel radius comp.) G49 (Cancel length comp.)
G0 Z  15.000 

(*** LAYER: FRAME_Z18 ***)
T1 M6
S6000

(* SHAPE Nr: 110 *)
G0 X   0.000 Y   0.000
M3 M8
G0 Z   3.000 
F150
G1 Z  -1.500
F400
G1 X   0.000 Y2050.000
G1 X2800.000 Y2050.000
G1 X2800.000 Y   0.000
G1 X   0.000 Y   0.000
F150
G1 Z  -3.000
F400
G1 X   0.000 Y2050.000
G1 X2800.000 Y2050.000
G1 X2800.000 Y   0.000
G1 X   0.000 Y   0.000
F150
G1 Z   3.000
G0 Z  15.000 
M9 M5

(*** LAYER: BORDER_D0_T132_RK1_A0_W0_EM1_RI1_ID0006 ***)

(* SHAPE Nr: 0 *)
G0 X  28.670 Y  76.820
M3 M8
G0 Z   3.000 
G1 Z  -1.500
F400
G1 X  40.200 Y 112.320
G1 X  10.000 Y 134.270
G1 X  40.200 Y 156.210
G1 X  28.670 Y 191.720
G1 X  66.000 Y 191.720
G1 X  77.540 Y 227.220
G1 X 107.740 Y 205.280
G1 X 137.940 Y 227.220
G1 X 149.480 Y 191.720
G1 X 186.810 Y 191.720
G1 X 175.280 Y 156.210
G1 X 205.480 Y 134.270
G1 X 175.280 Y 112.320
G1 X 186.810 Y  76.820
G1 X 149.480 Y  76.820
G1 X 137.940 Y  41.310
G1 X 107.740 Y  63.250
G1 X  77.540 Y  41.310
G1 X  66.000 Y  76.820
G1 X  28.670 Y  76.820
F150
G1 Z  -3.000
F400
G1 X  40.200 Y 112.320
G1 X  10.000 Y 134.270
G1 X  40.200 Y 156.210
G1 X  28.670 Y 191.720
G1 X  66.000 Y 191.720
G1 X  77.540 Y 227.220
G1 X 107.740 Y 205.280
G1 X 137.940 Y 227.220
G1 X 149.480 Y 191.720
G1 X 186.810 Y 191.720
G1 X 175.280 Y 156.210
G1 X 205.480 Y 134.270
G1 X 175.280 Y 112.320
G1 X 186.810 Y  76.820
G1 X 149.480 Y  76.820
G1 X 137.940 Y  41.310
G1 X 107.740 Y  63.250
G1 X  77.540 Y  41.310
G1 X  66.000 Y  76.820
G1 X  28.670 Y  76.820
F150
G1 Z   3.000
G0 Z  15.000 
M9 M5

(* SHAPE Nr: 1 *)
G0 X  77.540 Y 242.810
M3 M8
G0 Z   3.000 
G1 Z  -1.500
F400
G1 X  66.000 Y 278.320
G1 X  28.670 Y 278.320
G1 X  40.200 Y 313.820
G1 X  10.000 Y 335.770
G1 X  40.200 Y 357.710
G1 X  28.670 Y 393.220
G1 X  66.000 Y 393.220
G1 X  77.540 Y 428.720
G1 X 107.740 Y 406.780
G1 X 137.940 Y 428.720
G1 X 149.480 Y 393.220
G1 X 186.810 Y 393.220
G1 X 175.280 Y 357.710
G1 X 205.480 Y 335.770
G1 X 175.280 Y 313.820
G1 X 186.810 Y 278.320
G1 X 149.480 Y 278.320
G1 X 137.940 Y 242.810
G1 X 107.740 Y 264.750
G1 X  77.540 Y 242.810
F150
G1 Z  -3.000
F400
G1 X  66.000 Y 278.320
G1 X  28.670 Y 278.320
G1 X  40.200 Y 313.820
G1 X  10.000 Y 335.770
G1 X  40.200 Y 357.710
G1 X  28.670 Y 393.220
G1 X  66.000 Y 393.220
G1 X  77.540 Y 428.720
G1 X 107.740 Y 406.780
G1 X 137.940 Y 428.720
G1 X 149.480 Y 393.220
G1 X 186.810 Y 393.220
G1 X 175.280 Y 357.710
G1 X 205.480 Y 335.770
G1 X 175.280 Y 313.820
G1 X 186.810 Y 278.320
G1 X 149.480 Y 278.320
G1 X 137.940 Y 242.810
G1 X 107.740 Y 264.750
G1 X  77.540 Y 242.810
F150
G1 Z   3.000
G0 Z  15.000 
M9 M5

(* SHAPE Nr: 2 *)
G0 X  77.540 Y 444.210
M3 M8
G0 Z   3.000 
G1 Z  -1.500
F400
G1 X  66.000 Y 479.720
G1 X  28.670 Y 479.720
G1 X  40.200 Y 515.220
G1 X  10.000 Y 537.170
G1 X  40.200 Y 559.110
G1 X  28.670 Y 594.620
G1 X  66.000 Y 594.620
G1 X  77.540 Y 630.120
G1 X 107.740 Y 608.180
G1 X 137.940 Y 630.120
G1 X 149.480 Y 594.620
G1 X 186.810 Y 594.620
G1 X 175.280 Y 559.110
G1 X 205.480 Y 537.170
G1 X 175.280 Y 515.220
G1 X 186.810 Y 479.720
G1 X 149.480 Y 479.720
G1 X 137.940 Y 444.210
G1 X 107.740 Y 466.150
G1 X  77.540 Y 444.210
F150
G1 Z  -3.000
F400
G1 X  66.000 Y 479.720
G1 X  28.670 Y 479.720
G1 X  40.200 Y 515.220
G1 X  10.000 Y 537.170
G1 X  40.200 Y 559.110
G1 X  28.670 Y 594.620
G1 X  66.000 Y 594.620
G1 X  77.540 Y 630.120
G1 X 107.740 Y 608.180
G1 X 137.940 Y 630.120
G1 X 149.480 Y 594.620
G1 X 186.810 Y 594.620
G1 X 175.280 Y 559.110
G1 X 205.480 Y 537.170
G1 X 175.280 Y 515.220
G1 X 186.810 Y 479.720
G1 X 149.480 Y 479.720
G1 X 137.940 Y 444.210
G1 X 107.740 Y 466.150
G1 X  77.540 Y 444.210
F150
G1 Z   3.000
G0 Z  15.000 
M9 M5

(* SHAPE Nr: 3 *)
G0 X  77.540 Y 645.600
M3 M8
G0 Z   3.000 
G1 Z  -1.500
F400
G1 X  66.000 Y 681.110
G1 X  28.670 Y 681.110
G1 X  40.200 Y 716.610
G1 X  10.000 Y 738.560
G1 X  40.200 Y 760.500
G1 X  28.670 Y 796.010
G1 X  66.000 Y 796.010
G1 X  77.540 Y 831.510
G1 X 107.740 Y 809.570
G1 X 137.940 Y 831.510
G1 X 149.480 Y 796.010
G1 X 186.810 Y 796.010
G1 X 175.280 Y 760.500
G1 X 205.480 Y 738.560
G1 X 175.280 Y 716.610
G1 X 186.810 Y 681.110
G1 X 149.480 Y 681.110
G1 X 137.940 Y 645.600
G1 X 107.740 Y 667.540
G1 X  77.540 Y 645.600
F150
G1 Z  -3.000
F400
G1 X  66.000 Y 681.110
G1 X  28.670 Y 681.110
G1 X  40.200 Y 716.610
G1 X  10.000 Y 738.560
G1 X  40.200 Y 760.500
G1 X  28.670 Y 796.010
G1 X  66.000 Y 796.010
G1 X  77.540 Y 831.510
G1 X 107.740 Y 809.570
G1 X 137.940 Y 831.510
G1 X 149.480 Y 796.010
G1 X 186.810 Y 796.010
G1 X 175.280 Y 760.500
G1 X 205.480 Y 738.560
G1 X 175.280 Y 716.610
G1 X 186.810 Y 681.110
G1 X 149.480 Y 681.110
G1 X 137.940 Y 645.600
G1 X 107.740 Y 667.540
G1 X  77.540 Y 645.600
F150
G1 Z   3.000
G0 Z  15.000 
M9 M5

(* SHAPE Nr: 4 *)
G0 X  77.540 Y 847.000
M3 M8
G0 Z   3.000 
G1 Z  -1.500
F400
G1 X  66.000 Y 882.510
G1 X  28.670 Y 882.510
G1 X  40.200 Y 918.010
G1 X  10.000 Y 939.960
G1 X  40.200 Y 961.900
G1 X  28.670 Y 997.410
G1 X  66.000 Y 997.410
G1 X  77.540 Y1032.910
G1 X 107.740 Y1010.970
G1 X 137.940 Y1032.910
G1 X 149.480 Y 997.410
G1 X 186.810 Y 997.410
G1 X 175.280 Y 961.900
G1 X 205.480 Y 939.960
G1 X 175.280 Y 918.010
G1 X 186.810 Y 882.510
G1 X 149.480 Y 882.510
G1 X 137.940 Y 847.000
G1 X 107.740 Y 868.940
G1 X  77.540 Y 847.000
F150
G1 Z  -3.000
F400
G1 X  66.000 Y 882.510
G1 X  28.670 Y 882.510
G1 X  40.200 Y 918.010
G1 X  10.000 Y 939.960
G1 X  40.200 Y 961.900
G1 X  28.670 Y 997.410
G1 X  66.000 Y 997.410
G1 X  77.540 Y1032.910
G1 X 107.740 Y1010.970
G1 X 137.940 Y1032.910
G1 X 149.480 Y 997.410
G1 X 186.810 Y 997.410
G1 X 175.280 Y 961.900
G1 X 205.480 Y 939.960
G1 X 175.280 Y 918.010
G1 X 186.810 Y 882.510
G1 X 149.480 Y 882.510
G1 X 137.940 Y 847.000
G1 X 107.740 Y 868.940
G1 X  77.540 Y 847.000
F150
G1 Z   3.000
G0 Z  15.000 
M9 M5

(* SHAPE Nr: 5 *)
G0 X  77.540 Y1048.360
M3 M8
G0 Z   3.000 
G1 Z  -1.500
F400
G1 X  66.000 Y1083.870
G1 X  28.670 Y1083.870
G1 X  40.200 Y1119.370
G1 X  10.000 Y1141.320
G1 X  40.200 Y1163.260
G1 X  28.670 Y1198.770
G1 X  66.000 Y1198.770
G1 X  77.540 Y1234.270
G1 X 107.740 Y1212.330
G1 X 137.940 Y1234.270
G1 X 149.480 Y1198.770
G1 X 186.810 Y1198.770
G1 X 175.280 Y1163.260
G1 X 205.480 Y1141.320
G1 X 175.280 Y1119.370
G1 X 186.810 Y1083.870
G1 X 149.480 Y1083.870
G1 X 137.940 Y1048.360
G1 X 107.740 Y1070.300
G1 X  77.540 Y1048.360
F150
G1 Z  -3.000
F400
G1 X  66.000 Y1083.870
G1 X  28.670 Y1083.870
G1 X  40.200 Y1119.370
G1 X  10.000 Y1141.320
G1 X  40.200 Y1163.260
G1 X  28.670 Y1198.770
G1 X  66.000 Y1198.770
G1 X  77.540 Y1234.270
G1 X 107.740 Y1212.330
G1 X 137.940 Y1234.270
G1 X 149.480 Y1198.770
G1 X 186.810 Y1198.770
G1 X 175.280 Y1163.260
G1 X 205.480 Y1141.320
G1 X 175.280 Y1119.370
G1 X 186.810 Y1083.870
G1 X 149.480 Y1083.870
G1 X 137.940 Y1048.360
G1 X 107.740 Y1070.300
G1 X  77.540 Y1048.360
F150
G1 Z   3.000
G0 Z  15.000 
M9 M5

(* SHAPE Nr: 6 *)
G0 X  77.540 Y1249.800
M3 M8
G0 Z   3.000 
G1 Z  -1.500
F400
G1 X  66.000 Y1285.310
G1 X  28.670 Y1285.310
G1 X  40.200 Y1320.810
G1 X  10.000 Y1342.760
G1 X  40.200 Y1364.700
G1 X  28.670 Y1400.210
G1 X  66.000 Y1400.210
G1 X  77.540 Y1435.710
G1 X 107.740 Y1413.770
G1 X 137.940 Y1435.710
G1 X 149.480 Y1400.210
G1 X 186.810 Y1400.210
G1 X 175.280 Y1364.700
G1 X 205.480 Y1342.760
G1 X 175.280 Y1320.810
G1 X 186.810 Y1285.310
G1 X 149.480 Y1285.310
G1 X 137.940 Y1249.800
G1 X 107.740 Y1271.740
G1 X  77.540 Y1249.800
F150
G1 Z  -3.000
F400
G1 X  66.000 Y1285.310
G1 X  28.670 Y1285.310
G1 X  40.200 Y1320.810
G1 X  10.000 Y1342.760
G1 X  40.200 Y1364.700
G1 X  28.670 Y1400.210
G1 X  66.000 Y1400.210
G1 X  77.540 Y1435.710
G1 X 107.740 Y1413.770
G1 X 137.940 Y1435.710
G1 X 149.480 Y1400.210
G1 X 186.810 Y1400.210
G1 X 175.280 Y1364.700
G1 X 205.480 Y1342.760
G1 X 175.280 Y1320.810
G1 X 186.810 Y1285.310
G1 X 149.480 Y1285.310
G1 X 137.940 Y1249.800
G1 X 107.740 Y1271.740
G1 X  77.540 Y1249.800
F150
G1 Z   3.000
G0 Z  15.000 
M9 M5

(* SHAPE Nr: 7 *)
G0 X  77.540 Y1451.230
M3 M8
G0 Z   3.000 
G1 Z  -1.500
F400
G1 X  66.000 Y1486.740
G1 X  28.670 Y1486.740
G1 X  40.200 Y1522.240
G1 X  10.000 Y1544.190
G1 X  40.200 Y1566.130
G1 X  28.670 Y1601.640
G1 X  66.000 Y1601.640
G1 X  77.540 Y1637.140
G1 X 107.740 Y1615.200
G1 X 137.940 Y1637.140
G1 X 149.480 Y1601.640
G1 X 186.810 Y1601.640
G1 X 175.280 Y1566.130
G1 X 205.480 Y1544.190
G1 X 175.280 Y1522.240
G1 X 186.810 Y1486.740
G1 X 149.480 Y1486.740
G1 X 137.940 Y1451.230
G1 X 107.740 Y1473.170
G1 X  77.540 Y1451.230
F150
G1 Z  -3.000
F400
G1 X  66.000 Y1486.740
G1 X  28.670 Y1486.740
G1 X  40.200 Y1522.240
G1 X  10.000 Y1544.190
G1 X  40.200 Y1566.130
G1 X  28.670 Y1601.640
G1 X  66.000 Y1601.640
G1 X  77.540 Y1637.140
G1 X 107.740 Y1615.200
G1 X 137.940 Y1637.140
G1 X 149.480 Y1601.640
G1 X 186.810 Y1601.640
G1 X 175.280 Y1566.130
G1 X 205.480 Y1544.190
G1 X 175.280 Y1522.240
G1 X 186.810 Y1486.740
G1 X 149.480 Y1486.740
G1 X 137.940 Y1451.230
G1 X 107.740 Y1473.170
G1 X  77.540 Y1451.230
F150
G1 Z   3.000
G0 Z  15.000 
M9 M5

(* SHAPE Nr: 8 *)
G0 X  77.540 Y1652.660
M3 M8
G0 Z   3.000 
G1 Z  -1.500
F400
G1 X  66.000 Y1688.170
G1 X  28.670 Y1688.170
G1 X  40.200 Y1723.670
G1 X  10.000 Y1745.620
G1 X  40.200 Y1767.560
G1 X  28.670 Y1803.070
G1 X  66.000 Y1803.070
G1 X  77.540 Y1838.570
G1 X 107.740 Y1816.630
G1 X 137.940 Y1838.570
G1 X 149.480 Y1803.070
G1 X 186.810 Y1803.070
G1 X 175.280 Y1767.560
G1 X 205.480 Y1745.620
G1 X 175.280 Y1723.670
G1 X 186.810 Y1688.170
G1 X 149.480 Y1688.170
G1 X 137.940 Y1652.660
G1 X 107.740 Y1674.600
G1 X  77.540 Y1652.660
F150
G1 Z  -3.000
F400
G1 X  66.000 Y1688.170
G1 X  28.670 Y1688.170
G1 X  40.200 Y1723.670
G1 X  10.000 Y1745.620
G1 X  40.200 Y1767.560
G1 X  28.670 Y1803.070
G1 X  66.000 Y1803.070
G1 X  77.540 Y1838.570
G1 X 107.740 Y1816.630
G1 X 137.940 Y1838.570
G1 X 149.480 Y1803.070
G1 X 186.810 Y1803.070
G1 X 175.280 Y1767.560
G1 X 205.480 Y1745.620
G1 X 175.280 Y1723.670
G1 X 186.810 Y1688.170
G1 X 149.480 Y1688.170
G1 X 137.940 Y1652.660
G1 X 107.740 Y1674.600
G1 X  77.540 Y1652.660
F150
G1 Z   3.000
G0 Z  15.000 
M9 M5

(* SHAPE Nr: 9 *)
G0 X  77.540 Y1854.090
M3 M8
G0 Z   3.000 
G1 Z  -1.500
F400
G1 X  66.000 Y1889.600
G1 X  28.670 Y1889.600
G1 X  40.200 Y1925.100
G1 X  10.000 Y1947.050
G1 X  40.200 Y1968.990
G1 X  28.670 Y2004.500
G1 X  66.000 Y2004.500
G1 X  77.540 Y2040.000
G1 X 107.740 Y2018.060
G1 X 137.940 Y2040.000
G1 X 149.480 Y2004.500
G1 X 186.810 Y2004.500
G1 X 175.280 Y1968.990
G1 X 205.480 Y1947.050
G1 X 175.280 Y1925.100
G1 X 186.810 Y1889.600
G1 X 149.480 Y1889.600
G1 X 137.940 Y1854.090
G1 X 107.740 Y1876.030
G1 X  77.540 Y1854.090
F150
G1 Z  -3.000
F400
G1 X  66.000 Y1889.600
G1 X  28.670 Y1889.600
G1 X  40.200 Y1925.100
G1 X  10.000 Y1947.050
G1 X  40.200 Y1968.990
G1 X  28.670 Y2004.500
G1 X  66.000 Y2004.500
G1 X  77.540 Y2040.000
G1 X 107.740 Y2018.060
G1 X 137.940 Y2040.000
G1 X 149.480 Y2004.500
G1 X 186.810 Y2004.500
G1 X 175.280 Y1968.990
G1 X 205.480 Y1947.050
G1 X 175.280 Y1925.100
G1 X 186.810 Y1889.600
G1 X 149.480 Y1889.600
G1 X 137.940 Y1854.090
G1 X 107.740 Y1876.030
G1 X  77.540 Y1854.090
F150
G1 Z   3.000
G0 Z  15.000 
M9 M5

(* SHAPE Nr: 10 *)
G0 X 300.160 Y1844.520
M3 M8
G0 Z   3.000 
G1 Z  -1.500
F400
G1 X 278.210 Y1874.720
G1 X 242.710 Y1863.190
G1 X 242.710 Y1900.520
G1 X 207.200 Y1912.050
G1 X 229.140 Y1942.260
G1 X 207.200 Y1972.450
G1 X 242.710 Y1984.000
G1 X 242.710 Y2021.320
G1 X 278.210 Y2009.790
G1 X 300.160 Y2040.000
G1 X 322.100 Y2009.790
G1 X 357.620 Y2021.320
G1 X 357.620 Y1984.000
G1 X 393.120 Y1972.450
G1 X 371.180 Y1942.260
G1 X 393.120 Y1912.050
G1 X 357.620 Y1900.520
G1 X 357.620 Y1863.190
G1 X 322.100 Y1874.720
G1 X 300.160 Y1844.520
F150
G1 Z  -3.000
F400
G1 X 278.210 Y1874.720
G1 X 242.710 Y1863.190
G1 X 242.710 Y1900.520
G1 X 207.200 Y1912.050
G1 X 229.140 Y1942.260
G1 X 207.200 Y1972.450
G1 X 242.710 Y1984.000
G1 X 242.710 Y2021.320
G1 X 278.210 Y2009.790
G1 X 300.160 Y2040.000
G1 X 322.100 Y2009.790
G1 X 357.620 Y2021.320
G1 X 357.620 Y1984.000
G1 X 393.120 Y1972.450
G1 X 371.180 Y1942.260
G1 X 393.120 Y1912.050
G1 X 357.620 Y1900.520
G1 X 357.620 Y1863.190
G1 X 322.100 Y1874.720
G1 X 300.160 Y1844.520
F150
G1 Z   3.000
G0 Z  15.000 
M9 M5

(* SHAPE Nr: 11 *)
G0 X 462.390 Y1854.090
M3 M8
G0 Z   3.000 
G1 Z  -1.500
F400
G1 X 450.850 Y1889.600
G1 X 413.520 Y1889.600
G1 X 425.050 Y1925.100
G1 X 394.850 Y1947.050
G1 X 425.050 Y1968.990
G1 X 413.520 Y2004.500
G1 X 450.850 Y2004.500
G1 X 462.390 Y2040.000
G1 X 492.590 Y2018.060
G1 X 522.790 Y2040.000
G1 X 534.330 Y2004.500
G1 X 571.660 Y2004.500
G1 X 560.130 Y1968.990
G1 X 590.330 Y1947.050
G1 X 560.130 Y1925.100
G1 X 571.660 Y1889.600
G1 X 534.330 Y1889.600
G1 X 522.790 Y1854.090
G1 X 492.590 Y1876.030
G1 X 462.390 Y1854.090
F150
G1 Z  -3.000
F400
G1 X 450.850 Y1889.600
G1 X 413.520 Y1889.600
G1 X 425.050 Y1925.100
G1 X 394.850 Y1947.050
G1 X 425.050 Y1968.990
G1 X 413.520 Y2004.500
G1 X 450.850 Y2004.500
G1 X 462.390 Y2040.000
G1 X 492.590 Y2018.060
G1 X 522.790 Y2040.000
G1 X 534.330 Y2004.500
G1 X 571.660 Y2004.500
G1 X 560.130 Y1968.990
G1 X 590.330 Y1947.050
G1 X 560.130 Y1925.100
G1 X 571.660 Y1889.600
G1 X 534.330 Y1889.600
G1 X 522.790 Y1854.090
G1 X 492.590 Y1876.030
G1 X 462.390 Y1854.090
F150
G1 Z   3.000
G0 Z  15.000 
M9 M5

(* SHAPE Nr: 12 *)
G0 X 628.360 Y1863.190
M3 M8
G0 Z   3.000 
G1 Z  -1.500
F400
G1 X 628.360 Y1900.520
G1 X 592.850 Y1912.050
G1 X 614.790 Y1942.260
G1 X 592.850 Y1972.450
G1 X 628.360 Y1984.000
G1 X 628.360 Y2021.320
G1 X 663.860 Y2009.790
G1 X 685.810 Y2040.000
G1 X 707.750 Y2009.790
G1 X 743.270 Y2021.320
G1 X 743.270 Y1984.000
G1 X 778.770 Y1972.450
G1 X 756.830 Y1942.260
G1 X 778.770 Y1912.050
G1 X 743.270 Y1900.520
G1 X 743.270 Y1863.190
G1 X 707.750 Y1874.720
G1 X 685.810 Y1844.520
G1 X 663.860 Y1874.720
G1 X 628.360 Y1863.190
F150
G1 Z  -3.000
F400
G1 X 628.360 Y1900.520
G1 X 592.850 Y1912.050
G1 X 614.790 Y1942.260
G1 X 592.850 Y1972.450
G1 X 628.360 Y1984.000
G1 X 628.360 Y2021.320
G1 X 663.860 Y2009.790
G1 X 685.810 Y2040.000
G1 X 707.750 Y2009.790
G1 X 743.270 Y2021.320
G1 X 743.270 Y1984.000
G1 X 778.770 Y1972.450
G1 X 756.830 Y1942.260
G1 X 778.770 Y1912.050
G1 X 743.270 Y1900.520
G1 X 743.270 Y1863.190
G1 X 707.750 Y1874.720
G1 X 685.810 Y1844.520
G1 X 663.860 Y1874.720
G1 X 628.360 Y1863.190
F150
G1 Z   3.000
G0 Z  15.000 
M9 M5

(* SHAPE Nr: 15 *)
G0 X 848.070 Y1854.090
M3 M8
G0 Z   3.000 
G1 Z  -1.500
F400
G1 X 836.530 Y1889.600
G1 X 799.200 Y1889.600
G1 X 810.730 Y1925.100
G1 X 780.530 Y1947.050
G1 X 810.730 Y1968.990
G1 X 799.200 Y2004.500
G1 X 836.530 Y2004.500
G1 X 848.070 Y2040.000
G1 X 878.270 Y2018.060
G1 X 908.470 Y2040.000
G1 X 920.010 Y2004.500
G1 X 957.340 Y2004.500
G1 X 945.810 Y1968.990
G1 X 976.010 Y1947.050
G1 X 945.810 Y1925.100
G1 X 957.340 Y1889.600
G1 X 920.010 Y1889.600
G1 X 908.470 Y1854.090
G1 X 878.270 Y1876.030
G1 X 848.070 Y1854.090
F150
G1 Z  -3.000
F400
G1 X 836.530 Y1889.600
G1 X 799.200 Y1889.600
G1 X 810.730 Y1925.100
G1 X 780.530 Y1947.050
G1 X 810.730 Y1968.990
G1 X 799.200 Y2004.500
G1 X 836.530 Y2004.500
G1 X 848.070 Y2040.000
G1 X 878.270 Y2018.060
G1 X 908.470 Y2040.000
G1 X 920.010 Y2004.500
G1 X 957.340 Y2004.500
G1 X 945.810 Y1968.990
G1 X 976.010 Y1947.050
G1 X 945.810 Y1925.100
G1 X 957.340 Y1889.600
G1 X 920.010 Y1889.600
G1 X 908.470 Y1854.090
G1 X 878.270 Y1876.030
G1 X 848.070 Y1854.090
F150
G1 Z   3.000
G0 Z  15.000 
M9 M5

(* SHAPE Nr: 16 *)
G0 X1013.200 Y1863.190
M3 M8
G0 Z   3.000 
G1 Z  -1.500
F400
G1 X1013.200 Y1900.520
G1 X 977.690 Y1912.050
G1 X 999.630 Y1942.260
G1 X 977.690 Y1972.450
G1 X1013.200 Y1984.000
G1 X1013.200 Y2021.320
G1 X1048.700 Y2009.790
G1 X1070.650 Y2040.000
G1 X1092.590 Y2009.790
G1 X1128.110 Y2021.320
G1 X1128.110 Y1984.000
G1 X1163.610 Y1972.450
G1 X1141.670 Y1942.260
G1 X1163.610 Y1912.050
G1 X1128.110 Y1900.520
G1 X1128.110 Y1863.190
G1 X1092.590 Y1874.720
G1 X1070.650 Y1844.520
G1 X1048.700 Y1874.720
G1 X1013.200 Y1863.190
F150
G1 Z  -3.000
F400
G1 X1013.200 Y1900.520
G1 X 977.690 Y1912.050
G1 X 999.630 Y1942.260
G1 X 977.690 Y1972.450
G1 X1013.200 Y1984.000
G1 X1013.200 Y2021.320
G1 X1048.700 Y2009.790
G1 X1070.650 Y2040.000
G1 X1092.590 Y2009.790
G1 X1128.110 Y2021.320
G1 X1128.110 Y1984.000
G1 X1163.610 Y1972.450
G1 X1141.670 Y1942.260
G1 X1163.610 Y1912.050
G1 X1128.110 Y1900.520
G1 X1128.110 Y1863.190
G1 X1092.590 Y1874.720
G1 X1070.650 Y1844.520
G1 X1048.700 Y1874.720
G1 X1013.200 Y1863.190
F150
G1 Z   3.000
G0 Z  15.000 
M9 M5

(* SHAPE Nr: 17 *)
G0 X1083.930 Y1677.850
M3 M8
G0 Z   3.000 
G1 Z  -1.500
F400
G1 X1083.930 Y1715.180
G1 X1048.420 Y1726.710
G1 X1070.360 Y1756.920
G1 X1048.420 Y1787.110
G1 X1083.930 Y1798.660
G1 X1083.930 Y1835.980
G1 X1119.430 Y1824.450
G1 X1141.380 Y1854.660
G1 X1163.320 Y1824.450
G1 X1198.840 Y1835.980
G1 X1198.840 Y1798.660
G1 X1234.340 Y1787.110
G1 X1212.400 Y1756.920
G1 X1234.340 Y1726.710
G1 X1198.840 Y1715.180
G1 X1198.840 Y1677.850
G1 X1163.320 Y1689.380
G1 X1141.380 Y1659.180
G1 X1119.430 Y1689.380
G1 X1083.930 Y1677.850
F150
G1 Z  -3.000
F400
G1 X1083.930 Y1715.180
G1 X1048.420 Y1726.710
G1 X1070.360 Y1756.920
G1 X1048.420 Y1787.110
G1 X1083.930 Y1798.660
G1 X1083.930 Y1835.980
G1 X1119.430 Y1824.450
G1 X1141.380 Y1854.660
G1 X1163.320 Y1824.450
G1 X1198.840 Y1835.980
G1 X1198.840 Y1798.660
G1 X1234.340 Y1787.110
G1 X1212.400 Y1756.920
G1 X1234.340 Y1726.710
G1 X1198.840 Y1715.180
G1 X1198.840 Y1677.850
G1 X1163.320 Y1689.380
G1 X1141.380 Y1659.180
G1 X1119.430 Y1689.380
G1 X1083.930 Y1677.850
F150
G1 Z   3.000
G0 Z  15.000 
M9 M5

(* SHAPE Nr: 18 *)
G0 X1165.570 Y1506.550
M3 M8
G0 Z   3.000 
G1 Z  -1.500
F400
G1 X1165.570 Y1543.880
G1 X1130.060 Y1555.410
G1 X1152.000 Y1585.620
G1 X1130.060 Y1615.810
G1 X1165.570 Y1627.360
G1 X1165.570 Y1664.680
G1 X1201.070 Y1653.150
G1 X1223.020 Y1683.360
G1 X1244.960 Y1653.150
G1 X1280.480 Y1664.680
G1 X1280.480 Y1627.360
G1 X1315.980 Y1615.810
G1 X1294.040 Y1585.620
G1 X1315.980 Y1555.410
G1 X1280.480 Y1543.880
G1 X1280.480 Y1506.550
G1 X1244.960 Y1518.080
G1 X1223.020 Y1487.880
G1 X1201.070 Y1518.080
G1 X1165.570 Y1506.550
F150
G1 Z  -3.000
F400
G1 X1165.570 Y1543.880
G1 X1130.060 Y1555.410
G1 X1152.000 Y1585.620
G1 X1130.060 Y1615.810
G1 X1165.570 Y1627.360
G1 X1165.570 Y1664.680
G1 X1201.070 Y1653.150
G1 X1223.020 Y1683.360
G1 X1244.960 Y1653.150
G1 X1280.480 Y1664.680
G1 X1280.480 Y1627.360
G1 X1315.980 Y1615.810
G1 X1294.040 Y1585.620
G1 X1315.980 Y1555.410
G1 X1280.480 Y1543.880
G1 X1280.480 Y1506.550
G1 X1244.960 Y1518.080
G1 X1223.020 Y1487.880
G1 X1201.070 Y1518.080
G1 X1165.570 Y1506.550
F150
G1 Z   3.000
G0 Z  15.000 
M9 M5

(* SHAPE Nr: 21 *)
G0 X1623.420 Y1277.300
M3 M8
G0 Z   3.000 
G1 Z  -1.500
F400
G1 X1623.420 Y1314.630
G1 X1587.910 Y1326.160
G1 X1609.850 Y1356.370
G1 X1587.910 Y1386.560
G1 X1623.420 Y1398.110
G1 X1623.420 Y1435.430
G1 X1658.920 Y1423.900
G1 X1680.870 Y1454.110
G1 X1702.810 Y1423.900
G1 X1738.330 Y1435.430
G1 X1738.330 Y1398.110
G1 X1773.830 Y1386.560
G1 X1751.890 Y1356.370
G1 X1773.830 Y1326.160
G1 X1738.330 Y1314.630
G1 X1738.330 Y1277.300
G1 X1702.810 Y1288.830
G1 X1680.870 Y1258.630
G1 X1658.920 Y1288.830
G1 X1623.420 Y1277.300
F150
G1 Z  -3.000
F400
G1 X1623.420 Y1314.630
G1 X1587.910 Y1326.160
G1 X1609.850 Y1356.370
G1 X1587.910 Y1386.560
G1 X1623.420 Y1398.110
G1 X1623.420 Y1435.430
G1 X1658.920 Y1423.900
G1 X1680.870 Y1454.110
G1 X1702.810 Y1423.900
G1 X1738.330 Y1435.430
G1 X1738.330 Y1398.110
G1 X1773.830 Y1386.560
G1 X1751.890 Y1356.370
G1 X1773.830 Y1326.160
G1 X1738.330 Y1314.630
G1 X1738.330 Y1277.300
G1 X1702.810 Y1288.830
G1 X1680.870 Y1258.630
G1 X1658.920 Y1288.830
G1 X1623.420 Y1277.300
F150
G1 Z   3.000
G0 Z  15.000 
M9 M5

(* SHAPE Nr: 22 *)
G0 X1807.520 Y1310.180
M3 M8
G0 Z   3.000 
G1 Z  -1.500
F400
G1 X1807.520 Y1347.510
G1 X1772.010 Y1359.040
G1 X1793.950 Y1389.250
G1 X1772.010 Y1419.440
G1 X1807.520 Y1430.990
G1 X1807.520 Y1468.310
G1 X1843.020 Y1456.780
G1 X1864.970 Y1486.990
G1 X1886.910 Y1456.780
G1 X1922.430 Y1468.310
G1 X1922.430 Y1430.990
G1 X1957.930 Y1419.440
G1 X1935.990 Y1389.250
G1 X1957.930 Y1359.040
G1 X1922.430 Y1347.510
G1 X1922.430 Y1310.180
G1 X1886.910 Y1321.710
G1 X1864.970 Y1291.510
G1 X1843.020 Y1321.710
G1 X1807.520 Y1310.180
F150
G1 Z  -3.000
F400
G1 X1807.520 Y1347.510
G1 X1772.010 Y1359.040
G1 X1793.950 Y1389.250
G1 X1772.010 Y1419.440
G1 X1807.520 Y1430.990
G1 X1807.520 Y1468.310
G1 X1843.020 Y1456.780
G1 X1864.970 Y1486.990
G1 X1886.910 Y1456.780
G1 X1922.430 Y1468.310
G1 X1922.430 Y1430.990
G1 X1957.930 Y1419.440
G1 X1935.990 Y1389.250
G1 X1957.930 Y1359.040
G1 X1922.430 Y1347.510
G1 X1922.430 Y1310.180
G1 X1886.910 Y1321.710
G1 X1864.970 Y1291.510
G1 X1843.020 Y1321.710
G1 X1807.520 Y1310.180
F150
G1 Z   3.000
G0 Z  15.000 
M9 M5

(* SHAPE Nr: 23 *)
G0 X1882.220 Y1495.850
M3 M8
G0 Z   3.000 
G1 Z  -1.500
F400
G1 X1882.220 Y1533.180
G1 X1846.710 Y1544.710
G1 X1868.650 Y1574.920
G1 X1846.710 Y1605.110
G1 X1882.220 Y1616.660
G1 X1882.220 Y1653.980
G1 X1917.720 Y1642.450
G1 X1939.670 Y1672.660
G1 X1961.610 Y1642.450
G1 X1997.130 Y1653.980
G1 X1997.130 Y1616.660
G1 X2032.630 Y1605.110
G1 X2010.690 Y1574.920
G1 X2032.630 Y1544.710
G1 X1997.130 Y1533.180
G1 X1997.130 Y1495.850
G1 X1961.610 Y1507.380
G1 X1939.670 Y1477.180
G1 X1917.720 Y1507.380
G1 X1882.220 Y1495.850
F150
G1 Z  -3.000
F400
G1 X1882.220 Y1533.180
G1 X1846.710 Y1544.710
G1 X1868.650 Y1574.920
G1 X1846.710 Y1605.110
G1 X1882.220 Y1616.660
G1 X1882.220 Y1653.980
G1 X1917.720 Y1642.450
G1 X1939.670 Y1672.660
G1 X1961.610 Y1642.450
G1 X1997.130 Y1653.980
G1 X1997.130 Y1616.660
G1 X2032.630 Y1605.110
G1 X2010.690 Y1574.920
G1 X2032.630 Y1544.710
G1 X1997.130 Y1533.180
G1 X1997.130 Y1495.850
G1 X1961.610 Y1507.380
G1 X1939.670 Y1477.180
G1 X1917.720 Y1507.380
G1 X1882.220 Y1495.850
F150
G1 Z   3.000
G0 Z  15.000 
M9 M5

(* SHAPE Nr: 24 *)
G0 X1866.380 Y1694.540
M3 M8
G0 Z   3.000 
G1 Z  -1.500
F400
G1 X1866.380 Y1731.870
G1 X1830.870 Y1743.400
G1 X1852.810 Y1773.610
G1 X1830.870 Y1803.800
G1 X1866.380 Y1815.350
G1 X1866.380 Y1852.670
G1 X1901.880 Y1841.140
G1 X1923.830 Y1871.350
G1 X1945.770 Y1841.140
G1 X1981.290 Y1852.670
G1 X1981.290 Y1815.350
G1 X2016.790 Y1803.800
G1 X1994.850 Y1773.610
G1 X2016.790 Y1743.400
G1 X1981.290 Y1731.870
G1 X1981.290 Y1694.540
G1 X1945.770 Y1706.070
G1 X1923.830 Y1675.870
G1 X1901.880 Y1706.070
G1 X1866.380 Y1694.540
F150
G1 Z  -3.000
F400
G1 X1866.380 Y1731.870
G1 X1830.870 Y1743.400
G1 X1852.810 Y1773.610
G1 X1830.870 Y1803.800
G1 X1866.380 Y1815.350
G1 X1866.380 Y1852.670
G1 X1901.880 Y1841.140
G1 X1923.830 Y1871.350
G1 X1945.770 Y1841.140
G1 X1981.290 Y1852.670
G1 X1981.290 Y1815.350
G1 X2016.790 Y1803.800
G1 X1994.850 Y1773.610
G1 X2016.790 Y1743.400
G1 X1981.290 Y1731.870
G1 X1981.290 Y1694.540
G1 X1945.770 Y1706.070
G1 X1923.830 Y1675.870
G1 X1901.880 Y1706.070
G1 X1866.380 Y1694.540
F150
G1 Z   3.000
G0 Z  15.000 
M9 M5

(* SHAPE Nr: 25 *)
G0 X1782.820 Y1863.190
M3 M8
G0 Z   3.000 
G1 Z  -1.500
F400
G1 X1782.820 Y1900.520
G1 X1747.310 Y1912.050
G1 X1769.250 Y1942.260
G1 X1747.310 Y1972.450
G1 X1782.820 Y1984.000
G1 X1782.820 Y2021.320
G1 X1818.320 Y2009.790
G1 X1840.270 Y2040.000
G1 X1862.210 Y2009.790
G1 X1897.730 Y2021.320
G1 X1897.730 Y1984.000
G1 X1933.230 Y1972.450
G1 X1911.290 Y1942.260
G1 X1933.230 Y1912.050
G1 X1897.730 Y1900.520
G1 X1897.730 Y1863.190
G1 X1862.210 Y1874.720
G1 X1840.270 Y1844.520
G1 X1818.320 Y1874.720
G1 X1782.820 Y1863.190
F150
G1 Z  -3.000
F400
G1 X1782.820 Y1900.520
G1 X1747.310 Y1912.050
G1 X1769.250 Y1942.260
G1 X1747.310 Y1972.450
G1 X1782.820 Y1984.000
G1 X1782.820 Y2021.320
G1 X1818.320 Y2009.790
G1 X1840.270 Y2040.000
G1 X1862.210 Y2009.790
G1 X1897.730 Y2021.320
G1 X1897.730 Y1984.000
G1 X1933.230 Y1972.450
G1 X1911.290 Y1942.260
G1 X1933.230 Y1912.050
G1 X1897.730 Y1900.520
G1 X1897.730 Y1863.190
G1 X1862.210 Y1874.720
G1 X1840.270 Y1844.520
G1 X1818.320 Y1874.720
G1 X1782.820 Y1863.190
F150
G1 Z   3.000
G0 Z  15.000 
M9 M5

(* SHAPE Nr: 26 *)
G0 X1568.780 Y1889.600
M3 M8
G0 Z   3.000 
G1 Z  -1.500
F400
G1 X1580.310 Y1925.100
G1 X1550.110 Y1947.050
G1 X1580.310 Y1968.990
G1 X1568.780 Y2004.500
G1 X1606.110 Y2004.500
G1 X1617.650 Y2040.000
G1 X1647.850 Y2018.060
G1 X1678.050 Y2040.000
G1 X1689.590 Y2004.500
G1 X1726.920 Y2004.500
G1 X1715.390 Y1968.990
G1 X1745.590 Y1947.050
G1 X1715.390 Y1925.100
G1 X1726.920 Y1889.600
G1 X1689.590 Y1889.600
G1 X1678.050 Y1854.090
G1 X1647.850 Y1876.030
G1 X1617.650 Y1854.090
G1 X1606.110 Y1889.600
G1 X1568.780 Y1889.600
F150
G1 Z  -3.000
F400
G1 X1580.310 Y1925.100
G1 X1550.110 Y1947.050
G1 X1580.310 Y1968.990
G1 X1568.780 Y2004.500
G1 X1606.110 Y2004.500
G1 X1617.650 Y2040.000
G1 X1647.850 Y2018.060
G1 X1678.050 Y2040.000
G1 X1689.590 Y2004.500
G1 X1726.920 Y2004.500
G1 X1715.390 Y1968.990
G1 X1745.590 Y1947.050
G1 X1715.390 Y1925.100
G1 X1726.920 Y1889.600
G1 X1689.590 Y1889.600
G1 X1678.050 Y1854.090
G1 X1647.850 Y1876.030
G1 X1617.650 Y1854.090
G1 X1606.110 Y1889.600
G1 X1568.780 Y1889.600
F150
G1 Z   3.000
G0 Z  15.000 
M9 M5

(* SHAPE Nr: 27 *)
G0 X1644.080 Y1681.880
M3 M8
G0 Z   3.000 
G1 Z  -1.500
F400
G1 X1644.080 Y1719.210
G1 X1608.570 Y1730.740
G1 X1630.510 Y1760.950
G1 X1608.570 Y1791.140
G1 X1644.080 Y1802.690
G1 X1644.080 Y1840.010
G1 X1679.580 Y1828.480
G1 X1701.530 Y1858.690
G1 X1723.470 Y1828.480
G1 X1758.990 Y1840.010
G1 X1758.990 Y1802.690
G1 X1794.490 Y1791.140
G1 X1772.550 Y1760.950
G1 X1794.490 Y1730.740
G1 X1758.990 Y1719.210
G1 X1758.990 Y1681.880
G1 X1723.470 Y1693.410
G1 X1701.530 Y1663.210
G1 X1679.580 Y1693.410
G1 X1644.080 Y1681.880
F150
G1 Z  -3.000
F400
G1 X1644.080 Y1719.210
G1 X1608.570 Y1730.740
G1 X1630.510 Y1760.950
G1 X1608.570 Y1791.140
G1 X1644.080 Y1802.690
G1 X1644.080 Y1840.010
G1 X1679.580 Y1828.480
G1 X1701.530 Y1858.690
G1 X1723.470 Y1828.480
G1 X1758.990 Y1840.010
G1 X1758.990 Y1802.690
G1 X1794.490 Y1791.140
G1 X1772.550 Y1760.950
G1 X1794.490 Y1730.740
G1 X1758.990 Y1719.210
G1 X1758.990 Y1681.880
G1 X1723.470 Y1693.410
G1 X1701.530 Y1663.210
G1 X1679.580 Y1693.410
G1 X1644.080 Y1681.880
F150
G1 Z   3.000
G0 Z  15.000 
M9 M5

(* SHAPE Nr: 28 *)
G0 X1541.830 Y1516.600
M3 M8
G0 Z   3.000 
G1 Z  -1.500
F400
G1 X1553.360 Y1552.100
G1 X1523.160 Y1574.050
G1 X1553.360 Y1595.990
G1 X1541.830 Y1631.500
G1 X1579.160 Y1631.500
G1 X1590.700 Y1667.000
G1 X1620.900 Y1645.060
G1 X1651.100 Y1667.000
G1 X1662.640 Y1631.500
G1 X1699.970 Y1631.500
G1 X1688.440 Y1595.990
G1 X1718.640 Y1574.050
G1 X1688.440 Y1552.100
G1 X1699.970 Y1516.600
G1 X1662.640 Y1516.600
G1 X1651.100 Y1481.090
G1 X1620.900 Y1503.030
G1 X1590.700 Y1481.090
G1 X1579.160 Y1516.600
G1 X1541.830 Y1516.600
F150
G1 Z  -3.000
F400
G1 X1553.360 Y1552.100
G1 X1523.160 Y1574.050
G1 X1553.360 Y1595.990
G1 X1541.830 Y1631.500
G1 X1579.160 Y1631.500
G1 X1590.700 Y1667.000
G1 X1620.900 Y1645.060
G1 X1651.100 Y1667.000
G1 X1662.640 Y1631.500
G1 X1699.970 Y1631.500
G1 X1688.440 Y1595.990
G1 X1718.640 Y1574.050
G1 X1688.440 Y1552.100
G1 X1699.970 Y1516.600
G1 X1662.640 Y1516.600
G1 X1651.100 Y1481.090
G1 X1620.900 Y1503.030
G1 X1590.700 Y1481.090
G1 X1579.160 Y1516.600
G1 X1541.830 Y1516.600
F150
G1 Z   3.000
G0 Z  15.000 
M9 M5

(* SHAPE Nr: 30 *)
G0 X1232.860 Y1854.090
M3 M8
G0 Z   3.000 
G1 Z  -1.500
F400
G1 X1221.320 Y1889.600
G1 X1183.990 Y1889.600
G1 X1195.520 Y1925.100
G1 X1165.320 Y1947.050
G1 X1195.520 Y1968.990
G1 X1183.990 Y2004.500
G1 X1221.320 Y2004.500
G1 X1232.860 Y2040.000
G1 X1263.060 Y2018.060
G1 X1293.260 Y2040.000
G1 X1304.800 Y2004.500
G1 X1342.130 Y2004.500
G1 X1330.600 Y1968.990
G1 X1360.800 Y1947.050
G1 X1330.600 Y1925.100
G1 X1342.130 Y1889.600
G1 X1304.800 Y1889.600
G1 X1293.260 Y1854.090
G1 X1263.060 Y1876.030
G1 X1232.860 Y1854.090
F150
G1 Z  -3.000
F400
G1 X1221.320 Y1889.600
G1 X1183.990 Y1889.600
G1 X1195.520 Y1925.100
G1 X1165.320 Y1947.050
G1 X1195.520 Y1968.990
G1 X1183.990 Y2004.500
G1 X1221.320 Y2004.500
G1 X1232.860 Y2040.000
G1 X1263.060 Y2018.060
G1 X1293.260 Y2040.000
G1 X1304.800 Y2004.500
G1 X1342.130 Y2004.500
G1 X1330.600 Y1968.990
G1 X1360.800 Y1947.050
G1 X1330.600 Y1925.100
G1 X1342.130 Y1889.600
G1 X1304.800 Y1889.600
G1 X1293.260 Y1854.090
G1 X1263.060 Y1876.030
G1 X1232.860 Y1854.090
F150
G1 Z   3.000
G0 Z  15.000 
M9 M5

(* SHAPE Nr: 31 *)
G0 X1398.000 Y1863.190
M3 M8
G0 Z   3.000 
G1 Z  -1.500
F400
G1 X1398.000 Y1900.520
G1 X1362.490 Y1912.050
G1 X1384.430 Y1942.260
G1 X1362.490 Y1972.450
G1 X1398.000 Y1984.000
G1 X1398.000 Y2021.320
G1 X1433.500 Y2009.790
G1 X1455.450 Y2040.000
G1 X1477.390 Y2009.790
G1 X1512.910 Y2021.320
G1 X1512.910 Y1984.000
G1 X1548.410 Y1972.450
G1 X1526.470 Y1942.260
G1 X1548.410 Y1912.050
G1 X1512.910 Y1900.520
G1 X1512.910 Y1863.190
G1 X1477.390 Y1874.720
G1 X1455.450 Y1844.520
G1 X1433.500 Y1874.720
G1 X1398.000 Y1863.190
F150
G1 Z  -3.000
F400
G1 X1398.000 Y1900.520
G1 X1362.490 Y1912.050
G1 X1384.430 Y1942.260
G1 X1362.490 Y1972.450
G1 X1398.000 Y1984.000
G1 X1398.000 Y2021.320
G1 X1433.500 Y2009.790
G1 X1455.450 Y2040.000
G1 X1477.390 Y2009.790
G1 X1512.910 Y2021.320
G1 X1512.910 Y1984.000
G1 X1548.410 Y1972.450
G1 X1526.470 Y1942.260
G1 X1548.410 Y1912.050
G1 X1512.910 Y1900.520
G1 X1512.910 Y1863.190
G1 X1477.390 Y1874.720
G1 X1455.450 Y1844.520
G1 X1433.500 Y1874.720
G1 X1398.000 Y1863.190
F150
G1 Z   3.000
G0 Z  15.000 
M9 M5

(* SHAPE Nr: 35 *)
G0 X1797.850 Y 946.520
M3 M8
G0 Z   3.000 
G1 Z  -1.500
F400
G1 X1819.790 Y 976.730
G1 X1797.850 Y1006.920
G1 X1833.360 Y1018.470
G1 X1833.360 Y1055.790
G1 X1868.860 Y1044.260
G1 X1890.810 Y1074.470
G1 X1912.750 Y1044.260
G1 X1948.270 Y1055.790
G1 X1948.270 Y1018.470
G1 X1983.770 Y1006.920
G1 X1961.830 Y 976.730
G1 X1983.770 Y 946.520
G1 X1948.270 Y 934.990
G1 X1948.270 Y 897.660
G1 X1912.750 Y 909.190
G1 X1890.810 Y 878.990
G1 X1868.860 Y 909.190
G1 X1833.360 Y 897.660
G1 X1833.360 Y 934.990
G1 X1797.850 Y 946.520
F150
G1 Z  -3.000
F400
G1 X1819.790 Y 976.730
G1 X1797.850 Y1006.920
G1 X1833.360 Y1018.470
G1 X1833.360 Y1055.790
G1 X1868.860 Y1044.260
G1 X1890.810 Y1074.470
G1 X1912.750 Y1044.260
G1 X1948.270 Y1055.790
G1 X1948.270 Y1018.470
G1 X1983.770 Y1006.920
G1 X1961.830 Y 976.730
G1 X1983.770 Y 946.520
G1 X1948.270 Y 934.990
G1 X1948.270 Y 897.660
G1 X1912.750 Y 909.190
G1 X1890.810 Y 878.990
G1 X1868.860 Y 909.190
G1 X1833.360 Y 897.660
G1 X1833.360 Y 934.990
G1 X1797.850 Y 946.520
F150
G1 Z   3.000
G0 Z  15.000 
M9 M5

(* SHAPE Nr: 36 *)
G0 X1781.770 Y1144.950
M3 M8
G0 Z   3.000 
G1 Z  -1.500
F400
G1 X1803.710 Y1175.160
G1 X1781.770 Y1205.350
G1 X1817.280 Y1216.900
G1 X1817.280 Y1254.220
G1 X1852.780 Y1242.690
G1 X1874.730 Y1272.900
G1 X1896.670 Y1242.690
G1 X1932.190 Y1254.220
G1 X1932.190 Y1216.900
G1 X1967.690 Y1205.350
G1 X1945.750 Y1175.160
G1 X1967.690 Y1144.950
G1 X1932.190 Y1133.420
G1 X1932.190 Y1096.090
G1 X1896.670 Y1107.620
G1 X1874.730 Y1077.420
G1 X1852.780 Y1107.620
G1 X1817.280 Y1096.090
G1 X1817.280 Y1133.420
G1 X1781.770 Y1144.950
F150
G1 Z  -3.000
F400
G1 X1803.710 Y1175.160
G1 X1781.770 Y1205.350
G1 X1817.280 Y1216.900
G1 X1817.280 Y1254.220
G1 X1852.780 Y1242.690
G1 X1874.730 Y1272.900
G1 X1896.670 Y1242.690
G1 X1932.190 Y1254.220
G1 X1932.190 Y1216.900
G1 X1967.690 Y1205.350
G1 X1945.750 Y1175.160
G1 X1967.690 Y1144.950
G1 X1932.190 Y1133.420
G1 X1932.190 Y1096.090
G1 X1896.670 Y1107.620
G1 X1874.730 Y1077.420
G1 X1852.780 Y1107.620
G1 X1817.280 Y1096.090
G1 X1817.280 Y1133.420
G1 X1781.770 Y1144.950
F150
G1 Z   3.000
G0 Z  15.000 
M9 M5

(* SHAPE Nr: 37 *)
G0 X1600.370 Y1108.940
M3 M8
G0 Z   3.000 
G1 Z  -1.500
F400
G1 X1611.900 Y1144.440
G1 X1581.700 Y1166.390
G1 X1611.900 Y1188.330
G1 X1600.370 Y1223.840
G1 X1637.700 Y1223.840
G1 X1649.240 Y1259.340
G1 X1679.440 Y1237.400
G1 X1709.640 Y1259.340
G1 X1721.180 Y1223.840
G1 X1758.510 Y1223.840
G1 X1746.980 Y1188.330
G1 X1777.180 Y1166.390
G1 X1746.980 Y1144.440
G1 X1758.510 Y1108.940
G1 X1721.180 Y1108.940
G1 X1709.640 Y1073.430
G1 X1679.440 Y1095.370
G1 X1649.240 Y1073.430
G1 X1637.700 Y1108.940
G1 X1600.370 Y1108.940
F150
G1 Z  -3.000
F400
G1 X1611.900 Y1144.440
G1 X1581.700 Y1166.390
G1 X1611.900 Y1188.330
G1 X1600.370 Y1223.840
G1 X1637.700 Y1223.840
G1 X1649.240 Y1259.340
G1 X1679.440 Y1237.400
G1 X1709.640 Y1259.340
G1 X1721.180 Y1223.840
G1 X1758.510 Y1223.840
G1 X1746.980 Y1188.330
G1 X1777.180 Y1166.390
G1 X1746.980 Y1144.440
G1 X1758.510 Y1108.940
G1 X1721.180 Y1108.940
G1 X1709.640 Y1073.430
G1 X1679.440 Y1095.370
G1 X1649.240 Y1073.430
G1 X1637.700 Y1108.940
G1 X1600.370 Y1108.940
F150
G1 Z   3.000
G0 Z  15.000 
M9 M5

(* SHAPE Nr: 38 *)
G0 X1443.080 Y 977.920
M3 M8
G0 Z   3.000 
G1 Z  -1.500
F400
G1 X1465.020 Y1008.130
G1 X1443.080 Y1038.320
G1 X1478.590 Y1049.870
G1 X1478.590 Y1087.190
G1 X1514.090 Y1075.660
G1 X1536.040 Y1105.870
G1 X1557.980 Y1075.660
G1 X1593.500 Y1087.190
G1 X1593.500 Y1049.870
G1 X1629.000 Y1038.320
G1 X1607.060 Y1008.130
G1 X1629.000 Y 977.920
G1 X1593.500 Y 966.390
G1 X1593.500 Y 929.060
G1 X1557.980 Y 940.590
G1 X1536.040 Y 910.390
G1 X1514.090 Y 940.590
G1 X1478.590 Y 929.060
G1 X1478.590 Y 966.390
G1 X1443.080 Y 977.920
F150
G1 Z  -3.000
F400
G1 X1465.020 Y1008.130
G1 X1443.080 Y1038.320
G1 X1478.590 Y1049.870
G1 X1478.590 Y1087.190
G1 X1514.090 Y1075.660
G1 X1536.040 Y1105.870
G1 X1557.980 Y1075.660
G1 X1593.500 Y1087.190
G1 X1593.500 Y1049.870
G1 X1629.000 Y1038.320
G1 X1607.060 Y1008.130
G1 X1629.000 Y 977.920
G1 X1593.500 Y 966.390
G1 X1593.500 Y 929.060
G1 X1557.980 Y 940.590
G1 X1536.040 Y 910.390
G1 X1514.090 Y 940.590
G1 X1478.590 Y 929.060
G1 X1478.590 Y 966.390
G1 X1443.080 Y 977.920
F150
G1 Z   3.000
G0 Z  15.000 
M9 M5

(* SHAPE Nr: 39 *)
G0 X1294.250 Y 850.930
M3 M8
G0 Z   3.000 
G1 Z  -1.500
F400
G1 X1316.190 Y 881.140
G1 X1294.250 Y 911.330
G1 X1329.760 Y 922.880
G1 X1329.760 Y 960.200
G1 X1365.260 Y 948.670
G1 X1387.210 Y 978.880
G1 X1409.150 Y 948.670
G1 X1444.670 Y 960.200
G1 X1444.670 Y 922.880
G1 X1480.170 Y 911.330
G1 X1458.230 Y 881.140
G1 X1480.170 Y 850.930
G1 X1444.670 Y 839.400
G1 X1444.670 Y 802.070
G1 X1409.150 Y 813.600
G1 X1387.210 Y 783.400
G1 X1365.260 Y 813.600
G1 X1329.760 Y 802.070
G1 X1329.760 Y 839.400
G1 X1294.250 Y 850.930
F150
G1 Z  -3.000
F400
G1 X1316.190 Y 881.140
G1 X1294.250 Y 911.330
G1 X1329.760 Y 922.880
G1 X1329.760 Y 960.200
G1 X1365.260 Y 948.670
G1 X1387.210 Y 978.880
G1 X1409.150 Y 948.670
G1 X1444.670 Y 960.200
G1 X1444.670 Y 922.880
G1 X1480.170 Y 911.330
G1 X1458.230 Y 881.140
G1 X1480.170 Y 850.930
G1 X1444.670 Y 839.400
G1 X1444.670 Y 802.070
G1 X1409.150 Y 813.600
G1 X1387.210 Y 783.400
G1 X1365.260 Y 813.600
G1 X1329.760 Y 802.070
G1 X1329.760 Y 839.400
G1 X1294.250 Y 850.930
F150
G1 Z   3.000
G0 Z  15.000 
M9 M5

(* SHAPE Nr: 40 *)
G0 X1135.710 Y 848.620
M3 M8
G0 Z   3.000 
G1 Z  -1.500
F400
G1 X1135.710 Y 885.950
G1 X1100.200 Y 897.480
G1 X1122.140 Y 927.690
G1 X1100.200 Y 957.880
G1 X1135.710 Y 969.430
G1 X1135.710 Y1006.750
G1 X1171.210 Y 995.220
G1 X1193.160 Y1025.430
G1 X1215.100 Y 995.220
G1 X1250.620 Y1006.750
G1 X1250.620 Y 969.430
G1 X1286.120 Y 957.880
G1 X1264.180 Y 927.690
G1 X1286.120 Y 897.480
G1 X1250.620 Y 885.950
G1 X1250.620 Y 848.620
G1 X1215.100 Y 860.150
G1 X1193.160 Y 829.950
G1 X1171.210 Y 860.150
G1 X1135.710 Y 848.620
F150
G1 Z  -3.000
F400
G1 X1135.710 Y 885.950
G1 X1100.200 Y 897.480
G1 X1122.140 Y 927.690
G1 X1100.200 Y 957.880
G1 X1135.710 Y 969.430
G1 X1135.710 Y1006.750
G1 X1171.210 Y 995.220
G1 X1193.160 Y1025.430
G1 X1215.100 Y 995.220
G1 X1250.620 Y1006.750
G1 X1250.620 Y 969.430
G1 X1286.120 Y 957.880
G1 X1264.180 Y 927.690
G1 X1286.120 Y 897.480
G1 X1250.620 Y 885.950
G1 X1250.620 Y 848.620
G1 X1215.100 Y 860.150
G1 X1193.160 Y 829.950
G1 X1171.210 Y 860.150
G1 X1135.710 Y 848.620
F150
G1 Z   3.000
G0 Z  15.000 
M9 M5

(* SHAPE Nr: 41 *)
G0 X1006.090 Y 981.820
M3 M8
G0 Z   3.000 
G1 Z  -1.500
F400
G1 X1006.090 Y1019.150
G1 X 970.580 Y1030.680
G1 X 992.520 Y1060.890
G1 X 970.580 Y1091.080
G1 X1006.090 Y1102.630
G1 X1006.090 Y1139.950
G1 X1041.590 Y1128.420
G1 X1063.540 Y1158.630
G1 X1085.480 Y1128.420
G1 X1121.000 Y1139.950
G1 X1121.000 Y1102.630
G1 X1156.500 Y1091.080
G1 X1134.560 Y1060.890
G1 X1156.500 Y1030.680
G1 X1121.000 Y1019.150
G1 X1121.000 Y 981.820
G1 X1085.480 Y 993.350
G1 X1063.540 Y 963.150
G1 X1041.590 Y 993.350
G1 X1006.090 Y 981.820
F150
G1 Z  -3.000
F400
G1 X1006.090 Y1019.150
G1 X 970.580 Y1030.680
G1 X 992.520 Y1060.890
G1 X 970.580 Y1091.080
G1 X1006.090 Y1102.630
G1 X1006.090 Y1139.950
G1 X1041.590 Y1128.420
G1 X1063.540 Y1158.630
G1 X1085.480 Y1128.420
G1 X1121.000 Y1139.950
G1 X1121.000 Y1102.630
G1 X1156.500 Y1091.080
G1 X1134.560 Y1060.890
G1 X1156.500 Y1030.680
G1 X1121.000 Y1019.150
G1 X1121.000 Y 981.820
G1 X1085.480 Y 993.350
G1 X1063.540 Y 963.150
G1 X1041.590 Y 993.350
G1 X1006.090 Y 981.820
F150
G1 Z   3.000
G0 Z  15.000 
M9 M5

(* SHAPE Nr: 44 *)
G0 X1188.640 Y1317.770
M3 M8
G0 Z   3.000 
G1 Z  -1.500
F400
G1 X1188.640 Y1355.100
G1 X1153.130 Y1366.630
G1 X1175.070 Y1396.840
G1 X1153.130 Y1427.030
G1 X1188.640 Y1438.580
G1 X1188.640 Y1475.900
G1 X1224.140 Y1464.370
G1 X1246.090 Y1494.580
G1 X1268.030 Y1464.370
G1 X1303.550 Y1475.900
G1 X1303.550 Y1438.580
G1 X1339.050 Y1427.030
G1 X1317.110 Y1396.840
G1 X1339.050 Y1366.630
G1 X1303.550 Y1355.100
G1 X1303.550 Y1317.770
G1 X1268.030 Y1329.300
G1 X1246.090 Y1299.100
G1 X1224.140 Y1329.300
G1 X1188.640 Y1317.770
F150
G1 Z  -3.000
F400
G1 X1188.640 Y1355.100
G1 X1153.130 Y1366.630
G1 X1175.070 Y1396.840
G1 X1153.130 Y1427.030
G1 X1188.640 Y1438.580
G1 X1188.640 Y1475.900
G1 X1224.140 Y1464.370
G1 X1246.090 Y1494.580
G1 X1268.030 Y1464.370
G1 X1303.550 Y1475.900
G1 X1303.550 Y1438.580
G1 X1339.050 Y1427.030
G1 X1317.110 Y1396.840
G1 X1339.050 Y1366.630
G1 X1303.550 Y1355.100
G1 X1303.550 Y1317.770
G1 X1268.030 Y1329.300
G1 X1246.090 Y1299.100
G1 X1224.140 Y1329.300
G1 X1188.640 Y1317.770
F150
G1 Z   3.000
G0 Z  15.000 
M9 M5

(* SHAPE Nr: 45 *)
G0 X1205.190 Y1120.040
M3 M8
G0 Z   3.000 
G1 Z  -1.500
F400
G1 X1205.190 Y1157.370
G1 X1169.680 Y1168.900
G1 X1191.620 Y1199.110
G1 X1169.680 Y1229.300
G1 X1205.190 Y1240.850
G1 X1205.190 Y1278.170
G1 X1240.690 Y1266.640
G1 X1262.640 Y1296.850
G1 X1284.580 Y1266.640
G1 X1320.100 Y1278.170
G1 X1320.100 Y1240.850
G1 X1355.600 Y1229.300
G1 X1333.660 Y1199.110
G1 X1355.600 Y1168.900
G1 X1320.100 Y1157.370
G1 X1320.100 Y1120.040
G1 X1284.580 Y1131.570
G1 X1262.640 Y1101.370
G1 X1240.690 Y1131.570
G1 X1205.190 Y1120.040
F150
G1 Z  -3.000
F400
G1 X1205.190 Y1157.370
G1 X1169.680 Y1168.900
G1 X1191.620 Y1199.110
G1 X1169.680 Y1229.300
G1 X1205.190 Y1240.850
G1 X1205.190 Y1278.170
G1 X1240.690 Y1266.640
G1 X1262.640 Y1296.850
G1 X1284.580 Y1266.640
G1 X1320.100 Y1278.170
G1 X1320.100 Y1240.850
G1 X1355.600 Y1229.300
G1 X1333.660 Y1199.110
G1 X1355.600 Y1168.900
G1 X1320.100 Y1157.370
G1 X1320.100 Y1120.040
G1 X1284.580 Y1131.570
G1 X1262.640 Y1101.370
G1 X1240.690 Y1131.570
G1 X1205.190 Y1120.040
F150
G1 Z   3.000
G0 Z  15.000 
M9 M5

(* SHAPE Nr: 46 *)
G0 X1400.490 Y1105.230
M3 M8
G0 Z   3.000 
G1 Z  -1.500
F400
G1 X1400.490 Y1142.560
G1 X1364.980 Y1154.090
G1 X1386.920 Y1184.300
G1 X1364.980 Y1214.490
G1 X1400.490 Y1226.040
G1 X1400.490 Y1263.360
G1 X1435.990 Y1251.830
G1 X1457.940 Y1282.040
G1 X1479.880 Y1251.830
G1 X1515.400 Y1263.360
G1 X1515.400 Y1226.040
G1 X1550.900 Y1214.490
G1 X1528.960 Y1184.300
G1 X1550.900 Y1154.090
G1 X1515.400 Y1142.560
G1 X1515.400 Y1105.230
G1 X1479.880 Y1116.760
G1 X1457.940 Y1086.560
G1 X1435.990 Y1116.760
G1 X1400.490 Y1105.230
F150
G1 Z  -3.000
F400
G1 X1400.490 Y1142.560
G1 X1364.980 Y1154.090
G1 X1386.920 Y1184.300
G1 X1364.980 Y1214.490
G1 X1400.490 Y1226.040
G1 X1400.490 Y1263.360
G1 X1435.990 Y1251.830
G1 X1457.940 Y1282.040
G1 X1479.880 Y1251.830
G1 X1515.400 Y1263.360
G1 X1515.400 Y1226.040
G1 X1550.900 Y1214.490
G1 X1528.960 Y1184.300
G1 X1550.900 Y1154.090
G1 X1515.400 Y1142.560
G1 X1515.400 Y1105.230
G1 X1479.880 Y1116.760
G1 X1457.940 Y1086.560
G1 X1435.990 Y1116.760
G1 X1400.490 Y1105.230
F150
G1 Z   3.000
G0 Z  15.000 
M9 M5

(* SHAPE Nr: 47 *)
G0 X1704.160 Y 779.790
M3 M8
G0 Z   3.000 
G1 Z  -1.500
F400
G1 X1726.100 Y 810.000
G1 X1704.160 Y 840.190
G1 X1739.670 Y 851.740
G1 X1739.670 Y 889.060
G1 X1775.170 Y 877.530
G1 X1797.120 Y 907.740
G1 X1819.060 Y 877.530
G1 X1854.580 Y 889.060
G1 X1854.580 Y 851.740
G1 X1890.080 Y 840.190
G1 X1868.140 Y 810.000
G1 X1890.080 Y 779.790
G1 X1854.580 Y 768.260
G1 X1854.580 Y 730.930
G1 X1819.060 Y 742.460
G1 X1797.120 Y 712.260
G1 X1775.170 Y 742.460
G1 X1739.670 Y 730.930
G1 X1739.670 Y 768.260
G1 X1704.160 Y 779.790
F150
G1 Z  -3.000
F400
G1 X1726.100 Y 810.000
G1 X1704.160 Y 840.190
G1 X1739.670 Y 851.740
G1 X1739.670 Y 889.060
G1 X1775.170 Y 877.530
G1 X1797.120 Y 907.740
G1 X1819.060 Y 877.530
G1 X1854.580 Y 889.060
G1 X1854.580 Y 851.740
G1 X1890.080 Y 840.190
G1 X1868.140 Y 810.000
G1 X1890.080 Y 779.790
G1 X1854.580 Y 768.260
G1 X1854.580 Y 730.930
G1 X1819.060 Y 742.460
G1 X1797.120 Y 712.260
G1 X1775.170 Y 742.460
G1 X1739.670 Y 730.930
G1 X1739.670 Y 768.260
G1 X1704.160 Y 779.790
F150
G1 Z   3.000
G0 Z  15.000 
M9 M5

(* SHAPE Nr: 48 *)
G0 X1576.490 Y 587.460
M3 M8
G0 Z   3.000 
G1 Z  -1.500
F400
G1 X1598.430 Y 617.670
G1 X1576.490 Y 647.860
G1 X1612.000 Y 659.410
G1 X1612.000 Y 696.730
G1 X1647.500 Y 685.200
G1 X1669.450 Y 715.410
G1 X1691.390 Y 685.200
G1 X1726.910 Y 696.730
G1 X1726.910 Y 659.410
G1 X1762.410 Y 647.860
G1 X1740.470 Y 617.670
G1 X1762.410 Y 587.460
G1 X1726.910 Y 575.930
G1 X1726.910 Y 538.600
G1 X1691.390 Y 550.130
G1 X1669.450 Y 519.930
G1 X1647.500 Y 550.130
G1 X1612.000 Y 538.600
G1 X1612.000 Y 575.930
G1 X1576.490 Y 587.460
F150
G1 Z  -3.000
F400
G1 X1598.430 Y 617.670
G1 X1576.490 Y 647.860
G1 X1612.000 Y 659.410
G1 X1612.000 Y 696.730
G1 X1647.500 Y 685.200
G1 X1669.450 Y 715.410
G1 X1691.390 Y 685.200
G1 X1726.910 Y 696.730
G1 X1726.910 Y 659.410
G1 X1762.410 Y 647.860
G1 X1740.470 Y 617.670
G1 X1762.410 Y 587.460
G1 X1726.910 Y 575.930
G1 X1726.910 Y 538.600
G1 X1691.390 Y 550.130
G1 X1669.450 Y 519.930
G1 X1647.500 Y 550.130
G1 X1612.000 Y 538.600
G1 X1612.000 Y 575.930
G1 X1576.490 Y 587.460
F150
G1 Z   3.000
G0 Z  15.000 
M9 M5

(* SHAPE Nr: 49 *)
G0 X1481.370 Y 719.260
M3 M8
G0 Z   3.000 
G1 Z  -1.500
F400
G1 X1492.900 Y 754.760
G1 X1462.700 Y 776.710
G1 X1492.900 Y 798.650
G1 X1481.370 Y 834.160
G1 X1518.700 Y 834.160
G1 X1530.240 Y 869.660
G1 X1560.440 Y 847.720
G1 X1590.640 Y 869.660
G1 X1602.180 Y 834.160
G1 X1639.510 Y 834.160
G1 X1627.980 Y 798.650
G1 X1658.180 Y 776.710
G1 X1627.980 Y 754.760
G1 X1639.510 Y 719.260
G1 X1602.180 Y 719.260
G1 X1590.640 Y 683.750
G1 X1560.440 Y 705.690
G1 X1530.240 Y 683.750
G1 X1518.700 Y 719.260
G1 X1481.370 Y 719.260
F150
G1 Z  -3.000
F400
G1 X1492.900 Y 754.760
G1 X1462.700 Y 776.710
G1 X1492.900 Y 798.650
G1 X1481.370 Y 834.160
G1 X1518.700 Y 834.160
G1 X1530.240 Y 869.660
G1 X1560.440 Y 847.720
G1 X1590.640 Y 869.660
G1 X1602.180 Y 834.160
G1 X1639.510 Y 834.160
G1 X1627.980 Y 798.650
G1 X1658.180 Y 776.710
G1 X1627.980 Y 754.760
G1 X1639.510 Y 719.260
G1 X1602.180 Y 719.260
G1 X1590.640 Y 683.750
G1 X1560.440 Y 705.690
G1 X1530.240 Y 683.750
G1 X1518.700 Y 719.260
G1 X1481.370 Y 719.260
F150
G1 Z   3.000
G0 Z  15.000 
M9 M5

(* SHAPE Nr: 50 *)
G0 X1306.790 Y 630.090
M3 M8
G0 Z   3.000 
G1 Z  -1.500
F400
G1 X1328.730 Y 660.300
G1 X1306.790 Y 690.490
G1 X1342.300 Y 702.040
G1 X1342.300 Y 739.360
G1 X1377.800 Y 727.830
G1 X1399.750 Y 758.040
G1 X1421.690 Y 727.830
G1 X1457.210 Y 739.360
G1 X1457.210 Y 702.040
G1 X1492.710 Y 690.490
G1 X1470.770 Y 660.300
G1 X1492.710 Y 630.090
G1 X1457.210 Y 618.560
G1 X1457.210 Y 581.230
G1 X1421.690 Y 592.760
G1 X1399.750 Y 562.560
G1 X1377.800 Y 592.760
G1 X1342.300 Y 581.230
G1 X1342.300 Y 618.560
G1 X1306.790 Y 630.090
F150
G1 Z  -3.000
F400
G1 X1328.730 Y 660.300
G1 X1306.790 Y 690.490
G1 X1342.300 Y 702.040
G1 X1342.300 Y 739.360
G1 X1377.800 Y 727.830
G1 X1399.750 Y 758.040
G1 X1421.690 Y 727.830
G1 X1457.210 Y 739.360
G1 X1457.210 Y 702.040
G1 X1492.710 Y 690.490
G1 X1470.770 Y 660.300
G1 X1492.710 Y 630.090
G1 X1457.210 Y 618.560
G1 X1457.210 Y 581.230
G1 X1421.690 Y 592.760
G1 X1399.750 Y 562.560
G1 X1377.800 Y 592.760
G1 X1342.300 Y 581.230
G1 X1342.300 Y 618.560
G1 X1306.790 Y 630.090
F150
G1 Z   3.000
G0 Z  15.000 
M9 M5

(* SHAPE Nr: 51 *)
G0 X1431.710 Y 450.010
M3 M8
G0 Z   3.000 
G1 Z  -1.500
F400
G1 X1443.240 Y 485.510
G1 X1413.040 Y 507.460
G1 X1443.240 Y 529.400
G1 X1431.710 Y 564.910
G1 X1469.040 Y 564.910
G1 X1480.580 Y 600.410
G1 X1510.780 Y 578.470
G1 X1540.980 Y 600.410
G1 X1552.520 Y 564.910
G1 X1589.850 Y 564.910
G1 X1578.320 Y 529.400
G1 X1608.520 Y 507.460
G1 X1578.320 Y 485.510
G1 X1589.850 Y 450.010
G1 X1552.520 Y 450.010
G1 X1540.980 Y 414.500
G1 X1510.780 Y 436.440
G1 X1480.580 Y 414.500
G1 X1469.040 Y 450.010
G1 X1431.710 Y 450.010
F150
G1 Z  -3.000
F400
G1 X1443.240 Y 485.510
G1 X1413.040 Y 507.460
G1 X1443.240 Y 529.400
G1 X1431.710 Y 564.910
G1 X1469.040 Y 564.910
G1 X1480.580 Y 600.410
G1 X1510.780 Y 578.470
G1 X1540.980 Y 600.410
G1 X1552.520 Y 564.910
G1 X1589.850 Y 564.910
G1 X1578.320 Y 529.400
G1 X1608.520 Y 507.460
G1 X1578.320 Y 485.510
G1 X1589.850 Y 450.010
G1 X1552.520 Y 450.010
G1 X1540.980 Y 414.500
G1 X1510.780 Y 436.440
G1 X1480.580 Y 414.500
G1 X1469.040 Y 450.010
G1 X1431.710 Y 450.010
F150
G1 Z   3.000
G0 Z  15.000 
M9 M5

(* SHAPE Nr: 52 *)
G0 X1263.970 Y 353.550
M3 M8
G0 Z   3.000 
G1 Z  -1.500
F400
G1 X1285.910 Y 383.760
G1 X1263.970 Y 413.950
G1 X1299.480 Y 425.500
G1 X1299.480 Y 462.820
G1 X1334.980 Y 451.290
G1 X1356.930 Y 481.500
G1 X1378.870 Y 451.290
G1 X1414.390 Y 462.820
G1 X1414.390 Y 425.500
G1 X1449.890 Y 413.950
G1 X1427.950 Y 383.760
G1 X1449.890 Y 353.550
G1 X1414.390 Y 342.020
G1 X1414.390 Y 304.690
G1 X1378.870 Y 316.220
G1 X1356.930 Y 286.020
G1 X1334.980 Y 316.220
G1 X1299.480 Y 304.690
G1 X1299.480 Y 342.020
G1 X1263.970 Y 353.550
F150
G1 Z  -3.000
F400
G1 X1285.910 Y 383.760
G1 X1263.970 Y 413.950
G1 X1299.480 Y 425.500
G1 X1299.480 Y 462.820
G1 X1334.980 Y 451.290
G1 X1356.930 Y 481.500
G1 X1378.870 Y 451.290
G1 X1414.390 Y 462.820
G1 X1414.390 Y 425.500
G1 X1449.890 Y 413.950
G1 X1427.950 Y 383.760
G1 X1449.890 Y 353.550
G1 X1414.390 Y 342.020
G1 X1414.390 Y 304.690
G1 X1378.870 Y 316.220
G1 X1356.930 Y 286.020
G1 X1334.980 Y 316.220
G1 X1299.480 Y 304.690
G1 X1299.480 Y 342.020
G1 X1263.970 Y 353.550
F150
G1 Z   3.000
G0 Z  15.000 
M9 M5

(* SHAPE Nr: 53 *)
G0 X1112.290 Y 479.560
M3 M8
G0 Z   3.000 
G1 Z  -1.500
F400
G1 X1134.230 Y 509.770
G1 X1112.290 Y 539.960
G1 X1147.800 Y 551.510
G1 X1147.800 Y 588.830
G1 X1183.300 Y 577.300
G1 X1205.250 Y 607.510
G1 X1227.190 Y 577.300
G1 X1262.710 Y 588.830
G1 X1262.710 Y 551.510
G1 X1298.210 Y 539.960
G1 X1276.270 Y 509.770
G1 X1298.210 Y 479.560
G1 X1262.710 Y 468.030
G1 X1262.710 Y 430.700
G1 X1227.190 Y 442.230
G1 X1205.250 Y 412.030
G1 X1183.300 Y 442.230
G1 X1147.800 Y 430.700
G1 X1147.800 Y 468.030
G1 X1112.290 Y 479.560
F150
G1 Z  -3.000
F400
G1 X1134.230 Y 509.770
G1 X1112.290 Y 539.960
G1 X1147.800 Y 551.510
G1 X1147.800 Y 588.830
G1 X1183.300 Y 577.300
G1 X1205.250 Y 607.510
G1 X1227.190 Y 577.300
G1 X1262.710 Y 588.830
G1 X1262.710 Y 551.510
G1 X1298.210 Y 539.960
G1 X1276.270 Y 509.770
G1 X1298.210 Y 479.560
G1 X1262.710 Y 468.030
G1 X1262.710 Y 430.700
G1 X1227.190 Y 442.230
G1 X1205.250 Y 412.030
G1 X1183.300 Y 442.230
G1 X1147.800 Y 430.700
G1 X1147.800 Y 468.030
G1 X1112.290 Y 479.560
F150
G1 Z   3.000
G0 Z  15.000 
M9 M5

(* SHAPE Nr: 54 *)
G0 X 944.440 Y 561.300
M3 M8
G0 Z   3.000 
G1 Z  -1.500
F400
G1 X 966.380 Y 591.510
G1 X 944.440 Y 621.700
G1 X 979.950 Y 633.250
G1 X 979.950 Y 670.570
G1 X1015.450 Y 659.040
G1 X1037.400 Y 689.250
G1 X1059.340 Y 659.040
G1 X1094.860 Y 670.570
G1 X1094.860 Y 633.250
G1 X1130.360 Y 621.700
G1 X1108.420 Y 591.510
G1 X1130.360 Y 561.300
G1 X1094.860 Y 549.770
G1 X1094.860 Y 512.440
G1 X1059.340 Y 523.970
G1 X1037.400 Y 493.770
G1 X1015.450 Y 523.970
G1 X 979.950 Y 512.440
G1 X 979.950 Y 549.770
G1 X 944.440 Y 561.300
F150
G1 Z  -3.000
F400
G1 X 966.380 Y 591.510
G1 X 944.440 Y 621.700
G1 X 979.950 Y 633.250
G1 X 979.950 Y 670.570
G1 X1015.450 Y 659.040
G1 X1037.400 Y 689.250
G1 X1059.340 Y 659.040
G1 X1094.860 Y 670.570
G1 X1094.860 Y 633.250
G1 X1130.360 Y 621.700
G1 X1108.420 Y 591.510
G1 X1130.360 Y 561.300
G1 X1094.860 Y 549.770
G1 X1094.860 Y 512.440
G1 X1059.340 Y 523.970
G1 X1037.400 Y 493.770
G1 X1015.450 Y 523.970
G1 X 979.950 Y 512.440
G1 X 979.950 Y 549.770
G1 X 944.440 Y 561.300
F150
G1 Z   3.000
G0 Z  15.000 
M9 M5

(* SHAPE Nr: 55 *)
G0 X 794.020 Y 540.200
M3 M8
G0 Z   3.000 
G1 Z  -1.500
F400
G1 X 794.020 Y 577.530
G1 X 758.510 Y 589.060
G1 X 780.450 Y 619.270
G1 X 758.510 Y 649.460
G1 X 794.020 Y 661.010
G1 X 794.020 Y 698.330
G1 X 829.520 Y 686.800
G1 X 851.470 Y 717.010
G1 X 873.410 Y 686.800
G1 X 908.930 Y 698.330
G1 X 908.930 Y 661.010
G1 X 944.430 Y 649.460
G1 X 922.490 Y 619.270
G1 X 944.430 Y 589.060
G1 X 908.930 Y 577.530
G1 X 908.930 Y 540.200
G1 X 873.410 Y 551.730
G1 X 851.470 Y 521.530
G1 X 829.520 Y 551.730
G1 X 794.020 Y 540.200
F150
G1 Z  -3.000
F400
G1 X 794.020 Y 577.530
G1 X 758.510 Y 589.060
G1 X 780.450 Y 619.270
G1 X 758.510 Y 649.460
G1 X 794.020 Y 661.010
G1 X 794.020 Y 698.330
G1 X 829.520 Y 686.800
G1 X 851.470 Y 717.010
G1 X 873.410 Y 686.800
G1 X 908.930 Y 698.330
G1 X 908.930 Y 661.010
G1 X 944.430 Y 649.460
G1 X 922.490 Y 619.270
G1 X 944.430 Y 589.060
G1 X 908.930 Y 577.530
G1 X 908.930 Y 540.200
G1 X 873.410 Y 551.730
G1 X 851.470 Y 521.530
G1 X 829.520 Y 551.730
G1 X 794.020 Y 540.200
F150
G1 Z   3.000
G0 Z  15.000 
M9 M5

(* SHAPE Nr: 56 *)
G0 X 607.990 Y 504.670
M3 M8
G0 Z   3.000 
G1 Z  -1.500
F400
G1 X 607.990 Y 542.000
G1 X 572.480 Y 553.530
G1 X 594.420 Y 583.740
G1 X 572.480 Y 613.930
G1 X 607.990 Y 625.480
G1 X 607.990 Y 662.800
G1 X 643.490 Y 651.270
G1 X 665.440 Y 681.480
G1 X 687.380 Y 651.270
G1 X 722.900 Y 662.800
G1 X 722.900 Y 625.480
G1 X 758.400 Y 613.930
G1 X 736.460 Y 583.740
G1 X 758.400 Y 553.530
G1 X 722.900 Y 542.000
G1 X 722.900 Y 504.670
G1 X 687.380 Y 516.200
G1 X 665.440 Y 486.000
G1 X 643.490 Y 516.200
G1 X 607.990 Y 504.670
F150
G1 Z  -3.000
F400
G1 X 607.990 Y 542.000
G1 X 572.480 Y 553.530
G1 X 594.420 Y 583.740
G1 X 572.480 Y 613.930
G1 X 607.990 Y 625.480
G1 X 607.990 Y 662.800
G1 X 643.490 Y 651.270
G1 X 665.440 Y 681.480
G1 X 687.380 Y 651.270
G1 X 722.900 Y 662.800
G1 X 722.900 Y 625.480
G1 X 758.400 Y 613.930
G1 X 736.460 Y 583.740
G1 X 758.400 Y 553.530
G1 X 722.900 Y 542.000
G1 X 722.900 Y 504.670
G1 X 687.380 Y 516.200
G1 X 665.440 Y 486.000
G1 X 643.490 Y 516.200
G1 X 607.990 Y 504.670
F150
G1 Z   3.000
G0 Z  15.000 
M9 M5

(* SHAPE Nr: 57 *)
G0 X 418.210 Y 527.080
M3 M8
G0 Z   3.000 
G1 Z  -1.500
F400
G1 X 418.210 Y 564.410
G1 X 382.700 Y 575.940
G1 X 404.640 Y 606.150
G1 X 382.700 Y 636.340
G1 X 418.210 Y 647.890
G1 X 418.210 Y 685.210
G1 X 453.710 Y 673.680
G1 X 475.660 Y 703.890
G1 X 497.600 Y 673.680
G1 X 533.120 Y 685.210
G1 X 533.120 Y 647.890
G1 X 568.620 Y 636.340
G1 X 546.680 Y 606.150
G1 X 568.620 Y 575.940
G1 X 533.120 Y 564.410
G1 X 533.120 Y 527.080
G1 X 497.600 Y 538.610
G1 X 475.660 Y 508.410
G1 X 453.710 Y 538.610
G1 X 418.210 Y 527.080
F150
G1 Z  -3.000
F400
G1 X 418.210 Y 564.410
G1 X 382.700 Y 575.940
G1 X 404.640 Y 606.150
G1 X 382.700 Y 636.340
G1 X 418.210 Y 647.890
G1 X 418.210 Y 685.210
G1 X 453.710 Y 673.680
G1 X 475.660 Y 703.890
G1 X 497.600 Y 673.680
G1 X 533.120 Y 685.210
G1 X 533.120 Y 647.890
G1 X 568.620 Y 636.340
G1 X 546.680 Y 606.150
G1 X 568.620 Y 575.940
G1 X 533.120 Y 564.410
G1 X 533.120 Y 527.080
G1 X 497.600 Y 538.610
G1 X 475.660 Y 508.410
G1 X 453.710 Y 538.610
G1 X 418.210 Y 527.080
F150
G1 Z   3.000
G0 Z  15.000 
M9 M5

(* SHAPE Nr: 58 *)
G0 X 234.310 Y 557.570
M3 M8
G0 Z   3.000 
G1 Z  -1.500
F400
G1 X 234.310 Y 594.900
G1 X 198.800 Y 606.430
G1 X 220.740 Y 636.640
G1 X 198.800 Y 666.830
G1 X 234.310 Y 678.380
G1 X 234.310 Y 715.700
G1 X 269.810 Y 704.170
G1 X 291.760 Y 734.380
G1 X 313.700 Y 704.170
G1 X 349.220 Y 715.700
G1 X 349.220 Y 678.380
G1 X 384.720 Y 666.830
G1 X 362.780 Y 636.640
G1 X 384.720 Y 606.430
G1 X 349.220 Y 594.900
G1 X 349.220 Y 557.570
G1 X 313.700 Y 569.100
G1 X 291.760 Y 538.900
G1 X 269.810 Y 569.100
G1 X 234.310 Y 557.570
F150
G1 Z  -3.000
F400
G1 X 234.310 Y 594.900
G1 X 198.800 Y 606.430
G1 X 220.740 Y 636.640
G1 X 198.800 Y 666.830
G1 X 234.310 Y 678.380
G1 X 234.310 Y 715.700
G1 X 269.810 Y 704.170
G1 X 291.760 Y 734.380
G1 X 313.700 Y 704.170
G1 X 349.220 Y 715.700
G1 X 349.220 Y 678.380
G1 X 384.720 Y 666.830
G1 X 362.780 Y 636.640
G1 X 384.720 Y 606.430
G1 X 349.220 Y 594.900
G1 X 349.220 Y 557.570
G1 X 313.700 Y 569.100
G1 X 291.760 Y 538.900
G1 X 269.810 Y 569.100
G1 X 234.310 Y 557.570
F150
G1 Z   3.000
G0 Z  15.000 
M9 M5

(* SHAPE Nr: 60 *)
G0 X 203.720 Y 104.030
M3 M8
G0 Z   3.000 
G1 Z  -1.500
F400
G1 X 225.660 Y 134.240
G1 X 203.720 Y 164.430
G1 X 239.230 Y 175.980
G1 X 239.230 Y 213.300
G1 X 274.730 Y 201.770
G1 X 296.680 Y 231.980
G1 X 318.620 Y 201.770
G1 X 354.140 Y 213.300
G1 X 354.140 Y 175.980
G1 X 389.640 Y 164.430
G1 X 367.700 Y 134.240
G1 X 389.640 Y 104.030
G1 X 354.140 Y  92.500
G1 X 354.140 Y  55.170
G1 X 318.620 Y  66.700
G1 X 296.680 Y  36.500
G1 X 274.730 Y  66.700
G1 X 239.230 Y  55.170
G1 X 239.230 Y  92.500
G1 X 203.720 Y 104.030
F150
G1 Z  -3.000
F400
G1 X 225.660 Y 134.240
G1 X 203.720 Y 164.430
G1 X 239.230 Y 175.980
G1 X 239.230 Y 213.300
G1 X 274.730 Y 201.770
G1 X 296.680 Y 231.980
G1 X 318.620 Y 201.770
G1 X 354.140 Y 213.300
G1 X 354.140 Y 175.980
G1 X 389.640 Y 164.430
G1 X 367.700 Y 134.240
G1 X 389.640 Y 104.030
G1 X 354.140 Y  92.500
G1 X 354.140 Y  55.170
G1 X 318.620 Y  66.700
G1 X 296.680 Y  36.500
G1 X 274.730 Y  66.700
G1 X 239.230 Y  55.170
G1 X 239.230 Y  92.500
G1 X 203.720 Y 104.030
F150
G1 Z   3.000
G0 Z  15.000 
M9 M5

(* SHAPE Nr: 61 *)
G0 X 390.220 Y 137.500
M3 M8
G0 Z   3.000 
G1 Z  -1.500
F400
G1 X 420.420 Y 159.440
G1 X 408.890 Y 194.950
G1 X 446.220 Y 194.950
G1 X 457.760 Y 230.450
G1 X 487.960 Y 208.510
G1 X 518.160 Y 230.450
G1 X 529.700 Y 194.950
G1 X 567.030 Y 194.950
G1 X 555.500 Y 159.440
G1 X 585.700 Y 137.500
G1 X 555.500 Y 115.550
G1 X 567.030 Y  80.050
G1 X 529.700 Y  80.050
G1 X 518.160 Y  44.540
G1 X 487.960 Y  66.480
G1 X 457.760 Y  44.540
G1 X 446.220 Y  80.050
G1 X 408.890 Y  80.050
G1 X 420.420 Y 115.550
G1 X 390.220 Y 137.500
F150
G1 Z  -3.000
F400
G1 X 420.420 Y 159.440
G1 X 408.890 Y 194.950
G1 X 446.220 Y 194.950
G1 X 457.760 Y 230.450
G1 X 487.960 Y 208.510
G1 X 518.160 Y 230.450
G1 X 529.700 Y 194.950
G1 X 567.030 Y 194.950
G1 X 555.500 Y 159.440
G1 X 585.700 Y 137.500
G1 X 555.500 Y 115.550
G1 X 567.030 Y  80.050
G1 X 529.700 Y  80.050
G1 X 518.160 Y  44.540
G1 X 487.960 Y  66.480
G1 X 457.760 Y  44.540
G1 X 446.220 Y  80.050
G1 X 408.890 Y  80.050
G1 X 420.420 Y 115.550
G1 X 390.220 Y 137.500
F150
G1 Z   3.000
G0 Z  15.000 
M9 M5

(* SHAPE Nr: 62 *)
G0 X 584.290 Y 107.800
M3 M8
G0 Z   3.000 
G1 Z  -1.500
F400
G1 X 606.230 Y 138.010
G1 X 584.290 Y 168.200
G1 X 619.800 Y 179.750
G1 X 619.800 Y 217.070
G1 X 655.300 Y 205.540
G1 X 677.250 Y 235.750
G1 X 699.190 Y 205.540
G1 X 734.710 Y 217.070
G1 X 734.710 Y 179.750
G1 X 770.210 Y 168.200
G1 X 748.270 Y 138.010
G1 X 770.210 Y 107.800
G1 X 734.710 Y  96.270
G1 X 734.710 Y  58.940
G1 X 699.190 Y  70.470
G1 X 677.250 Y  40.270
G1 X 655.300 Y  70.470
G1 X 619.800 Y  58.940
G1 X 619.800 Y  96.270
G1 X 584.290 Y 107.800
F150
G1 Z  -3.000
F400
G1 X 606.230 Y 138.010
G1 X 584.290 Y 168.200
G1 X 619.800 Y 179.750
G1 X 619.800 Y 217.070
G1 X 655.300 Y 205.540
G1 X 677.250 Y 235.750
G1 X 699.190 Y 205.540
G1 X 734.710 Y 217.070
G1 X 734.710 Y 179.750
G1 X 770.210 Y 168.200
G1 X 748.270 Y 138.010
G1 X 770.210 Y 107.800
G1 X 734.710 Y  96.270
G1 X 734.710 Y  58.940
G1 X 699.190 Y  70.470
G1 X 677.250 Y  40.270
G1 X 655.300 Y  70.470
G1 X 619.800 Y  58.940
G1 X 619.800 Y  96.270
G1 X 584.290 Y 107.800
F150
G1 Z   3.000
G0 Z  15.000 
M9 M5

(* SHAPE Nr: 63 *)
G0 X 775.270 Y 128.690
M3 M8
G0 Z   3.000 
G1 Z  -1.500
F400
G1 X 805.470 Y 150.630
G1 X 793.940 Y 186.140
G1 X 831.270 Y 186.140
G1 X 842.810 Y 221.640
G1 X 873.010 Y 199.700
G1 X 903.210 Y 221.640
G1 X 914.750 Y 186.140
G1 X 952.080 Y 186.140
G1 X 940.550 Y 150.630
G1 X 970.750 Y 128.690
G1 X 940.550 Y 106.740
G1 X 952.080 Y  71.240
G1 X 914.750 Y  71.240
G1 X 903.210 Y  35.730
G1 X 873.010 Y  57.670
G1 X 842.810 Y  35.730
G1 X 831.270 Y  71.240
G1 X 793.940 Y  71.240
G1 X 805.470 Y 106.740
G1 X 775.270 Y 128.690
F150
G1 Z  -3.000
F400
G1 X 805.470 Y 150.630
G1 X 793.940 Y 186.140
G1 X 831.270 Y 186.140
G1 X 842.810 Y 221.640
G1 X 873.010 Y 199.700
G1 X 903.210 Y 221.640
G1 X 914.750 Y 186.140
G1 X 952.080 Y 186.140
G1 X 940.550 Y 150.630
G1 X 970.750 Y 128.690
G1 X 940.550 Y 106.740
G1 X 952.080 Y  71.240
G1 X 914.750 Y  71.240
G1 X 903.210 Y  35.730
G1 X 873.010 Y  57.670
G1 X 842.810 Y  35.730
G1 X 831.270 Y  71.240
G1 X 793.940 Y  71.240
G1 X 805.470 Y 106.740
G1 X 775.270 Y 128.690
F150
G1 Z   3.000
G0 Z  15.000 
M9 M5

(* SHAPE Nr: 64 *)
G0 X 973.660 Y  92.050
M3 M8
G0 Z   3.000 
G1 Z  -1.500
F400
G1 X 995.600 Y 122.260
G1 X 973.660 Y 152.450
G1 X1009.170 Y 164.000
G1 X1009.170 Y 201.320
G1 X1044.670 Y 189.790
G1 X1066.620 Y 220.000
G1 X1088.560 Y 189.790
G1 X1124.080 Y 201.320
G1 X1124.080 Y 164.000
G1 X1159.580 Y 152.450
G1 X1137.640 Y 122.260
G1 X1159.580 Y  92.050
G1 X1124.080 Y  80.520
G1 X1124.080 Y  43.190
G1 X1088.560 Y  54.720
G1 X1066.620 Y  24.520
G1 X1044.670 Y  54.720
G1 X1009.170 Y  43.190
G1 X1009.170 Y  80.520
G1 X 973.660 Y  92.050
F150
G1 Z  -3.000
F400
G1 X 995.600 Y 122.260
G1 X 973.660 Y 152.450
G1 X1009.170 Y 164.000
G1 X1009.170 Y 201.320
G1 X1044.670 Y 189.790
G1 X1066.620 Y 220.000
G1 X1088.560 Y 189.790
G1 X1124.080 Y 201.320
G1 X1124.080 Y 164.000
G1 X1159.580 Y 152.450
G1 X1137.640 Y 122.260
G1 X1159.580 Y  92.050
G1 X1124.080 Y  80.520
G1 X1124.080 Y  43.190
G1 X1088.560 Y  54.720
G1 X1066.620 Y  24.520
G1 X1044.670 Y  54.720
G1 X1009.170 Y  43.190
G1 X1009.170 Y  80.520
G1 X 973.660 Y  92.050
F150
G1 Z   3.000
G0 Z  15.000 
M9 M5

(* SHAPE Nr: 65 *)
G0 X1159.630 Y 124.750
M3 M8
G0 Z   3.000 
G1 Z  -1.500
F400
G1 X1189.830 Y 146.690
G1 X1178.300 Y 182.200
G1 X1215.630 Y 182.200
G1 X1227.170 Y 217.700
G1 X1257.370 Y 195.760
G1 X1287.570 Y 217.700
G1 X1299.110 Y 182.200
G1 X1336.440 Y 182.200
G1 X1324.910 Y 146.690
G1 X1355.110 Y 124.750
G1 X1324.910 Y 102.800
G1 X1336.440 Y  67.300
G1 X1299.110 Y  67.300
G1 X1287.570 Y  31.790
G1 X1257.370 Y  53.730
G1 X1227.170 Y  31.790
G1 X1215.630 Y  67.300
G1 X1178.300 Y  67.300
G1 X1189.830 Y 102.800
G1 X1159.630 Y 124.750
F150
G1 Z  -3.000
F400
G1 X1189.830 Y 146.690
G1 X1178.300 Y 182.200
G1 X1215.630 Y 182.200
G1 X1227.170 Y 217.700
G1 X1257.370 Y 195.760
G1 X1287.570 Y 217.700
G1 X1299.110 Y 182.200
G1 X1336.440 Y 182.200
G1 X1324.910 Y 146.690
G1 X1355.110 Y 124.750
G1 X1324.910 Y 102.800
G1 X1336.440 Y  67.300
G1 X1299.110 Y  67.300
G1 X1287.570 Y  31.790
G1 X1257.370 Y  53.730
G1 X1227.170 Y  31.790
G1 X1215.630 Y  67.300
G1 X1178.300 Y  67.300
G1 X1189.830 Y 102.800
G1 X1159.630 Y 124.750
F150
G1 Z   3.000
G0 Z  15.000 
M9 M5

(* SHAPE Nr: 66 *)
G0 X1350.560 Y 189.090
M3 M8
G0 Z   3.000 
G1 Z  -1.500
F400
G1 X1372.500 Y 219.300
G1 X1350.560 Y 249.490
G1 X1386.070 Y 261.040
G1 X1386.070 Y 298.360
G1 X1421.570 Y 286.830
G1 X1443.520 Y 317.040
G1 X1465.460 Y 286.830
G1 X1500.980 Y 298.360
G1 X1500.980 Y 261.040
G1 X1536.480 Y 249.490
G1 X1514.540 Y 219.300
G1 X1536.480 Y 189.090
G1 X1500.980 Y 177.560
G1 X1500.980 Y 140.230
G1 X1465.460 Y 151.760
G1 X1443.520 Y 121.560
G1 X1421.570 Y 151.760
G1 X1386.070 Y 140.230
G1 X1386.070 Y 177.560
G1 X1350.560 Y 189.090
F150
G1 Z  -3.000
F400
G1 X1372.500 Y 219.300
G1 X1350.560 Y 249.490
G1 X1386.070 Y 261.040
G1 X1386.070 Y 298.360
G1 X1421.570 Y 286.830
G1 X1443.520 Y 317.040
G1 X1465.460 Y 286.830
G1 X1500.980 Y 298.360
G1 X1500.980 Y 261.040
G1 X1536.480 Y 249.490
G1 X1514.540 Y 219.300
G1 X1536.480 Y 189.090
G1 X1500.980 Y 177.560
G1 X1500.980 Y 140.230
G1 X1465.460 Y 151.760
G1 X1443.520 Y 121.560
G1 X1421.570 Y 151.760
G1 X1386.070 Y 140.230
G1 X1386.070 Y 177.560
G1 X1350.560 Y 189.090
F150
G1 Z   3.000
G0 Z  15.000 
M9 M5

(* SHAPE Nr: 67 *)
G0 X1526.220 Y 279.940
M3 M8
G0 Z   3.000 
G1 Z  -1.500
F400
G1 X1556.420 Y 301.880
G1 X1544.890 Y 337.390
G1 X1582.220 Y 337.390
G1 X1593.760 Y 372.890
G1 X1623.960 Y 350.950
G1 X1654.160 Y 372.890
G1 X1665.700 Y 337.390
G1 X1703.030 Y 337.390
G1 X1691.500 Y 301.880
G1 X1721.700 Y 279.940
G1 X1691.500 Y 257.990
G1 X1703.030 Y 222.490
G1 X1665.700 Y 222.490
G1 X1654.160 Y 186.980
G1 X1623.960 Y 208.920
G1 X1593.760 Y 186.980
G1 X1582.220 Y 222.490
G1 X1544.890 Y 222.490
G1 X1556.420 Y 257.990
G1 X1526.220 Y 279.940
F150
G1 Z  -3.000
F400
G1 X1556.420 Y 301.880
G1 X1544.890 Y 337.390
G1 X1582.220 Y 337.390
G1 X1593.760 Y 372.890
G1 X1623.960 Y 350.950
G1 X1654.160 Y 372.890
G1 X1665.700 Y 337.390
G1 X1703.030 Y 337.390
G1 X1691.500 Y 301.880
G1 X1721.700 Y 279.940
G1 X1691.500 Y 257.990
G1 X1703.030 Y 222.490
G1 X1665.700 Y 222.490
G1 X1654.160 Y 186.980
G1 X1623.960 Y 208.920
G1 X1593.760 Y 186.980
G1 X1582.220 Y 222.490
G1 X1544.890 Y 222.490
G1 X1556.420 Y 257.990
G1 X1526.220 Y 279.940
F150
G1 Z   3.000
G0 Z  15.000 
M9 M5

(* SHAPE Nr: 80 *)
G0 X1121.370 Y 706.120
M3 M8
G0 Z   3.000 
G1 Z  -1.500
F400
G1 X1143.310 Y 736.330
G1 X1121.370 Y 766.520
G1 X1156.880 Y 778.070
G1 X1156.880 Y 815.390
G1 X1192.380 Y 803.860
G1 X1214.330 Y 834.070
G1 X1236.270 Y 803.860
G1 X1271.790 Y 815.390
G1 X1271.790 Y 778.070
G1 X1307.290 Y 766.520
G1 X1285.350 Y 736.330
G1 X1307.290 Y 706.120
G1 X1271.790 Y 694.590
G1 X1271.790 Y 657.260
G1 X1236.270 Y 668.790
G1 X1214.330 Y 638.590
G1 X1192.380 Y 668.790
G1 X1156.880 Y 657.260
G1 X1156.880 Y 694.590
G1 X1121.370 Y 706.120
F150
G1 Z  -3.000
F400
G1 X1143.310 Y 736.330
G1 X1121.370 Y 766.520
G1 X1156.880 Y 778.070
G1 X1156.880 Y 815.390
G1 X1192.380 Y 803.860
G1 X1214.330 Y 834.070
G1 X1236.270 Y 803.860
G1 X1271.790 Y 815.390
G1 X1271.790 Y 778.070
G1 X1307.290 Y 766.520
G1 X1285.350 Y 736.330
G1 X1307.290 Y 706.120
G1 X1271.790 Y 694.590
G1 X1271.790 Y 657.260
G1 X1236.270 Y 668.790
G1 X1214.330 Y 638.590
G1 X1192.380 Y 668.790
G1 X1156.880 Y 657.260
G1 X1156.880 Y 694.590
G1 X1121.370 Y 706.120
F150
G1 Z   3.000
G0 Z  15.000 
M9 M5

(* SHAPE Nr: 82 *)
G0 X 788.600 Y 963.780
M3 M8
G0 Z   3.000 
G1 Z  -1.500
F400
G1 X 788.600 Y1001.110
G1 X 753.090 Y1012.640
G1 X 775.030 Y1042.850
G1 X 753.090 Y1073.040
G1 X 788.600 Y1084.590
G1 X 788.600 Y1121.910
G1 X 824.100 Y1110.380
G1 X 846.050 Y1140.590
G1 X 867.990 Y1110.380
G1 X 903.510 Y1121.910
G1 X 903.510 Y1084.590
G1 X 939.010 Y1073.040
G1 X 917.070 Y1042.850
G1 X 939.010 Y1012.640
G1 X 903.510 Y1001.110
G1 X 903.510 Y 963.780
G1 X 867.990 Y 975.310
G1 X 846.050 Y 945.110
G1 X 824.100 Y 975.310
G1 X 788.600 Y 963.780
F150
G1 Z  -3.000
F400
G1 X 788.600 Y1001.110
G1 X 753.090 Y1012.640
G1 X 775.030 Y1042.850
G1 X 753.090 Y1073.040
G1 X 788.600 Y1084.590
G1 X 788.600 Y1121.910
G1 X 824.100 Y1110.380
G1 X 846.050 Y1140.590
G1 X 867.990 Y1110.380
G1 X 903.510 Y1121.910
G1 X 903.510 Y1084.590
G1 X 939.010 Y1073.040
G1 X 917.070 Y1042.850
G1 X 939.010 Y1012.640
G1 X 903.510 Y1001.110
G1 X 903.510 Y 963.780
G1 X 867.990 Y 975.310
G1 X 846.050 Y 945.110
G1 X 824.100 Y 975.310
G1 X 788.600 Y 963.780
F150
G1 Z   3.000
G0 Z  15.000 
M9 M5

(* SHAPE Nr: 83 *)
G0 X 593.590 Y 978.980
M3 M8
G0 Z   3.000 
G1 Z  -1.500
F400
G1 X 593.590 Y1016.310
G1 X 558.080 Y1027.840
G1 X 580.020 Y1058.050
G1 X 558.080 Y1088.240
G1 X 593.590 Y1099.790
G1 X 593.590 Y1137.110
G1 X 629.090 Y1125.580
G1 X 651.040 Y1155.790
G1 X 672.980 Y1125.580
G1 X 708.500 Y1137.110
G1 X 708.500 Y1099.790
G1 X 744.000 Y1088.240
G1 X 722.060 Y1058.050
G1 X 744.000 Y1027.840
G1 X 708.500 Y1016.310
G1 X 708.500 Y 978.980
G1 X 672.980 Y 990.510
G1 X 651.040 Y 960.310
G1 X 629.090 Y 990.510
G1 X 593.590 Y 978.980
F150
G1 Z  -3.000
F400
G1 X 593.590 Y1016.310
G1 X 558.080 Y1027.840
G1 X 580.020 Y1058.050
G1 X 558.080 Y1088.240
G1 X 593.590 Y1099.790
G1 X 593.590 Y1137.110
G1 X 629.090 Y1125.580
G1 X 651.040 Y1155.790
G1 X 672.980 Y1125.580
G1 X 708.500 Y1137.110
G1 X 708.500 Y1099.790
G1 X 744.000 Y1088.240
G1 X 722.060 Y1058.050
G1 X 744.000 Y1027.840
G1 X 708.500 Y1016.310
G1 X 708.500 Y 978.980
G1 X 672.980 Y 990.510
G1 X 651.040 Y 960.310
G1 X 629.090 Y 990.510
G1 X 593.590 Y 978.980
F150
G1 Z   3.000
G0 Z  15.000 
M9 M5

(* SHAPE Nr: 86 *)
G0 X 287.900 Y 902.150
M3 M8
G0 Z   3.000 
G1 Z  -1.500
F400
G1 X 265.950 Y 932.350
G1 X 230.450 Y 920.820
G1 X 230.450 Y 958.150
G1 X 194.940 Y 969.680
G1 X 216.880 Y 999.890
G1 X 194.940 Y1030.080
G1 X 230.450 Y1041.630
G1 X 230.450 Y1078.950
G1 X 265.950 Y1067.420
G1 X 287.900 Y1097.630
G1 X 309.840 Y1067.420
G1 X 345.360 Y1078.950
G1 X 345.360 Y1041.630
G1 X 380.860 Y1030.080
G1 X 358.920 Y 999.890
G1 X 380.860 Y 969.680
G1 X 345.360 Y 958.150
G1 X 345.360 Y 920.820
G1 X 309.840 Y 932.350
G1 X 287.900 Y 902.150
F150
G1 Z  -3.000
F400
G1 X 265.950 Y 932.350
G1 X 230.450 Y 920.820
G1 X 230.450 Y 958.150
G1 X 194.940 Y 969.680
G1 X 216.880 Y 999.890
G1 X 194.940 Y1030.080
G1 X 230.450 Y1041.630
G1 X 230.450 Y1078.950
G1 X 265.950 Y1067.420
G1 X 287.900 Y1097.630
G1 X 309.840 Y1067.420
G1 X 345.360 Y1078.950
G1 X 345.360 Y1041.630
G1 X 380.860 Y1030.080
G1 X 358.920 Y 999.890
G1 X 380.860 Y 969.680
G1 X 345.360 Y 958.150
G1 X 345.360 Y 920.820
G1 X 309.840 Y 932.350
G1 X 287.900 Y 902.150
F150
G1 Z   3.000
G0 Z  15.000 
M9 M5

(* SHAPE Nr: 87 *)
G0 X 397.020 Y1062.040
M3 M8
G0 Z   3.000 
G1 Z  -1.500
F400
G1 X 397.020 Y1099.370
G1 X 361.510 Y1110.900
G1 X 383.450 Y1141.110
G1 X 361.510 Y1171.300
G1 X 397.020 Y1182.850
G1 X 397.020 Y1220.170
G1 X 432.520 Y1208.640
G1 X 454.470 Y1238.850
G1 X 476.410 Y1208.640
G1 X 511.930 Y1220.170
G1 X 511.930 Y1182.850
G1 X 547.430 Y1171.300
G1 X 525.490 Y1141.110
G1 X 547.430 Y1110.900
G1 X 511.930 Y1099.370
G1 X 511.930 Y1062.040
G1 X 476.410 Y1073.570
G1 X 454.470 Y1043.370
G1 X 432.520 Y1073.570
G1 X 397.020 Y1062.040
F150
G1 Z  -3.000
F400
G1 X 397.020 Y1099.370
G1 X 361.510 Y1110.900
G1 X 383.450 Y1141.110
G1 X 361.510 Y1171.300
G1 X 397.020 Y1182.850
G1 X 397.020 Y1220.170
G1 X 432.520 Y1208.640
G1 X 454.470 Y1238.850
G1 X 476.410 Y1208.640
G1 X 511.930 Y1220.170
G1 X 511.930 Y1182.850
G1 X 547.430 Y1171.300
G1 X 525.490 Y1141.110
G1 X 547.430 Y1110.900
G1 X 511.930 Y1099.370
G1 X 511.930 Y1062.040
G1 X 476.410 Y1073.570
G1 X 454.470 Y1043.370
G1 X 432.520 Y1073.570
G1 X 397.020 Y1062.040
F150
G1 Z   3.000
G0 Z  15.000 
M9 M5

(*** LAYER: BORDER_D0_T132_RK1_A0_W0_EM1_RI1_ID0023 ***)

(* SHAPE Nr: 13 *)
G0 X 643.820 Y1654.240
M3 M8
G0 Z   3.000 
G1 Z  -1.500
F400
G1 X 559.180 Y1703.110
G1 X 559.180 Y1800.850
G1 X 643.820 Y1849.720
G1 X 728.460 Y1800.850
G1 X 728.460 Y1703.110
G1 X 643.820 Y1654.240
F150
G1 Z  -3.000
F400
G1 X 559.180 Y1703.110
G1 X 559.180 Y1800.850
G1 X 643.820 Y1849.720
G1 X 728.460 Y1800.850
G1 X 728.460 Y1703.110
G1 X 643.820 Y1654.240
F150
G1 Z   3.000
G0 Z  15.000 
M9 M5

(* SHAPE Nr: 19 *)
G0 X1332.310 Y1517.090
M3 M8
G0 Z   3.000 
G1 Z  -1.500
F400
G1 X1332.310 Y1614.830
G1 X1416.950 Y1663.700
G1 X1501.590 Y1614.830
G1 X1501.590 Y1517.090
G1 X1416.950 Y1468.220
G1 X1332.310 Y1517.090
F150
G1 Z  -3.000
F400
G1 X1332.310 Y1614.830
G1 X1416.950 Y1663.700
G1 X1501.590 Y1614.830
G1 X1501.590 Y1517.090
G1 X1416.950 Y1468.220
G1 X1332.310 Y1517.090
F150
G1 Z   3.000
G0 Z  15.000 
M9 M5

(* SHAPE Nr: 29 *)
G0 X1306.690 Y1676.120
M3 M8
G0 Z   3.000 
G1 Z  -1.500
F400
G1 X1257.820 Y1760.760
G1 X1306.690 Y1845.410
G1 X1404.430 Y1845.410
G1 X1453.300 Y1760.760
G1 X1404.430 Y1676.120
G1 X1306.690 Y1676.120
F150
G1 Z  -3.000
F400
G1 X1257.820 Y1760.760
G1 X1306.690 Y1845.410
G1 X1404.430 Y1845.410
G1 X1453.300 Y1760.760
G1 X1404.430 Y1676.120
G1 X1306.690 Y1676.120
F150
G1 Z   3.000
G0 Z  15.000 
M9 M5

(* SHAPE Nr: 43 *)
G0 X 926.490 Y1403.650
M3 M8
G0 Z   3.000 
G1 Z  -1.500
F400
G1 X 926.490 Y1501.390
G1 X1011.130 Y1550.260
G1 X1095.770 Y1501.390
G1 X1095.770 Y1403.650
G1 X1011.130 Y1354.780
G1 X 926.490 Y1403.650
F150
G1 Z  -3.000
F400
G1 X 926.490 Y1501.390
G1 X1011.130 Y1550.260
G1 X1095.770 Y1501.390
G1 X1095.770 Y1403.650
G1 X1011.130 Y1354.780
G1 X 926.490 Y1403.650
F150
G1 Z   3.000
G0 Z  15.000 
M9 M5

(* SHAPE Nr: 59 *)
G0 X 203.150 Y 377.560
M3 M8
G0 Z   3.000 
G1 Z  -1.500
F400
G1 X 203.150 Y 475.300
G1 X 287.790 Y 524.170
G1 X 372.430 Y 475.300
G1 X 372.430 Y 377.560
G1 X 287.790 Y 328.690
G1 X 203.150 Y 377.560
F150
G1 Z  -3.000
F400
G1 X 203.150 Y 475.300
G1 X 287.790 Y 524.170
G1 X 372.430 Y 475.300
G1 X 372.430 Y 377.560
G1 X 287.790 Y 328.690
G1 X 203.150 Y 377.560
F150
G1 Z   3.000
G0 Z  15.000 
M9 M5

(* SHAPE Nr: 74 *)
G0 X2383.260 Y1406.120
M3 M8
G0 Z   3.000 
G1 Z  -1.500
F400
G1 X2383.260 Y1503.860
G1 X2467.900 Y1552.730
G1 X2552.540 Y1503.860
G1 X2552.540 Y1406.120
G1 X2467.900 Y1357.250
G1 X2383.260 Y1406.120
F150
G1 Z  -3.000
F400
G1 X2383.260 Y1503.860
G1 X2467.900 Y1552.730
G1 X2552.540 Y1503.860
G1 X2552.540 Y1406.120
G1 X2467.900 Y1357.250
G1 X2383.260 Y1406.120
F150
G1 Z   3.000
G0 Z  15.000 
M9 M5

(* SHAPE Nr: 75 *)
G0 X2396.210 Y1201.120
M3 M8
G0 Z   3.000 
G1 Z  -1.500
F400
G1 X2396.210 Y1298.860
G1 X2480.850 Y1347.730
G1 X2565.490 Y1298.860
G1 X2565.490 Y1201.120
G1 X2480.850 Y1152.250
G1 X2396.210 Y1201.120
F150
G1 Z  -3.000
F400
G1 X2396.210 Y1298.860
G1 X2480.850 Y1347.730
G1 X2565.490 Y1298.860
G1 X2565.490 Y1201.120
G1 X2480.850 Y1152.250
G1 X2396.210 Y1201.120
F150
G1 Z   3.000
G0 Z  15.000 
M9 M5

(* SHAPE Nr: 81 *)
G0 X 857.470 Y 765.140
M3 M8
G0 Z   3.000 
G1 Z  -1.500
F400
G1 X 808.600 Y 849.780
G1 X 857.470 Y 934.430
G1 X 955.210 Y 934.430
G1 X1004.080 Y 849.780
G1 X 955.210 Y 765.140
G1 X 857.470 Y 765.140
F150
G1 Z  -3.000
F400
G1 X 808.600 Y 849.780
G1 X 857.470 Y 934.430
G1 X 955.210 Y 934.430
G1 X1004.080 Y 849.780
G1 X 955.210 Y 765.140
G1 X 857.470 Y 765.140
F150
G1 Z   3.000
G0 Z  15.000 
M9 M5

(* SHAPE Nr: 85 *)
G0 X 310.380 Y 735.220
M3 M8
G0 Z   3.000 
G1 Z  -1.500
F400
G1 X 261.510 Y 819.860
G1 X 310.380 Y 904.510
G1 X 408.120 Y 904.510
G1 X 456.990 Y 819.860
G1 X 408.120 Y 735.220
G1 X 310.380 Y 735.220
F150
G1 Z  -3.000
F400
G1 X 261.510 Y 819.860
G1 X 310.380 Y 904.510
G1 X 408.120 Y 904.510
G1 X 456.990 Y 819.860
G1 X 408.120 Y 735.220
G1 X 310.380 Y 735.220
F150
G1 Z   3.000
G0 Z  15.000 
M9 M5

(* SHAPE Nr: 91 *)
G0 X 589.610 Y1170.470
M3 M8
G0 Z   3.000 
G1 Z  -1.500
F400
G1 X 540.740 Y1255.110
G1 X 589.610 Y1339.760
G1 X 687.350 Y1339.760
G1 X 736.220 Y1255.110
G1 X 687.350 Y1170.470
G1 X 589.610 Y1170.470
F150
G1 Z  -3.000
F400
G1 X 540.740 Y1255.110
G1 X 589.610 Y1339.760
G1 X 687.350 Y1339.760
G1 X 736.220 Y1255.110
G1 X 687.350 Y1170.470
G1 X 589.610 Y1170.470
F150
G1 Z   3.000
G0 Z  15.000 
M9 M5

(* SHAPE Nr: 92 *)
G0 X 793.950 Y1156.360
M3 M8
G0 Z   3.000 
G1 Z  -1.500
F400
G1 X 745.080 Y1241.000
G1 X 793.950 Y1325.650
G1 X 891.690 Y1325.650
G1 X 940.560 Y1241.000
G1 X 891.690 Y1156.360
G1 X 793.950 Y1156.360
F150
G1 Z  -3.000
F400
G1 X 745.080 Y1241.000
G1 X 793.950 Y1325.650
G1 X 891.690 Y1325.650
G1 X 940.560 Y1241.000
G1 X 891.690 Y1156.360
G1 X 793.950 Y1156.360
F150
G1 Z   3.000
G0 Z  15.000 
M9 M5

(*** LAYER: BORDER_D0_T132_RK1_A0_W0_EM1_RI1_ID0015 ***)

(* SHAPE Nr: 14 *)
G0 X 792.320 Y1345.850
M3 M8
G0 Z   3.000 
G1 Z  -1.500
F400
G1 X 743.450 Y1714.760
G1 X 776.030 Y1837.730
G1 X 841.190 Y1837.730
G1 X 906.350 Y1837.730
G1 X 938.930 Y1714.760
G1 X 890.060 Y1345.850
G1 X 870.510 Y1407.340
G1 X 811.870 Y1407.340
G1 X 792.320 Y1345.850
F150
G1 Z  -3.000
F400
G1 X 743.450 Y1714.760
G1 X 776.030 Y1837.730
G1 X 841.190 Y1837.730
G1 X 906.350 Y1837.730
G1 X 938.930 Y1714.760
G1 X 890.060 Y1345.850
G1 X 870.510 Y1407.340
G1 X 811.870 Y1407.340
G1 X 792.320 Y1345.850
F150
G1 Z   3.000
G0 Z  15.000 
M9 M5

(* SHAPE Nr: 32 *)
G0 X2066.640 Y1548.120
M3 M8
G0 Z   3.000 
G1 Z  -1.500
F400
G1 X2017.770 Y1917.030
G1 X2050.350 Y2040.000
G1 X2115.510 Y2040.000
G1 X2180.670 Y2040.000
G1 X2213.250 Y1917.030
G1 X2164.380 Y1548.120
G1 X2144.830 Y1609.610
G1 X2086.190 Y1609.610
G1 X2066.640 Y1548.120
F150
G1 Z  -3.000
F400
G1 X2017.770 Y1917.030
G1 X2050.350 Y2040.000
G1 X2115.510 Y2040.000
G1 X2180.670 Y2040.000
G1 X2213.250 Y1917.030
G1 X2164.380 Y1548.120
G1 X2144.830 Y1609.610
G1 X2086.190 Y1609.610
G1 X2066.640 Y1548.120
F150
G1 Z   3.000
G0 Z  15.000 
M9 M5

(* SHAPE Nr: 33 *)
G0 X2060.920 Y1040.560
M3 M8
G0 Z   3.000 
G1 Z  -1.500
F400
G1 X2012.050 Y1409.470
G1 X2044.630 Y1532.440
G1 X2109.790 Y1532.440
G1 X2174.950 Y1532.440
G1 X2207.530 Y1409.470
G1 X2158.660 Y1040.560
G1 X2139.110 Y1102.050
G1 X2080.470 Y1102.050
G1 X2060.920 Y1040.560
F150
G1 Z  -3.000
F400
G1 X2012.050 Y1409.470
G1 X2044.630 Y1532.440
G1 X2109.790 Y1532.440
G1 X2174.950 Y1532.440
G1 X2207.530 Y1409.470
G1 X2158.660 Y1040.560
G1 X2139.110 Y1102.050
G1 X2080.470 Y1102.050
G1 X2060.920 Y1040.560
F150
G1 Z   3.000
G0 Z  15.000 
M9 M5

(* SHAPE Nr: 34 *)
G0 X2035.950 Y 531.170
M3 M8
G0 Z   3.000 
G1 Z  -1.500
F400
G1 X1987.080 Y 900.080
G1 X2019.660 Y1023.050
G1 X2084.820 Y1023.050
G1 X2149.980 Y1023.050
G1 X2182.560 Y 900.080
G1 X2133.690 Y 531.170
G1 X2114.140 Y 592.660
G1 X2055.500 Y 592.660
G1 X2035.950 Y 531.170
F150
G1 Z  -3.000
F400
G1 X1987.080 Y 900.080
G1 X2019.660 Y1023.050
G1 X2084.820 Y1023.050
G1 X2149.980 Y1023.050
G1 X2182.560 Y 900.080
G1 X2133.690 Y 531.170
G1 X2114.140 Y 592.660
G1 X2055.500 Y 592.660
G1 X2035.950 Y 531.170
F150
G1 Z   3.000
G0 Z  15.000 
M9 M5

(* SHAPE Nr: 68 *)
G0 X1736.390 Y 196.610
M3 M8
G0 Z   3.000 
G1 Z  -1.500
F400
G1 X1736.390 Y 261.770
G1 X1736.390 Y 326.930
G1 X1859.360 Y 359.510
G1 X2228.270 Y 310.640
G1 X2166.780 Y 291.090
G1 X2166.780 Y 232.450
G1 X2228.270 Y 212.900
G1 X1859.360 Y 164.030
G1 X1736.390 Y 196.610
F150
G1 Z  -3.000
F400
G1 X1736.390 Y 261.770
G1 X1736.390 Y 326.930
G1 X1859.360 Y 359.510
G1 X2228.270 Y 310.640
G1 X2166.780 Y 291.090
G1 X2166.780 Y 232.450
G1 X2228.270 Y 212.900
G1 X1859.360 Y 164.030
G1 X1736.390 Y 196.610
F150
G1 Z   3.000
G0 Z  15.000 
M9 M5

(* SHAPE Nr: 69 *)
G0 X1843.810 Y 376.420
M3 M8
G0 Z   3.000 
G1 Z  -1.500
F400
G1 X1905.300 Y 395.970
G1 X1905.300 Y 454.610
G1 X1843.810 Y 474.160
G1 X2212.720 Y 523.030
G1 X2335.690 Y 490.450
G1 X2335.690 Y 425.290
G1 X2335.690 Y 360.130
G1 X2212.720 Y 327.550
G1 X1843.810 Y 376.420
F150
G1 Z  -3.000
F400
G1 X1905.300 Y 395.970
G1 X1905.300 Y 454.610
G1 X1843.810 Y 474.160
G1 X2212.720 Y 523.030
G1 X2335.690 Y 490.450
G1 X2335.690 Y 425.290
G1 X2335.690 Y 360.130
G1 X2212.720 Y 327.550
G1 X1843.810 Y 376.420
F150
G1 Z   3.000
G0 Z  15.000 
M9 M5

(* SHAPE Nr: 70 *)
G0 X2350.640 Y 476.340
M3 M8
G0 Z   3.000 
G1 Z  -1.500
F400
G1 X2383.220 Y 599.310
G1 X2448.380 Y 599.310
G1 X2513.540 Y 599.310
G1 X2546.120 Y 476.340
G1 X2497.250 Y 107.430
G1 X2477.700 Y 168.920
G1 X2419.060 Y 168.920
G1 X2399.510 Y 107.430
G1 X2350.640 Y 476.340
F150
G1 Z  -3.000
F400
G1 X2383.220 Y 599.310
G1 X2448.380 Y 599.310
G1 X2513.540 Y 599.310
G1 X2546.120 Y 476.340
G1 X2497.250 Y 107.430
G1 X2477.700 Y 168.920
G1 X2419.060 Y 168.920
G1 X2399.510 Y 107.430
G1 X2350.640 Y 476.340
F150
G1 Z   3.000
G0 Z  15.000 
M9 M5

(* SHAPE Nr: 71 *)
G0 X2401.780 Y 614.990
M3 M8
G0 Z   3.000 
G1 Z  -1.500
F400
G1 X2352.910 Y 983.900
G1 X2385.490 Y1106.870
G1 X2450.650 Y1106.870
G1 X2515.810 Y1106.870
G1 X2548.390 Y 983.900
G1 X2499.520 Y 614.990
G1 X2479.970 Y 676.480
G1 X2421.330 Y 676.480
G1 X2401.780 Y 614.990
F150
G1 Z  -3.000
F400
G1 X2352.910 Y 983.900
G1 X2385.490 Y1106.870
G1 X2450.650 Y1106.870
G1 X2515.810 Y1106.870
G1 X2548.390 Y 983.900
G1 X2499.520 Y 614.990
G1 X2479.970 Y 676.480
G1 X2421.330 Y 676.480
G1 X2401.780 Y 614.990
F150
G1 Z   3.000
G0 Z  15.000 
M9 M5

(* SHAPE Nr: 72 *)
G0 X2222.380 Y1040.560
M3 M8
G0 Z   3.000 
G1 Z  -1.500
F400
G1 X2189.800 Y1163.530
G1 X2238.670 Y1532.440
G1 X2258.220 Y1470.950
G1 X2316.860 Y1470.950
G1 X2336.410 Y1532.440
G1 X2385.280 Y1163.530
G1 X2352.700 Y1040.560
G1 X2287.540 Y1040.560
G1 X2222.380 Y1040.560
F150
G1 Z  -3.000
F400
G1 X2189.800 Y1163.530
G1 X2238.670 Y1532.440
G1 X2258.220 Y1470.950
G1 X2316.860 Y1470.950
G1 X2336.410 Y1532.440
G1 X2385.280 Y1163.530
G1 X2352.700 Y1040.560
G1 X2287.540 Y1040.560
G1 X2222.380 Y1040.560
F150
G1 Z   3.000
G0 Z  15.000 
M9 M5

(* SHAPE Nr: 73 *)
G0 X2228.170 Y1548.120
M3 M8
G0 Z   3.000 
G1 Z  -1.500
F400
G1 X2195.590 Y1671.090
G1 X2244.460 Y2040.000
G1 X2264.010 Y1978.510
G1 X2322.650 Y1978.510
G1 X2342.200 Y2040.000
G1 X2391.070 Y1671.090
G1 X2358.490 Y1548.120
G1 X2293.330 Y1548.120
G1 X2228.170 Y1548.120
F150
G1 Z  -3.000
F400
G1 X2195.590 Y1671.090
G1 X2244.460 Y2040.000
G1 X2264.010 Y1978.510
G1 X2322.650 Y1978.510
G1 X2342.200 Y2040.000
G1 X2391.070 Y1671.090
G1 X2358.490 Y1548.120
G1 X2293.330 Y1548.120
G1 X2228.170 Y1548.120
F150
G1 Z   3.000
G0 Z  15.000 
M9 M5

(* SHAPE Nr: 76 *)
G0 X2563.260 Y 615.310
M3 M8
G0 Z   3.000 
G1 Z  -1.500
F400
G1 X2530.680 Y 738.280
G1 X2579.550 Y1107.190
G1 X2599.100 Y1045.700
G1 X2657.740 Y1045.700
G1 X2677.290 Y1107.190
G1 X2726.160 Y 738.280
G1 X2693.580 Y 615.310
G1 X2628.420 Y 615.310
G1 X2563.260 Y 615.310
F150
G1 Z  -3.000
F400
G1 X2530.680 Y 738.280
G1 X2579.550 Y1107.190
G1 X2599.100 Y1045.700
G1 X2657.740 Y1045.700
G1 X2677.290 Y1107.190
G1 X2726.160 Y 738.280
G1 X2693.580 Y 615.310
G1 X2628.420 Y 615.310
G1 X2563.260 Y 615.310
F150
G1 Z   3.000
G0 Z  15.000 
M9 M5

(* SHAPE Nr: 77 *)
G0 X2528.460 Y 230.710
M3 M8
G0 Z   3.000 
G1 Z  -1.500
F400
G1 X2577.330 Y 599.620
G1 X2596.880 Y 538.130
G1 X2655.520 Y 538.130
G1 X2675.070 Y 599.620
G1 X2723.940 Y 230.710
G1 X2691.360 Y 107.740
G1 X2626.200 Y 107.740
G1 X2561.040 Y 107.740
G1 X2528.460 Y 230.710
F150
G1 Z  -3.000
F400
G1 X2577.330 Y 599.620
G1 X2596.880 Y 538.130
G1 X2655.520 Y 538.130
G1 X2675.070 Y 599.620
G1 X2723.940 Y 230.710
G1 X2691.360 Y 107.740
G1 X2626.200 Y 107.740
G1 X2561.040 Y 107.740
G1 X2528.460 Y 230.710
F150
G1 Z   3.000
G0 Z  15.000 
M9 M5

(* SHAPE Nr: 78 *)
G0 X2583.680 Y1548.120
M3 M8
G0 Z   3.000 
G1 Z  -1.500
F400
G1 X2551.100 Y1671.090
G1 X2599.970 Y2040.000
G1 X2619.520 Y1978.510
G1 X2678.160 Y1978.510
G1 X2697.710 Y2040.000
G1 X2746.580 Y1671.090
G1 X2714.000 Y1548.120
G1 X2648.840 Y1548.120
G1 X2583.680 Y1548.120
F150
G1 Z  -3.000
F400
G1 X2551.100 Y1671.090
G1 X2599.970 Y2040.000
G1 X2619.520 Y1978.510
G1 X2678.160 Y1978.510
G1 X2697.710 Y2040.000
G1 X2746.580 Y1671.090
G1 X2714.000 Y1548.120
G1 X2648.840 Y1548.120
G1 X2583.680 Y1548.120
F150
G1 Z   3.000
G0 Z  15.000 
M9 M5

(* SHAPE Nr: 79 *)
G0 X2422.210 Y1548.120
M3 M8
G0 Z   3.000 
G1 Z  -1.500
F400
G1 X2373.340 Y1917.030
G1 X2405.920 Y2040.000
G1 X2471.080 Y2040.000
G1 X2536.240 Y2040.000
G1 X2568.820 Y1917.030
G1 X2519.950 Y1548.120
G1 X2500.400 Y1609.610
G1 X2441.760 Y1609.610
G1 X2422.210 Y1548.120
F150
G1 Z  -3.000
F400
G1 X2373.340 Y1917.030
G1 X2405.920 Y2040.000
G1 X2471.080 Y2040.000
G1 X2536.240 Y2040.000
G1 X2568.820 Y1917.030
G1 X2519.950 Y1548.120
G1 X2500.400 Y1609.610
G1 X2441.760 Y1609.610
G1 X2422.210 Y1548.120
F150
G1 Z   3.000
G0 Z  15.000 
M9 M5

(* SHAPE Nr: 89 *)
G0 X 260.710 Y1337.710
M3 M8
G0 Z   3.000 
G1 Z  -1.500
F400
G1 X 211.840 Y1706.620
G1 X 244.420 Y1829.590
G1 X 309.580 Y1829.590
G1 X 374.740 Y1829.590
G1 X 407.320 Y1706.620
G1 X 358.450 Y1337.710
G1 X 338.900 Y1399.200
G1 X 280.260 Y1399.200
G1 X 260.710 Y1337.710
F150
G1 Z  -3.000
F400
G1 X 211.840 Y1706.620
G1 X 244.420 Y1829.590
G1 X 309.580 Y1829.590
G1 X 374.740 Y1829.590
G1 X 407.320 Y1706.620
G1 X 358.450 Y1337.710
G1 X 338.900 Y1399.200
G1 X 280.260 Y1399.200
G1 X 260.710 Y1337.710
F150
G1 Z   3.000
G0 Z  15.000 
M9 M5

(* SHAPE Nr: 90 *)
G0 X 417.340 Y1301.400
M3 M8
G0 Z   3.000 
G1 Z  -1.500
F400
G1 X 384.760 Y1424.370
G1 X 433.630 Y1793.280
G1 X 453.180 Y1731.790
G1 X 511.820 Y1731.790
G1 X 531.370 Y1793.280
G1 X 580.240 Y1424.370
G1 X 547.660 Y1301.400
G1 X 482.500 Y1301.400
G1 X 417.340 Y1301.400
F150
G1 Z  -3.000
F400
G1 X 384.760 Y1424.370
G1 X 433.630 Y1793.280
G1 X 453.180 Y1731.790
G1 X 511.820 Y1731.790
G1 X 531.370 Y1793.280
G1 X 580.240 Y1424.370
G1 X 547.660 Y1301.400
G1 X 482.500 Y1301.400
G1 X 417.340 Y1301.400
F150
G1 Z   3.000
G0 Z  15.000 
M9 M5

(*** LAYER: BORDER_D0_T132_RK1_A0_W0_EM1_RI1_ID0007 ***)

(* SHAPE Nr: 20 *)
G0 X1461.410 Y1339.660
M3 M8
G0 Z   3.000 
G1 Z  -1.500
F400
G1 X1483.360 Y1407.200
G1 X1425.910 Y1448.940
G1 X1496.920 Y1448.940
G1 X1518.860 Y1516.470
G1 X1540.810 Y1448.940
G1 X1611.820 Y1448.940
G1 X1554.370 Y1407.200
G1 X1576.310 Y1339.660
G1 X1518.860 Y1381.400
G1 X1461.410 Y1339.660
F150
G1 Z  -3.000
F400
G1 X1483.360 Y1407.200
G1 X1425.910 Y1448.940
G1 X1496.920 Y1448.940
G1 X1518.860 Y1516.470
G1 X1540.810 Y1448.940
G1 X1611.820 Y1448.940
G1 X1554.370 Y1407.200
G1 X1576.310 Y1339.660
G1 X1518.860 Y1381.400
G1 X1461.410 Y1339.660
F150
G1 Z   3.000
G0 Z  15.000 
M9 M5

(* SHAPE Nr: 42 *)
G0 X 931.350 Y1193.580
M3 M8
G0 Z   3.000 
G1 Z  -1.500
F400
G1 X 973.090 Y1251.030
G1 X 931.350 Y1308.480
G1 X 998.890 Y1286.530
G1 X1040.630 Y1343.980
G1 X1040.630 Y1272.970
G1 X1108.160 Y1251.030
G1 X1040.630 Y1229.080
G1 X1040.630 Y1158.070
G1 X 998.890 Y1215.520
G1 X 931.350 Y1193.580
F150
G1 Z  -3.000
F400
G1 X 973.090 Y1251.030
G1 X 931.350 Y1308.480
G1 X 998.890 Y1286.530
G1 X1040.630 Y1343.980
G1 X1040.630 Y1272.970
G1 X1108.160 Y1251.030
G1 X1040.630 Y1229.080
G1 X1040.630 Y1158.070
G1 X 998.890 Y1215.520
G1 X 931.350 Y1193.580
F150
G1 Z   3.000
G0 Z  15.000 
M9 M5

(*** LAYER: BORDER_D0_T132_RK1_A0_W0_EM1_RI1_ID0011 ***)

(* SHAPE Nr: 84 *)
G0 X 465.000 Y 840.060
M3 M8
G0 Z   3.000 
G1 Z  -1.500
F400
G1 X 465.000 Y 896.490
G1 X 416.130 Y 924.700
G1 X 465.000 Y 952.920
G1 X 465.000 Y1009.350
G1 X 513.870 Y 981.140
G1 X 562.740 Y1009.350
G1 X 562.740 Y 952.920
G1 X 611.610 Y 924.700
G1 X 562.740 Y 896.490
G1 X 562.740 Y 840.060
G1 X 513.870 Y 868.280
G1 X 465.000 Y 840.060
F150
G1 Z  -3.000
F400
G1 X 465.000 Y 896.490
G1 X 416.130 Y 924.700
G1 X 465.000 Y 952.920
G1 X 465.000 Y1009.350
G1 X 513.870 Y 981.140
G1 X 562.740 Y1009.350
G1 X 562.740 Y 952.920
G1 X 611.610 Y 924.700
G1 X 562.740 Y 896.490
G1 X 562.740 Y 840.060
G1 X 513.870 Y 868.280
G1 X 465.000 Y 840.060
F150
G1 Z   3.000
G0 Z  15.000 
M9 M5

(*** LAYER: BORDER_D0_T132_RK1_A0_W0_EM1_RI1_ID0009 ***)

(* SHAPE Nr: 88 *)
G0 X 299.590 Y1180.210
M3 M8
G0 Z   3.000 
G1 Z  -1.500
F400
G1 X 279.330 Y1242.850
G1 X 214.950 Y1229.080
G1 X 259.060 Y1277.950
G1 X 214.950 Y1326.820
G1 X 279.330 Y1313.050
G1 X 299.590 Y1375.690
G1 X 319.860 Y1313.050
G1 X 384.230 Y1326.820
G1 X 340.130 Y1277.950
G1 X 384.230 Y1229.080
G1 X 319.860 Y1242.850
G1 X 299.590 Y1180.210
F150
G1 Z  -3.000
F400
G1 X 279.330 Y1242.850
G1 X 214.950 Y1229.080
G1 X 259.060 Y1277.950
G1 X 214.950 Y1326.820
G1 X 279.330 Y1313.050
G1 X 299.590 Y1375.690
G1 X 319.860 Y1313.050
G1 X 384.230 Y1326.820
G1 X 340.130 Y1277.950
G1 X 384.230 Y1229.080
G1 X 319.860 Y1242.850
G1 X 299.590 Y1180.210
F150
G1 Z   3.000
G0 Z  15.000 
M9 M5

(*** LAYER: BORDER_D0_T132_RK1_A0_W0_EM1_RI1_ID0020 ***)

(* SHAPE Nr: 93 *)
G0 X 524.500 Y 381.510
M3 M8
G0 Z   3.000 
G1 Z  -1.500
F400
G2 X 528.240 Y 398.480 I  41.227 J  -0.189
G2 X 539.330 Y 414.940 I  55.807 J -25.634
G2 X 557.450 Y 430.380 I  77.344 J -72.417
G2 X 582.040 Y 444.340 I  99.664 J-146.917
G2 X 612.350 Y 456.380 I 115.619 J-246.893
G2 X 647.470 Y 466.150 I 119.400 J-361.196
G2 X 686.320 Y 473.360 I 107.781 J-472.487
G2 X 727.730 Y 477.760 I  80.598 J-561.472
G2 X 770.440 Y 479.250 I  42.711 J-611.416
G2 X 813.150 Y 477.760 I  -0.001 J-612.906
G2 X 854.560 Y 473.360 I -39.188 J-565.872
G2 X 893.410 Y 466.150 I -68.931 J-479.697
G2 X 928.530 Y 456.380 I -84.280 J-370.966
G2 X 958.840 Y 444.340 I -85.309 J-258.933
G2 X 983.430 Y 430.380 I -75.074 J-160.877
G2 X1001.550 Y 414.940 I -59.224 J -87.857
G2 X1012.640 Y 398.480 I -44.717 J -42.094
G2 X1016.380 Y 381.510 I -37.487 J -17.159
G1 X 770.440 Y 381.510
G1 X 524.500 Y 381.510
F150
G1 Z  -3.000
F400
G2 X 528.240 Y 398.480 I  41.227 J  -0.189
G2 X 539.330 Y 414.940 I  55.807 J -25.634
G2 X 557.450 Y 430.380 I  77.344 J -72.417
G2 X 582.040 Y 444.340 I  99.664 J-146.917
G2 X 612.350 Y 456.380 I 115.619 J-246.893
G2 X 647.470 Y 466.150 I 119.400 J-361.196
G2 X 686.320 Y 473.360 I 107.781 J-472.487
G2 X 727.730 Y 477.760 I  80.598 J-561.472
G2 X 770.440 Y 479.250 I  42.711 J-611.416
G2 X 813.150 Y 477.760 I  -0.001 J-612.906
G2 X 854.560 Y 473.360 I -39.188 J-565.872
G2 X 893.410 Y 466.150 I -68.931 J-479.697
G2 X 928.530 Y 456.380 I -84.280 J-370.966
G2 X 958.840 Y 444.340 I -85.309 J-258.933
G2 X 983.430 Y 430.380 I -75.074 J-160.877
G2 X1001.550 Y 414.940 I -59.224 J -87.857
G2 X1012.640 Y 398.480 I -44.717 J -42.094
G2 X1016.380 Y 381.510 I -37.487 J -17.159
G1 X 770.440 Y 381.510
G1 X 524.500 Y 381.510
F150
G1 Z   3.000
G0 Z  15.000 
M9 M5

(* SHAPE Nr: 94 *)
G0 X2694.520 Y1112.570
M3 M8
G0 Z   3.000 
G1 Z  -1.500
F400
G2 X2682.480 Y1142.880 I 246.893 J 115.619
G2 X2672.710 Y1178.000 I 361.196 J 119.400
G2 X2665.500 Y1216.850 I 472.487 J 107.781
G2 X2661.100 Y1258.260 I 561.472 J  80.598
G2 X2659.610 Y1300.970 I 611.451 J  42.712
G2 X2661.100 Y1343.680 I 612.906 J  -0.001
G2 X2665.500 Y1385.090 I 565.872 J -39.188
G2 X2672.710 Y1423.940 I 479.697 J -68.931
G2 X2682.480 Y1459.060 I 370.966 J -84.280
G2 X2694.520 Y1489.370 I 258.933 J -85.309
G2 X2708.480 Y1513.960 I 160.873 J -75.072
G2 X2723.920 Y1532.080 I  87.857 J -59.224
G2 X2740.380 Y1543.170 I  42.094 J -44.717
G2 X2757.350 Y1546.910 I  17.159 J -37.487
G1 X2757.350 Y1300.970
G1 X2757.350 Y1055.030
G2 X2740.380 Y1058.770 I   0.189 J  41.227
G2 X2723.920 Y1069.860 I  25.634 J  55.807
G2 X2708.480 Y1087.980 I  72.418 J  77.345
G2 X2694.520 Y1112.570 I 146.913 J  99.662
F150
G1 Z  -3.000
F400
G2 X2682.480 Y1142.880 I 246.893 J 115.619
G2 X2672.710 Y1178.000 I 361.196 J 119.400
G2 X2665.500 Y1216.850 I 472.487 J 107.781
G2 X2661.100 Y1258.260 I 561.472 J  80.598
G2 X2659.610 Y1300.970 I 611.451 J  42.712
G2 X2661.100 Y1343.680 I 612.906 J  -0.001
G2 X2665.500 Y1385.090 I 565.872 J -39.188
G2 X2672.710 Y1423.940 I 479.697 J -68.931
G2 X2682.480 Y1459.060 I 370.966 J -84.280
G2 X2694.520 Y1489.370 I 258.933 J -85.309
G2 X2708.480 Y1513.960 I 160.873 J -75.072
G2 X2723.920 Y1532.080 I  87.857 J -59.224
G2 X2740.380 Y1543.170 I  42.094 J -44.717
G2 X2757.350 Y1546.910 I  17.159 J -37.487
G1 X2757.350 Y1300.970
G1 X2757.350 Y1055.030
G2 X2740.380 Y1058.770 I   0.189 J  41.227
G2 X2723.920 Y1069.860 I  25.634 J  55.807
G2 X2708.480 Y1087.980 I  72.418 J  77.345
G2 X2694.520 Y1112.570 I 146.913 J  99.662
F150
G1 Z   3.000
G0 Z  15.000 
M9 M5

(* SHAPE Nr: 95 *)
G0 X 234.990 Y 251.130
M3 M8
G0 Z   3.000 
G1 Z  -1.500
F400
G2 X 238.730 Y 268.100 I  41.227 J  -0.189
G2 X 249.820 Y 284.560 I  55.807 J -25.634
G2 X 267.940 Y 300.000 I  77.344 J -72.417
G2 X 292.530 Y 313.960 I  99.664 J-146.917
G2 X 322.840 Y 326.000 I 115.619 J-246.893
G2 X 357.960 Y 335.770 I 119.400 J-361.196
G2 X 396.810 Y 342.980 I 107.781 J-472.487
G2 X 438.220 Y 347.380 I  80.598 J-561.472
G2 X 480.930 Y 348.870 I  42.711 J-611.416
G2 X 523.640 Y 347.380 I  -0.001 J-612.906
G2 X 565.050 Y 342.980 I -39.188 J-565.872
G2 X 603.900 Y 335.770 I -68.931 J-479.697
G2 X 639.020 Y 326.000 I -84.280 J-370.966
G2 X 669.330 Y 313.960 I -85.309 J-258.933
G2 X 693.920 Y 300.000 I -75.074 J-160.877
G2 X 712.040 Y 284.560 I -59.224 J -87.857
G2 X 723.130 Y 268.100 I -44.717 J -42.094
G2 X 726.870 Y 251.130 I -37.487 J -17.159
G1 X 480.930 Y 251.130
G1 X 234.990 Y 251.130
F150
G1 Z  -3.000
F400
G2 X 238.730 Y 268.100 I  41.227 J  -0.189
G2 X 249.820 Y 284.560 I  55.807 J -25.634
G2 X 267.940 Y 300.000 I  77.344 J -72.417
G2 X 292.530 Y 313.960 I  99.664 J-146.917
G2 X 322.840 Y 326.000 I 115.619 J-246.893
G2 X 357.960 Y 335.770 I 119.400 J-361.196
G2 X 396.810 Y 342.980 I 107.781 J-472.487
G2 X 438.220 Y 347.380 I  80.598 J-561.472
G2 X 480.930 Y 348.870 I  42.711 J-611.416
G2 X 523.640 Y 347.380 I  -0.001 J-612.906
G2 X 565.050 Y 342.980 I -39.188 J-565.872
G2 X 603.900 Y 335.770 I -68.931 J-479.697
G2 X 639.020 Y 326.000 I -84.280 J-370.966
G2 X 669.330 Y 313.960 I -85.309 J-258.933
G2 X 693.920 Y 300.000 I -75.074 J-160.877
G2 X 712.040 Y 284.560 I -59.224 J -87.857
G2 X 723.130 Y 268.100 I -44.717 J -42.094
G2 X 726.870 Y 251.130 I -37.487 J -17.159
G1 X 480.930 Y 251.130
G1 X 234.990 Y 251.130
F150
G1 Z   3.000
G0 Z  15.000 
M9 M5

(* SHAPE Nr: 96 *)
G0 X 664.410 Y 349.840
M3 M8
G0 Z   3.000 
G1 Z  -1.500
F400
G2 X 660.670 Y 366.810 I  37.487 J  17.159
G1 X 906.610 Y 366.810
G1 X1152.550 Y 366.810
G2 X1148.810 Y 349.840 I -41.227 J   0.189
G2 X1137.720 Y 333.380 I -55.807 J  25.634
G2 X1119.600 Y 317.940 I -77.345 J  72.418
G2 X1095.010 Y 303.980 I -99.664 J 146.917
G2 X1064.700 Y 291.940 I-115.619 J 246.893
G2 X1029.580 Y 282.170 I-119.400 J 361.196
G2 X 990.730 Y 274.960 I-107.781 J 472.487
G2 X 949.320 Y 270.560 I -80.598 J 561.472
G2 X 906.610 Y 269.070 I -42.711 J 611.416
G2 X 863.900 Y 270.560 I   0.001 J 612.906
G2 X 822.490 Y 274.960 I  39.188 J 565.872
G2 X 783.640 Y 282.170 I  68.931 J 479.697
G2 X 748.520 Y 291.940 I  84.280 J 370.966
G2 X 718.210 Y 303.980 I  85.309 J 258.933
G2 X 693.620 Y 317.940 I  75.074 J 160.877
G2 X 675.500 Y 333.380 I  59.224 J  87.857
G2 X 664.410 Y 349.840 I  44.717 J  42.094
F150
G1 Z  -3.000
F400
G2 X 660.670 Y 366.810 I  37.487 J  17.159
G1 X 906.610 Y 366.810
G1 X1152.550 Y 366.810
G2 X1148.810 Y 349.840 I -41.227 J   0.189
G2 X1137.720 Y 333.380 I -55.807 J  25.634
G2 X1119.600 Y 317.940 I -77.345 J  72.418
G2 X1095.010 Y 303.980 I -99.664 J 146.917
G2 X1064.700 Y 291.940 I-115.619 J 246.893
G2 X1029.580 Y 282.170 I-119.400 J 361.196
G2 X 990.730 Y 274.960 I-107.781 J 472.487
G2 X 949.320 Y 270.560 I -80.598 J 561.472
G2 X 906.610 Y 269.070 I -42.711 J 611.416
G2 X 863.900 Y 270.560 I   0.001 J 612.906
G2 X 822.490 Y 274.960 I  39.188 J 565.872
G2 X 783.640 Y 282.170 I  68.931 J 479.697
G2 X 748.520 Y 291.940 I  84.280 J 370.966
G2 X 718.210 Y 303.980 I  85.309 J 258.933
G2 X 693.620 Y 317.940 I  75.074 J 160.877
G2 X 675.500 Y 333.380 I  59.224 J  87.857
G2 X 664.410 Y 349.840 I  44.717 J  42.094
F150
G1 Z   3.000
G0 Z  15.000 
M9 M5

(* SHAPE Nr: 97 *)
G0 X2197.500 Y 536.230
M3 M8
G0 Z   3.000 
G1 Z  -1.500
F400
G1 X2197.500 Y 782.170
G1 X2197.500 Y1028.110
G2 X2214.470 Y1024.370 I  -0.189 J -41.227
G2 X2230.930 Y1013.280 I -25.634 J -55.807
G2 X2246.370 Y 995.160 I -72.417 J -77.344
G2 X2260.330 Y 970.570 I-146.917 J -99.664
G2 X2272.370 Y 940.260 I-246.893 J-115.619
G2 X2282.140 Y 905.140 I-361.196 J-119.400
G2 X2289.350 Y 866.290 I-472.487 J-107.781
G2 X2293.750 Y 824.880 I-561.472 J -80.598
G2 X2295.240 Y 782.170 I-611.416 J -42.711
G2 X2293.750 Y 739.460 I-612.906 J   0.001
G2 X2289.350 Y 698.050 I-565.872 J  39.188
G2 X2282.140 Y 659.200 I-479.697 J  68.931
G2 X2272.370 Y 624.080 I-370.966 J  84.280
G2 X2260.330 Y 593.770 I-258.933 J  85.309
G2 X2246.370 Y 569.180 I-160.877 J  75.074
G2 X2230.930 Y 551.060 I -87.857 J  59.224
G2 X2214.470 Y 539.970 I -42.094 J  44.717
G2 X2197.500 Y 536.230 I -17.159 J  37.487
F150
G1 Z  -3.000
F400
G1 X2197.500 Y 782.170
G1 X2197.500 Y1028.110
G2 X2214.470 Y1024.370 I  -0.189 J -41.227
G2 X2230.930 Y1013.280 I -25.634 J -55.807
G2 X2246.370 Y 995.160 I -72.417 J -77.344
G2 X2260.330 Y 970.570 I-146.917 J -99.664
G2 X2272.370 Y 940.260 I-246.893 J-115.619
G2 X2282.140 Y 905.140 I-361.196 J-119.400
G2 X2289.350 Y 866.290 I-472.487 J-107.781
G2 X2293.750 Y 824.880 I-561.472 J -80.598
G2 X2295.240 Y 782.170 I-611.416 J -42.711
G2 X2293.750 Y 739.460 I-612.906 J   0.001
G2 X2289.350 Y 698.050 I-565.872 J  39.188
G2 X2282.140 Y 659.200 I-479.697 J  68.931
G2 X2272.370 Y 624.080 I-370.966 J  84.280
G2 X2260.330 Y 593.770 I-258.933 J  85.309
G2 X2246.370 Y 569.180 I-160.877 J  75.074
G2 X2230.930 Y 551.060 I -87.857 J  59.224
G2 X2214.470 Y 539.970 I -42.094 J  44.717
G2 X2197.500 Y 536.230 I -17.159 J  37.487
F150
G1 Z   3.000
G0 Z  15.000 
M9 M5

(* SHAPE Nr: 98 *)
G0 X1338.050 Y  24.610
M3 M8
G0 Z   3.000 
G1 Z  -1.500
F400
G2 X1341.790 Y  41.580 I  41.227 J  -0.189
G2 X1352.880 Y  58.040 I  55.807 J -25.634
G2 X1371.000 Y  73.480 I  77.345 J -72.418
G2 X1395.590 Y  87.440 I  99.664 J-146.917
G2 X1425.900 Y  99.480 I 115.619 J-246.893
G2 X1461.020 Y 109.250 I 119.400 J-361.196
G2 X1499.870 Y 116.460 I 107.781 J-472.487
G2 X1541.280 Y 120.860 I  80.598 J-561.472
G2 X1583.990 Y 122.350 I  42.711 J-611.416
G2 X1626.700 Y 120.860 I  -0.001 J-612.906
G2 X1668.110 Y 116.460 I -39.188 J-565.872
G2 X1706.960 Y 109.250 I -68.931 J-479.697
G2 X1742.080 Y  99.480 I -84.280 J-370.966
G2 X1772.390 Y  87.440 I -85.309 J-258.933
G2 X1796.980 Y  73.480 I -75.074 J-160.877
G2 X1815.100 Y  58.040 I -59.224 J -87.857
G2 X1826.190 Y  41.580 I -44.717 J -42.094
G2 X1829.930 Y  24.610 I -37.487 J -17.159
G1 X1583.990 Y  24.610
G1 X1338.050 Y  24.610
F150
G1 Z  -3.000
F400
G2 X1341.790 Y  41.580 I  41.227 J  -0.189
G2 X1352.880 Y  58.040 I  55.807 J -25.634
G2 X1371.000 Y  73.480 I  77.345 J -72.418
G2 X1395.590 Y  87.440 I  99.664 J-146.917
G2 X1425.900 Y  99.480 I 115.619 J-246.893
G2 X1461.020 Y 109.250 I 119.400 J-361.196
G2 X1499.870 Y 116.460 I 107.781 J-472.487
G2 X1541.280 Y 120.860 I  80.598 J-561.472
G2 X1583.990 Y 122.350 I  42.711 J-611.416
G2 X1626.700 Y 120.860 I  -0.001 J-612.906
G2 X1668.110 Y 116.460 I -39.188 J-565.872
G2 X1706.960 Y 109.250 I -68.931 J-479.697
G2 X1742.080 Y  99.480 I -84.280 J-370.966
G2 X1772.390 Y  87.440 I -85.309 J-258.933
G2 X1796.980 Y  73.480 I -75.074 J-160.877
G2 X1815.100 Y  58.040 I -59.224 J -87.857
G2 X1826.190 Y  41.580 I -44.717 J -42.094
G2 X1829.930 Y  24.610 I -37.487 J -17.159
G1 X1583.990 Y  24.610
G1 X1338.050 Y  24.610
F150
G1 Z   3.000
G0 Z  15.000 
M9 M5

(*** LAYER: BORDER_D0_T132.1_RK1_A0_W0_EM1 ***)

(* SHAPE Nr: 99 *)
G0 X 300.150 Y1844.520
M3 M8
G0 Z   3.000 
G1 Z  -1.500
F400
G1 X 278.210 Y1874.720
G1 X 242.710 Y1863.190
G1 X 242.710 Y1900.520
G1 X 207.200 Y1912.060
G1 X 229.140 Y1942.260
G1 X 207.200 Y1972.460
G1 X 242.710 Y1984.000
G1 X 242.710 Y2021.330
G1 X 278.210 Y2009.800
G1 X 300.150 Y2040.000
G1 X 322.100 Y2009.800
G1 X 357.610 Y2021.330
G1 X 357.610 Y1984.000
G1 X 393.110 Y1972.460
G1 X 371.170 Y1942.260
G1 X 393.110 Y1912.060
G1 X 357.610 Y1900.520
G1 X 357.610 Y1863.190
G1 X 322.100 Y1874.720
G1 X 300.150 Y1844.520
F150
G1 Z  -3.000
F400
G1 X 278.210 Y1874.720
G1 X 242.710 Y1863.190
G1 X 242.710 Y1900.520
G1 X 207.200 Y1912.060
G1 X 229.140 Y1942.260
G1 X 207.200 Y1972.460
G1 X 242.710 Y1984.000
G1 X 242.710 Y2021.330
G1 X 278.210 Y2009.800
G1 X 300.150 Y2040.000
G1 X 322.100 Y2009.800
G1 X 357.610 Y2021.330
G1 X 357.610 Y1984.000
G1 X 393.110 Y1972.460
G1 X 371.170 Y1942.260
G1 X 393.110 Y1912.060
G1 X 357.610 Y1900.520
G1 X 357.610 Y1863.190
G1 X 322.100 Y1874.720
G1 X 300.150 Y1844.520
F150
G1 Z   3.000
G0 Z  15.000 
M9 M5

(* SHAPE Nr: 100 *)
G0 X1400.480 Y1105.220
M3 M8
G0 Z   3.000 
G1 Z  -1.500
F400
G1 X1400.480 Y1142.560
G1 X1364.980 Y1154.090
G1 X1386.920 Y1184.300
G1 X1364.980 Y1214.500
G1 X1400.480 Y1226.040
G1 X1400.480 Y1263.370
G1 X1435.990 Y1251.830
G1 X1457.940 Y1282.040
G1 X1479.880 Y1251.830
G1 X1515.390 Y1263.370
G1 X1515.390 Y1226.040
G1 X1550.890 Y1214.500
G1 X1528.950 Y1184.300
G1 X1550.890 Y1154.090
G1 X1515.390 Y1142.560
G1 X1515.390 Y1105.220
G1 X1479.880 Y1116.760
G1 X1457.940 Y1086.560
G1 X1435.990 Y1116.760
G1 X1400.480 Y1105.220
F150
G1 Z  -3.000
F400
G1 X1400.480 Y1142.560
G1 X1364.980 Y1154.090
G1 X1386.920 Y1184.300
G1 X1364.980 Y1214.500
G1 X1400.480 Y1226.040
G1 X1400.480 Y1263.370
G1 X1435.990 Y1251.830
G1 X1457.940 Y1282.040
G1 X1479.880 Y1251.830
G1 X1515.390 Y1263.370
G1 X1515.390 Y1226.040
G1 X1550.890 Y1214.500
G1 X1528.950 Y1184.300
G1 X1550.890 Y1154.090
G1 X1515.390 Y1142.560
G1 X1515.390 Y1105.220
G1 X1479.880 Y1116.760
G1 X1457.940 Y1086.560
G1 X1435.990 Y1116.760
G1 X1400.480 Y1105.220
F150
G1 Z   3.000
G0 Z  15.000 
M9 M5

(* SHAPE Nr: 101 *)
G0 X 584.290 Y 107.810
M3 M8
G0 Z   3.000 
G1 Z  -1.500
F400
G1 X 606.240 Y 138.010
G1 X 584.290 Y 168.210
G1 X 619.800 Y 179.750
G1 X 619.800 Y 217.080
G1 X 655.300 Y 205.550
G1 X 677.250 Y 235.750
G1 X 699.190 Y 205.550
G1 X 734.700 Y 217.080
G1 X 734.700 Y 179.750
G1 X 770.200 Y 168.210
G1 X 748.260 Y 138.010
G1 X 770.200 Y 107.810
G1 X 734.700 Y  96.270
G1 X 734.700 Y  58.940
G1 X 699.190 Y  70.470
G1 X 677.250 Y  40.270
G1 X 655.300 Y  70.470
G1 X 619.800 Y  58.940
G1 X 619.800 Y  96.270
G1 X 584.290 Y 107.810
F150
G1 Z  -3.000
F400
G1 X 606.240 Y 138.010
G1 X 584.290 Y 168.210
G1 X 619.800 Y 179.750
G1 X 619.800 Y 217.080
G1 X 655.300 Y 205.550
G1 X 677.250 Y 235.750
G1 X 699.190 Y 205.550
G1 X 734.700 Y 217.080
G1 X 734.700 Y 179.750
G1 X 770.200 Y 168.210
G1 X 748.260 Y 138.010
G1 X 770.200 Y 107.810
G1 X 734.700 Y  96.270
G1 X 734.700 Y  58.940
G1 X 699.190 Y  70.470
G1 X 677.250 Y  40.270
G1 X 655.300 Y  70.470
G1 X 619.800 Y  58.940
G1 X 619.800 Y  96.270
G1 X 584.290 Y 107.810
F150
G1 Z   3.000
G0 Z  15.000 
M9 M5

(* SHAPE Nr: 102 *)
G0 X 973.660 Y  92.060
M3 M8
G0 Z   3.000 
G1 Z  -1.500
F400
G1 X 995.610 Y 122.260
G1 X 973.660 Y 152.460
G1 X1009.170 Y 164.000
G1 X1009.170 Y 201.330
G1 X1044.680 Y 189.800
G1 X1066.620 Y 220.000
G1 X1088.560 Y 189.800
G1 X1124.070 Y 201.330
G1 X1124.070 Y 164.000
G1 X1159.570 Y 152.460
G1 X1137.630 Y 122.260
G1 X1159.570 Y  92.060
G1 X1124.070 Y  80.520
G1 X1124.070 Y  43.190
G1 X1088.560 Y  54.720
G1 X1066.620 Y  24.520
G1 X1044.680 Y  54.720
G1 X1009.170 Y  43.190
G1 X1009.170 Y  80.520
G1 X 973.660 Y  92.060
F150
G1 Z  -3.000
F400
G1 X 995.610 Y 122.260
G1 X 973.660 Y 152.460
G1 X1009.170 Y 164.000
G1 X1009.170 Y 201.330
G1 X1044.680 Y 189.800
G1 X1066.620 Y 220.000
G1 X1088.560 Y 189.800
G1 X1124.070 Y 201.330
G1 X1124.070 Y 164.000
G1 X1159.570 Y 152.460
G1 X1137.630 Y 122.260
G1 X1159.570 Y  92.060
G1 X1124.070 Y  80.520
G1 X1124.070 Y  43.190
G1 X1088.560 Y  54.720
G1 X1066.620 Y  24.520
G1 X1044.680 Y  54.720
G1 X1009.170 Y  43.190
G1 X1009.170 Y  80.520
G1 X 973.660 Y  92.060
F150
G1 Z   3.000
G0 Z  15.000 
M9 M5

(* SHAPE Nr: 103 *)
G0 X 793.950 Y1156.360
M3 M8
G0 Z   3.000 
G1 Z  -1.500
F400
G1 X 745.080 Y1241.010
G1 X 793.950 Y1325.660
G1 X 891.690 Y1325.660
G1 X 940.560 Y1241.010
G1 X 891.690 Y1156.360
G1 X 793.950 Y1156.360
F150
G1 Z  -3.000
F400
G1 X 745.080 Y1241.010
G1 X 793.950 Y1325.660
G1 X 891.690 Y1325.660
G1 X 940.560 Y1241.010
G1 X 891.690 Y1156.360
G1 X 793.950 Y1156.360
F150
G1 Z   3.000
G0 Z  15.000 
M9 M5

(* SHAPE Nr: 104 *)
G0 X2694.530 Y1112.560
M3 M8
G0 Z   3.000 
G1 Z  -1.500
F400
G2 X2682.480 Y1142.880 I 246.921 J 115.688
G2 X2672.710 Y1177.990 I 361.122 J 119.403
G2 X2665.510 Y1216.850 I 472.591 J 107.659
G2 X2661.100 Y1258.260 I 561.467 J  80.734
G2 X2659.610 Y1300.960 I 611.343 J  42.709
G2 X2661.100 Y1343.670 I 612.976 J  -0.004
G2 X2665.510 Y1385.080 I 565.877 J -39.324
G2 X2672.710 Y1423.940 I 479.791 J -68.799
G2 X2682.480 Y1459.050 I 370.892 J -84.293
G2 X2694.530 Y1489.370 I 258.971 J -85.368
G2 X2708.480 Y1513.950 I 160.825 J -75.025
G2 X2723.920 Y1532.070 I  87.859 J -59.227
G2 X2740.380 Y1543.170 I  42.124 J -44.710
G2 X2757.350 Y1546.910 I  17.158 J -37.484
G1 X2757.350 Y1055.030
G2 X2740.380 Y1058.760 I   0.165 J  41.219
G2 X2723.920 Y1069.860 I  25.664 J  55.810
G2 X2708.480 Y1087.970 I  72.377 J  77.343
G2 X2694.530 Y1112.560 I 146.938 J  99.610
F150
G1 Z  -3.000
F400
G2 X2682.480 Y1142.880 I 246.921 J 115.688
G2 X2672.710 Y1177.990 I 361.122 J 119.403
G2 X2665.510 Y1216.850 I 472.591 J 107.659
G2 X2661.100 Y1258.260 I 561.467 J  80.734
G2 X2659.610 Y1300.960 I 611.343 J  42.709
G2 X2661.100 Y1343.670 I 612.976 J  -0.004
G2 X2665.510 Y1385.080 I 565.877 J -39.324
G2 X2672.710 Y1423.940 I 479.791 J -68.799
G2 X2682.480 Y1459.050 I 370.892 J -84.293
G2 X2694.530 Y1489.370 I 258.971 J -85.368
G2 X2708.480 Y1513.950 I 160.825 J -75.025
G2 X2723.920 Y1532.070 I  87.859 J -59.227
G2 X2740.380 Y1543.170 I  42.124 J -44.710
G2 X2757.350 Y1546.910 I  17.158 J -37.484
G1 X2757.350 Y1055.030
G2 X2740.380 Y1058.760 I   0.165 J  41.219
