(Generated with: DXF2GCODE, Version: REMOVED, Date: $Date$)
(Created from file: )
(Output format description: G-CODE for LinuxCNC)
(Time: Thu Sep 13 16:00:45 2018)
G21 (Units in millimeters)
G90 (Absolute programming)
G64 (Default cutting) G17 (XY plane) G40 (Cancel radius comp.) G49 (Cancel length comp.)
G0 Z  15.000 

(*** LAYER: FRAME_Z18 ***)
T1 M6
S6000

(* SHAPE Nr: 33 *)
G0 X   0.000 Y   0.000
M3 M8
G0 Z   3.000 
F150
G1 Z  -1.500
F400
G1 X   0.000 Y2050.000
G1 X2800.000 Y2050.000
G1 X2800.000 Y   0.000
G1 X   0.000 Y   0.000
F150
G1 Z  -3.000
F400
G1 X   0.000 Y2050.000
G1 X2800.000 Y2050.000
G1 X2800.000 Y   0.000
G1 X   0.000 Y   0.000
F150
G1 Z   3.000
G0 Z  15.000 
M9 M5

(*** LAYER: BORDER_D0_T132_RK1_A0_W0_EM1_RI1_ID0014 ***)

(* SHAPE Nr: 0 *)
G0 X  64.270 Y  20.100
M3 M8
G0 Z   3.000 
G1 Z  -1.500
F400
G1 X  64.270 Y  61.400
G1 X  64.270 Y 102.710
G2 X 932.470 Y 102.710 I 434.100 J-443.196
G1 X 932.470 Y  20.100
G3 X  64.270 Y  20.100 I-434.100 J-360.590
F150
G1 Z  -3.000
F400
G1 X  64.270 Y  61.400
G1 X  64.270 Y 102.710
G2 X 932.470 Y 102.710 I 434.100 J-443.196
G1 X 932.470 Y  20.100
G3 X  64.270 Y  20.100 I-434.100 J-360.590
F150
G1 Z   3.000
G0 Z  15.000 
M9 M5

(* SHAPE Nr: 24 *)
G0 X1841.490 Y 187.180
M3 M8
G0 Z   3.000 
G1 Z  -1.500
F400
G1 X1841.490 Y 269.790
G3 X2709.690 Y 269.790 I 434.100 J 360.591
G1 X2709.690 Y 228.490
G1 X2709.690 Y 187.180
G2 X1841.490 Y 187.180 I-434.100 J 443.196
F150
G1 Z  -3.000
F400
G1 X1841.490 Y 269.790
G3 X2709.690 Y 269.790 I 434.100 J 360.591
G1 X2709.690 Y 228.490
G1 X2709.690 Y 187.180
G2 X1841.490 Y 187.180 I-434.100 J 443.196
F150
G1 Z   3.000
G0 Z  15.000 
M9 M5

(*** LAYER: BORDER_D0_T132_RK1_A0_W0_EM1_RI1_ID0024 ***)

(* SHAPE Nr: 1 *)
G0 X 385.940 Y1171.800
M3 M8
G0 Z   3.000 
G1 Z  -1.500
F400
G1 X  10.000 Y1388.850
G1 X  10.000 Y1822.950
G1 X 385.940 Y2040.000
G1 X 761.880 Y1822.950
G1 X 761.880 Y1388.850
G1 X 385.940 Y1171.800
F150
G1 Z  -3.000
F400
G1 X  10.000 Y1388.850
G1 X  10.000 Y1822.950
G1 X 385.940 Y2040.000
G1 X 761.880 Y1822.950
G1 X 761.880 Y1388.850
G1 X 385.940 Y1171.800
F150
G1 Z   3.000
G0 Z  15.000 
M9 M5

(* SHAPE Nr: 2 *)
G0 X 776.590 Y1388.850
M3 M8
G0 Z   3.000 
G1 Z  -1.500
F400
G1 X 776.590 Y1822.950
G1 X1152.530 Y2040.000
G1 X1528.470 Y1822.950
G1 X1528.470 Y1388.850
G1 X1152.530 Y1171.800
G1 X 776.590 Y1388.850
F150
G1 Z  -3.000
F400
G1 X 776.590 Y1822.950
G1 X1152.530 Y2040.000
G1 X1528.470 Y1822.950
G1 X1528.470 Y1388.850
G1 X1152.530 Y1171.800
G1 X 776.590 Y1388.850
F150
G1 Z   3.000
G0 Z  15.000 
M9 M5

(* SHAPE Nr: 3 *)
G0 X1543.170 Y1388.850
M3 M8
G0 Z   3.000 
G1 Z  -1.500
F400
G1 X1543.170 Y1822.950
G1 X1919.110 Y2040.000
G1 X2295.050 Y1822.950
G1 X2295.050 Y1388.850
G1 X1919.110 Y1171.800
G1 X1543.170 Y1388.850
F150
G1 Z  -3.000
F400
G1 X1543.170 Y1822.950
G1 X1919.110 Y2040.000
G1 X2295.050 Y1822.950
G1 X2295.050 Y1388.850
G1 X1919.110 Y1171.800
G1 X1543.170 Y1388.850
F150
G1 Z   3.000
G0 Z  15.000 
M9 M5

(* SHAPE Nr: 10 *)
G0 X1543.170 Y 503.680
M3 M8
G0 Z   3.000 
G1 Z  -1.500
F400
G1 X1543.170 Y 937.780
G1 X1919.110 Y1154.830
G1 X2295.050 Y 937.780
G1 X2295.050 Y 503.680
G1 X1919.110 Y 286.630
G1 X1543.170 Y 503.680
F150
G1 Z  -3.000
F400
G1 X1543.170 Y 937.780
G1 X1919.110 Y1154.830
G1 X2295.050 Y 937.780
G1 X2295.050 Y 503.680
G1 X1919.110 Y 286.630
G1 X1543.170 Y 503.680
F150
G1 Z   3.000
G0 Z  15.000 
M9 M5

(* SHAPE Nr: 12 *)
G0 X 776.590 Y 503.680
M3 M8
G0 Z   3.000 
G1 Z  -1.500
F400
G1 X 776.590 Y 937.780
G1 X1152.530 Y1154.830
G1 X1528.470 Y 937.780
G1 X1528.470 Y 503.680
G1 X1152.530 Y 286.630
G1 X 776.590 Y 503.680
F150
G1 Z  -3.000
F400
G1 X 776.590 Y 937.780
G1 X1152.530 Y1154.830
G1 X1528.470 Y 937.780
G1 X1528.470 Y 503.680
G1 X1152.530 Y 286.630
G1 X 776.590 Y 503.680
F150
G1 Z   3.000
G0 Z  15.000 
M9 M5

(* SHAPE Nr: 15 *)
G0 X 385.940 Y 286.630
M3 M8
G0 Z   3.000 
G1 Z  -1.500
F400
G1 X  10.000 Y 503.680
G1 X  10.000 Y 937.780
G1 X 385.940 Y1154.830
G1 X 761.880 Y 937.780
G1 X 761.880 Y 503.680
G1 X 385.940 Y 286.630
F150
G1 Z  -3.000
F400
G1 X  10.000 Y 503.680
G1 X  10.000 Y 937.780
G1 X 385.940 Y1154.830
G1 X 761.880 Y 937.780
G1 X 761.880 Y 503.680
G1 X 385.940 Y 286.630
F150
G1 Z   3.000
G0 Z  15.000 
M9 M5

(*** LAYER: BORDER_D0_T132_RK1_A0_W0_EM1_RI1_ID0025 ***)

(* SHAPE Nr: 4 *)
G0 X1397.340 Y1930.720
M3 M8
G0 Z   3.000 
G1 Z  -1.500
F400
G1 X1432.850 Y2040.000
G1 X1547.750 Y2040.000
G1 X1583.250 Y1930.720
G1 X1490.300 Y1863.190
G1 X1397.340 Y1930.720
F150
G1 Z  -3.000
F400
G1 X1432.850 Y2040.000
G1 X1547.750 Y2040.000
G1 X1583.250 Y1930.720
G1 X1490.300 Y1863.190
G1 X1397.340 Y1930.720
F150
G1 Z   3.000
G0 Z  15.000 
M9 M5

(* SHAPE Nr: 5 *)
G0 X 723.690 Y1863.190
M3 M8
G0 Z   3.000 
G1 Z  -1.500
F400
G1 X 630.730 Y1930.720
G1 X 666.240 Y2040.000
G1 X 781.140 Y2040.000
G1 X 816.640 Y1930.720
G1 X 723.690 Y1863.190
F150
G1 Z  -3.000
F400
G1 X 630.730 Y1930.720
G1 X 666.240 Y2040.000
G1 X 781.140 Y2040.000
G1 X 816.640 Y1930.720
G1 X 723.690 Y1863.190
F150
G1 Z   3.000
G0 Z  15.000 
M9 M5

(* SHAPE Nr: 14 *)
G0 X 680.390 Y 322.560
M3 M8
G0 Z   3.000 
G1 Z  -1.500
F400
G1 X 680.390 Y 437.460
G1 X 789.670 Y 472.960
G1 X 857.200 Y 380.010
G1 X 789.670 Y 287.050
G1 X 680.390 Y 322.560
F150
G1 Z  -3.000
F400
G1 X 680.390 Y 437.460
G1 X 789.670 Y 472.960
G1 X 857.200 Y 380.010
G1 X 789.670 Y 287.050
G1 X 680.390 Y 322.560
F150
G1 Z   3.000
G0 Z  15.000 
M9 M5

(* SHAPE Nr: 19 *)
G0 X 502.380 Y 127.650
M3 M8
G0 Z   3.000 
G1 Z  -1.500
F400
G1 X 595.330 Y 195.180
G1 X 688.290 Y 127.650
G1 X 652.780 Y  18.370
G1 X 537.880 Y  18.370
G1 X 502.380 Y 127.650
F150
G1 Z  -3.000
F400
G1 X 595.330 Y 195.180
G1 X 688.290 Y 127.650
G1 X 652.780 Y  18.370
G1 X 537.880 Y  18.370
G1 X 502.380 Y 127.650
F150
G1 Z   3.000
G0 Z  15.000 
M9 M5

(*** LAYER: BORDER_D0_T132_RK1_A0_W0_EM1_RI1_ID0011 ***)

(* SHAPE Nr: 6 *)
G0 X2241.740 Y1870.710
M3 M8
G0 Z   3.000 
G1 Z  -1.500
F400
G1 X2241.740 Y1927.140
G1 X2192.870 Y1955.350
G1 X2241.740 Y1983.570
G1 X2241.740 Y2040.000
G1 X2290.610 Y2011.790
G1 X2339.480 Y2040.000
G1 X2339.480 Y1983.570
G1 X2388.350 Y1955.350
G1 X2339.480 Y1927.140
G1 X2339.480 Y1870.710
G1 X2290.610 Y1898.930
G1 X2241.740 Y1870.710
F150
G1 Z  -3.000
F400
G1 X2241.740 Y1927.140
G1 X2192.870 Y1955.350
G1 X2241.740 Y1983.570
G1 X2241.740 Y2040.000
G1 X2290.610 Y2011.790
G1 X2339.480 Y2040.000
G1 X2339.480 Y1983.570
G1 X2388.350 Y1955.350
G1 X2339.480 Y1927.140
G1 X2339.480 Y1870.710
G1 X2290.610 Y1898.930
G1 X2241.740 Y1870.710
F150
G1 Z   3.000
G0 Z  15.000 
M9 M5

(* SHAPE Nr: 21 *)
G0 X1575.040 Y 166.180
M3 M8
G0 Z   3.000 
G1 Z  -1.500
F400
G1 X1603.260 Y 215.050
G1 X1575.040 Y 263.920
G1 X1631.470 Y 263.920
G1 X1659.680 Y 312.790
G1 X1687.900 Y 263.920
G1 X1744.320 Y 263.920
G1 X1716.120 Y 215.050
G1 X1744.320 Y 166.180
G1 X1687.900 Y 166.180
G1 X1659.680 Y 117.310
G1 X1631.470 Y 166.180
G1 X1575.040 Y 166.180
F150
G1 Z  -3.000
F400
G1 X1603.260 Y 215.050
G1 X1575.040 Y 263.920
G1 X1631.470 Y 263.920
G1 X1659.680 Y 312.790
G1 X1687.900 Y 263.920
G1 X1744.320 Y 263.920
G1 X1716.120 Y 215.050
G1 X1744.320 Y 166.180
G1 X1687.900 Y 166.180
G1 X1659.680 Y 117.310
G1 X1631.470 Y 166.180
G1 X1575.040 Y 166.180
F150
G1 Z   3.000
G0 Z  15.000 
M9 M5

(*** LAYER: BORDER_D0_T132_RK1_A0_W0_EM1_RI1_ID0029 ***)

(* SHAPE Nr: 7 *)
G0 X2310.470 Y 203.080
M3 M8
G0 Z   3.000 
G1 Z  -1.500
F400
G3 X2564.760 Y 816.990 I-613.911 J 613.911
G1 X2564.760 Y1847.590
G1 X2651.580 Y1847.590
G1 X2651.580 Y 816.990
G2 X2371.860 Y 141.690 I-867.444 J -36.273
G1 X2310.470 Y 203.080
F150
G1 Z  -3.000
F400
G3 X2564.760 Y 816.990 I-613.911 J 613.911
G1 X2564.760 Y1847.590
G1 X2651.580 Y1847.590
G1 X2651.580 Y 816.990
G2 X2371.860 Y 141.690 I-867.444 J -36.273
G1 X2310.470 Y 203.080
F150
G1 Z   3.000
G0 Z  15.000 
M9 M5

(* SHAPE Nr: 8 *)
G0 X2447.760 Y 197.930
M3 M8
G0 Z   3.000 
G1 Z  -1.500
F400
G3 X2702.050 Y 811.840 I-613.911 J 613.911
G1 X2702.050 Y1842.440
G1 X2788.870 Y1842.440
G1 X2788.870 Y 811.840
G2 X2509.150 Y 136.540 I-867.444 J -36.273
G1 X2447.760 Y 197.930
F150
G1 Z  -3.000
F400
G3 X2702.050 Y 811.840 I-613.911 J 613.911
G1 X2702.050 Y1842.440
G1 X2788.870 Y1842.440
G1 X2788.870 Y 811.840
G2 X2509.150 Y 136.540 I-867.444 J -36.273
G1 X2447.760 Y 197.930
F150
G1 Z   3.000
G0 Z  15.000 
M9 M5

(* SHAPE Nr: 23 *)
G0 X2310.510 Y 334.100
M3 M8
G0 Z   3.000 
G1 Z  -1.500
F400
G1 X2310.510 Y1364.700
G2 X2590.230 Y2040.000 I 867.444 J  36.273
G1 X2651.620 Y1978.610
G3 X2397.330 Y1364.700 I 613.911 J-613.911
G1 X2397.330 Y 334.100
G1 X2310.510 Y 334.100
F150
G1 Z  -3.000
F400
G1 X2310.510 Y1364.700
G2 X2590.230 Y2040.000 I 867.444 J  36.273
G1 X2651.620 Y1978.610
G3 X2397.330 Y1364.700 I 613.911 J-613.911
G1 X2397.330 Y 334.100
G1 X2310.510 Y 334.100
F150
G1 Z   3.000
G0 Z  15.000 
M9 M5

(*** LAYER: BORDER_D0_T132_RK1_A0_W0_EM1_RI1_ID0001 ***)

(* SHAPE Nr: 9 *)
G0 X2070.310 Y1117.550
M3 M8
G0 Z   3.000 
G1 Z  -1.500
F400
G1 X2105.820 Y1160.840
G1 X2051.640 Y1175.000
G1 X2105.820 Y1189.150
G1 X2070.310 Y1232.450
G1 X2122.460 Y1212.050
G1 X2119.180 Y1267.950
G1 X2149.380 Y1220.800
G1 X2179.580 Y1267.950
G1 X2176.300 Y1212.050
G1 X2228.450 Y1232.450
G1 X2192.940 Y1189.150
G1 X2247.120 Y1175.000
G1 X2192.940 Y1160.840
G1 X2228.450 Y1117.550
G1 X2176.300 Y1137.940
G1 X2179.580 Y1082.040
G1 X2149.380 Y1129.200
G1 X2119.180 Y1082.040
G1 X2122.460 Y1137.940
G1 X2070.310 Y1117.550
F150
G1 Z  -3.000
F400
G1 X2105.820 Y1160.840
G1 X2051.640 Y1175.000
G1 X2105.820 Y1189.150
G1 X2070.310 Y1232.450
G1 X2122.460 Y1212.050
G1 X2119.180 Y1267.950
G1 X2149.380 Y1220.800
G1 X2179.580 Y1267.950
G1 X2176.300 Y1212.050
G1 X2228.450 Y1232.450
G1 X2192.940 Y1189.150
G1 X2247.120 Y1175.000
G1 X2192.940 Y1160.840
G1 X2228.450 Y1117.550
G1 X2176.300 Y1137.940
G1 X2179.580 Y1082.040
G1 X2149.380 Y1129.200
G1 X2119.180 Y1082.040
G1 X2122.460 Y1137.940
G1 X2070.310 Y1117.550
F150
G1 Z   3.000
G0 Z  15.000 
M9 M5

(* SHAPE Nr: 13 *)
G0 X 829.440 Y 285.010
M3 M8
G0 Z   3.000 
G1 Z  -1.500
F400
G1 X 883.620 Y 299.160
G1 X 848.110 Y 342.460
G1 X 900.260 Y 322.060
G1 X 896.980 Y 377.960
G1 X 927.180 Y 330.810
G1 X 957.380 Y 377.960
G1 X 954.100 Y 322.060
G1 X1006.250 Y 342.460
G1 X 970.740 Y 299.160
G1 X1024.920 Y 285.010
G1 X 970.740 Y 270.850
G1 X1006.250 Y 227.560
G1 X 954.100 Y 247.950
G1 X 957.380 Y 192.050
G1 X 927.180 Y 239.210
G1 X 896.980 Y 192.050
G1 X 900.260 Y 247.950
G1 X 848.110 Y 227.560
G1 X 883.620 Y 270.850
G1 X 829.440 Y 285.010
F150
G1 Z  -3.000
F400
G1 X 883.620 Y 299.160
G1 X 848.110 Y 342.460
G1 X 900.260 Y 322.060
G1 X 896.980 Y 377.960
G1 X 927.180 Y 330.810
G1 X 957.380 Y 377.960
G1 X 954.100 Y 322.060
G1 X1006.250 Y 342.460
G1 X 970.740 Y 299.160
G1 X1024.920 Y 285.010
G1 X 970.740 Y 270.850
G1 X1006.250 Y 227.560
G1 X 954.100 Y 247.950
G1 X 957.380 Y 192.050
G1 X 927.180 Y 239.210
G1 X 896.980 Y 192.050
G1 X 900.260 Y 247.950
G1 X 848.110 Y 227.560
G1 X 883.620 Y 270.850
G1 X 829.440 Y 285.010
F150
G1 Z   3.000
G0 Z  15.000 
M9 M5

(* SHAPE Nr: 16 *)
G0 X 102.970 Y1106.890
M3 M8
G0 Z   3.000 
G1 Z  -1.500
F400
G1 X  88.810 Y1161.060
G1 X  45.520 Y1125.560
G1 X  65.910 Y1177.700
G1 X  10.010 Y1174.420
G1 X  57.170 Y1204.630
G1 X  10.010 Y1234.820
G1 X  65.910 Y1231.550
G1 X  45.520 Y1283.690
G1 X  88.810 Y1248.180
G1 X 102.970 Y1302.370
G1 X 117.120 Y1248.180
G1 X 160.420 Y1283.690
G1 X 140.020 Y1231.550
G1 X 195.920 Y1234.820
G1 X 148.770 Y1204.630
G1 X 195.920 Y1174.420
G1 X 140.020 Y1177.700
G1 X 160.420 Y1125.560
G1 X 117.120 Y1161.060
G1 X 102.970 Y1106.890
F150
G1 Z  -3.000
F400
G1 X  88.810 Y1161.060
G1 X  45.520 Y1125.560
G1 X  65.910 Y1177.700
G1 X  10.010 Y1174.420
G1 X  57.170 Y1204.630
G1 X  10.010 Y1234.820
G1 X  65.910 Y1231.550
G1 X  45.520 Y1283.690
G1 X  88.810 Y1248.180
G1 X 102.970 Y1302.370
G1 X 117.120 Y1248.180
G1 X 160.420 Y1283.690
G1 X 140.020 Y1231.550
G1 X 195.920 Y1234.820
G1 X 148.770 Y1204.630
G1 X 195.920 Y1174.420
G1 X 140.020 Y1177.700
G1 X 160.420 Y1125.560
G1 X 117.120 Y1161.060
G1 X 102.970 Y1106.890
F150
G1 Z   3.000
G0 Z  15.000 
M9 M5

(* SHAPE Nr: 17 *)
G0 X 102.970 Y 221.700
M3 M8
G0 Z   3.000 
G1 Z  -1.500
F400
G1 X  88.810 Y 275.870
G1 X  45.520 Y 240.370
G1 X  65.910 Y 292.510
G1 X  10.010 Y 289.230
G1 X  57.170 Y 319.440
G1 X  10.010 Y 349.630
G1 X  65.910 Y 346.360
G1 X  45.520 Y 398.500
G1 X  88.810 Y 362.990
G1 X 102.970 Y 417.180
G1 X 117.120 Y 362.990
G1 X 160.420 Y 398.500
G1 X 140.020 Y 346.360
G1 X 195.920 Y 349.630
G1 X 148.770 Y 319.440
G1 X 195.920 Y 289.230
G1 X 140.020 Y 292.510
G1 X 160.420 Y 240.370
G1 X 117.120 Y 275.870
G1 X 102.970 Y 221.700
F150
G1 Z  -3.000
F400
G1 X  88.810 Y 275.870
G1 X  45.520 Y 240.370
G1 X  65.910 Y 292.510
G1 X  10.010 Y 289.230
G1 X  57.170 Y 319.440
G1 X  10.010 Y 349.630
G1 X  65.910 Y 346.360
G1 X  45.520 Y 398.500
G1 X  88.810 Y 362.990
G1 X 102.970 Y 417.180
G1 X 117.120 Y 362.990
G1 X 160.420 Y 398.500
G1 X 140.020 Y 346.360
G1 X 195.920 Y 349.630
G1 X 148.770 Y 319.440
G1 X 195.920 Y 289.230
G1 X 140.020 Y 292.510
G1 X 160.420 Y 240.370
G1 X 117.120 Y 275.870
G1 X 102.970 Y 221.700
F150
G1 Z   3.000
G0 Z  15.000 
M9 M5

(* SHAPE Nr: 22 *)
G0 X1991.300 Y 255.010
M3 M8
G0 Z   3.000 
G1 Z  -1.500
F400
G1 X2045.480 Y 269.160
G1 X2009.970 Y 312.460
G1 X2062.120 Y 292.060
G1 X2058.840 Y 347.960
G1 X2089.040 Y 300.810
G1 X2119.240 Y 347.960
G1 X2115.960 Y 292.060
G1 X2168.110 Y 312.460
G1 X2132.600 Y 269.160
G1 X2186.780 Y 255.010
G1 X2132.600 Y 240.850
G1 X2168.110 Y 197.560
G1 X2115.960 Y 217.950
G1 X2119.240 Y 162.050
G1 X2089.040 Y 209.210
G1 X2058.840 Y 162.050
G1 X2062.120 Y 217.950
G1 X2009.970 Y 197.560
G1 X2045.480 Y 240.850
G1 X1991.300 Y 255.010
F150
G1 Z  -3.000
F400
G1 X2045.480 Y 269.160
G1 X2009.970 Y 312.460
G1 X2062.120 Y 292.060
G1 X2058.840 Y 347.960
G1 X2089.040 Y 300.810
G1 X2119.240 Y 347.960
G1 X2115.960 Y 292.060
G1 X2168.110 Y 312.460
G1 X2132.600 Y 269.160
G1 X2186.780 Y 255.010
G1 X2132.600 Y 240.850
G1 X2168.110 Y 197.560
G1 X2115.960 Y 217.950
G1 X2119.240 Y 162.050
G1 X2089.040 Y 209.210
G1 X2058.840 Y 162.050
G1 X2062.120 Y 217.950
G1 X2009.970 Y 197.560
G1 X2045.480 Y 240.850
G1 X1991.300 Y 255.010
F150
G1 Z   3.000
G0 Z  15.000 
M9 M5

(*** LAYER: BORDER_D0_T132_RK1_A0_W0_EM1_RI1_ID0023 ***)

(* SHAPE Nr: 11 *)
G0 X1437.010 Y 336.120
M3 M8
G0 Z   3.000 
G1 Z  -1.500
F400
G1 X1437.010 Y 433.860
G1 X1521.650 Y 482.730
G1 X1606.290 Y 433.860
G1 X1606.290 Y 336.120
G1 X1521.650 Y 287.250
G1 X1437.010 Y 336.120
F150
G1 Z  -3.000
F400
G1 X1437.010 Y 433.860
G1 X1521.650 Y 482.730
G1 X1606.290 Y 433.860
G1 X1606.290 Y 336.120
G1 X1521.650 Y 287.250
G1 X1437.010 Y 336.120
F150
G1 Z   3.000
G0 Z  15.000 
M9 M5

(* SHAPE Nr: 18 *)
G0 X 298.870 Y  99.990
M3 M8
G0 Z   3.000 
G1 Z  -1.500
F400
G1 X 347.740 Y 184.640
G1 X 445.480 Y 184.640
G1 X 494.350 Y  99.990
G1 X 445.480 Y  15.350
G1 X 347.740 Y  15.350
G1 X 298.870 Y  99.990
F150
G1 Z  -3.000
F400
G1 X 347.740 Y 184.640
G1 X 445.480 Y 184.640
G1 X 494.350 Y  99.990
G1 X 445.480 Y  15.350
G1 X 347.740 Y  15.350
G1 X 298.870 Y  99.990
F150
G1 Z   3.000
G0 Z  15.000 
M9 M5

(*** LAYER: BORDER_D0_T132_RK1_A0_W0_EM1_RI1_ID0007 ***)

(* SHAPE Nr: 20 *)
G0 X1681.310 Y 121.590
M3 M8
G0 Z   3.000 
G1 Z  -1.500
F400
G1 X1752.320 Y 121.590
G1 X1774.260 Y 189.120
G1 X1796.210 Y 121.590
G1 X1867.220 Y 121.590
G1 X1809.770 Y  79.850
G1 X1831.710 Y  12.310
G1 X1774.260 Y  54.050
G1 X1716.810 Y  12.310
G1 X1738.760 Y  79.850
G1 X1681.310 Y 121.590
F150
G1 Z  -3.000
F400
G1 X1752.320 Y 121.590
G1 X1774.260 Y 189.120
G1 X1796.210 Y 121.590
G1 X1867.220 Y 121.590
G1 X1809.770 Y  79.850
G1 X1831.710 Y  12.310
G1 X1774.260 Y  54.050
G1 X1716.810 Y  12.310
G1 X1738.760 Y  79.850
G1 X1681.310 Y 121.590
F150
G1 Z   3.000
G0 Z  15.000 
M9 M5

(*** LAYER: BORDER_D0_T132_RK1_A0_W0_EM1_RI1_ID0018 ***)

(* SHAPE Nr: 25 *)
G0 X 539.860 Y1117.170
M3 M8
G0 Z   3.000 
G1 Z  -1.500
F400
G2 X 515.270 Y1131.130 I  75.074 J 160.877
G2 X 497.150 Y1146.570 I  59.225 J  87.858
G2 X 486.060 Y1163.030 I  44.717 J  42.094
G2 X 482.320 Y1180.000 I  37.487 J  17.159
G2 X 486.060 Y1196.970 I  41.227 J  -0.189
G2 X 497.150 Y1213.430 I  55.807 J -25.634
G2 X 515.270 Y1228.870 I  77.344 J -72.417
G2 X 539.860 Y1242.830 I  99.664 J-146.917
G2 X 570.170 Y1254.870 I 115.619 J-246.893
G2 X 605.290 Y1264.640 I 119.400 J-361.196
G2 X 644.140 Y1271.850 I 107.781 J-472.487
G2 X 685.550 Y1276.250 I  80.598 J-561.472
G2 X 728.260 Y1277.740 I  42.711 J-611.416
G2 X 770.970 Y1276.250 I  -0.001 J-612.906
G2 X 812.380 Y1271.850 I -39.188 J-565.872
G2 X 851.230 Y1264.640 I -68.931 J-479.697
G2 X 886.350 Y1254.870 I -84.280 J-370.966
G2 X 916.660 Y1242.830 I -85.309 J-258.933
G2 X 941.250 Y1228.870 I -75.074 J-160.877
G2 X 959.370 Y1213.430 I -59.224 J -87.857
G2 X 970.460 Y1196.970 I -44.717 J -42.094
G2 X 974.200 Y1180.000 I -37.487 J -17.159
G2 X 970.460 Y1163.030 I -41.227 J   0.189
G2 X 959.370 Y1146.570 I -55.807 J  25.634
G2 X 941.250 Y1131.130 I -77.345 J  72.418
G2 X 916.660 Y1117.170 I -99.664 J 146.917
G2 X 886.350 Y1105.130 I-115.619 J 246.893
G2 X 851.230 Y1095.360 I-119.400 J 361.196
G2 X 812.380 Y1088.150 I-107.781 J 472.487
G2 X 770.970 Y1083.750 I -80.598 J 561.472
G2 X 728.260 Y1082.260 I -42.711 J 611.416
G2 X 685.550 Y1083.750 I   0.001 J 612.906
G2 X 644.140 Y1088.150 I  39.188 J 565.872
G2 X 605.290 Y1095.360 I  68.931 J 479.697
G2 X 570.170 Y1105.130 I  84.280 J 370.966
G2 X 539.860 Y1117.170 I  85.309 J 258.933
F150
G1 Z  -3.000
F400
G2 X 515.270 Y1131.130 I  75.074 J 160.877
G2 X 497.150 Y1146.570 I  59.225 J  87.858
G2 X 486.060 Y1163.030 I  44.717 J  42.094
G2 X 482.320 Y1180.000 I  37.487 J  17.159
G2 X 486.060 Y1196.970 I  41.227 J  -0.189
G2 X 497.150 Y1213.430 I  55.807 J -25.634
G2 X 515.270 Y1228.870 I  77.344 J -72.417
G2 X 539.860 Y1242.830 I  99.664 J-146.917
G2 X 570.170 Y1254.870 I 115.619 J-246.893
G2 X 605.290 Y1264.640 I 119.400 J-361.196
G2 X 644.140 Y1271.850 I 107.781 J-472.487
G2 X 685.550 Y1276.250 I  80.598 J-561.472
G2 X 728.260 Y1277.740 I  42.711 J-611.416
G2 X 770.970 Y1276.250 I  -0.001 J-612.906
G2 X 812.380 Y1271.850 I -39.188 J-565.872
G2 X 851.230 Y1264.640 I -68.931 J-479.697
G2 X 886.350 Y1254.870 I -84.280 J-370.966
G2 X 916.660 Y1242.830 I -85.309 J-258.933
G2 X 941.250 Y1228.870 I -75.074 J-160.877
G2 X 959.370 Y1213.430 I -59.224 J -87.857
G2 X 970.460 Y1196.970 I -44.717 J -42.094
G2 X 974.200 Y1180.000 I -37.487 J -17.159
G2 X 970.460 Y1163.030 I -41.227 J   0.189
G2 X 959.370 Y1146.570 I -55.807 J  25.634
G2 X 941.250 Y1131.130 I -77.345 J  72.418
G2 X 916.660 Y1117.170 I -99.664 J 146.917
G2 X 886.350 Y1105.130 I-115.619 J 246.893
G2 X 851.230 Y1095.360 I-119.400 J 361.196
G2 X 812.380 Y1088.150 I-107.781 J 472.487
G2 X 770.970 Y1083.750 I -80.598 J 561.472
G2 X 728.260 Y1082.260 I -42.711 J 611.416
G2 X 685.550 Y1083.750 I   0.001 J 612.906
G2 X 644.140 Y1088.150 I  39.188 J 565.872
G2 X 605.290 Y1095.360 I  68.931 J 479.697
G2 X 570.170 Y1105.130 I  84.280 J 370.966
G2 X 539.860 Y1117.170 I  85.309 J 258.933
F150
G1 Z   3.000
G0 Z  15.000 
M9 M5

(* SHAPE Nr: 26 *)
G0 X1263.720 Y1146.570
M3 M8
G0 Z   3.000 
G1 Z  -1.500
F400
G2 X1252.630 Y1163.030 I  44.717 J  42.094
G2 X1248.890 Y1180.000 I  37.487 J  17.159
G2 X1252.630 Y1196.970 I  41.227 J  -0.189
G2 X1263.720 Y1213.430 I  55.807 J -25.634
G2 X1281.840 Y1228.870 I  77.344 J -72.417
G2 X1306.430 Y1242.830 I  99.664 J-146.917
G2 X1336.740 Y1254.870 I 115.619 J-246.893
G2 X1371.860 Y1264.640 I 119.400 J-361.196
G2 X1410.710 Y1271.850 I 107.781 J-472.487
G2 X1452.120 Y1276.250 I  80.598 J-561.472
G2 X1494.830 Y1277.740 I  42.711 J-611.416
G2 X1537.540 Y1276.250 I  -0.001 J-612.906
G2 X1578.950 Y1271.850 I -39.188 J-565.872
G2 X1617.800 Y1264.640 I -68.931 J-479.697
G2 X1652.920 Y1254.870 I -84.280 J-370.966
G2 X1683.230 Y1242.830 I -85.309 J-258.933
G2 X1707.820 Y1228.870 I -75.074 J-160.877
G2 X1725.940 Y1213.430 I -59.224 J -87.857
G2 X1737.030 Y1196.970 I -44.717 J -42.094
G2 X1740.770 Y1180.000 I -37.487 J -17.159
G2 X1737.030 Y1163.030 I -41.227 J   0.189
G2 X1725.940 Y1146.570 I -55.807 J  25.634
G2 X1707.820 Y1131.130 I -77.345 J  72.418
G2 X1683.230 Y1117.170 I -99.664 J 146.917
G2 X1652.920 Y1105.130 I-115.619 J 246.893
G2 X1617.800 Y1095.360 I-119.400 J 361.196
G2 X1578.950 Y1088.150 I-107.781 J 472.487
G2 X1537.540 Y1083.750 I -80.598 J 561.472
G2 X1494.830 Y1082.260 I -42.711 J 611.416
G2 X1452.120 Y1083.750 I   0.001 J 612.906
G2 X1410.710 Y1088.150 I  39.188 J 565.872
G2 X1371.860 Y1095.360 I  68.931 J 479.697
G2 X1336.740 Y1105.130 I  84.280 J 370.966
G2 X1306.430 Y1117.170 I  85.309 J 258.933
G2 X1281.840 Y1131.130 I  75.074 J 160.877
G2 X1263.720 Y1146.570 I  59.225 J  87.858
F150
G1 Z  -3.000
F400
G2 X1252.630 Y1163.030 I  44.717 J  42.094
G2 X1248.890 Y1180.000 I  37.487 J  17.159
G2 X1252.630 Y1196.970 I  41.227 J  -0.189
G2 X1263.720 Y1213.430 I  55.807 J -25.634
G2 X1281.840 Y1228.870 I  77.344 J -72.417
G2 X1306.430 Y1242.830 I  99.664 J-146.917
G2 X1336.740 Y1254.870 I 115.619 J-246.893
G2 X1371.860 Y1264.640 I 119.400 J-361.196
G2 X1410.710 Y1271.850 I 107.781 J-472.487
G2 X1452.120 Y1276.250 I  80.598 J-561.472
G2 X1494.830 Y1277.740 I  42.711 J-611.416
G2 X1537.540 Y1276.250 I  -0.001 J-612.906
G2 X1578.950 Y1271.850 I -39.188 J-565.872
G2 X1617.800 Y1264.640 I -68.931 J-479.697
G2 X1652.920 Y1254.870 I -84.280 J-370.966
G2 X1683.230 Y1242.830 I -85.309 J-258.933
G2 X1707.820 Y1228.870 I -75.074 J-160.877
G2 X1725.940 Y1213.430 I -59.224 J -87.857
G2 X1737.030 Y1196.970 I -44.717 J -42.094
G2 X1740.770 Y1180.000 I -37.487 J -17.159
G2 X1737.030 Y1163.030 I -41.227 J   0.189
G2 X1725.940 Y1146.570 I -55.807 J  25.634
G2 X1707.820 Y1131.130 I -77.345 J  72.418
G2 X1683.230 Y1117.170 I -99.664 J 146.917
G2 X1652.920 Y1105.130 I-115.619 J 246.893
G2 X1617.800 Y1095.360 I-119.400 J 361.196
G2 X1578.950 Y1088.150 I-107.781 J 472.487
G2 X1537.540 Y1083.750 I -80.598 J 561.472
G2 X1494.830 Y1082.260 I -42.711 J 611.416
G2 X1452.120 Y1083.750 I   0.001 J 612.906
G2 X1410.710 Y1088.150 I  39.188 J 565.872
G2 X1371.860 Y1095.360 I  68.931 J 479.697
G2 X1336.740 Y1105.130 I  84.280 J 370.966
G2 X1306.430 Y1117.170 I  85.309 J 258.933
G2 X1281.840 Y1131.130 I  75.074 J 160.877
G2 X1263.720 Y1146.570 I  59.225 J  87.858
F150
G1 Z   3.000
G0 Z  15.000 
M9 M5

(* SHAPE Nr: 27 *)
G0 X1079.250 Y 200.000
M3 M8
G0 Z   3.000 
G1 Z  -1.500
F400
G2 X1082.990 Y 216.970 I  41.227 J  -0.189
G2 X1094.080 Y 233.430 I  55.807 J -25.634
G2 X1112.200 Y 248.870 I  77.344 J -72.417
G2 X1136.790 Y 262.830 I  99.664 J-146.917
G2 X1167.100 Y 274.870 I 115.619 J-246.893
G2 X1202.220 Y 284.640 I 119.400 J-361.196
G2 X1241.070 Y 291.850 I 107.781 J-472.487
G2 X1282.480 Y 296.250 I  80.598 J-561.472
G2 X1325.190 Y 297.740 I  42.711 J-611.416
G2 X1367.900 Y 296.250 I  -0.001 J-612.906
G2 X1409.310 Y 291.850 I -39.188 J-565.872
G2 X1448.160 Y 284.640 I -68.931 J-479.697
G2 X1483.280 Y 274.870 I -84.280 J-370.966
G2 X1513.590 Y 262.830 I -85.309 J-258.933
G2 X1538.180 Y 248.870 I -75.074 J-160.877
G2 X1556.300 Y 233.430 I -59.224 J -87.857
G2 X1567.390 Y 216.970 I -44.717 J -42.094
G2 X1571.130 Y 200.000 I -37.487 J -17.159
G2 X1567.390 Y 183.030 I -41.227 J   0.189
G2 X1556.300 Y 166.570 I -55.807 J  25.634
G2 X1538.180 Y 151.130 I -77.344 J  72.417
G2 X1513.590 Y 137.170 I -99.664 J 146.917
G2 X1483.280 Y 125.130 I-115.619 J 246.893
G2 X1448.160 Y 115.360 I-119.400 J 361.196
G2 X1409.310 Y 108.150 I-107.781 J 472.487
G2 X1367.900 Y 103.750 I -80.598 J 561.472
G2 X1325.190 Y 102.260 I -42.712 J 611.451
G2 X1282.480 Y 103.750 I   0.002 J 612.941
G2 X1241.070 Y 108.150 I  39.188 J 565.872
G2 X1202.220 Y 115.360 I  68.931 J 479.697
G2 X1167.100 Y 125.130 I  84.280 J 370.966
G2 X1136.790 Y 137.170 I  85.309 J 258.933
G2 X1112.200 Y 151.130 I  75.074 J 160.877
G2 X1094.080 Y 166.570 I  59.224 J  87.857
G2 X1082.990 Y 183.030 I  44.717 J  42.094
G2 X1079.250 Y 200.000 I  37.487 J  17.159
F150
G1 Z  -3.000
F400
G2 X1082.990 Y 216.970 I  41.227 J  -0.189
G2 X1094.080 Y 233.430 I  55.807 J -25.634
G2 X1112.200 Y 248.870 I  77.344 J -72.417
G2 X1136.790 Y 262.830 I  99.664 J-146.917
G2 X1167.100 Y 274.870 I 115.619 J-246.893
G2 X1202.220 Y 284.640 I 119.400 J-361.196
G2 X1241.070 Y 291.850 I 107.781 J-472.487
G2 X1282.480 Y 296.250 I  80.598 J-561.472
G2 X1325.190 Y 297.740 I  42.711 J-611.416
G2 X1367.900 Y 296.250 I  -0.001 J-612.906
G2 X1409.310 Y 291.850 I -39.188 J-565.872
G2 X1448.160 Y 284.640 I -68.931 J-479.697
G2 X1483.280 Y 274.870 I -84.280 J-370.966
G2 X1513.590 Y 262.830 I -85.309 J-258.933
G2 X1538.180 Y 248.870 I -75.074 J-160.877
G2 X1556.300 Y 233.430 I -59.224 J -87.857
G2 X1567.390 Y 216.970 I -44.717 J -42.094
G2 X1571.130 Y 200.000 I -37.487 J -17.159
G2 X1567.390 Y 183.030 I -41.227 J   0.189
G2 X1556.300 Y 166.570 I -55.807 J  25.634
G2 X1538.180 Y 151.130 I -77.344 J  72.417
G2 X1513.590 Y 137.170 I -99.664 J 146.917
G2 X1483.280 Y 125.130 I-115.619 J 246.893
G2 X1448.160 Y 115.360 I-119.400 J 361.196
G2 X1409.310 Y 108.150 I-107.781 J 472.487
G2 X1367.900 Y 103.750 I -80.598 J 561.472
G2 X1325.190 Y 102.260 I -42.712 J 611.451
G2 X1282.480 Y 103.750 I   0.002 J 612.941
G2 X1241.070 Y 108.150 I  39.188 J 565.872
G2 X1202.220 Y 115.360 I  68.931 J 479.697
G2 X1167.100 Y 125.130 I  84.280 J 370.966
G2 X1136.790 Y 137.170 I  85.309 J 258.933
G2 X1112.200 Y 151.130 I  75.074 J 160.877
G2 X1094.080 Y 166.570 I  59.224 J  87.857
G2 X1082.990 Y 183.030 I  44.717 J  42.094
G2 X1079.250 Y 200.000 I  37.487 J  17.159
F150
G1 Z   3.000
G0 Z  15.000 
M9 M5

(*** LAYER: BORDER_D0_T132.1_RK1_A0_W0_EM1 ***)

(* SHAPE Nr: 28 *)
G0 X2241.740 Y1870.710
M3 M8
G0 Z   3.000 
G1 Z  -1.500
F400
G1 X2241.740 Y1927.140
G1 X2192.870 Y1955.350
G1 X2241.740 Y1983.570
G1 X2241.740 Y2040.000
G1 X2290.610 Y2011.790
G1 X2339.480 Y2040.000
G1 X2339.480 Y1983.570
G1 X2388.350 Y1955.350
G1 X2339.480 Y1927.140
G1 X2339.480 Y1870.710
G1 X2290.610 Y1898.930
G1 X2241.740 Y1870.710
F150
G1 Z  -3.000
F400
G1 X2241.740 Y1927.140
G1 X2192.870 Y1955.350
G1 X2241.740 Y1983.570
G1 X2241.740 Y2040.000
G1 X2290.610 Y2011.790
G1 X2339.480 Y2040.000
G1 X2339.480 Y1983.570
G1 X2388.350 Y1955.350
G1 X2339.480 Y1927.140
G1 X2339.480 Y1870.710
G1 X2290.610 Y1898.930
G1 X2241.740 Y1870.710
F150
G1 Z   3.000
G0 Z  15.000 
M9 M5

(* SHAPE Nr: 29 *)
G0 X1841.490 Y 187.180
M3 M8
G0 Z   3.000 
G1 Z  -1.500
F400
G1 X1841.490 Y 269.780
G3 X2709.690 Y 269.780 I 434.100 J 360.590
G1 X2709.690 Y 187.180
G2 X1841.490 Y 187.180 I-434.100 J 443.196
F150
G1 Z  -3.000
F400
G1 X1841.490 Y 269.780
G3 X2709.690 Y 269.780 I 434.100 J 360.590
G1 X2709.690 Y 187.180
G2 X1841.490 Y 187.180 I-434.100 J 443.196
F150
G1 Z   3.000
G0 Z  15.000 
M9 M5

(* SHAPE Nr: 30 *)
G0 X1263.720 Y1146.570
M3 M8
G0 Z   3.000 
G1 Z  -1.500
F400
G2 X1252.620 Y1163.030 I  44.710 J  42.123
G2 X1248.890 Y1180.000 I  37.489 J  17.135
G2 X1252.620 Y1196.970 I  41.219 J  -0.165
G2 X1263.720 Y1213.430 I  55.810 J -25.663
G2 X1281.840 Y1228.870 I  77.347 J -72.419
G2 X1306.430 Y1242.830 I  99.673 J-146.933
G2 X1336.740 Y1254.870 I 115.599 J-246.843
G2 X1371.860 Y1264.650 I 119.512 J-361.221
G2 X1410.710 Y1271.850 I 107.654 J-472.468
G2 X1452.120 Y1276.260 I  80.734 J-561.467
G2 X1494.830 Y1277.740 I  42.570 J-611.491
G2 X1537.530 Y1276.260 I   0.135 J-612.828
G2 X1578.940 Y1271.850 I -39.324 J-565.877
G2 X1617.800 Y1264.650 I -68.799 J-479.791
G2 X1652.910 Y1254.870 I -84.397 J-370.897
G2 X1683.230 Y1242.830 I -85.284 J-258.966
G2 X1707.820 Y1228.870 I -75.083 J-160.893
G2 X1725.930 Y1213.430 I -59.233 J -87.817
G2 X1737.030 Y1196.970 I -44.710 J -42.123
G2 X1740.770 Y1180.000 I -37.484 J -17.158
G2 X1737.030 Y1163.030 I -41.224 J   0.188
G2 X1725.930 Y1146.570 I -55.810 J  25.663
G2 X1707.820 Y1131.130 I -77.343 J  72.377
G2 X1683.230 Y1117.170 I -99.673 J 146.933
G2 X1652.910 Y1105.130 I-115.604 J 246.926
G2 X1617.800 Y1095.350 I-119.507 J 361.117
G2 X1578.940 Y1088.150 I-107.659 J 472.591
G2 X1537.530 Y1083.740 I -80.734 J 561.467
G2 X1494.830 Y1082.260 I -42.565 J 611.348
G2 X1452.120 Y1083.740 I  -0.140 J 612.971
G2 X1410.710 Y1088.150 I  39.324 J 565.877
G2 X1371.860 Y1095.350 I  68.804 J 479.668
G2 X1336.740 Y1105.130 I  84.392 J 371.001
G2 X1306.430 Y1117.170 I  85.289 J 258.883
G2 X1281.840 Y1131.130 I  75.083 J 160.893
G2 X1263.720 Y1146.570 I  59.227 J  87.859
F150
G1 Z  -3.000
F400
G2 X1252.620 Y1163.030 I  44.710 J  42.123
G2 X1248.890 Y1180.000 I  37.489 J  17.135
G2 X1252.620 Y1196.970 I  41.219 J  -0.165
G2 X1263.720 Y1213.430 I  55.810 J -25.663
G2 X1281.840 Y1228.870 I  77.347 J -72.419
G2 X1306.430 Y1242.830 I  99.673 J-146.933
G2 X1336.740 Y1254.870 I 115.599 J-246.843
G2 X1371.860 Y1264.650 I 119.512 J-361.221
G2 X1410.710 Y1271.850 I 107.654 J-472.468
G2 X1452.120 Y1276.260 I  80.734 J-561.467
G2 X1494.830 Y1277.740 I  42.570 J-611.491
G2 X1537.530 Y1276.260 I   0.135 J-612.828
G2 X1578.940 Y1271.850 I -39.324 J-565.877
G2 X1617.800 Y1264.650 I -68.799 J-479.791
G2 X1652.910 Y1254.870 I -84.397 J-370.897
G2 X1683.230 Y1242.830 I -85.284 J-258.966
G2 X1707.820 Y1228.870 I -75.083 J-160.893
G2 X1725.930 Y1213.430 I -59.233 J -87.817
G2 X1737.030 Y1196.970 I -44.710 J -42.123
G2 X1740.770 Y1180.000 I -37.484 J -17.158
G2 X1737.030 Y1163.030 I -41.224 J   0.188
G2 X1725.930 Y1146.570 I -55.810 J  25.663
G2 X1707.820 Y1131.130 I -77.343 J  72.377
G2 X1683.230 Y1117.170 I -99.673 J 146.933
G2 X1652.910 Y1105.130 I-115.604 J 246.926
G2 X1617.800 Y1095.350 I-119.507 J 361.117
G2 X1578.940 Y1088.150 I-107.659 J 472.591
G2 X1537.530 Y1083.740 I -80.734 J 561.467
G2 X1494.830 Y1082.260 I -42.565 J 611.348
G2 X1452.120 Y1083.740 I  -0.140 J 612.971
G2 X1410.710 Y1088.150 I  39.324 J 565.877
G2 X1371.860 Y1095.350 I  68.804 J 479.668
G2 X1336.740 Y1105.130 I  84.392 J 371.001
G2 X1306.430 Y1117.170 I  85.289 J 258.883
G2 X1281.840 Y1131.130 I  75.083 J 160.893
G2 X1263.720 Y1146.570 I  59.227 J  87.859
F150
G1 Z   3.000
G0 Z  15.000 
M9 M5

(* SHAPE Nr: 31 *)
G0 X1079.260 Y 200.000
M3 M8
G0 Z   3.000 
G1 Z  -1.500
F400
G2 X1082.990 Y 216.970 I  41.219 J  -0.165
G2 X1094.090 Y 233.430 I  55.810 J -25.663
G2 X1112.200 Y 248.870 I  77.343 J -72.377
G2 X1136.790 Y 262.830 I  99.673 J-146.933
G2 X1167.110 Y 274.870 I 115.604 J-246.926
G2 X1202.220 Y 284.640 I 119.403 J-361.122
G2 X1241.080 Y 291.850 I 107.781 J-472.586
G2 X1282.490 Y 296.260 I  80.734 J-561.467
G2 X1325.190 Y 297.740 I  42.565 J-611.348
G2 X1367.900 Y 296.260 I   0.140 J-612.971
G2 X1409.310 Y 291.850 I -39.324 J-565.877
G2 X1448.170 Y 284.640 I -68.921 J-479.796
G2 X1483.280 Y 274.870 I -84.293 J-370.892
G2 X1513.600 Y 262.830 I -85.288 J-258.975
G2 X1538.190 Y 248.870 I -75.081 J-160.889
G2 X1556.300 Y 233.430 I -59.233 J -87.817
G2 X1567.400 Y 216.970 I -44.710 J -42.123
G2 X1571.140 Y 200.000 I -37.484 J -17.158
G2 X1567.400 Y 183.030 I -41.224 J   0.188
G2 X1556.300 Y 166.570 I -55.810 J  25.663
G2 X1538.190 Y 151.130 I -77.343 J  72.377
G2 X1513.600 Y 137.170 I -99.673 J 146.933
G2 X1483.280 Y 125.130 I-115.604 J 246.926
G2 X1448.170 Y 115.360 I-119.403 J 361.122
G2 X1409.310 Y 108.150 I-107.781 J 472.586
G2 X1367.900 Y 103.750 I -80.598 J 561.472
G2 X1325.190 Y 102.260 I -42.714 J 611.486
G2 X1282.490 Y 103.750 I   0.009 J 612.833
G2 X1241.080 Y 108.150 I  39.188 J 565.872
G2 X1202.220 Y 115.360 I  68.921 J 479.796
G2 X1167.110 Y 125.130 I  84.293 J 370.892
G2 X1136.790 Y 137.170 I  85.284 J 258.966
G2 X1112.200 Y 151.130 I  75.083 J 160.893
G2 X1094.090 Y 166.570 I  59.233 J  87.817
G2 X1082.990 Y 183.030 I  44.710 J  42.123
G2 X1079.260 Y 200.000 I  37.489 J  17.135
F150
G1 Z  -3.000
F400
G2 X1082.990 Y 216.970 I  41.219 J  -0.165
G2 X1094.090 Y 233.430 I  55.810 J -25.663
G2 X1112.200 Y 248.870 I  77.343 J -72.377
G2 X1136.790 Y 262.830 I  99.673 J-146.933
G2 X1167.110 Y 274.870 I 115.604 J-246.926
G2 X1202.220 Y 284.640 I 119.403 J-361.122
G2 X1241.080 Y 291.850 I 107.781 J-472.586
G2 X1282.490 Y 296.260 I  80.734 J-561.467
G2 X1325.190 Y 297.740 I  42.565 J-611.348
G2 X1367.900 Y 296.260 I   0.140 J-612.971
G2 X1409.310 Y 291.850 I -39.324 J-565.877
G2 X1448.170 Y 284.640 I -68.921 J-479.796
G2 X1483.280 Y 274.870 I -84.293 J-370.892
G2 X1513.600 Y 262.830 I -85.288 J-258.975
G2 X1538.190 Y 248.870 I -75.081 J-160.889
G2 X1556.300 Y 233.430 I -59.233 J -87.817
G2 X1567.400 Y 216.970 I -44.710 J -42.123
G2 X1571.140 Y 200.000 I -37.484 J -17.158
G2 X1567.400 Y 183.030 I -41.224 J   0.188
G2 X1556.300 Y 166.570 I -55.810 J  25.663
G2 X1538.190 Y 151.130 I -77.343 J  72.377
G2 X1513.600 Y 137.170 I -99.673 J 146.933
G2 X1483.280 Y 125.130 I-115.604 J 246.926
G2 X1448.170 Y 115.360 I-119.403 J 361.122
G2 X1409.310 Y 108.150 I-107.781 J 472.586
G2 X1367.900 Y 103.750 I -80.598 J 561.472
G2 X1325.190 Y 102.260 I -42.714 J 611.486
G2 X1282.490 Y 103.750 I   0.009 J 612.833
G2 X1241.080 Y 108.150 I  39.188 J 565.872
G2 X1202.220 Y 115.360 I  68.921 J 479.796
G2 X1167.110 Y 125.130 I  84.293 J 370.892
G2 X1136.790 Y 137.170 I  85.284 J 258.966
G2 X1112.200 Y 151.130 I  75.083 J 160.893
G2 X1094.090 Y 166.570 I  59.233 J  87.817
G2 X1082.990 Y 183.030 I  44.710 J  42.123
G2 X1079.260 Y 200.000 I  37.489 J  17.135
F150
G1 Z   3.000
G0 Z  15.000 
M9 M5

(* SHAPE Nr: 32 *)
G0 X 539.860 Y1117.170
M3 M8
G0 Z   3.000 
G1 Z  -1.500
F400
G2 X 515.270 Y1131.130 I  75.083 J 160.893
G2 X 497.160 Y1146.570 I  59.233 J  87.817
G2 X 486.060 Y1163.030 I  44.710 J  42.124
G2 X 482.320 Y1180.000 I  37.484 J  17.158
G2 X 486.060 Y1196.970 I  41.224 J  -0.188
G2 X 497.160 Y1213.430 I  55.810 J -25.664
G2 X 515.270 Y1228.870 I  77.343 J -72.377
G2 X 539.860 Y1242.830 I  99.673 J-146.933
G2 X 570.180 Y1254.870 I 115.604 J-246.926
G2 X 605.290 Y1264.650 I 119.507 J-361.117
G2 X 644.150 Y1271.850 I 107.659 J-472.591
G2 X 685.560 Y1276.260 I  80.734 J-561.467
G2 X 728.260 Y1277.740 I  42.565 J-611.348
G2 X 770.970 Y1276.260 I   0.140 J-612.971
G2 X 812.380 Y1271.850 I -39.324 J-565.877
G2 X 851.230 Y1264.650 I -68.804 J-479.668
G2 X 886.350 Y1254.870 I -84.392 J-371.001
G2 X 916.660 Y1242.830 I -85.289 J-258.883
G2 X 941.250 Y1228.870 I -75.083 J-160.893
G2 X 959.370 Y1213.430 I -59.228 J -87.861
G2 X 970.470 Y1196.970 I -44.710 J -42.123
G2 X 974.200 Y1180.000 I -37.489 J -17.135
G2 X 970.470 Y1163.030 I -41.219 J   0.165
G2 X 959.370 Y1146.570 I -55.810 J  25.663
G2 X 941.250 Y1131.130 I -77.348 J  72.421
G2 X 916.660 Y1117.170 I -99.671 J 146.929
G2 X 886.350 Y1105.130 I-115.599 J 246.843
G2 X 851.230 Y1095.350 I-119.512 J 361.221
G2 X 812.380 Y1088.150 I-107.654 J 472.468
G2 X 770.970 Y1083.740 I -80.734 J 561.467
G2 X 728.260 Y1082.260 I -42.570 J 611.491
G2 X 685.560 Y1083.740 I  -0.135 J 612.828
G2 X 644.150 Y1088.150 I  39.324 J 565.877
G2 X 605.290 Y1095.350 I  68.799 J 479.791
G2 X 570.180 Y1105.130 I  84.397 J 370.897
G2 X 539.860 Y1117.170 I  85.284 J 258.966
F150
G1 Z  -3.000
F400
G2 X 515.270 Y1131.130 I  75.083 J 160.893
G2 X 497.160 Y1146.570 I  59.233 J  87.817
G2 X 486.060 Y1163.030 I  44.710 J  42.124
G2 X 482.320 Y1180.000 I  37.484 J  17.158
G2 X 486.060 Y1196.970 I  41.224 J  -0.188
G2 X 497.160 Y1213.430 I  55.810 J -25.664
G2 X 515.270 Y1228.870 I  77.343 J -72.377
G2 X 539.860 Y1242.830 I  99.673 J-146.933
G2 X 570.180 Y1254.870 I 115.604 J-246.926
G2 X 605.290 Y1264.650 I 119.507 J-361.117
G2 X 644.150 Y1271.850 I 107.659 J-472.591
G2 X 685.560 Y1276.260 I  80.734 J-561.467
G2 X 728.260 Y1277.740 I  42.565 J-611.348
G2 X 770.970 Y1276.260 I   0.140 J-612.971
G2 X 812.380 Y1271.850 I -39.324 J-565.877
G2 X 851.230 Y1264.650 I -68.804 J-479.668
G2 X 886.350 Y1254.870 I -84.392 J-371.001
G2 X 916.660 Y1242.830 I -85.289 J-258.883
G2 X 941.250 Y1228.870 I -75.083 J-160.893
G2 X 959.370 Y1213.430 I -59.228 J -87.861
G2 X 970.470 Y1196.970 I -44.710 J -42.123
G2 X 974.200 Y1180.000 I -37.489 J -17.135
G2 X 970.470 Y1163.030 I -41.219 J   0.165
G2 X 959.370 Y1146.570 I -55.810 J  25.663
G2 X 941.250 Y1131.130 I -77.348 J  72.421
G2 X 916.660 Y1117.170 I -99.671 J 146.929
G2 X 886.350 Y1105.130 I-115.599 J 246.843
G2 X 851.230 Y1095.350 I-119.512 J 361.221
G2 X 812.380 Y1088.150 I-107.654 J 472.468
G2 X 770.970 Y1083.740 I -80.734 J 561.467
G2 X 728.260 Y1082.260 I -42.570 J 611.491
G2 X 685.560 Y1083.740 I  -0.135 J 612.828
G2 X 644.150 Y1088.150 I  39.324 J 565.877
G2 X 605.290 Y1095.350 I  68.799 J 479.791
G2 X 570.180 Y1105.130 I  84.397 J 370.897
G2 X 539.860 Y1117.170 I  85.284 J 258.966
F150
G1 Z   3.000
G0 Z  15.000 
M9 M5

(* SHAPE Nr: 34 *)
G0 X  64.270 Y -14.700
M3 M8
G0 Z   3.000 
G1 Z  -1.500
F400
G1 X  64.270 Y  20.110
G1 X  64.270 Y 102.710
G2 X 932.470 Y 102.710 I 434.100 J-443.198
G1 X 932.470 Y  20.110
G3 X  64.270 Y  20.110 I-434.100 J-360.590
F150
G1 Z  -3.000
F400
G2 X 932.470 Y  20.110 I 434.100 J-360.590
G1 X 932.470 Y 102.710
G3 X  64.270 Y 102.710 I-434.100 J-443.198
G1 X  64.270 Y  20.110
G1 X  64.270 Y -14.700
F150
G1 Z   3.000
G0 Z  15.000 
M9 M5

(* SHAPE Nr: 35 *)
G0 X 781.140 Y2040.000
M3 M8
G0 Z   3.000 
G1 Z  -1.500
F400
G1 X 816.640 Y1930.720
G1 X 723.690 Y1863.190
G1 X 630.730 Y1930.720
G1 X 666.240 Y2040.000
G1 X1547.740 Y2040.000
G1 X1587.340 Y1918.140
G1 X1601.320 Y1922.680
G1 X1919.110 Y2040.000
G1 X2295.050 Y1822.950
G1 X2295.050 Y1388.850
G1 X1919.110 Y1171.800
G1 X1543.170 Y1388.850
G1 X1543.170 Y1836.180
G1 X1528.470 Y1836.180
G1 X1528.470 Y1388.850
G1 X1152.530 Y1171.800
G1 X 776.580 Y1388.850
G1 X 776.580 Y1836.180
G1 X 761.880 Y1836.180
G1 X 761.880 Y1388.850
G1 X 385.940 Y1171.800
G1 X  10.000 Y1388.850
G1 X  10.000 Y1822.950
G1 X 385.940 Y2040.000
G1 X 761.880 Y1822.950
G1 X 761.880 Y1815.600
G1 X 776.580 Y1815.600
G1 X 776.580 Y1822.950
G1 X1152.530 Y2040.000
G1 X1528.470 Y1822.950
G1 X1528.470 Y1815.600
G1 X1543.170 Y1815.600
G1 X1543.170 Y1822.950
G1 X1919.110 Y2040.000
G1 X1930.570 Y2046.610
G1 X1923.220 Y2059.340
G1 X1593.950 Y1938.500
G1 X1583.250 Y1930.720
G1 X1490.290 Y1863.190
G1 X1397.340 Y1930.720
G1 X1432.840 Y2040.000
F150
G1 Z  -3.000
F400
G1 X1397.340 Y1930.720
G1 X1490.290 Y1863.190
G1 X1583.250 Y1930.720
G1 X1593.950 Y1938.500
G1 X1923.220 Y2059.340
G1 X1930.570 Y2046.610
G1 X1919.110 Y2040.000
G1 X1543.170 Y1822.950
G1 X1543.170 Y1815.600
G1 X1528.470 Y1815.600
G1 X1528.470 Y1822.950
G1 X1152.530 Y2040.000
G1 X 776.580 Y1822.950
G1 X 776.580 Y1815.600
G1 X 761.880 Y1815.600
G1 X 761.880 Y1822.950
G1 X 385.940 Y2040.000
G1 X  10.000 Y1822.950
G1 X  10.000 Y1388.850
G1 X 385.940 Y1171.800
G1 X 761.880 Y1388.850
G1 X 761.880 Y1836.180
G1 X 776.580 Y1836.180
G1 X 776.580 Y1388.850
G1 X1152.530 Y1171.800
G1 X1528.470 Y1388.850
G1 X1528.470 Y1836.180
G1 X1543.170 Y1836.180
G1 X1543.170 Y1388.850
G1 X1919.110 Y1171.800
G1 X2295.050 Y1388.850
G1 X2295.050 Y1822.950
G1 X1919.110 Y2040.000
G1 X1601.320 Y1922.680
G1 X1587.340 Y1918.140
G1 X1547.740 Y2040.000
G1 X 666.240 Y2040.000
G1 X 630.730 Y1930.720
G1 X 723.690 Y1863.190
G1 X 816.640 Y1930.720
G1 X 781.140 Y2040.000
F150
G1 Z   3.000
G0 Z  15.000 
M9 M5

(* SHAPE Nr: 36 *)
G0 X2788.870 Y1842.440
M3 M8
G0 Z   3.000 
G1 Z  -1.500
F400
G1 X2788.870 Y 811.840
G2 X2509.150 Y 136.540 I-867.440 J -36.275
G1 X2447.760 Y 197.930
G3 X2702.050 Y 811.840 I-613.911 J 613.911
G1 X2702.050 Y1842.440
G1 X2802.100 Y1842.440
G1 X2802.100 Y1857.140
G1 X2666.280 Y1860.820
G1 X2651.580 Y1860.820
G1 X2651.580 Y 816.990
G2 X2371.860 Y 141.690 I-867.440 J -36.275
G1 X2310.470 Y 203.080
G3 X2564.760 Y 816.990 I-613.911 J 613.911
G1 X2564.760 Y1847.590
G1 X2651.580 Y1847.590
F150
G1 Z  -3.000
F400
G1 X2564.760 Y1847.590
G1 X2564.760 Y 816.990
G2 X2310.470 Y 203.080 I-868.201 J   0.001
G1 X2371.860 Y 141.690
G3 X2651.580 Y 816.990 I-587.720 J 639.025
G1 X2651.580 Y1860.820
G1 X2666.280 Y1860.820
G1 X2802.100 Y1857.140
G1 X2802.100 Y1842.440
G1 X2702.050 Y1842.440
G1 X2702.050 Y 811.840
G2 X2447.760 Y 197.930 I-868.201 J   0.001
G1 X2509.150 Y 136.540
G3 X2788.870 Y 811.840 I-587.720 J 639.025
G1 X2788.870 Y1842.440
F150
G1 Z   3.000
G0 Z  15.000 
M9 M5

(* SHAPE Nr: 37 *)
G0 X2179.580 Y1082.040
M3 M8
G0 Z   3.000 
G1 Z  -1.500
F400
G1 X2149.380 Y1129.200
G1 X2119.180 Y1082.040
G1 X2122.460 Y1137.950
G1 X2070.300 Y1117.550
G1 X2105.820 Y1160.850
G1 X2051.640 Y1175.000
G1 X2105.820 Y1189.150
G1 X2070.300 Y1232.450
G1 X2122.460 Y1212.050
G1 X2119.180 Y1267.960
G1 X2149.380 Y1220.800
G1 X2179.580 Y1267.960
G1 X2176.300 Y1212.050
G1 X2228.450 Y1232.450
G1 X2192.940 Y1189.150
G1 X2247.120 Y1175.000
G1 X2192.940 Y1160.850
G1 X2228.450 Y1117.550
G1 X2176.300 Y1137.950
G1 X2179.580 Y1082.040
G1 X2180.360 Y1068.840
G1 X2295.050 Y 937.780
G1 X2295.050 Y 503.680
G1 X1919.110 Y 286.630
G1 X1543.170 Y 503.680
G1 X1543.170 Y 511.030
G1 X1528.470 Y 511.030
G1 X1528.470 Y 503.680
G1 X1152.530 Y 286.630
G1 X1037.720 Y 288.340
G1 X1024.920 Y 285.000
G1 X 970.740 Y 270.850
G1 X1006.260 Y 227.550
G1 X 954.100 Y 247.950
G1 X 957.390 Y 192.040
G1 X 927.180 Y 239.200
G1 X 896.980 Y 192.040
G1 X 900.260 Y 247.950
G1 X 848.110 Y 227.550
G1 X 883.620 Y 270.850
G1 X 829.440 Y 285.000
G1 X 883.620 Y 299.150
G1 X 848.110 Y 342.450
G1 X 900.260 Y 322.050
G1 X 896.980 Y 377.960
G1 X 896.200 Y 391.160
G1 X 864.980 Y 390.700
G1 X 857.200 Y 380.000
G1 X 789.660 Y 287.040
G1 X 680.390 Y 322.550
G1 X 680.390 Y 437.450
G1 X 789.660 Y 472.960
F150
G1 Z  -3.000
F400
G1 X 680.390 Y 437.450
G1 X 680.390 Y 322.550
G1 X 789.660 Y 287.040
G1 X 857.200 Y 380.000
G1 X 864.980 Y 390.700
G1 X 896.200 Y 391.160
G1 X 896.980 Y 377.960
G1 X 900.260 Y 322.050
G1 X 848.110 Y 342.450
G1 X 883.620 Y 299.150
G1 X 829.440 Y 285.000
G1 X 883.620 Y 270.850
G1 X 848.110 Y 227.550
G1 X 900.260 Y 247.950
G1 X 896.980 Y 192.040
G1 X 927.180 Y 239.200
G1 X 957.390 Y 192.040
G1 X 954.100 Y 247.950
G1 X1006.260 Y 227.550
G1 X 970.740 Y 270.850
G1 X1024.920 Y 285.000
G1 X1037.720 Y 288.340
G1 X1152.530 Y 286.630
G1 X1528.470 Y 503.680
G1 X1528.470 Y 511.030
G1 X1543.170 Y 511.030
G1 X1543.170 Y 503.680
G1 X1919.110 Y 286.630
G1 X2295.050 Y 503.680
G1 X2295.050 Y 937.780
G1 X2180.360 Y1068.840
G1 X2179.580 Y1082.040
G1 X2176.300 Y1137.950
G1 X2228.450 Y1117.550
G1 X2192.940 Y1160.850
G1 X2247.120 Y1175.000
G1 X2192.940 Y1189.150
G1 X2228.450 Y1232.450
G1 X2176.300 Y1212.050
G1 X2179.580 Y1267.960
G1 X2149.380 Y1220.800
G1 X2119.180 Y1267.960
G1 X2122.460 Y1212.050
G1 X2070.300 Y1232.450
G1 X2105.820 Y1189.150
G1 X2051.640 Y1175.000
G1 X2105.820 Y1160.850
G1 X2070.300 Y1117.550
G1 X2122.460 Y1137.950
G1 X2119.180 Y1082.040
G1 X2149.380 Y1129.200
G1 X2179.580 Y1082.040
F150
G1 Z   3.000
G0 Z  15.000 
M9 M5

(* SHAPE Nr: 38 *)
G0 X 761.880 Y 503.680
M3 M8
G0 Z   3.000 
G1 Z  -1.500
F400
G1 X 385.940 Y 286.630
G1 X  10.000 Y 503.680
G1 X  10.000 Y 937.780
G1 X 385.940 Y1154.830
F150
G1 Z  -3.000
F400
G1 X  10.000 Y 937.780
G1 X  10.000 Y 503.680
G1 X 385.940 Y 286.630
G1 X 761.880 Y 503.680
F150
G1 Z   3.000
G0 Z  15.000 
M9 M5

(* SHAPE Nr: 39 *)
G0 X 195.910 Y1174.420
M3 M8
G0 Z   3.000 
G1 Z  -1.500
F400
G1 X 140.010 Y1177.700
G1 X 160.410 Y1125.550
G1 X 117.110 Y1161.060
G1 X 102.960 Y1106.880
G1 X  88.800 Y1161.060
G1 X  45.510 Y1125.550
G1 X  65.900 Y1177.700
G1 X  10.000 Y1174.420
G1 X  57.160 Y1204.620
G1 X  10.000 Y1234.820
G1 X  65.900 Y1231.540
G1 X  45.510 Y1283.690
G1 X  88.800 Y1248.180
G1 X 102.960 Y1302.360
G1 X 117.110 Y1248.180
G1 X 160.410 Y1283.690
G1 X 140.010 Y1231.540
G1 X 195.910 Y1234.820
G1 X 148.760 Y1204.620
G1 X 207.050 Y1167.280
G1 X 385.940 Y1154.830
G1 X 761.880 Y 937.780
G1 X 761.880 Y 490.450
G1 X 789.660 Y 472.960
G1 X 864.980 Y 369.300
G1 X 896.980 Y 377.960
G1 X 927.180 Y 330.800
G1 X 957.390 Y 377.960
G1 X 954.100 Y 322.050
G1 X1006.260 Y 342.450
G1 X 970.740 Y 299.150
G1 X1024.920 Y 285.000
F150
G1 Z  -3.000
F400
G1 X 970.740 Y 299.150
G1 X1006.260 Y 342.450
G1 X 954.100 Y 322.050
G1 X 957.390 Y 377.960
G1 X 927.180 Y 330.800
G1 X 896.980 Y 377.960
G1 X 864.980 Y 369.300
G1 X 789.660 Y 472.960
G1 X 761.880 Y 490.450
G1 X 761.880 Y 937.780
G1 X 385.940 Y1154.830
G1 X 207.050 Y1167.280
G1 X 148.760 Y1204.620
G1 X 195.910 Y1234.820
G1 X 140.010 Y1231.540
G1 X 160.410 Y1283.690
G1 X 117.110 Y1248.180
G1 X 102.960 Y1302.360
G1 X  88.800 Y1248.180
G1 X  45.510 Y1283.690
G1 X  65.900 Y1231.540
G1 X  10.000 Y1234.820
G1 X  57.160 Y1204.620
G1 X  10.000 Y1174.420
G1 X  65.900 Y1177.700
G1 X  45.510 Y1125.550
G1 X  88.800 Y1161.060
G1 X 102.960 Y1106.880
G1 X 117.110 Y1161.060
G1 X 160.410 Y1125.550
G1 X 140.010 Y1177.700
G1 X 195.910 Y1174.420
F150
G1 Z   3.000
G0 Z  15.000 
M9 M5

(* SHAPE Nr: 40 *)
G0 X 102.960 Y 221.700
M3 M8
G0 Z   3.000 
G1 Z  -1.500
F400
G1 X  88.800 Y 275.880
G1 X  45.510 Y 240.370
G1 X  65.900 Y 292.520
G1 X  10.000 Y 289.240
G1 X  57.160 Y 319.440
G1 X  10.000 Y 349.640
G1 X  65.900 Y 346.360
G1 X  45.510 Y 398.510
G1 X  88.800 Y 363.000
G1 X 102.960 Y 417.180
G1 X 117.110 Y 363.000
G1 X 160.410 Y 398.510
G1 X 140.010 Y 346.360
G1 X 195.910 Y 349.640
G1 X 148.760 Y 319.440
G1 X 195.910 Y 289.240
G1 X 140.010 Y 292.520
G1 X 160.410 Y 240.370
G1 X 117.110 Y 275.880
G1 X 102.960 Y 221.700
F150
G1 Z  -3.000
F400
G1 X  88.800 Y 275.880
G1 X  45.510 Y 240.370
G1 X  65.900 Y 292.520
G1 X  10.000 Y 289.240
G1 X  57.160 Y 319.440
G1 X  10.000 Y 349.640
G1 X  65.900 Y 346.360
G1 X  45.510 Y 398.510
G1 X  88.800 Y 363.000
G1 X 102.960 Y 417.180
G1 X 117.110 Y 363.000
G1 X 160.410 Y 398.510
G1 X 140.010 Y 346.360
G1 X 195.910 Y 349.640
G1 X 148.760 Y 319.440
G1 X 195.910 Y 289.240
G1 X 140.010 Y 292.520
G1 X 160.410 Y 240.370
G1 X 117.110 Y 275.880
G1 X 102.960 Y 221.700
F150
G1 Z   3.000
G0 Z  15.000 
M9 M5

(* SHAPE Nr: 41 *)
G0 X1831.720 Y  12.310
M3 M8
G0 Z   3.000 
G1 Z  -1.500
F400
G1 X1774.270 Y  54.050
G1 X1716.820 Y  12.310
G1 X1738.760 Y  79.840
G1 X1681.310 Y 121.580
G1 X1670.610 Y 129.360
G1 X1659.680 Y 117.310
G1 X1631.460 Y 166.180
G1 X1575.030 Y 166.180
G1 X1603.250 Y 215.050
G1 X1575.030 Y 263.920
G1 X1631.460 Y 263.920
G1 X1659.680 Y 312.790
G1 X1687.890 Y 263.920
G1 X1744.320 Y 263.920
G1 X1716.110 Y 215.050
G1 X1744.320 Y 166.180
G1 X1687.890 Y 166.180
G1 X1653.060 Y 105.850
G1 X1665.790 Y  98.500
G1 X1681.310 Y 121.580
G1 X1752.330 Y 121.580
G1 X1774.270 Y 189.120
G1 X1796.210 Y 121.580
G1 X1867.230 Y 121.580
G1 X1809.780 Y  79.840
G1 X1831.720 Y  12.310
G1 X1825.770 Y  16.630
G1 X1817.130 Y   4.740
G1 X 696.880 Y  18.370
G1 X 537.880 Y  18.370
G1 X 445.480 Y  15.350
G1 X 347.740 Y  15.350
G1 X 298.870 Y 100.000
G1 X 347.740 Y 184.650
G1 X 445.480 Y 184.650
G1 X 494.350 Y 100.000
G1 X 445.480 Y  15.350
F150
G1 Z  -3.000
F400
G1 X 494.350 Y 100.000
G1 X 445.480 Y 184.650
G1 X 347.740 Y 184.650
G1 X 298.870 Y 100.000
G1 X 347.740 Y  15.350
G1 X 445.480 Y  15.350
G1 X 537.880 Y  18.370
G1 X 696.880 Y  18.370
G1 X1817.130 Y   4.740
G1 X1825.770 Y  16.630
G1 X1831.720 Y  12.310
G1 X1809.780 Y  79.840
G1 X1867.230 Y 121.580
G1 X1796.210 Y 121.580
G1 X1774.270 Y 189.120
G1 X1752.330 Y 121.580
G1 X1681.310 Y 121.580
G1 X1665.790 Y  98.500
G1 X1653.060 Y 105.850
G1 X1687.890 Y 166.180
G1 X1744.320 Y 166.180
G1 X1716.110 Y 215.050
G1 X1744.320 Y 263.920
G1 X1687.890 Y 263.920
G1 X1659.680 Y 312.790
G1 X1631.460 Y 263.920
G1 X1575.030 Y 263.920
G1 X1603.250 Y 215.050
G1 X1575.030 Y 166.180
G1 X1631.460 Y 166.180
G1 X1659.680 Y 117.310
G1 X1670.610 Y 129.360
G1 X1681.310 Y 121.580
G1 X1738.760 Y  79.840
G1 X1716.820 Y  12.310
G1 X1774.270 Y  54.050
G1 X1831.720 Y  12.310
F150
G1 Z   3.000
G0 Z  15.000 
M9 M5

(* SHAPE Nr: 42 *)
G0 X 537.880 Y  18.370
M3 M8
G0 Z   3.000 
G1 Z  -1.500
F400
G1 X 502.380 Y 127.650
G1 X 595.330 Y 195.180
G1 X 688.290 Y 127.650
G1 X 652.780 Y  18.370
F150
G1 Z  -3.000
F400
G1 X 688.290 Y 127.650
G1 X 595.330 Y 195.180
G1 X 502.380 Y 127.650
G1 X 537.880 Y  18.370
F150
G1 Z   3.000
G0 Z  15.000 
M9 M5

(* SHAPE Nr: 43 *)
G0 X1991.300 Y 255.000
M3 M8
G0 Z   3.000 
G1 Z  -1.500
F400
G1 X2045.490 Y 269.150
G1 X2009.970 Y 312.450
G1 X2062.120 Y 292.050
G1 X2058.840 Y 347.960
G1 X2089.040 Y 300.800
G1 X2119.250 Y 347.960
G1 X2115.960 Y 292.050
G1 X2168.120 Y 312.450
G1 X2310.510 Y 320.870
G1 X2310.510 Y1364.700
G2 X2590.230 Y2040.000 I 867.440 J  36.275
G1 X2651.620 Y1978.610
G3 X2397.330 Y1364.700 I 613.907 J-613.909
G1 X2397.330 Y 334.100
G1 X2310.510 Y 334.100
G1 X2176.510 Y 322.680
G1 X2168.120 Y 312.450
G1 X2132.600 Y 269.150
G1 X2186.780 Y 255.000
G1 X2132.600 Y 240.850
G1 X2168.120 Y 197.550
G1 X2115.960 Y 217.950
G1 X2119.250 Y 162.040
G1 X2089.040 Y 209.200
G1 X2058.840 Y 162.040
G1 X2062.120 Y 217.950
G1 X2009.970 Y 197.550
G1 X2045.490 Y 240.850
G1 X1991.300 Y 255.000
F150
G1 Z  -3.000
F400
G1 X2045.490 Y 269.150
G1 X2009.970 Y 312.450
G1 X2062.120 Y 292.050
G1 X2058.840 Y 347.960
G1 X2089.040 Y 300.800
G1 X2119.250 Y 347.960
G1 X2115.960 Y 292.050
G1 X2168.120 Y 312.450
G1 X2310.510 Y 320.870
G1 X2310.510 Y1364.700
G2 X2590.230 Y2040.000 I 867.440 J  36.275
G1 X2651.620 Y1978.610
G3 X2397.330 Y1364.700 I 613.907 J-613.909
G1 X2397.330 Y 334.100
G1 X2310.510 Y 334.100
G1 X2176.510 Y 322.680
G1 X2168.120 Y 312.450
G1 X2132.600 Y 269.150
G1 X2186.780 Y 255.000
G1 X2132.600 Y 240.850
G1 X2168.120 Y 197.550
G1 X2115.960 Y 217.950
G1 X2119.250 Y 162.040
G1 X2089.040 Y 209.200
G1 X2058.840 Y 162.040
G1 X2062.120 Y 217.950
G1 X2009.970 Y 197.550
G1 X2045.490 Y 240.850
G1 X1991.300 Y 255.000
F150
G1 Z   3.000
G0 Z  15.000 
M9 M5

(* SHAPE Nr: 44 *)
G0 X1152.530 Y 286.630
M3 M8
G0 Z   3.000 
G1 Z  -1.500
F400
G1 X 776.580 Y 503.680
G1 X 776.580 Y 937.780
G1 X1152.530 Y1154.830
G1 X1528.470 Y 937.780
G1 X1528.470 Y 490.450
G1 X1606.300 Y 433.870
G1 X1606.300 Y 336.130
G1 X1521.650 Y 287.260
G1 X1437.010 Y 336.130
G1 X1437.010 Y 433.870
G1 X1521.650 Y 482.740
G1 X1617.760 Y 427.260
G1 X1625.100 Y 439.990
G1 X1557.870 Y 490.450
G1 X1543.170 Y 490.450
G1 X1543.170 Y 937.780
G1 X1919.110 Y1154.830
G1 X2295.050 Y 937.780
F150
G1 Z  -3.000
F400
G1 X1919.110 Y1154.830
G1 X1543.170 Y 937.780
G1 X1543.170 Y 490.450
G1 X1557.870 Y 490.450
G1 X1625.100 Y 439.990
G1 X1617.760 Y 427.260
G1 X1521.650 Y 482.740
G1 X1437.010 Y 433.870
G1 X1437.010 Y 336.130
G1 X1521.650 Y 287.260
G1 X1606.300 Y 336.130
G1 X1606.300 Y 433.870
G1 X1528.470 Y 490.450
G1 X1528.470 Y 937.780
G1 X1152.530 Y1154.830
G1 X 776.580 Y 937.780
G1 X 776.580 Y 503.680
G1 X1152.530 Y 286.630
F150
G1 Z   3.000
G0 Z  15.000 
M9 M5
G0 X   0.000 Y   0.000
M2 (Program end)