(Generated with: DXF2GCODE, Version: REMOVED, Date: $Date$)
(Created from file: )
(Output format description: G-CODE for LinuxCNC)
(Time: Thu Sep 13 16:00:40 2018)
G21 (Units in millimeters)
G90 (Absolute programming)
G64 (Default cutting) G17 (XY plane) G40 (Cancel radius comp.) G49 (Cancel length comp.)
G0 Z  15.000 

(*** LAYER: FRAME_Z18 ***)
T1 M6
S6000

(* SHAPE Nr: 71 *)
G0 X   0.000 Y   0.000
M3 M8
G0 Z   3.000 
F150
G1 Z  -1.500
F400
G1 X   0.000 Y2050.000
G1 X2800.000 Y2050.000
G1 X2800.000 Y   0.000
G1 X   0.000 Y   0.000
F150
G1 Z  -3.000
F400
G1 X   0.000 Y2050.000
G1 X2800.000 Y2050.000
G1 X2800.000 Y   0.000
G1 X   0.000 Y   0.000
F150
G1 Z   3.000
G0 Z  15.000 
M9 M5

(*** LAYER: BORDER_D0_T132_RK1_A0_W0_EM1_RI1_ID0028 ***)

(* SHAPE Nr: 0 *)
G0 X  10.000 Y 127.600
M3 M8
G0 Z   3.000 
G1 Z  -1.500
F400
G1 X  23.830 Y 141.420
G3 X 162.050 Y  84.170 I 138.220 J 138.230
G1 X 489.970 Y  84.170
G1 X 489.970 Y  64.620
G1 X 162.050 Y  64.620
G2 X  10.000 Y 127.600 I  -8.170 J 195.309
F150
G1 Z  -3.000
F400
G1 X  23.830 Y 141.420
G3 X 162.050 Y  84.170 I 138.220 J 138.230
G1 X 489.970 Y  84.170
G1 X 489.970 Y  64.620
G1 X 162.050 Y  64.620
G2 X  10.000 Y 127.600 I  -8.170 J 195.309
F150
G1 Z   3.000
G0 Z  15.000 
M9 M5

(* SHAPE Nr: 1 *)
G0 X  10.000 Y 176.740
M3 M8
G0 Z   3.000 
G1 Z  -1.500
F400
G1 X  23.830 Y 190.560
G3 X 162.050 Y 133.310 I 138.220 J 138.230
G1 X 489.970 Y 133.310
G1 X 489.970 Y 113.760
G1 X 162.050 Y 113.760
G2 X  10.000 Y 176.740 I  -8.170 J 195.309
F150
G1 Z  -3.000
F400
G1 X  23.830 Y 190.560
G3 X 162.050 Y 133.310 I 138.220 J 138.230
G1 X 489.970 Y 133.310
G1 X 489.970 Y 113.760
G1 X 162.050 Y 113.760
G2 X  10.000 Y 176.740 I  -8.170 J 195.309
F150
G1 Z   3.000
G0 Z  15.000 
M9 M5

(* SHAPE Nr: 2 *)
G0 X  10.000 Y 225.930
M3 M8
G0 Z   3.000 
G1 Z  -1.500
F400
G1 X  23.830 Y 239.750
G3 X 162.050 Y 182.500 I 138.220 J 138.230
G1 X 489.970 Y 182.500
G1 X 489.970 Y 162.950
G1 X 162.050 Y 162.950
G2 X  10.000 Y 225.930 I  -8.170 J 195.309
F150
G1 Z  -3.000
F400
G1 X  23.830 Y 239.750
G3 X 162.050 Y 182.500 I 138.220 J 138.230
G1 X 489.970 Y 182.500
G1 X 489.970 Y 162.950
G1 X 162.050 Y 162.950
G2 X  10.000 Y 225.930 I  -8.170 J 195.309
F150
G1 Z   3.000
G0 Z  15.000 
M9 M5

(* SHAPE Nr: 3 *)
G0 X 162.050 Y 212.150
M3 M8
G0 Z   3.000 
G1 Z  -1.500
F400
G2 X  10.000 Y 275.130 I  -8.170 J 195.309
G1 X  23.830 Y 288.950
G3 X 162.050 Y 231.700 I 138.220 J 138.230
G1 X 489.970 Y 231.700
G1 X 489.970 Y 212.150
G1 X 162.050 Y 212.150
F150
G1 Z  -3.000
F400
G2 X  10.000 Y 275.130 I  -8.170 J 195.309
G1 X  23.830 Y 288.950
G3 X 162.050 Y 231.700 I 138.220 J 138.230
G1 X 489.970 Y 231.700
G1 X 489.970 Y 212.150
G1 X 162.050 Y 212.150
F150
G1 Z   3.000
G0 Z  15.000 
M9 M5

(* SHAPE Nr: 10 *)
G0 X1544.140 Y  76.130
M3 M8
G0 Z   3.000 
G1 Z  -1.500
F400
G1 X1557.970 Y  89.950
G3 X1696.190 Y  32.700 I 138.220 J 138.230
G1 X2024.110 Y  32.700
G1 X2024.110 Y  13.150
G1 X1696.190 Y  13.150
G2 X1544.140 Y  76.130 I  -8.170 J 195.309
F150
G1 Z  -3.000
F400
G1 X1557.970 Y  89.950
G3 X1696.190 Y  32.700 I 138.220 J 138.230
G1 X2024.110 Y  32.700
G1 X2024.110 Y  13.150
G1 X1696.190 Y  13.150
G2 X1544.140 Y  76.130 I  -8.170 J 195.309
F150
G1 Z   3.000
G0 Z  15.000 
M9 M5

(* SHAPE Nr: 11 *)
G0 X1430.220 Y 193.120
M3 M8
G0 Z   3.000 
G1 Z  -1.500
F400
G1 X1444.050 Y 206.940
G3 X1582.270 Y 149.690 I 138.220 J 138.230
G1 X1910.190 Y 149.690
G1 X1910.190 Y 130.140
G1 X1582.270 Y 130.140
G2 X1430.220 Y 193.120 I  -8.170 J 195.309
F150
G1 Z  -3.000
F400
G1 X1444.050 Y 206.940
G3 X1582.270 Y 149.690 I 138.220 J 138.230
G1 X1910.190 Y 149.690
G1 X1910.190 Y 130.140
G1 X1582.270 Y 130.140
G2 X1430.220 Y 193.120 I  -8.170 J 195.309
F150
G1 Z   3.000
G0 Z  15.000 
M9 M5

(* SHAPE Nr: 12 *)
G0 X 991.380 Y 140.920
M3 M8
G0 Z   3.000 
G1 Z  -1.500
F400
G1 X1005.210 Y 154.740
G3 X1143.430 Y  97.490 I 138.220 J 138.230
G1 X1471.350 Y  97.490
G1 X1471.350 Y  77.940
G1 X1143.430 Y  77.940
G2 X 991.380 Y 140.920 I  -8.170 J 195.309
F150
G1 Z  -3.000
F400
G1 X1005.210 Y 154.740
G3 X1143.430 Y  97.490 I 138.220 J 138.230
G1 X1471.350 Y  97.490
G1 X1471.350 Y  77.940
G1 X1143.430 Y  77.940
G2 X 991.380 Y 140.920 I  -8.170 J 195.309
F150
G1 Z   3.000
G0 Z  15.000 
M9 M5

(* SHAPE Nr: 13 *)
G0 X1059.260 Y 135.470
M3 M8
G0 Z   3.000 
G1 Z  -1.500
F400
G1 X1059.260 Y 155.020
G1 X1387.180 Y 155.020
G2 X1539.230 Y  92.040 I   8.170 J-195.309
G1 X1525.400 Y  78.220
G3 X1387.180 Y 135.470 I-138.220 J-138.230
G1 X1059.260 Y 135.470
F150
G1 Z  -3.000
F400
G1 X1059.260 Y 155.020
G1 X1387.180 Y 155.020
G2 X1539.230 Y  92.040 I   8.170 J-195.309
G1 X1525.400 Y  78.220
G3 X1387.180 Y 135.470 I-138.220 J-138.230
G1 X1059.260 Y 135.470
F150
G1 Z   3.000
G0 Z  15.000 
M9 M5

(* SHAPE Nr: 14 *)
G0 X 504.790 Y 218.070
M3 M8
G0 Z   3.000 
G1 Z  -1.500
F400
G1 X 518.620 Y 231.890
G3 X 656.840 Y 174.640 I 138.220 J 138.230
G1 X 984.760 Y 174.640
G1 X 984.760 Y 155.090
G1 X 656.840 Y 155.090
G2 X 504.790 Y 218.070 I  -8.170 J 195.309
F150
G1 Z  -3.000
F400
G1 X 518.620 Y 231.890
G3 X 656.840 Y 174.640 I 138.220 J 138.230
G1 X 984.760 Y 174.640
G1 X 984.760 Y 155.090
G1 X 656.840 Y 155.090
G2 X 504.790 Y 218.070 I  -8.170 J 195.309
F150
G1 Z   3.000
G0 Z  15.000 
M9 M5

(* SHAPE Nr: 15 *)
G0 X 504.790 Y 168.870
M3 M8
G0 Z   3.000 
G1 Z  -1.500
F400
G1 X 518.620 Y 182.690
G3 X 656.840 Y 125.440 I 138.220 J 138.230
G1 X 984.760 Y 125.440
G1 X 984.760 Y 105.890
G1 X 656.840 Y 105.890
G2 X 504.790 Y 168.870 I  -8.170 J 195.309
F150
G1 Z  -3.000
F400
G1 X 518.620 Y 182.690
G3 X 656.840 Y 125.440 I 138.220 J 138.230
G1 X 984.760 Y 125.440
G1 X 984.760 Y 105.890
G1 X 656.840 Y 105.890
G2 X 504.790 Y 168.870 I  -8.170 J 195.309
F150
G1 Z   3.000
G0 Z  15.000 
M9 M5

(* SHAPE Nr: 16 *)
G0 X 504.790 Y 119.650
M3 M8
G0 Z   3.000 
G1 Z  -1.500
F400
G1 X 518.620 Y 133.470
G3 X 656.840 Y  76.220 I 138.220 J 138.230
G1 X 984.760 Y  76.220
G1 X 984.760 Y  56.670
G1 X 656.840 Y  56.670
G2 X 504.790 Y 119.650 I  -8.170 J 195.309
F150
G1 Z  -3.000
F400
G1 X 518.620 Y 133.470
G3 X 656.840 Y  76.220 I 138.220 J 138.230
G1 X 984.760 Y  76.220
G1 X 984.760 Y  56.670
G1 X 656.840 Y  56.670
G2 X 504.790 Y 119.650 I  -8.170 J 195.309
F150
G1 Z   3.000
G0 Z  15.000 
M9 M5

(* SHAPE Nr: 17 *)
G0 X 572.540 Y 212.490
M3 M8
G0 Z   3.000 
G1 Z  -1.500
F400
G1 X 572.540 Y 232.040
G1 X 900.460 Y 232.040
G2 X1052.510 Y 169.060 I   8.170 J-195.309
G1 X1038.680 Y 155.240
G3 X 900.460 Y 212.490 I-138.220 J-138.230
G1 X 572.540 Y 212.490
F150
G1 Z  -3.000
F400
G1 X 572.540 Y 232.040
G1 X 900.460 Y 232.040
G2 X1052.510 Y 169.060 I   8.170 J-195.309
G1 X1038.680 Y 155.240
G3 X 900.460 Y 212.490 I-138.220 J-138.230
G1 X 572.540 Y 212.490
F150
G1 Z   3.000
G0 Z  15.000 
M9 M5

(* SHAPE Nr: 24 *)
G0 X2677.050 Y1573.860
M3 M8
G0 Z   3.000 
G1 Z  -1.500
F400
G3 X2734.300 Y1712.080 I-138.230 J 138.220
G1 X2734.300 Y2040.000
G1 X2753.850 Y2040.000
G1 X2753.850 Y1712.080
G2 X2690.870 Y1560.030 I-195.309 J  -8.170
G1 X2677.050 Y1573.860
F150
G1 Z  -3.000
F400
G3 X2734.300 Y1712.080 I-138.230 J 138.220
G1 X2734.300 Y2040.000
G1 X2753.850 Y2040.000
G1 X2753.850 Y1712.080
G2 X2690.870 Y1560.030 I-195.309 J  -8.170
G1 X2677.050 Y1573.860
F150
G1 Z   3.000
G0 Z  15.000 
M9 M5

(*** LAYER: BORDER_D0_T132_RK1_A0_W0_EM1_RI1_ID0030 ***)

(* SHAPE Nr: 4 *)
G0 X  10.000 Y 449.000
M3 M8
G0 Z   3.000 
G1 Z  -1.500
F400
G1 X  54.350 Y 493.340
G3 X 497.770 Y 309.670 I 443.423 J 443.430
G1 X1269.300 Y 309.670
G1 X1269.300 Y 246.960
G1 X 497.770 Y 246.960
G2 X  10.000 Y 449.000 I -26.204 J 626.552
F150
G1 Z  -3.000
F400
G1 X  54.350 Y 493.340
G3 X 497.770 Y 309.670 I 443.423 J 443.430
G1 X1269.300 Y 309.670
G1 X1269.300 Y 246.960
G1 X 497.770 Y 246.960
G2 X  10.000 Y 449.000 I -26.204 J 626.552
F150
G1 Z   3.000
G0 Z  15.000 
M9 M5

(* SHAPE Nr: 9 *)
G0 X1323.930 Y 367.020
M3 M8
G0 Z   3.000 
G1 Z  -1.500
F400
G1 X1368.280 Y 411.360
G3 X1811.700 Y 227.690 I 443.423 J 443.430
G1 X2583.230 Y 227.690
G1 X2583.230 Y 164.980
G1 X1811.700 Y 164.980
G2 X1323.930 Y 367.020 I -26.204 J 626.552
F150
G1 Z  -3.000
F400
G1 X1368.280 Y 411.360
G3 X1811.700 Y 227.690 I 443.423 J 443.430
G1 X2583.230 Y 227.690
G1 X2583.230 Y 164.980
G1 X1811.700 Y 164.980
G2 X1323.930 Y 367.020 I -26.204 J 626.552
F150
G1 Z   3.000
G0 Z  15.000 
M9 M5

(* SHAPE Nr: 26 *)
G0 X2298.730 Y 286.890
M3 M8
G0 Z   3.000 
G1 Z  -1.500
F400
G3 X2482.400 Y 730.320 I-443.431 J 443.424
G1 X2482.400 Y1501.850
G1 X2545.110 Y1501.850
G1 X2545.110 Y 730.320
G2 X2343.070 Y 242.550 I-626.552 J -26.204
G1 X2298.730 Y 286.890
F150
G1 Z  -3.000
F400
G3 X2482.400 Y 730.320 I-443.431 J 443.424
G1 X2482.400 Y1501.850
G1 X2545.110 Y1501.850
G1 X2545.110 Y 730.320
G2 X2343.070 Y 242.550 I-626.552 J -26.204
G1 X2298.730 Y 286.890
F150
G1 Z   3.000
G0 Z  15.000 
M9 M5

(* SHAPE Nr: 27 *)
G0 X2220.460 Y 329.890
M3 M8
G0 Z   3.000 
G1 Z  -1.500
F400
G3 X2404.130 Y 773.320 I-443.431 J 443.424
G1 X2404.130 Y1544.850
G1 X2466.840 Y1544.850
G1 X2466.840 Y 773.320
G2 X2264.800 Y 285.550 I-626.552 J -26.204
G1 X2220.460 Y 329.890
F150
G1 Z  -3.000
F400
G3 X2404.130 Y 773.320 I-443.431 J 443.424
G1 X2404.130 Y1544.850
G1 X2466.840 Y1544.850
G1 X2466.840 Y 773.320
G2 X2264.800 Y 285.550 I-626.552 J -26.204
G1 X2220.460 Y 329.890
F150
G1 Z   3.000
G0 Z  15.000 
M9 M5

(* SHAPE Nr: 28 *)
G0 X2142.150 Y 372.680
M3 M8
G0 Z   3.000 
G1 Z  -1.500
F400
G3 X2325.820 Y 816.110 I-443.431 J 443.424
G1 X2325.820 Y1587.640
G1 X2388.530 Y1587.640
G1 X2388.530 Y 816.110
G2 X2186.490 Y 328.340 I-626.552 J -26.204
G1 X2142.150 Y 372.680
F150
G1 Z  -3.000
F400
G3 X2325.820 Y 816.110 I-443.431 J 443.424
G1 X2325.820 Y1587.640
G1 X2388.530 Y1587.640
G1 X2388.530 Y 816.110
G2 X2186.490 Y 328.340 I-626.552 J -26.204
G1 X2142.150 Y 372.680
F150
G1 Z   3.000
G0 Z  15.000 
M9 M5

(* SHAPE Nr: 29 *)
G0 X2063.950 Y 416.110
M3 M8
G0 Z   3.000 
G1 Z  -1.500
F400
G3 X2247.620 Y 859.540 I-443.431 J 443.424
G1 X2247.620 Y1631.070
G1 X2310.330 Y1631.070
G1 X2310.330 Y 859.540
G2 X2108.290 Y 371.770 I-626.552 J -26.204
G1 X2063.950 Y 416.110
F150
G1 Z  -3.000
F400
G3 X2247.620 Y 859.540 I-443.431 J 443.424
G1 X2247.620 Y1631.070
G1 X2310.330 Y1631.070
G1 X2310.330 Y 859.540
G2 X2108.290 Y 371.770 I-626.552 J -26.204
G1 X2063.950 Y 416.110
F150
G1 Z   3.000
G0 Z  15.000 
M9 M5

(* SHAPE Nr: 31 *)
G0 X1907.250 Y 501.130
M3 M8
G0 Z   3.000 
G1 Z  -1.500
F400
G3 X2090.920 Y 944.560 I-443.431 J 443.424
G1 X2090.920 Y1716.090
G1 X2153.630 Y1716.090
G1 X2153.630 Y 944.560
G2 X1951.590 Y 456.790 I-626.552 J -26.204
G1 X1907.250 Y 501.130
F150
G1 Z  -3.000
F400
G3 X2090.920 Y 944.560 I-443.431 J 443.424
G1 X2090.920 Y1716.090
G1 X2153.630 Y1716.090
G1 X2153.630 Y 944.560
G2 X1951.590 Y 456.790 I-626.552 J -26.204
G1 X1907.250 Y 501.130
F150
G1 Z   3.000
G0 Z  15.000 
M9 M5

(* SHAPE Nr: 32 *)
G0 X1985.590 Y 458.560
M3 M8
G0 Z   3.000 
G1 Z  -1.500
F400
G3 X2169.260 Y 901.990 I-443.431 J 443.424
G1 X2169.260 Y1673.520
G1 X2231.970 Y1673.520
G1 X2231.970 Y 901.990
G2 X2029.930 Y 414.220 I-626.552 J -26.204
G1 X1985.590 Y 458.560
F150
G1 Z  -3.000
F400
G3 X2169.260 Y 901.990 I-443.431 J 443.424
G1 X2169.260 Y1673.520
G1 X2231.970 Y1673.520
G1 X2231.970 Y 901.990
G2 X2029.930 Y 414.220 I-626.552 J -26.204
G1 X1985.590 Y 458.560
F150
G1 Z   3.000
G0 Z  15.000 
M9 M5

(* SHAPE Nr: 33 *)
G0 X1829.000 Y 544.300
M3 M8
G0 Z   3.000 
G1 Z  -1.500
F400
G3 X2012.670 Y 987.730 I-443.431 J 443.424
G1 X2012.670 Y1759.260
G1 X2075.380 Y1759.260
G1 X2075.380 Y 987.730
G2 X1873.340 Y 499.960 I-626.552 J -26.204
G1 X1829.000 Y 544.300
F150
G1 Z  -3.000
F400
G3 X2012.670 Y 987.730 I-443.431 J 443.424
G1 X2012.670 Y1759.260
G1 X2075.380 Y1759.260
G1 X2075.380 Y 987.730
G2 X1873.340 Y 499.960 I-626.552 J -26.204
G1 X1829.000 Y 544.300
F150
G1 Z   3.000
G0 Z  15.000 
M9 M5

(* SHAPE Nr: 34 *)
G0 X1750.820 Y 587.720
M3 M8
G0 Z   3.000 
G1 Z  -1.500
F400
G3 X1934.490 Y1031.150 I-443.431 J 443.424
G1 X1934.490 Y1802.680
G1 X1997.200 Y1802.680
G1 X1997.200 Y1031.150
G2 X1795.160 Y 543.380 I-626.552 J -26.204
G1 X1750.820 Y 587.720
F150
G1 Z  -3.000
F400
G3 X1934.490 Y1031.150 I-443.431 J 443.424
G1 X1934.490 Y1802.680
G1 X1997.200 Y1802.680
G1 X1997.200 Y1031.150
G2 X1795.160 Y 543.380 I-626.552 J -26.204
G1 X1750.820 Y 587.720
F150
G1 Z   3.000
G0 Z  15.000 
M9 M5

(* SHAPE Nr: 42 *)
G0 X2542.170 Y  92.440
M3 M8
G0 Z   3.000 
G1 Z  -1.500
F400
G3 X2725.840 Y 535.870 I-443.431 J 443.424
G1 X2725.840 Y1307.400
G1 X2788.550 Y1307.400
G1 X2788.550 Y 535.870
G2 X2586.510 Y  48.100 I-626.552 J -26.204
G1 X2542.170 Y  92.440
F150
G1 Z  -3.000
F400
G3 X2725.840 Y 535.870 I-443.431 J 443.424
G1 X2725.840 Y1307.400
G1 X2788.550 Y1307.400
G1 X2788.550 Y 535.870
G2 X2586.510 Y  48.100 I-626.552 J -26.204
G1 X2542.170 Y  92.440
F150
G1 Z   3.000
G0 Z  15.000 
M9 M5

(*** LAYER: BORDER_D0_T132_RK1_A0_W0_EM1_RI1_ID0027 ***)

(* SHAPE Nr: 5 *)
G0 X  10.000 Y 585.180
M3 M8
G0 Z   3.000 
G1 Z  -1.500
F400
G1 X  67.070 Y 642.250
G3 X 637.780 Y 405.860 I 570.702 J 570.711
G1 X1309.110 Y 405.860
G1 X1309.110 Y 325.140
G1 X 637.780 Y 325.140
G2 X  10.000 Y 585.180 I -33.721 J 806.394
F150
G1 Z  -3.000
F400
G1 X  67.070 Y 642.250
G3 X 637.780 Y 405.860 I 570.702 J 570.711
G1 X1309.110 Y 405.860
G1 X1309.110 Y 325.140
G1 X 637.780 Y 325.140
G2 X  10.000 Y 585.180 I -33.721 J 806.394
F150
G1 Z   3.000
G0 Z  15.000 
M9 M5

(* SHAPE Nr: 6 *)
G0 X  10.000 Y 718.390
M3 M8
G0 Z   3.000 
G1 Z  -1.500
F400
G1 X  67.070 Y 775.460
G3 X 637.780 Y 539.070 I 570.702 J 570.711
G1 X1309.110 Y 539.070
G1 X1309.110 Y 458.350
G1 X 637.780 Y 458.350
G2 X  10.000 Y 718.390 I -33.721 J 806.394
F150
G1 Z  -3.000
F400
G1 X  67.070 Y 775.460
G3 X 637.780 Y 539.070 I 570.702 J 570.711
G1 X1309.110 Y 539.070
G1 X1309.110 Y 458.350
G1 X 637.780 Y 458.350
G2 X  10.000 Y 718.390 I -33.721 J 806.394
F150
G1 Z   3.000
G0 Z  15.000 
M9 M5

(* SHAPE Nr: 18 *)
G0 X 191.300 Y 694.690
M3 M8
G0 Z   3.000 
G1 Z  -1.500
F400
G1 X 191.300 Y 775.410
G1 X 862.630 Y 775.410
G2 X1490.410 Y 515.370 I  33.721 J-806.394
G1 X1433.340 Y 458.300
G3 X 862.630 Y 694.690 I-570.702 J-570.711
G1 X 191.300 Y 694.690
F150
G1 Z  -3.000
F400
G1 X 191.300 Y 775.410
G1 X 862.630 Y 775.410
G2 X1490.410 Y 515.370 I  33.721 J-806.394
G1 X1433.340 Y 458.300
G3 X 862.630 Y 694.690 I-570.702 J-570.711
G1 X 191.300 Y 694.690
F150
G1 Z   3.000
G0 Z  15.000 
M9 M5

(* SHAPE Nr: 19 *)
G0 X 190.230 Y1027.870
M3 M8
G0 Z   3.000 
G1 Z  -1.500
F400
G1 X 190.230 Y1108.590
G1 X 861.560 Y1108.590
G2 X1489.340 Y 848.550 I  33.721 J-806.394
G1 X1432.270 Y 791.480
G3 X 861.560 Y1027.870 I-570.702 J-570.711
G1 X 190.230 Y1027.870
F150
G1 Z  -3.000
F400
G1 X 190.230 Y1108.590
G1 X 861.560 Y1108.590
G2 X1489.340 Y 848.550 I  33.721 J-806.394
G1 X1432.270 Y 791.480
G3 X 861.560 Y1027.870 I-570.702 J-570.711
G1 X 190.230 Y1027.870
F150
G1 Z   3.000
G0 Z  15.000 
M9 M5

(* SHAPE Nr: 20 *)
G0 X 191.300 Y1626.770
M3 M8
G0 Z   3.000 
G1 Z  -1.500
F400
G1 X 191.300 Y1707.490
G1 X 862.630 Y1707.490
G2 X1490.410 Y1447.450 I  33.721 J-806.394
G1 X1433.340 Y1390.380
G3 X 862.630 Y1626.770 I-570.702 J-570.711
G1 X 191.300 Y1626.770
F150
G1 Z  -3.000
F400
G1 X 191.300 Y1707.490
G1 X 862.630 Y1707.490
G2 X1490.410 Y1447.450 I  33.721 J-806.394
G1 X1433.340 Y1390.380
G3 X 862.630 Y1626.770 I-570.702 J-570.711
G1 X 191.300 Y1626.770
F150
G1 Z   3.000
G0 Z  15.000 
M9 M5

(* SHAPE Nr: 21 *)
G0 X 192.280 Y1958.580
M3 M8
G0 Z   3.000 
G1 Z  -1.500
F400
G1 X 192.280 Y2039.300
G1 X 863.610 Y2039.300
G2 X1491.390 Y1779.260 I  33.721 J-806.394
G1 X1434.320 Y1722.190
G3 X 863.610 Y1958.580 I-570.702 J-570.711
G1 X 192.280 Y1958.580
F150
G1 Z  -3.000
F400
G1 X 192.280 Y2039.300
G1 X 863.610 Y2039.300
G2 X1491.390 Y1779.260 I  33.721 J-806.394
G1 X1434.320 Y1722.190
G3 X 863.610 Y1958.580 I-570.702 J-570.711
G1 X 192.280 Y1958.580
F150
G1 Z   3.000
G0 Z  15.000 
M9 M5

(* SHAPE Nr: 22 *)
G0 X 637.780 Y1722.890
M3 M8
G0 Z   3.000 
G1 Z  -1.500
F400
G2 X  10.000 Y1982.930 I -33.721 J 806.394
G1 X  67.070 Y2040.000
G3 X 637.780 Y1803.610 I 570.702 J 570.711
G1 X1309.110 Y1803.610
G1 X1309.110 Y1722.890
G1 X 637.780 Y1722.890
F150
G1 Z  -3.000
F400
G2 X  10.000 Y1982.930 I -33.721 J 806.394
G1 X  67.070 Y2040.000
G3 X 637.780 Y1803.610 I 570.702 J 570.711
G1 X1309.110 Y1803.610
G1 X1309.110 Y1722.890
G1 X 637.780 Y1722.890
F150
G1 Z   3.000
G0 Z  15.000 
M9 M5

(* SHAPE Nr: 35 *)
G0 X1601.950 Y 568.680
M3 M8
G0 Z   3.000 
G1 Z  -1.500
F400
G3 X1838.340 Y1139.390 I-570.711 J 570.702
G1 X1838.340 Y1810.720
G1 X1919.060 Y1810.720
G1 X1919.060 Y1139.390
G2 X1659.020 Y 511.610 I-806.394 J -33.721
G1 X1601.950 Y 568.680
F150
G1 Z  -3.000
F400
G3 X1838.340 Y1139.390 I-570.711 J 570.702
G1 X1838.340 Y1810.720
G1 X1919.060 Y1810.720
G1 X1919.060 Y1139.390
G2 X1659.020 Y 511.610 I-806.394 J -33.721
G1 X1601.950 Y 568.680
F150
G1 Z   3.000
G0 Z  15.000 
M9 M5

(* SHAPE Nr: 36 *)
G0 X1505.250 Y 615.680
M3 M8
G0 Z   3.000 
G1 Z  -1.500
F400
G3 X1741.640 Y1186.390 I-570.711 J 570.702
G1 X1741.640 Y1857.720
G1 X1822.360 Y1857.720
G1 X1822.360 Y1186.390
G2 X1562.320 Y 558.610 I-806.394 J -33.721
G1 X1505.250 Y 615.680
F150
G1 Z  -3.000
F400
G3 X1741.640 Y1186.390 I-570.711 J 570.702
G1 X1741.640 Y1857.720
G1 X1822.360 Y1857.720
G1 X1822.360 Y1186.390
G2 X1562.320 Y 558.610 I-806.394 J -33.721
G1 X1505.250 Y 615.680
F150
G1 Z   3.000
G0 Z  15.000 
M9 M5

(* SHAPE Nr: 37 *)
G0 X 637.780 Y1390.430
M3 M8
G0 Z   3.000 
G1 Z  -1.500
F400
G2 X  10.000 Y1650.470 I -33.721 J 806.394
G1 X  67.070 Y1707.540
G3 X 637.780 Y1471.150 I 570.702 J 570.711
G1 X1309.110 Y1471.150
G1 X1309.110 Y1390.430
G1 X 637.780 Y1390.430
F150
G1 Z  -3.000
F400
G2 X  10.000 Y1650.470 I -33.721 J 806.394
G1 X  67.070 Y1707.540
G3 X 637.780 Y1471.150 I 570.702 J 570.711
G1 X1309.110 Y1471.150
G1 X1309.110 Y1390.430
G1 X 637.780 Y1390.430
F150
G1 Z   3.000
G0 Z  15.000 
M9 M5

(* SHAPE Nr: 38 *)
G0 X 637.780 Y1257.220
M3 M8
G0 Z   3.000 
G1 Z  -1.500
F400
G2 X  10.000 Y1517.260 I -33.721 J 806.394
G1 X  67.070 Y1574.330
G3 X 637.780 Y1337.940 I 570.702 J 570.711
G1 X1309.110 Y1337.940
G1 X1309.110 Y1257.220
G1 X 637.780 Y1257.220
F150
G1 Z  -3.000
F400
G2 X  10.000 Y1517.260 I -33.721 J 806.394
G1 X  67.070 Y1574.330
G3 X 637.780 Y1337.940 I 570.702 J 570.711
G1 X1309.110 Y1337.940
G1 X1309.110 Y1257.220
G1 X 637.780 Y1257.220
F150
G1 Z   3.000
G0 Z  15.000 
M9 M5

(* SHAPE Nr: 39 *)
G0 X 637.780 Y1124.020
M3 M8
G0 Z   3.000 
G1 Z  -1.500
F400
G2 X  10.000 Y1384.060 I -33.721 J 806.394
G1 X  67.070 Y1441.130
G3 X 637.780 Y1204.740 I 570.702 J 570.711
G1 X1309.110 Y1204.740
G1 X1309.110 Y1124.020
G1 X 637.780 Y1124.020
F150
G1 Z  -3.000
F400
G2 X  10.000 Y1384.060 I -33.721 J 806.394
G1 X  67.070 Y1441.130
G3 X 637.780 Y1204.740 I 570.702 J 570.711
G1 X1309.110 Y1204.740
G1 X1309.110 Y1124.020
G1 X 637.780 Y1124.020
F150
G1 Z   3.000
G0 Z  15.000 
M9 M5

(* SHAPE Nr: 40 *)
G0 X 637.780 Y 790.810
M3 M8
G0 Z   3.000 
G1 Z  -1.500
F400
G2 X  10.000 Y1050.850 I -33.721 J 806.394
G1 X  67.070 Y1107.920
G3 X 637.780 Y 871.530 I 570.702 J 570.711
G1 X1309.110 Y 871.530
G1 X1309.110 Y 790.810
G1 X 637.780 Y 790.810
F150
G1 Z  -3.000
F400
G2 X  10.000 Y1050.850 I -33.721 J 806.394
G1 X  67.070 Y1107.920
G3 X 637.780 Y 871.530 I 570.702 J 570.711
G1 X1309.110 Y 871.530
G1 X1309.110 Y 790.810
G1 X 637.780 Y 790.810
F150
G1 Z   3.000
G0 Z  15.000 
M9 M5

(* SHAPE Nr: 41 *)
G0 X1505.950 Y 740.890
M3 M8
G0 Z   3.000 
G1 Z  -1.500
F400
G1 X1505.950 Y1412.220
G2 X1765.990 Y2040.000 I 806.394 J  33.721
G1 X1823.060 Y1982.930
G3 X1586.670 Y1412.220 I 570.711 J-570.702
G1 X1586.670 Y 740.890
G1 X1505.950 Y 740.890
F150
G1 Z  -3.000
F400
G1 X1505.950 Y1412.220
G2 X1765.990 Y2040.000 I 806.394 J  33.721
G1 X1823.060 Y1982.930
G3 X1586.670 Y1412.220 I 570.711 J-570.702
G1 X1586.670 Y 740.890
G1 X1505.950 Y 740.890
F150
G1 Z   3.000
G0 Z  15.000 
M9 M5

(*** LAYER: BORDER_D0_T132_RK1_A0_W0_EM1_RI1_ID0011 ***)

(* SHAPE Nr: 7 *)
G0 X1456.280 Y 432.610
M3 M8
G0 Z   3.000 
G1 Z  -1.500
F400
G1 X1505.150 Y 460.830
G1 X1505.150 Y 517.260
G1 X1554.020 Y 489.050
G1 X1602.890 Y 517.260
G1 X1602.890 Y 460.830
G1 X1651.760 Y 432.610
G1 X1602.890 Y 404.400
G1 X1602.890 Y 347.970
G1 X1554.020 Y 376.190
G1 X1505.150 Y 347.970
G1 X1505.150 Y 404.400
G1 X1456.280 Y 432.610
F150
G1 Z  -3.000
F400
G1 X1505.150 Y 460.830
G1 X1505.150 Y 517.260
G1 X1554.020 Y 489.050
G1 X1602.890 Y 517.260
G1 X1602.890 Y 460.830
G1 X1651.760 Y 432.610
G1 X1602.890 Y 404.400
G1 X1602.890 Y 347.970
G1 X1554.020 Y 376.190
G1 X1505.150 Y 347.970
G1 X1505.150 Y 404.400
G1 X1456.280 Y 432.610
F150
G1 Z   3.000
G0 Z  15.000 
M9 M5

(* SHAPE Nr: 23 *)
G0 X1417.600 Y1870.710
M3 M8
G0 Z   3.000 
G1 Z  -1.500
F400
G1 X1417.600 Y1927.140
G1 X1368.730 Y1955.350
G1 X1417.600 Y1983.570
G1 X1417.600 Y2040.000
G1 X1466.470 Y2011.790
G1 X1515.340 Y2040.000
G1 X1515.340 Y1983.570
G1 X1564.210 Y1955.350
G1 X1515.340 Y1927.140
G1 X1515.340 Y1870.710
G1 X1466.470 Y1898.930
G1 X1417.600 Y1870.710
F150
G1 Z  -3.000
F400
G1 X1417.600 Y1927.140
G1 X1368.730 Y1955.350
G1 X1417.600 Y1983.570
G1 X1417.600 Y2040.000
G1 X1466.470 Y2011.790
G1 X1515.340 Y2040.000
G1 X1515.340 Y1983.570
G1 X1564.210 Y1955.350
G1 X1515.340 Y1927.140
G1 X1515.340 Y1870.710
G1 X1466.470 Y1898.930
G1 X1417.600 Y1870.710
F150
G1 Z   3.000
G0 Z  15.000 
M9 M5

(* SHAPE Nr: 30 *)
G0 X2175.680 Y1716.120
M3 M8
G0 Z   3.000 
G1 Z  -1.500
F400
G1 X2203.900 Y1764.990
G1 X2175.680 Y1813.860
G1 X2232.110 Y1813.860
G1 X2260.320 Y1862.730
G1 X2288.540 Y1813.860
G1 X2344.960 Y1813.860
G1 X2316.760 Y1764.990
G1 X2344.960 Y1716.120
G1 X2288.540 Y1716.120
G1 X2260.320 Y1667.250
G1 X2232.110 Y1716.120
G1 X2175.680 Y1716.120
F150
G1 Z  -3.000
F400
G1 X2203.900 Y1764.990
G1 X2175.680 Y1813.860
G1 X2232.110 Y1813.860
G1 X2260.320 Y1862.730
G1 X2288.540 Y1813.860
G1 X2344.960 Y1813.860
G1 X2316.760 Y1764.990
G1 X2344.960 Y1716.120
G1 X2288.540 Y1716.120
G1 X2260.320 Y1667.250
G1 X2232.110 Y1716.120
G1 X2175.680 Y1716.120
F150
G1 Z   3.000
G0 Z  15.000 
M9 M5

(*** LAYER: BORDER_D0_T132_RK1_A0_W0_EM1_RI1_ID0001 ***)

(* SHAPE Nr: 8 *)
G0 X1631.030 Y 338.810
M3 M8
G0 Z   3.000 
G1 Z  -1.500
F400
G1 X1678.190 Y 369.020
G1 X1631.030 Y 399.210
G1 X1686.930 Y 395.940
G1 X1666.540 Y 448.080
G1 X1709.830 Y 412.570
G1 X1723.990 Y 466.760
G1 X1738.140 Y 412.570
G1 X1781.440 Y 448.080
G1 X1761.040 Y 395.940
G1 X1816.940 Y 399.210
G1 X1769.790 Y 369.020
G1 X1816.940 Y 338.810
G1 X1761.040 Y 342.090
G1 X1781.440 Y 289.950
G1 X1738.140 Y 325.450
G1 X1723.990 Y 271.280
G1 X1709.830 Y 325.450
G1 X1666.540 Y 289.950
G1 X1686.930 Y 342.090
G1 X1631.030 Y 338.810
F150
G1 Z  -3.000
F400
G1 X1678.190 Y 369.020
G1 X1631.030 Y 399.210
G1 X1686.930 Y 395.940
G1 X1666.540 Y 448.080
G1 X1709.830 Y 412.570
G1 X1723.990 Y 466.760
G1 X1738.140 Y 412.570
G1 X1781.440 Y 448.080
G1 X1761.040 Y 395.940
G1 X1816.940 Y 399.210
G1 X1769.790 Y 369.020
G1 X1816.940 Y 338.810
G1 X1761.040 Y 342.090
G1 X1781.440 Y 289.950
G1 X1738.140 Y 325.450
G1 X1723.990 Y 271.280
G1 X1709.830 Y 325.450
G1 X1666.540 Y 289.950
G1 X1686.930 Y 342.090
G1 X1631.030 Y 338.810
F150
G1 Z   3.000
G0 Z  15.000 
M9 M5

(* SHAPE Nr: 25 *)
G0 X2579.470 Y1384.460
M3 M8
G0 Z   3.000 
G1 Z  -1.500
F400
G1 X2614.980 Y1427.750
G1 X2560.800 Y1441.910
G1 X2614.980 Y1456.060
G1 X2579.470 Y1499.360
G1 X2631.620 Y1478.960
G1 X2628.340 Y1534.860
G1 X2658.540 Y1487.710
G1 X2688.740 Y1534.860
G1 X2685.460 Y1478.960
G1 X2737.610 Y1499.360
G1 X2702.100 Y1456.060
G1 X2756.280 Y1441.910
G1 X2702.100 Y1427.750
G1 X2737.610 Y1384.460
G1 X2685.460 Y1404.850
G1 X2688.740 Y1348.950
G1 X2658.540 Y1396.110
G1 X2628.340 Y1348.950
G1 X2631.620 Y1404.850
G1 X2579.470 Y1384.460
F150
G1 Z  -3.000
F400
G1 X2614.980 Y1427.750
G1 X2560.800 Y1441.910
G1 X2614.980 Y1456.060
G1 X2579.470 Y1499.360
G1 X2631.620 Y1478.960
G1 X2628.340 Y1534.860
G1 X2658.540 Y1487.710
G1 X2688.740 Y1534.860
G1 X2685.460 Y1478.960
G1 X2737.610 Y1499.360
G1 X2702.100 Y1456.060
G1 X2756.280 Y1441.910
G1 X2702.100 Y1427.750
G1 X2737.610 Y1384.460
G1 X2685.460 Y1404.850
G1 X2688.740 Y1348.950
G1 X2658.540 Y1396.110
G1 X2628.340 Y1348.950
G1 X2631.620 Y1404.850
G1 X2579.470 Y1384.460
F150
G1 Z   3.000
G0 Z  15.000 
M9 M5

(*** LAYER: BORDER_D0_T132_RK1_A0_W0_EM1_RI1_ID0018 ***)

(* SHAPE Nr: 43 *)
G0 X1836.510 Y1908.830
M3 M8
G0 Z   3.000 
G1 Z  -1.500
F400
G2 X1825.420 Y1925.290 I  44.717 J  42.094
G2 X1821.680 Y1942.260 I  37.486 J  17.159
G2 X1825.420 Y1959.230 I  41.227 J  -0.189
G2 X1836.510 Y1975.690 I  55.807 J -25.634
G2 X1854.630 Y1991.130 I  77.345 J -72.418
G2 X1879.220 Y2005.090 I  99.664 J-146.917
G2 X1909.530 Y2017.130 I 115.619 J-246.893
G2 X1944.650 Y2026.900 I 119.400 J-361.196
G2 X1983.500 Y2034.110 I 107.781 J-472.487
G2 X2024.910 Y2038.510 I  80.598 J-561.472
G2 X2067.620 Y2040.000 I  42.711 J-611.416
G2 X2110.330 Y2038.510 I  -0.001 J-612.906
G2 X2151.740 Y2034.110 I -39.188 J-565.872
G2 X2190.590 Y2026.900 I -68.931 J-479.697
G2 X2225.710 Y2017.130 I -84.280 J-370.966
G2 X2256.020 Y2005.090 I -85.309 J-258.933
G2 X2280.610 Y1991.130 I -75.072 J-160.873
G2 X2298.730 Y1975.690 I -59.225 J -87.858
G2 X2309.820 Y1959.230 I -44.717 J -42.094
G2 X2313.560 Y1942.260 I -37.487 J -17.159
G2 X2309.820 Y1925.290 I -41.227 J   0.189
G2 X2298.730 Y1908.830 I -55.807 J  25.634
G2 X2280.610 Y1893.390 I -77.345 J  72.418
G2 X2256.020 Y1879.430 I -99.664 J 146.917
G2 X2225.710 Y1867.390 I-115.619 J 246.893
G2 X2190.590 Y1857.620 I-119.400 J 361.196
G2 X2151.740 Y1850.410 I-107.781 J 472.487
G2 X2110.330 Y1846.010 I -80.598 J 561.472
G2 X2067.620 Y1844.520 I -42.711 J 611.416
G2 X2024.910 Y1846.010 I   0.001 J 612.906
G2 X1983.500 Y1850.410 I  39.188 J 565.872
G2 X1944.650 Y1857.620 I  68.931 J 479.697
G2 X1909.530 Y1867.390 I  84.280 J 370.966
G2 X1879.220 Y1879.430 I  85.309 J 258.933
G2 X1854.630 Y1893.390 I  75.074 J 160.877
G2 X1836.510 Y1908.830 I  59.224 J  87.857
F150
G1 Z  -3.000
F400
G2 X1825.420 Y1925.290 I  44.717 J  42.094
G2 X1821.680 Y1942.260 I  37.486 J  17.159
G2 X1825.420 Y1959.230 I  41.227 J  -0.189
G2 X1836.510 Y1975.690 I  55.807 J -25.634
G2 X1854.630 Y1991.130 I  77.345 J -72.418
G2 X1879.220 Y2005.090 I  99.664 J-146.917
G2 X1909.530 Y2017.130 I 115.619 J-246.893
G2 X1944.650 Y2026.900 I 119.400 J-361.196
G2 X1983.500 Y2034.110 I 107.781 J-472.487
G2 X2024.910 Y2038.510 I  80.598 J-561.472
G2 X2067.620 Y2040.000 I  42.711 J-611.416
G2 X2110.330 Y2038.510 I  -0.001 J-612.906
G2 X2151.740 Y2034.110 I -39.188 J-565.872
G2 X2190.590 Y2026.900 I -68.931 J-479.697
G2 X2225.710 Y2017.130 I -84.280 J-370.966
G2 X2256.020 Y2005.090 I -85.309 J-258.933
G2 X2280.610 Y1991.130 I -75.072 J-160.873
G2 X2298.730 Y1975.690 I -59.225 J -87.858
G2 X2309.820 Y1959.230 I -44.717 J -42.094
G2 X2313.560 Y1942.260 I -37.487 J -17.159
G2 X2309.820 Y1925.290 I -41.227 J   0.189
G2 X2298.730 Y1908.830 I -55.807 J  25.634
G2 X2280.610 Y1893.390 I -77.345 J  72.418
G2 X2256.020 Y1879.430 I -99.664 J 146.917
G2 X2225.710 Y1867.390 I-115.619 J 246.893
G2 X2190.590 Y1857.620 I-119.400 J 361.196
G2 X2151.740 Y1850.410 I-107.781 J 472.487
G2 X2110.330 Y1846.010 I -80.598 J 561.472
G2 X2067.620 Y1844.520 I -42.711 J 611.416
G2 X2024.910 Y1846.010 I   0.001 J 612.906
G2 X1983.500 Y1850.410 I  39.188 J 565.872
G2 X1944.650 Y1857.620 I  68.931 J 479.697
G2 X1909.530 Y1867.390 I  84.280 J 370.966
G2 X1879.220 Y1879.430 I  85.309 J 258.933
G2 X1854.630 Y1893.390 I  75.074 J 160.877
G2 X1836.510 Y1908.830 I  59.224 J  87.857
F150
G1 Z   3.000
G0 Z  15.000 
M9 M5

(* SHAPE Nr: 44 *)
G0 X2453.600 Y1581.070
M3 M8
G0 Z   3.000 
G1 Z  -1.500
F400
G2 X2439.640 Y1605.660 I 146.913 J  99.662
G2 X2427.600 Y1635.970 I 246.893 J 115.619
G2 X2417.830 Y1671.090 I 361.196 J 119.400
G2 X2410.620 Y1709.940 I 472.487 J 107.781
G2 X2406.220 Y1751.350 I 561.472 J  80.598
G2 X2404.730 Y1794.060 I 611.416 J  42.711
G2 X2406.220 Y1836.770 I 612.941 J  -0.002
G2 X2410.620 Y1878.180 I 565.872 J -39.188
G2 X2417.830 Y1917.030 I 479.697 J -68.931
G2 X2427.600 Y1952.150 I 370.966 J -84.280
G2 X2439.640 Y1982.460 I 258.933 J -85.309
G2 X2453.600 Y2007.050 I 160.873 J -75.072
G2 X2469.040 Y2025.170 I  87.858 J -59.225
G2 X2485.500 Y2036.260 I  42.094 J -44.717
G2 X2502.470 Y2040.000 I  17.159 J -37.487
G2 X2519.440 Y2036.260 I  -0.189 J -41.227
G2 X2535.900 Y2025.170 I -25.634 J -55.807
G2 X2551.340 Y2007.050 I -72.417 J -77.344
G2 X2565.300 Y1982.460 I-146.917 J -99.664
G2 X2577.340 Y1952.150 I-246.893 J-115.619
G2 X2587.110 Y1917.030 I-361.196 J-119.400
G2 X2594.320 Y1878.180 I-472.487 J-107.781
G2 X2598.720 Y1836.770 I-561.472 J -80.598
G2 X2600.210 Y1794.060 I-611.416 J -42.711
G2 X2598.720 Y1751.350 I-612.906 J   0.001
G2 X2594.320 Y1709.940 I-565.872 J  39.188
G2 X2587.110 Y1671.090 I-479.697 J  68.931
G2 X2577.340 Y1635.970 I-370.966 J  84.280
G2 X2565.300 Y1605.660 I-258.933 J  85.309
G2 X2551.340 Y1581.070 I-160.877 J  75.074
G2 X2535.900 Y1562.950 I -87.857 J  59.224
G2 X2519.440 Y1551.860 I -42.094 J  44.717
G2 X2502.470 Y1548.120 I -17.159 J  37.487
G2 X2485.500 Y1551.860 I   0.189 J  41.227
G2 X2469.040 Y1562.950 I  25.634 J  55.807
G2 X2453.600 Y1581.070 I  72.418 J  77.345
F150
G1 Z  -3.000
F400
G2 X2439.640 Y1605.660 I 146.913 J  99.662
G2 X2427.600 Y1635.970 I 246.893 J 115.619
G2 X2417.830 Y1671.090 I 361.196 J 119.400
G2 X2410.620 Y1709.940 I 472.487 J 107.781
G2 X2406.220 Y1751.350 I 561.472 J  80.598
G2 X2404.730 Y1794.060 I 611.416 J  42.711
G2 X2406.220 Y1836.770 I 612.941 J  -0.002
G2 X2410.620 Y1878.180 I 565.872 J -39.188
G2 X2417.830 Y1917.030 I 479.697 J -68.931
G2 X2427.600 Y1952.150 I 370.966 J -84.280
G2 X2439.640 Y1982.460 I 258.933 J -85.309
G2 X2453.600 Y2007.050 I 160.873 J -75.072
G2 X2469.040 Y2025.170 I  87.858 J -59.225
G2 X2485.500 Y2036.260 I  42.094 J -44.717
G2 X2502.470 Y2040.000 I  17.159 J -37.487
G2 X2519.440 Y2036.260 I  -0.189 J -41.227
G2 X2535.900 Y2025.170 I -25.634 J -55.807
G2 X2551.340 Y2007.050 I -72.417 J -77.344
G2 X2565.300 Y1982.460 I-146.917 J -99.664
G2 X2577.340 Y1952.150 I-246.893 J-115.619
G2 X2587.110 Y1917.030 I-361.196 J-119.400
G2 X2594.320 Y1878.180 I-472.487 J-107.781
G2 X2598.720 Y1836.770 I-561.472 J -80.598
G2 X2600.210 Y1794.060 I-611.416 J -42.711
G2 X2598.720 Y1751.350 I-612.906 J   0.001
G2 X2594.320 Y1709.940 I-565.872 J  39.188
G2 X2587.110 Y1671.090 I-479.697 J  68.931
G2 X2577.340 Y1635.970 I-370.966 J  84.280
G2 X2565.300 Y1605.660 I-258.933 J  85.309
G2 X2551.340 Y1581.070 I-160.877 J  75.074
G2 X2535.900 Y1562.950 I -87.857 J  59.224
G2 X2519.440 Y1551.860 I -42.094 J  44.717
G2 X2502.470 Y1548.120 I -17.159 J  37.487
G2 X2485.500 Y1551.860 I   0.189 J  41.227
G2 X2469.040 Y1562.950 I  25.634 J  55.807
G2 X2453.600 Y1581.070 I  72.418 J  77.345
F150
G1 Z   3.000
G0 Z  15.000 
M9 M5

(*** LAYER: BORDER_D0_T132_RK1_A0_W0_EM1_RI1_ID0020 ***)

(* SHAPE Nr: 45 *)
G0 X2614.930 Y1548.120
M3 M8
G0 Z   3.000 
G1 Z  -1.500
F400
G1 X2614.930 Y1794.060
G1 X2614.930 Y2040.000
G2 X2631.900 Y2036.260 I  -0.189 J -41.227
G2 X2648.360 Y2025.170 I -25.634 J -55.807
G2 X2663.800 Y2007.050 I -72.417 J -77.344
G2 X2677.760 Y1982.460 I-146.917 J -99.664
G2 X2689.800 Y1952.150 I-246.893 J-115.619
G2 X2699.570 Y1917.030 I-361.196 J-119.400
G2 X2706.780 Y1878.180 I-472.487 J-107.781
G2 X2711.180 Y1836.770 I-561.472 J -80.598
G2 X2712.670 Y1794.060 I-611.416 J -42.711
G2 X2711.180 Y1751.350 I-612.906 J   0.001
G2 X2706.780 Y1709.940 I-565.872 J  39.188
G2 X2699.570 Y1671.090 I-479.697 J  68.931
G2 X2689.800 Y1635.970 I-370.966 J  84.280
G2 X2677.760 Y1605.660 I-258.933 J  85.309
G2 X2663.800 Y1581.070 I-160.877 J  75.074
G2 X2648.360 Y1562.950 I -87.857 J  59.224
G2 X2631.900 Y1551.860 I -42.094 J  44.717
G2 X2614.930 Y1548.120 I -17.159 J  37.487
F150
G1 Z  -3.000
F400
G1 X2614.930 Y1794.060
G1 X2614.930 Y2040.000
G2 X2631.900 Y2036.260 I  -0.189 J -41.227
G2 X2648.360 Y2025.170 I -25.634 J -55.807
G2 X2663.800 Y2007.050 I -72.417 J -77.344
G2 X2677.760 Y1982.460 I-146.917 J -99.664
G2 X2689.800 Y1952.150 I-246.893 J-115.619
G2 X2699.570 Y1917.030 I-361.196 J-119.400
G2 X2706.780 Y1878.180 I-472.487 J-107.781
G2 X2711.180 Y1836.770 I-561.472 J -80.598
G2 X2712.670 Y1794.060 I-611.416 J -42.711
G2 X2711.180 Y1751.350 I-612.906 J   0.001
G2 X2706.780 Y1709.940 I-565.872 J  39.188
G2 X2699.570 Y1671.090 I-479.697 J  68.931
G2 X2689.800 Y1635.970 I-370.966 J  84.280
G2 X2677.760 Y1605.660 I-258.933 J  85.309
G2 X2663.800 Y1581.070 I-160.877 J  75.074
G2 X2648.360 Y1562.950 I -87.857 J  59.224
G2 X2631.900 Y1551.860 I -42.094 J  44.717
G2 X2614.930 Y1548.120 I -17.159 J  37.487
F150
G1 Z   3.000
G0 Z  15.000 
M9 M5

(* SHAPE Nr: 46 *)
G0 X 438.380 Y 582.160
M3 M8
G0 Z   3.000 
G1 Z  -1.500
F400
G2 X 442.120 Y 599.130 I  41.227 J  -0.189
G2 X 453.210 Y 615.590 I  55.807 J -25.634
G2 X 471.330 Y 631.030 I  77.344 J -72.417
G2 X 495.920 Y 644.990 I  99.664 J-146.917
G2 X 526.230 Y 657.030 I 115.619 J-246.893
G2 X 561.350 Y 666.800 I 119.400 J-361.196
G2 X 600.200 Y 674.010 I 107.781 J-472.487
G2 X 641.610 Y 678.410 I  80.598 J-561.472
G2 X 684.320 Y 679.900 I  42.711 J-611.416
G2 X 727.030 Y 678.410 I  -0.001 J-612.906
G2 X 768.440 Y 674.010 I -39.188 J-565.872
G2 X 807.290 Y 666.800 I -68.931 J-479.697
G2 X 842.410 Y 657.030 I -84.280 J-370.966
G2 X 872.720 Y 644.990 I -85.309 J-258.933
G2 X 897.310 Y 631.030 I -75.074 J-160.877
G2 X 915.430 Y 615.590 I -59.224 J -87.857
G2 X 926.520 Y 599.130 I -44.717 J -42.094
G2 X 930.260 Y 582.160 I -37.487 J -17.159
G1 X 684.320 Y 582.160
G1 X 438.380 Y 582.160
F150
G1 Z  -3.000
F400
G2 X 442.120 Y 599.130 I  41.227 J  -0.189
G2 X 453.210 Y 615.590 I  55.807 J -25.634
G2 X 471.330 Y 631.030 I  77.344 J -72.417
G2 X 495.920 Y 644.990 I  99.664 J-146.917
G2 X 526.230 Y 657.030 I 115.619 J-246.893
G2 X 561.350 Y 666.800 I 119.400 J-361.196
G2 X 600.200 Y 674.010 I 107.781 J-472.487
G2 X 641.610 Y 678.410 I  80.598 J-561.472
G2 X 684.320 Y 679.900 I  42.711 J-611.416
G2 X 727.030 Y 678.410 I  -0.001 J-612.906
G2 X 768.440 Y 674.010 I -39.188 J-565.872
G2 X 807.290 Y 666.800 I -68.931 J-479.697
G2 X 842.410 Y 657.030 I -84.280 J-370.966
G2 X 872.720 Y 644.990 I -85.309 J-258.933
G2 X 897.310 Y 631.030 I -75.074 J-160.877
G2 X 915.430 Y 615.590 I -59.224 J -87.857
G2 X 926.520 Y 599.130 I -44.717 J -42.094
G2 X 930.260 Y 582.160 I -37.487 J -17.159
G1 X 684.320 Y 582.160
G1 X 438.380 Y 582.160
F150
G1 Z   3.000
G0 Z  15.000 
M9 M5

(* SHAPE Nr: 47 *)
G0 X 398.120 Y1527.340
M3 M8
G0 Z   3.000 
G1 Z  -1.500
F400
G2 X 363.000 Y1537.110 I  84.280 J 370.966
G2 X 332.690 Y1549.150 I  85.309 J 258.933
G2 X 308.100 Y1563.110 I  75.074 J 160.877
G2 X 289.980 Y1578.550 I  59.225 J  87.858
G2 X 278.890 Y1595.010 I  44.717 J  42.094
G2 X 275.150 Y1611.980 I  37.487 J  17.159
G1 X 521.090 Y1611.980
G1 X 767.030 Y1611.980
G2 X 763.290 Y1595.010 I -41.227 J   0.189
G2 X 752.200 Y1578.550 I -55.807 J  25.634
G2 X 734.080 Y1563.110 I -77.345 J  72.418
G2 X 709.490 Y1549.150 I -99.664 J 146.917
G2 X 679.180 Y1537.110 I-115.619 J 246.893
G2 X 644.060 Y1527.340 I-119.400 J 361.196
G2 X 605.210 Y1520.130 I-107.781 J 472.487
G2 X 563.800 Y1515.730 I -80.598 J 561.472
G2 X 521.090 Y1514.240 I -42.711 J 611.416
G2 X 478.380 Y1515.730 I   0.001 J 612.906
G2 X 436.970 Y1520.130 I  39.188 J 565.872
G2 X 398.120 Y1527.340 I  68.931 J 479.697
F150
G1 Z  -3.000
F400
G2 X 363.000 Y1537.110 I  84.280 J 370.966
G2 X 332.690 Y1549.150 I  85.309 J 258.933
G2 X 308.100 Y1563.110 I  75.074 J 160.877
G2 X 289.980 Y1578.550 I  59.225 J  87.858
G2 X 278.890 Y1595.010 I  44.717 J  42.094
G2 X 275.150 Y1611.980 I  37.487 J  17.159
G1 X 521.090 Y1611.980
G1 X 767.030 Y1611.980
G2 X 763.290 Y1595.010 I -41.227 J   0.189
G2 X 752.200 Y1578.550 I -55.807 J  25.634
G2 X 734.080 Y1563.110 I -77.345 J  72.418
G2 X 709.490 Y1549.150 I -99.664 J 146.917
G2 X 679.180 Y1537.110 I-115.619 J 246.893
G2 X 644.060 Y1527.340 I-119.400 J 361.196
G2 X 605.210 Y1520.130 I-107.781 J 472.487
G2 X 563.800 Y1515.730 I -80.598 J 561.472
G2 X 521.090 Y1514.240 I -42.711 J 611.416
G2 X 478.380 Y1515.730 I   0.001 J 612.906
G2 X 436.970 Y1520.130 I  39.188 J 565.872
G2 X 398.120 Y1527.340 I  68.931 J 479.697
F150
G1 Z   3.000
G0 Z  15.000 
M9 M5

(* SHAPE Nr: 48 *)
G0 X 361.070 Y 938.280
M3 M8
G0 Z   3.000 
G1 Z  -1.500
F400
G2 X 330.760 Y 950.320 I  85.309 J 258.933
G2 X 306.170 Y 964.280 I  75.074 J 160.877
G2 X 288.050 Y 979.720 I  59.224 J  87.857
G2 X 276.960 Y 996.180 I  44.717 J  42.094
G2 X 273.220 Y1013.150 I  37.487 J  17.159
G1 X 519.160 Y1013.150
G1 X 765.100 Y1013.150
G2 X 761.360 Y 996.180 I -41.227 J   0.189
G2 X 750.270 Y 979.720 I -55.807 J  25.634
G2 X 732.150 Y 964.280 I -77.345 J  72.418
G2 X 707.560 Y 950.320 I -99.664 J 146.917
G2 X 677.250 Y 938.280 I-115.619 J 246.893
G2 X 642.130 Y 928.510 I-119.400 J 361.196
G2 X 603.280 Y 921.300 I-107.781 J 472.487
G2 X 561.870 Y 916.900 I -80.598 J 561.472
G2 X 519.160 Y 915.410 I -42.711 J 611.416
G2 X 476.450 Y 916.900 I   0.001 J 612.906
G2 X 435.040 Y 921.300 I  39.188 J 565.872
G2 X 396.190 Y 928.510 I  68.931 J 479.697
G2 X 361.070 Y 938.280 I  84.280 J 370.966
F150
G1 Z  -3.000
F400
G2 X 330.760 Y 950.320 I  85.309 J 258.933
G2 X 306.170 Y 964.280 I  75.074 J 160.877
G2 X 288.050 Y 979.720 I  59.224 J  87.857
G2 X 276.960 Y 996.180 I  44.717 J  42.094
G2 X 273.220 Y1013.150 I  37.487 J  17.159
G1 X 519.160 Y1013.150
G1 X 765.100 Y1013.150
G2 X 761.360 Y 996.180 I -41.227 J   0.189
G2 X 750.270 Y 979.720 I -55.807 J  25.634
G2 X 732.150 Y 964.280 I -77.345 J  72.418
G2 X 707.560 Y 950.320 I -99.664 J 146.917
G2 X 677.250 Y 938.280 I-115.619 J 246.893
G2 X 642.130 Y 928.510 I-119.400 J 361.196
G2 X 603.280 Y 921.300 I-107.781 J 472.487
G2 X 561.870 Y 916.900 I -80.598 J 561.472
G2 X 519.160 Y 915.410 I -42.711 J 611.416
G2 X 476.450 Y 916.900 I   0.001 J 612.906
G2 X 435.040 Y 921.300 I  39.188 J 565.872
G2 X 396.190 Y 928.510 I  68.931 J 479.697
G2 X 361.070 Y 938.280 I  84.280 J 370.966
F150
G1 Z   3.000
G0 Z  15.000 
M9 M5

(* SHAPE Nr: 49 *)
G0 X2559.840 Y 877.310
M3 M8
G0 Z   3.000 
G1 Z  -1.500
F400
G1 X2559.840 Y1123.250
G1 X2559.840 Y1369.190
G2 X2576.810 Y1365.450 I  -0.189 J -41.227
G2 X2593.270 Y1354.360 I -25.634 J -55.807
G2 X2608.710 Y1336.240 I -72.417 J -77.344
G2 X2622.670 Y1311.650 I-146.917 J -99.664
G2 X2634.710 Y1281.340 I-246.893 J-115.619
G2 X2644.480 Y1246.220 I-361.196 J-119.400
G2 X2651.690 Y1207.370 I-472.487 J-107.781
G2 X2656.090 Y1165.960 I-561.472 J -80.598
G2 X2657.580 Y1123.250 I-611.416 J -42.711
G2 X2656.090 Y1080.540 I-612.906 J   0.001
G2 X2651.690 Y1039.130 I-565.872 J  39.188
G2 X2644.480 Y1000.280 I-479.697 J  68.931
G2 X2634.710 Y 965.160 I-370.966 J  84.280
G2 X2622.670 Y 934.850 I-258.933 J  85.309
G2 X2608.710 Y 910.260 I-160.877 J  75.074
G2 X2593.270 Y 892.140 I -87.857 J  59.224
G2 X2576.810 Y 881.050 I -42.094 J  44.717
G2 X2559.840 Y 877.310 I -17.159 J  37.487
F150
G1 Z  -3.000
F400
G1 X2559.840 Y1123.250
G1 X2559.840 Y1369.190
G2 X2576.810 Y1365.450 I  -0.189 J -41.227
G2 X2593.270 Y1354.360 I -25.634 J -55.807
G2 X2608.710 Y1336.240 I -72.417 J -77.344
G2 X2622.670 Y1311.650 I-146.917 J -99.664
G2 X2634.710 Y1281.340 I-246.893 J-115.619
G2 X2644.480 Y1246.220 I-361.196 J-119.400
G2 X2651.690 Y1207.370 I-472.487 J-107.781
G2 X2656.090 Y1165.960 I-561.472 J -80.598
G2 X2657.580 Y1123.250 I-611.416 J -42.711
G2 X2656.090 Y1080.540 I-612.906 J   0.001
G2 X2651.690 Y1039.130 I-565.872 J  39.188
G2 X2644.480 Y1000.280 I-479.697 J  68.931
G2 X2634.710 Y 965.160 I-370.966 J  84.280
G2 X2622.670 Y 934.850 I-258.933 J  85.309
G2 X2608.710 Y 910.260 I-160.877 J  75.074
G2 X2593.270 Y 892.140 I -87.857 J  59.224
G2 X2576.810 Y 881.050 I -42.094 J  44.717
G2 X2559.840 Y 877.310 I -17.159 J  37.487
F150
G1 Z   3.000
G0 Z  15.000 
M9 M5

(* SHAPE Nr: 50 *)
G0 X2570.370 Y 492.600
M3 M8
G0 Z   3.000 
G1 Z  -1.500
F400
G2 X2563.160 Y 531.450 I 472.487 J 107.781
G2 X2558.760 Y 572.860 I 561.472 J  80.598
G2 X2557.270 Y 615.570 I 611.416 J  42.711
G2 X2558.760 Y 658.280 I 612.906 J  -0.001
G2 X2563.160 Y 699.690 I 565.872 J -39.188
G2 X2570.370 Y 738.540 I 479.697 J -68.931
G2 X2580.140 Y 773.660 I 370.966 J -84.280
G2 X2592.180 Y 803.970 I 258.933 J -85.309
G2 X2606.140 Y 828.560 I 160.873 J -75.072
G2 X2621.580 Y 846.680 I  87.858 J -59.225
G2 X2638.040 Y 857.770 I  42.094 J -44.717
G2 X2655.010 Y 861.510 I  17.159 J -37.487
G1 X2655.010 Y 615.570
G1 X2655.010 Y 369.630
G2 X2638.040 Y 373.370 I   0.189 J  41.227
G2 X2621.580 Y 384.460 I  25.634 J  55.807
G2 X2606.140 Y 402.580 I  72.418 J  77.345
G2 X2592.180 Y 427.170 I 146.913 J  99.662
G2 X2580.140 Y 457.480 I 246.893 J 115.619
G2 X2570.370 Y 492.600 I 361.196 J 119.400
F150
G1 Z  -3.000
F400
G2 X2563.160 Y 531.450 I 472.487 J 107.781
G2 X2558.760 Y 572.860 I 561.472 J  80.598
G2 X2557.270 Y 615.570 I 611.416 J  42.711
G2 X2558.760 Y 658.280 I 612.906 J  -0.001
G2 X2563.160 Y 699.690 I 565.872 J -39.188
G2 X2570.370 Y 738.540 I 479.697 J -68.931
G2 X2580.140 Y 773.660 I 370.966 J -84.280
G2 X2592.180 Y 803.970 I 258.933 J -85.309
G2 X2606.140 Y 828.560 I 160.873 J -75.072
G2 X2621.580 Y 846.680 I  87.858 J -59.225
G2 X2638.040 Y 857.770 I  42.094 J -44.717
G2 X2655.010 Y 861.510 I  17.159 J -37.487
G1 X2655.010 Y 615.570
G1 X2655.010 Y 369.630
G2 X2638.040 Y 373.370 I   0.189 J  41.227
G2 X2621.580 Y 384.460 I  25.634 J  55.807
G2 X2606.140 Y 402.580 I  72.418 J  77.345
G2 X2592.180 Y 427.170 I 146.913 J  99.662
G2 X2580.140 Y 457.480 I 246.893 J 115.619
G2 X2570.370 Y 492.600 I 361.196 J 119.400
F150
G1 Z   3.000
G0 Z  15.000 
M9 M5

(*** LAYER: BORDER_D0_T132.1_RK1_A0_W0_EM1 ***)

(* SHAPE Nr: 51 *)
G0 X1631.030 Y 338.810
M3 M8
G0 Z   3.000 
G1 Z  -1.500
F400
G1 X1678.190 Y 369.010
G1 X1631.030 Y 399.210
G1 X1686.930 Y 395.930
G1 X1666.540 Y 448.080
G1 X1709.830 Y 412.570
G1 X1723.980 Y 466.750
G1 X1738.140 Y 412.570
G1 X1781.440 Y 448.080
G1 X1761.040 Y 395.930
G1 X1816.940 Y 399.210
G1 X1769.780 Y 369.010
G1 X1816.940 Y 338.810
G1 X1761.040 Y 342.090
G1 X1781.440 Y 289.940
G1 X1738.140 Y 325.450
G1 X1723.980 Y 271.270
G1 X1709.830 Y 325.450
G1 X1666.540 Y 289.940
G1 X1686.930 Y 342.090
G1 X1631.030 Y 338.810
F150
G1 Z  -3.000
F400
G1 X1678.190 Y 369.010
G1 X1631.030 Y 399.210
G1 X1686.930 Y 395.930
G1 X1666.540 Y 448.080
G1 X1709.830 Y 412.570
G1 X1723.980 Y 466.750
G1 X1738.140 Y 412.570
G1 X1781.440 Y 448.080
G1 X1761.040 Y 395.930
G1 X1816.940 Y 399.210
G1 X1769.780 Y 369.010
G1 X1816.940 Y 338.810
G1 X1761.040 Y 342.090
G1 X1781.440 Y 289.940
G1 X1738.140 Y 325.450
G1 X1723.980 Y 271.270
G1 X1709.830 Y 325.450
G1 X1666.540 Y 289.940
G1 X1686.930 Y 342.090
G1 X1631.030 Y 338.810
F150
G1 Z   3.000
G0 Z  15.000 
M9 M5

(* SHAPE Nr: 52 *)
G0 X 504.790 Y 218.070
M3 M8
G0 Z   3.000 
G1 Z  -1.500
F400
G1 X 518.610 Y 231.890
G3 X 656.840 Y 174.640 I 138.222 J 138.234
G1 X 984.760 Y 174.640
G1 X 984.760 Y 155.090
G1 X 656.840 Y 155.090
G2 X 504.790 Y 218.070 I  -8.169 J 195.311
F150
G1 Z  -3.000
F400
G1 X 518.610 Y 231.890
G3 X 656.840 Y 174.640 I 138.222 J 138.234
G1 X 984.760 Y 174.640
G1 X 984.760 Y 155.090
G1 X 656.840 Y 155.090
G2 X 504.790 Y 218.070 I  -8.169 J 195.311
F150
G1 Z   3.000
G0 Z  15.000 
M9 M5

(* SHAPE Nr: 53 *)
G0 X 191.300 Y 694.690
M3 M8
G0 Z   3.000 
G1 Z  -1.500
F400
G1 X 191.300 Y 775.400
G1 X 862.630 Y 775.400
G2 X1490.410 Y 515.370 I  33.729 J-806.396
G1 X1433.340 Y 458.300
G3 X 862.630 Y 694.690 I-570.704 J-570.714
G1 X 191.300 Y 694.690
F150
G1 Z  -3.000
F400
G1 X 191.300 Y 775.400
G1 X 862.630 Y 775.400
G2 X1490.410 Y 515.370 I  33.729 J-806.396
G1 X1433.340 Y 458.300
G3 X 862.630 Y 694.690 I-570.704 J-570.714
G1 X 191.300 Y 694.690
F150
G1 Z   3.000
G0 Z  15.000 
M9 M5

(* SHAPE Nr: 54 *)
G0 X 191.300 Y1626.770
M3 M8
G0 Z   3.000 
G1 Z  -1.500
F400
G1 X 191.300 Y1707.480
G1 X 862.630 Y1707.480
G2 X1490.410 Y1447.450 I  33.729 J-806.396
G1 X1433.340 Y1390.380
G3 X 862.630 Y1626.770 I-570.704 J-570.714
G1 X 191.300 Y1626.770
F150
G1 Z  -3.000
F400
G1 X 191.300 Y1707.480
G1 X 862.630 Y1707.480
G2 X1490.410 Y1447.450 I  33.729 J-806.396
G1 X1433.340 Y1390.380
G3 X 862.630 Y1626.770 I-570.704 J-570.714
G1 X 191.300 Y1626.770
F150
G1 Z   3.000
G0 Z  15.000 
M9 M5

(* SHAPE Nr: 55 *)
G0 X 637.780 Y1257.230
M3 M8
G0 Z   3.000 
G1 Z  -1.500
F400
G2 X  10.000 Y1517.260 I -33.729 J 806.396
G1 X  67.070 Y1574.330
G3 X 637.780 Y1337.940 I 570.704 J 570.714
G1 X1309.110 Y1337.940
G1 X1309.110 Y1257.230
G1 X 637.780 Y1257.230
F150
G1 Z  -3.000
F400
G2 X  10.000 Y1517.260 I -33.729 J 806.396
G1 X  67.070 Y1574.330
G3 X 637.780 Y1337.940 I 570.704 J 570.714
G1 X1309.110 Y1337.940
G1 X1309.110 Y1257.230
G1 X 637.780 Y1257.230
F150
G1 Z   3.000
G0 Z  15.000 
M9 M5

(* SHAPE Nr: 56 *)
G0 X2453.600 Y1581.070
M3 M8
G0 Z   3.000 
G1 Z  -1.500
F400
G2 X2439.650 Y1605.660 I 146.934 J  99.608
G2 X2427.600 Y1635.970 I 246.838 J 115.683
G2 X2417.830 Y1671.090 I 361.226 J 119.408
G2 X2410.630 Y1709.940 I 472.468 J 107.654
G2 X2406.220 Y1751.350 I 561.467 J  80.734
G2 X2404.730 Y1794.060 I 611.486 J  42.714
G2 X2406.220 Y1836.770 I 612.976 J  -0.004
G2 X2410.630 Y1878.180 I 565.877 J -39.324
G2 X2417.830 Y1917.030 I 479.668 J -68.804
G2 X2427.600 Y1952.150 I 370.996 J -84.288
G2 X2439.650 Y1982.460 I 258.888 J -85.373
G2 X2453.600 Y2007.050 I 160.888 J -75.020
G2 X2469.040 Y2025.170 I  87.861 J -59.228
G2 X2485.500 Y2036.260 I  42.093 J -44.715
G2 X2502.470 Y2040.000 I  17.158 J -37.484
G2 X2519.440 Y2036.260 I  -0.188 J -41.224
G2 X2535.900 Y2025.170 I -25.633 J -55.805
G2 X2551.340 Y2007.050 I -72.419 J -77.347
G2 X2565.300 Y1982.460 I-146.933 J -99.673
G2 X2577.340 Y1952.150 I-246.843 J-115.599
G2 X2587.120 Y1917.030 I-361.221 J-119.512
G2 X2594.320 Y1878.180 I-472.468 J-107.654
G2 X2598.730 Y1836.770 I-561.467 J -80.734
G2 X2600.210 Y1794.060 I-611.491 J -42.570
G2 X2598.730 Y1751.350 I-612.971 J  -0.140
G2 X2594.320 Y1709.940 I-565.877 J  39.324
G2 X2587.120 Y1671.090 I-479.668 J  68.804
G2 X2577.340 Y1635.970 I-371.001 J  84.392
G2 X2565.300 Y1605.660 I-258.883 J  85.289
G2 X2551.340 Y1581.070 I-160.889 J  75.081
G2 X2535.900 Y1562.950 I -87.859 J  59.227
G2 X2519.440 Y1551.860 I -42.093 J  44.715
G2 X2502.470 Y1548.120 I -17.158 J  37.484
G2 X2485.500 Y1551.860 I   0.188 J  41.224
G2 X2469.040 Y1562.950 I  25.633 J  55.805
G2 X2453.600 Y1581.070 I  72.421 J  77.348
F150
G1 Z  -3.000
F400
G2 X2439.650 Y1605.660 I 146.934 J  99.608
G2 X2427.600 Y1635.970 I 246.838 J 115.683
G2 X2417.830 Y1671.090 I 361.226 J 119.408
G2 X2410.630 Y1709.940 I 472.468 J 107.654
G2 X2406.220 Y1751.350 I 561.467 J  80.734
G2 X2404.730 Y1794.060 I 611.486 J  42.714
G2 X2406.220 Y1836.770 I 612.976 J  -0.004
G2 X2410.630 Y1878.180 I 565.877 J -39.324
G2 X2417.830 Y1917.030 I 479.668 J -68.804
G2 X2427.600 Y1952.150 I 370.996 J -84.288
G2 X2439.650 Y1982.460 I 258.888 J -85.373
G2 X2453.600 Y2007.050 I 160.888 J -75.020
G2 X2469.040 Y2025.170 I  87.861 J -59.228
G2 X2485.500 Y2036.260 I  42.093 J -44.715
G2 X2502.470 Y2040.000 I  17.158 J -37.484
G2 X2519.440 Y2036.260 I  -0.188 J -41.224
G2 X2535.900 Y2025.170 I -25.633 J -55.805
G2 X2551.340 Y2007.050 I -72.419 J -77.347
G2 X2565.300 Y1982.460 I-146.933 J -99.673
G2 X2577.340 Y1952.150 I-246.843 J-115.599
G2 X2587.120 Y1917.030 I-361.221 J-119.512
G2 X2594.320 Y1878.180 I-472.468 J-107.654
G2 X2598.730 Y1836.770 I-561.467 J -80.734
G2 X2600.210 Y1794.060 I-611.491 J -42.570
G2 X2598.730 Y1751.350 I-612.971 J  -0.140
G2 X2594.320 Y1709.940 I-565.877 J  39.324
G2 X2587.120 Y1671.090 I-479.668 J  68.804
G2 X2577.340 Y1635.970 I-371.001 J  84.392
G2 X2565.300 Y1605.660 I-258.883 J  85.289
G2 X2551.340 Y1581.070 I-160.889 J  75.081
G2 X2535.900 Y1562.950 I -87.859 J  59.227
G2 X2519.440 Y1551.860 I -42.093 J  44.715
G2 X2502.470 Y1548.120 I -17.158 J  37.484
G2 X2485.500 Y1551.860 I   0.188 J  41.224
G2 X2469.040 Y1562.950 I  25.633 J  55.805
G2 X2453.600 Y1581.070 I  72.421 J  77.348
F150
G1 Z   3.000
G0 Z  15.000 
M9 M5

(* SHAPE Nr: 57 *)
G0 X 438.380 Y 582.160
M3 M8
G0 Z   3.000 
G1 Z  -1.500
F400
G2 X 442.110 Y 599.130 I  41.219 J  -0.165
G2 X 453.210 Y 615.590 I  55.810 J -25.663
G2 X 471.330 Y 631.030 I  77.348 J -72.421
G2 X 495.910 Y 644.980 I  99.605 J-146.875
G2 X 526.230 Y 657.030 I 115.688 J-246.921
G2 X 561.340 Y 666.800 I 119.403 J-361.122
G2 X 600.200 Y 674.000 I 107.659 J-472.591
G2 X 641.610 Y 678.410 I  80.734 J-561.467
G2 X 684.320 Y 679.900 I  42.714 J-611.486
G2 X 727.020 Y 678.410 I  -0.009 J-612.833
G2 X 768.430 Y 674.000 I -39.324 J-565.877
G2 X 807.280 Y 666.800 I -68.804 J-479.668
G2 X 842.400 Y 657.030 I -84.288 J-370.996
G2 X 872.720 Y 644.980 I -85.368 J-258.971
G2 X 897.300 Y 631.030 I -75.025 J-160.825
G2 X 915.420 Y 615.590 I -59.228 J -87.861
G2 X 926.520 Y 599.130 I -44.710 J -42.123
G2 X 930.260 Y 582.160 I -37.484 J -17.158
G1 X 438.380 Y 582.160
F150
G1 Z  -3.000
F400
G2 X 442.110 Y 599.130 I  41.219 J  -0.165
G2 X 453.210 Y 615.590 I  55.810 J -25.663
G2 X 471.330 Y 631.030 I  77.348 J -72.421
G2 X 495.910 Y 644.980 I  99.605 J-146.875
G2 X 526.230 Y 657.030 I 115.688 J-246.921
G2 X 561.340 Y 666.800 I 119.403 J-361.122
G2 X 600.200 Y 674.000 I 107.659 J-472.591
G2 X 641.610 Y 678.410 I  80.734 J-561.467
G2 X 684.320 Y 679.900 I  42.714 J-611.486
G2 X 727.020 Y 678.410 I  -0.009 J-612.833
G2 X 768.430 Y 674.000 I -39.324 J-565.877
G2 X 807.280 Y 666.800 I -68.804 J-479.668
G2 X 842.400 Y 657.030 I -84.288 J-370.996
G2 X 872.720 Y 644.980 I -85.368 J-258.971
G2 X 897.300 Y 631.030 I -75.025 J-160.825
G2 X 915.420 Y 615.590 I -59.228 J -87.861
G2 X 926.520 Y 599.130 I -44.710 J -42.123
G2 X 930.260 Y 582.160 I -37.484 J -17.158
G1 X 438.380 Y 582.160
F150
G1 Z   3.000
G0 Z  15.000 
M9 M5

(* SHAPE Nr: 58 *)
G0 X 361.070 Y 938.280
M3 M8
G0 Z   3.000 
G1 Z  -1.500
F400
G2 X 330.750 Y 950.330 I  85.368 J 258.971
G2 X 306.170 Y 964.280 I  75.025 J 160.825
G2 X 288.050 Y 979.730 I  59.271 J  87.864
G2 X 276.950 Y 996.180 I  44.679 J  42.118
G2 X 273.210 Y1013.160 I  37.507 J  17.163
G1 X 765.090 Y1013.160
G2 X 761.360 Y 996.180 I -41.242 J   0.160
G2 X 750.260 Y 979.730 I -55.779 J  25.668
G2 X 732.150 Y 964.280 I -77.387 J  72.372
G2 X 707.560 Y 950.330 I -99.610 J 146.938
G2 X 677.240 Y 938.280 I-115.688 J 246.921
G2 X 642.130 Y 928.510 I-119.403 J 361.122
G2 X 603.270 Y 921.310 I-107.659 J 472.591
G2 X 561.860 Y 916.900 I -80.734 J 561.467
G2 X 519.160 Y 915.410 I -42.709 J 611.343
G2 X 476.450 Y 916.900 I   0.004 J 612.976
G2 X 435.040 Y 921.310 I  39.324 J 565.877
G2 X 396.180 Y 928.510 I  68.799 J 479.791
G2 X 361.070 Y 938.280 I  84.293 J 370.892
F150
G1 Z  -3.000
F400
G2 X 330.750 Y 950.330 I  85.368 J 258.971
G2 X 306.170 Y 964.280 I  75.025 J 160.825
G2 X 288.050 Y 979.730 I  59.271 J  87.864
G2 X 276.950 Y 996.180 I  44.679 J  42.118
G2 X 273.210 Y1013.160 I  37.507 J  17.163
G1 X 765.090 Y1013.160
G2 X 761.360 Y 996.180 I -41.242 J   0.160
G2 X 750.260 Y 979.730 I -55.779 J  25.668
G2 X 732.150 Y 964.280 I -77.387 J  72.372
G2 X 707.560 Y 950.330 I -99.610 J 146.938
G2 X 677.240 Y 938.280 I-115.688 J 246.921
G2 X 642.130 Y 928.510 I-119.403 J 361.122
G2 X 603.270 Y 921.310 I-107.659 J 472.591
G2 X 561.860 Y 916.900 I -80.734 J 561.467
G2 X 519.160 Y 915.410 I -42.709 J 611.343
G2 X 476.450 Y 916.900 I   0.004 J 612.976
G2 X 435.040 Y 921.310 I  39.324 J 565.877
G2 X 396.180 Y 928.510 I  68.799 J 479.791
G2 X 361.070 Y 938.280 I  84.293 J 370.892
F150
G1 Z   3.000
G0 Z  15.000 
M9 M5

(* SHAPE Nr: 59 *)
G0 X2570.370 Y 492.600
M3 M8
G0 Z   3.000 
G1 Z  -1.500
F400
G2 X2563.170 Y 531.460 I 472.591 J 107.659
G2 X2558.760 Y 572.860 I 561.330 J  80.729
G2 X2557.270 Y 615.570 I 611.486 J  42.714
G2 X2558.760 Y 658.280 I 612.976 J  -0.004
G2 X2563.170 Y 699.690 I 565.877 J -39.324
G2 X2570.370 Y 738.540 I 479.668 J -68.804
G2 X2580.140 Y 773.660 I 370.996 J -84.288
G2 X2592.190 Y 803.970 I 258.896 J -85.376
G2 X2606.140 Y 828.560 I 160.888 J -75.020
G2 X2621.580 Y 846.680 I  87.861 J -59.228
G2 X2638.040 Y 857.780 I  42.123 J -44.710
G2 X2655.010 Y 861.510 I  17.135 J -37.489
G1 X2655.010 Y 369.630
G2 X2638.040 Y 373.370 I   0.188 J  41.224
G2 X2621.580 Y 384.460 I  25.633 J  55.805
G2 X2606.140 Y 402.580 I  72.421 J  77.348
G2 X2592.190 Y 427.170 I 146.938 J  99.610
G2 X2580.140 Y 457.480 I 246.838 J 115.683
G2 X2570.370 Y 492.600 I 361.226 J 119.408
F150
G1 Z  -3.000
F400
G2 X2563.170 Y 531.460 I 472.591 J 107.659
G2 X2558.760 Y 572.860 I 561.330 J  80.729
G2 X2557.270 Y 615.570 I 611.486 J  42.714
G2 X2558.760 Y 658.280 I 612.976 J  -0.004
G2 X2563.170 Y 699.690 I 565.877 J -39.324
G2 X2570.370 Y 738.540 I 479.668 J -68.804
G2 X2580.140 Y 773.660 I 370.996 J -84.288
G2 X2592.190 Y 803.970 I 258.896 J -85.376
G2 X2606.140 Y 828.560 I 160.888 J -75.020
G2 X2621.580 Y 846.680 I  87.861 J -59.228
G2 X2638.040 Y 857.780 I  42.123 J -44.710
G2 X2655.010 Y 861.510 I  17.135 J -37.489
G1 X2655.010 Y 369.630
G2 X2638.040 Y 373.370 I   0.188 J  41.224
G2 X2621.580 Y 384.460 I  25.633 J  55.805
G2 X2606.140 Y 402.580 I  72.421 J  77.348
G2 X2592.190 Y 427.170 I 146.938 J  99.610
G2 X2580.140 Y 457.480 I 246.838 J 115.683
G2 X2570.370 Y 492.600 I 361.226 J 119.408
F150
G1 Z   3.000
G0 Z  15.000 
M9 M5

(* SHAPE Nr: 60 *)
G0 X2559.840 Y 877.310
M3 M8
G0 Z   3.000 
G1 Z  -1.500
F400
G1 X2559.840 Y1369.190
G2 X2576.820 Y1365.460 I  -0.160 J -41.243
G2 X2593.270 Y1354.360 I -25.668 J -55.779
G2 X2608.710 Y1336.240 I -72.419 J -77.347
G2 X2622.670 Y1311.650 I-146.933 J -99.673
G2 X2634.720 Y1281.340 I-246.838 J-115.683
G2 X2644.490 Y1246.220 I-361.226 J-119.408
G2 X2651.690 Y1207.370 I-472.468 J-107.654
G2 X2656.100 Y1165.960 I-561.467 J -80.734
G2 X2657.580 Y1123.250 I-611.491 J -42.570
G2 X2656.100 Y1080.550 I-612.828 J  -0.135
G2 X2651.690 Y1039.140 I-565.877 J  39.324
G2 X2644.490 Y1000.280 I-479.791 J  68.799
G2 X2634.720 Y 965.160 I-370.996 J  84.288
G2 X2622.670 Y 934.850 I-258.888 J  85.373
G2 X2608.710 Y 910.260 I-160.893 J  75.083
G2 X2593.270 Y 892.140 I -87.859 J  59.227
G2 X2576.820 Y 881.050 I -42.088 J  44.684
G2 X2559.840 Y 877.310 I -17.163 J  37.507
F150
G1 Z  -3.000
F400
G1 X2559.840 Y1369.190
G2 X2576.820 Y1365.460 I  -0.160 J -41.243
G2 X2593.270 Y1354.360 I -25.668 J -55.779
G2 X2608.710 Y1336.240 I -72.419 J -77.347
G2 X2622.670 Y1311.650 I-146.933 J -99.673
G2 X2634.720 Y1281.340 I-246.838 J-115.683
G2 X2644.490 Y1246.220 I-361.226 J-119.408
G2 X2651.690 Y1207.370 I-472.468 J-107.654
G2 X2656.100 Y1165.960 I-561.467 J -80.734
G2 X2657.580 Y1123.250 I-611.491 J -42.570
G2 X2656.100 Y1080.550 I-612.828 J  -0.135
G2 X2651.690 Y1039.140 I-565.877 J  39.324
G2 X2644.490 Y1000.280 I-479.791 J  68.799
G2 X2634.720 Y 965.160 I-370.996 J  84.288
G2 X2622.670 Y 934.850 I-258.888 J  85.373
G2 X2608.710 Y 910.260 I-160.893 J  75.083
G2 X2593.270 Y 892.140 I -87.859 J  59.227
G2 X2576.820 Y 881.050 I -42.088 J  44.684
G2 X2559.840 Y 877.310 I -17.163 J  37.507
F150
G1 Z   3.000
G0 Z  15.000 
M9 M5

(* SHAPE Nr: 61 *)
G0 X 398.120 Y1527.330
M3 M8
G0 Z   3.000 
G1 Z  -1.500
F400
G2 X 363.010 Y1537.110 I  84.397 J 370.897
G2 X 332.690 Y1549.150 I  85.288 J 258.975
G2 X 308.100 Y1563.110 I  75.083 J 160.893
G2 X 289.990 Y1578.550 I  59.232 J  87.815
G2 X 278.890 Y1595.010 I  44.710 J  42.123
G2 X 275.150 Y1611.980 I  37.484 J  17.158
G1 X 767.030 Y1611.980
G2 X 763.300 Y1595.010 I -41.219 J   0.165
G2 X 752.200 Y1578.550 I -55.810 J  25.663
G2 X 734.080 Y1563.110 I -77.347 J  72.419
G2 X 709.490 Y1549.150 I -99.673 J 146.933
G2 X 679.180 Y1537.110 I-115.603 J 246.851
G2 X 644.060 Y1527.330 I-119.512 J 361.221
G2 X 605.210 Y1520.130 I-107.654 J 472.468
G2 X 563.800 Y1515.720 I -80.734 J 561.467
G2 X 521.090 Y1514.240 I -42.570 J 611.491
G2 X 478.390 Y1515.720 I  -0.135 J 612.828
G2 X 436.980 Y1520.130 I  39.324 J 565.877
G2 X 398.120 Y1527.330 I  68.799 J 479.791
F150
G1 Z  -3.000
F400
G2 X 363.010 Y1537.110 I  84.397 J 370.897
G2 X 332.690 Y1549.150 I  85.288 J 258.975
G2 X 308.100 Y1563.110 I  75.083 J 160.893
G2 X 289.990 Y1578.550 I  59.232 J  87.815
G2 X 278.890 Y1595.010 I  44.710 J  42.123
G2 X 275.150 Y1611.980 I  37.484 J  17.158
G1 X 767.030 Y1611.980
G2 X 763.300 Y1595.010 I -41.219 J   0.165
G2 X 752.200 Y1578.550 I -55.810 J  25.663
G2 X 734.080 Y1563.110 I -77.347 J  72.419
G2 X 709.490 Y1549.150 I -99.673 J 146.933
G2 X 679.180 Y1537.110 I-115.603 J 246.851
G2 X 644.060 Y1527.330 I-119.512 J 361.221
G2 X 605.210 Y1520.130 I-107.654 J 472.468
G2 X 563.800 Y1515.720 I -80.734 J 561.467
G2 X 521.090 Y1514.240 I -42.570 J 611.491
G2 X 478.390 Y1515.720 I  -0.135 J 612.828
G2 X 436.980 Y1520.130 I  39.324 J 565.877
G2 X 398.120 Y1527.330 I  68.799 J 479.791
F150
G1 Z   3.000
G0 Z  15.000 
M9 M5

(* SHAPE Nr: 62 *)
G0 X2614.930 Y1548.120
M3 M8
G0 Z   3.000 
G1 Z  -1.500
F400
G1 X2614.930 Y2040.000
G2 X2631.910 Y2036.260 I  -0.183 J -41.247
G2 X2648.360 Y2025.170 I -25.638 J -55.774
G2 X2663.800 Y2007.050 I -72.421 J -77.348
G2 X2677.760 Y1982.460 I-146.933 J -99.673
G2 X2689.810 Y1952.150 I-246.838 J-115.683
G2 X2699.580 Y1917.030 I-361.226 J-119.408
G2 X2706.780 Y1878.180 I-472.468 J-107.654
G2 X2711.190 Y1836.770 I-561.467 J -80.734
G2 X2712.670 Y1794.060 I-611.491 J -42.570
G2 X2711.190 Y1751.350 I-612.971 J  -0.140
G2 X2706.780 Y1709.940 I-565.877 J  39.324
G2 X2699.580 Y1671.090 I-479.668 J  68.804
G2 X2689.810 Y1635.970 I-370.996 J  84.288
G2 X2677.760 Y1605.660 I-258.888 J  85.373
G2 X2663.800 Y1581.070 I-160.889 J  75.081
G2 X2648.360 Y1562.950 I -87.861 J  59.228
G2 X2631.910 Y1551.860 I -42.088 J  44.684
G2 X2614.930 Y1548.120 I -17.163 J  37.508
F150
G1 Z  -3.000
F400
G1 X2614.930 Y2040.000
G2 X2631.910 Y2036.260 I  -0.183 J -41.247
G2 X2648.360 Y2025.170 I -25.638 J -55.774
G2 X2663.800 Y2007.050 I -72.421 J -77.348
G2 X2677.760 Y1982.460 I-146.933 J -99.673
G2 X2689.810 Y1952.150 I-246.838 J-115.683
G2 X2699.580 Y1917.030 I-361.226 J-119.408
G2 X2706.780 Y1878.180 I-472.468 J-107.654
G2 X2711.190 Y1836.770 I-561.467 J -80.734
G2 X2712.670 Y1794.060 I-611.491 J -42.570
G2 X2711.190 Y1751.350 I-612.971 J  -0.140
G2 X2706.780 Y1709.940 I-565.877 J  39.324
G2 X2699.580 Y1671.090 I-479.668 J  68.804
G2 X2689.810 Y1635.970 I-370.996 J  84.288
G2 X2677.760 Y1605.660 I-258.888 J  85.373
G2 X2663.800 Y1581.070 I-160.889 J  75.081
G2 X2648.360 Y1562.950 I -87.861 J  59.228
G2 X2631.910 Y1551.860 I -42.088 J  44.684
G2 X2614.930 Y1548.120 I -17.163 J  37.508
F150
G1 Z   3.000
G0 Z  15.000 
M9 M5

(* SHAPE Nr: 63 *)
G0 X1836.520 Y1908.830
M3 M8
G0 Z   3.000 
G1 Z  -1.500
F400
G2 X1825.420 Y1925.290 I  44.710 J  42.124
G2 X1821.680 Y1942.260 I  37.484 J  17.158
G2 X1825.420 Y1959.230 I  41.224 J  -0.188
G2 X1836.520 Y1975.690 I  55.810 J -25.664
G2 X1854.630 Y1991.130 I  77.342 J -72.375
G2 X1879.220 Y2005.090 I  99.673 J-146.933
G2 X1909.540 Y2017.130 I 115.604 J-246.926
G2 X1944.650 Y2026.910 I 119.507 J-361.117
G2 X1983.510 Y2034.110 I 107.659 J-472.591
G2 X2024.920 Y2038.520 I  80.734 J-561.467
G2 X2067.620 Y2040.000 I  42.565 J-611.348
G2 X2110.330 Y2038.520 I   0.140 J-612.971
G2 X2151.740 Y2034.110 I -39.324 J-565.877
G2 X2190.590 Y2026.910 I -68.804 J-479.668
G2 X2225.710 Y2017.130 I -84.392 J-371.001
G2 X2256.020 Y2005.090 I -85.289 J-258.883
G2 X2280.610 Y1991.130 I -75.081 J-160.889
G2 X2298.730 Y1975.690 I -59.228 J -87.861
G2 X2309.830 Y1959.230 I -44.710 J -42.124
G2 X2313.560 Y1942.260 I -37.489 J -17.135
G2 X2309.830 Y1925.290 I -41.219 J   0.165
G2 X2298.730 Y1908.830 I -55.810 J  25.664
G2 X2280.610 Y1893.390 I -77.348 J  72.421
G2 X2256.020 Y1879.430 I -99.671 J 146.929
G2 X2225.710 Y1867.390 I-115.599 J 246.843
G2 X2190.590 Y1857.610 I-119.512 J 361.221
G2 X2151.740 Y1850.410 I-107.654 J 472.468
G2 X2110.330 Y1846.010 I -80.598 J 561.472
G2 X2067.620 Y1844.520 I -42.714 J 611.486
G2 X2024.920 Y1846.010 I   0.009 J 612.833
G2 X1983.510 Y1850.410 I  39.188 J 565.872
G2 X1944.650 Y1857.610 I  68.799 J 479.791
G2 X1909.540 Y1867.390 I  84.397 J 370.897
G2 X1879.220 Y1879.430 I  85.284 J 258.966
G2 X1854.630 Y1893.390 I  75.083 J 160.893
G2 X1836.520 Y1908.830 I  59.232 J  87.815
F150
G1 Z  -3.000
F400
G2 X1825.420 Y1925.290 I  44.710 J  42.124
G2 X1821.680 Y1942.260 I  37.484 J  17.158
G2 X1825.420 Y1959.230 I  41.224 J  -0.188
G2 X1836.520 Y1975.690 I  55.810 J -25.664
G2 X1854.630 Y1991.130 I  77.342 J -72.375
G2 X1879.220 Y2005.090 I  99.673 J-146.933
G2 X1909.540 Y2017.130 I 115.604 J-246.926
G2 X1944.650 Y2026.910 I 119.507 J-361.117
G2 X1983.510 Y2034.110 I 107.659 J-472.591
G2 X2024.920 Y2038.520 I  80.734 J-561.467
G2 X2067.620 Y2040.000 I  42.565 J-611.348
G2 X2110.330 Y2038.520 I   0.140 J-612.971
G2 X2151.740 Y2034.110 I -39.324 J-565.877
G2 X2190.590 Y2026.910 I -68.804 J-479.668
G2 X2225.710 Y2017.130 I -84.392 J-371.001
G2 X2256.020 Y2005.090 I -85.289 J-258.883
G2 X2280.610 Y1991.130 I -75.081 J-160.889
G2 X2298.730 Y1975.690 I -59.228 J -87.861
G2 X2309.830 Y1959.230 I -44.710 J -42.124
G2 X2313.560 Y1942.260 I -37.489 J -17.135
G2 X2309.830 Y1925.290 I -41.219 J   0.165
G2 X2298.730 Y1908.830 I -55.810 J  25.664
G2 X2280.610 Y1893.390 I -77.348 J  72.421
G2 X2256.020 Y1879.430 I -99.671 J 146.929
G2 X2225.710 Y1867.390 I-115.599 J 246.843
G2 X2190.590 Y1857.610 I-119.512 J 361.221
G2 X2151.740 Y1850.410 I-107.654 J 472.468
G2 X2110.330 Y1846.010 I -80.598 J 561.472
G2 X2067.620 Y1844.520 I -42.714 J 611.486
G2 X2024.920 Y1846.010 I   0.009 J 612.833
G2 X1983.510 Y1850.410 I  39.188 J 565.872
G2 X1944.650 Y1857.610 I  68.799 J 479.791
G2 X1909.540 Y1867.390 I  84.397 J 370.897
G2 X1879.220 Y1879.430 I  85.284 J 258.966
G2 X1854.630 Y1893.390 I  75.083 J 160.893
G2 X1836.520 Y1908.830 I  59.232 J  87.815
F150
G1 Z   3.000
G0 Z  15.000 
M9 M5

(* SHAPE Nr: 64 *)
G0 X 637.780 Y1124.020
M3 M8
G0 Z   3.000 
G1 Z  -1.500
F400
G2 X  10.000 Y1384.060 I -33.718 J 806.401
G1 X  67.070 Y1441.130
G3 X 637.780 Y1204.730 I 570.716 J 570.709
G1 X1309.110 Y1204.730
G1 X1309.110 Y1124.020
G1 X 637.780 Y1124.020
F150
G1 Z  -3.000
F400
G2 X  10.000 Y1384.060 I -33.718 J 806.401
G1 X  67.070 Y1441.130
G3 X 637.780 Y1204.730 I 570.716 J 570.709
G1 X1309.110 Y1204.730
G1 X1309.110 Y1124.020
G1 X 637.780 Y1124.020
F150
G1 Z   3.000
G0 Z  15.000 
M9 M5

(* SHAPE Nr: 65 *)
G0 X 637.780 Y1390.430
M3 M8
G0 Z   3.000 
G1 Z  -1.500
F400
G2 X  10.000 Y1650.470 I -33.718 J 806.401
G1 X  67.070 Y1707.540
G3 X 637.780 Y1471.140 I 570.716 J 570.709
G1 X1309.110 Y1471.140
G1 X1309.110 Y1390.430
G1 X 637.780 Y1390.430
F150
G1 Z  -3.000
F400
G2 X  10.000 Y1650.470 I -33.718 J 806.401
G1 X  67.070 Y1707.540
G3 X 637.780 Y1471.140 I 570.716 J 570.709
G1 X1309.110 Y1471.140
G1 X1309.110 Y1390.430
G1 X 637.780 Y1390.430
F150
G1 Z   3.000
G0 Z  15.000 
M9 M5

(* SHAPE Nr: 66 *)
G0 X 190.230 Y1027.880
M3 M8
G0 Z   3.000 
G1 Z  -1.500
F400
G1 X 190.230 Y1108.590
G1 X 861.560 Y1108.590
G2 X1489.340 Y 848.550 I  33.718 J-806.401
G1 X1432.270 Y 791.480
G3 X 861.560 Y1027.880 I-570.716 J-570.709
G1 X 190.230 Y1027.880
F150
G1 Z  -3.000
F400
G1 X 190.230 Y1108.590
G1 X 861.560 Y1108.590
G2 X1489.340 Y 848.550 I  33.718 J-806.401
G1 X1432.270 Y 791.480
G3 X 861.560 Y1027.880 I-570.716 J-570.709
G1 X 190.230 Y1027.880
F150
G1 Z   3.000
G0 Z  15.000 
M9 M5

(* SHAPE Nr: 67 *)
G0 X 572.540 Y 212.500
M3 M8
G0 Z   3.000 
G1 Z  -1.500
F400
G1 X 572.540 Y 232.040
G1 X 900.460 Y 232.040
G2 X1052.510 Y 169.070 I   8.180 J-195.306
G1 X1038.680 Y 155.240
G3 X 900.460 Y 212.500 I-138.229 J-138.217
G1 X 572.540 Y 212.500
F150
G1 Z  -3.000
F400
G1 X 572.540 Y 232.040
G1 X 900.460 Y 232.040
G2 X1052.510 Y 169.070 I   8.180 J-195.306
G1 X1038.680 Y 155.240
G3 X 900.460 Y 212.500 I-138.229 J-138.217
G1 X 572.540 Y 212.500
F150
G1 Z   3.000
G0 Z  15.000 
M9 M5

(* SHAPE Nr: 68 *)
G0 X 504.790 Y 168.870
M3 M8
G0 Z   3.000 
G1 Z  -1.500
F400
G1 X 518.610 Y 182.690
G3 X 656.840 Y 125.440 I 138.222 J 138.234
G1 X 984.760 Y 125.440
G1 X 984.760 Y 105.890
G1 X 656.840 Y 105.890
G2 X 504.790 Y 168.870 I  -8.169 J 195.311
F150
G1 Z  -3.000
F400
G1 X 518.610 Y 182.690
G3 X 656.840 Y 125.440 I 138.222 J 138.234
G1 X 984.760 Y 125.440
G1 X 984.760 Y 105.890
G1 X 656.840 Y 105.890
G2 X 504.790 Y 168.870 I  -8.169 J 195.311
F150
G1 Z   3.000
G0 Z  15.000 
M9 M5

(* SHAPE Nr: 69 *)
G0 X1059.260 Y 135.470
M3 M8
G0 Z   3.000 
G1 Z  -1.500
F400
G1 X1059.260 Y 155.020
G1 X1387.180 Y 155.020
G2 X1539.220 Y  92.040 I   8.164 J-195.301
G1 X1525.400 Y  78.220
G3 X1387.180 Y 135.470 I-138.217 J-138.222
G1 X1059.260 Y 135.470
F150
G1 Z  -3.000
F400
G1 X1059.260 Y 155.020
G1 X1387.180 Y 155.020
G2 X1539.220 Y  92.040 I   8.164 J-195.301
G1 X1525.400 Y  78.220
G3 X1387.180 Y 135.470 I-138.217 J-138.222
G1 X1059.260 Y 135.470
F150
G1 Z   3.000
G0 Z  15.000 
M9 M5

(* SHAPE Nr: 70 *)
G0 X1323.930 Y 367.020
M3 M8
G0 Z   3.000 
G1 Z  -1.500
F400
G1 X1368.280 Y 411.360
G3 X1811.700 Y 227.690 I 443.420 J 443.421
G1 X2583.240 Y 227.690
G1 X2583.240 Y 164.980
G1 X1811.700 Y 164.980
G2 X1323.930 Y 367.020 I -26.204 J 626.552
F150
G1 Z  -3.000
F400
G1 X1368.280 Y 411.360
G3 X1811.700 Y 227.690 I 443.420 J 443.421
G1 X2583.240 Y 227.690
G1 X2583.240 Y 164.980
G1 X1811.700 Y 164.980
G2 X1323.930 Y 367.020 I -26.204 J 626.552
F150
G1 Z   3.000
G0 Z  15.000 
M9 M5

(* SHAPE Nr: 72 *)
G0 X 489.970 Y  84.160
M3 M8
G0 Z   3.000 
G1 Z  -1.500
F400
G1 X 162.050 Y  84.160
G2 X  23.820 Y 141.420 I   0.004 J 195.489
G1 X  10.000 Y 127.590
G1 X -14.700 Y 127.590
F150
G1 Z  -3.000
F400
G1 X  10.000 Y 127.590
G1 X  23.820 Y 141.420
G3 X 162.050 Y  84.160 I 138.234 J 138.229
G1 X 489.970 Y  84.160
F150
G1 Z   3.000
G0 Z  15.000 
M9 M5

(* SHAPE Nr: 73 *)
G0 X 489.970 Y 113.760
M3 M8
G0 Z   3.000 
G1 Z  -1.500
F400
G1 X 162.050 Y 113.760
G2 X  10.000 Y 176.740 I  -8.169 J 195.311
G1 X  23.820 Y 190.570
G3 X 162.050 Y 133.310 I 138.234 J 138.229
G1 X 489.970 Y 133.310
F150
G1 Z  -3.000
F400
G1 X 162.050 Y 133.310
G2 X  23.820 Y 190.570 I   0.004 J 195.489
G1 X  10.000 Y 176.740
G3 X 162.050 Y 113.760 I 143.881 J 132.331
G1 X 489.970 Y 113.760
F150
G1 Z   3.000
G0 Z  15.000 
M9 M5

(* SHAPE Nr: 74 *)
G0 X 489.970 Y 162.950
M3 M8
G0 Z   3.000 
G1 Z  -1.500
F400
G1 X 162.050 Y 162.950
G2 X  10.000 Y 225.930 I  -8.169 J 195.311
G1 X  23.820 Y 239.750
G3 X 162.050 Y 182.490 I 138.234 J 138.229
G1 X 489.970 Y 182.490
F150
G1 Z  -3.000
F400
G1 X 162.050 Y 182.490
G2 X  23.820 Y 239.750 I   0.004 J 195.489
G1 X  10.000 Y 225.930
G3 X 162.050 Y 162.950 I 143.881 J 132.331
G1 X 489.970 Y 162.950
F150
G1 Z   3.000
G0 Z  15.000 
M9 M5

(* SHAPE Nr: 75 *)
G0 X 489.970 Y 212.150
M3 M8
G0 Z   3.000 
G1 Z  -1.500
F400
G1 X 162.050 Y 212.150
G2 X  10.000 Y 275.130 I  -8.169 J 195.311
G1 X  23.820 Y 288.960
G3 X 162.050 Y 231.700 I 138.234 J 138.229
G1 X 489.970 Y 231.700
G1 X 489.970 Y  64.610
G1 X 162.050 Y  64.610
G2 X  10.000 Y 127.590 I  -8.169 J 195.311
F150
G1 Z  -3.000
F400
G3 X 162.050 Y  64.610 I 143.881 J 132.331
G1 X 489.970 Y  64.610
G1 X 489.970 Y 231.700
G1 X 162.050 Y 231.700
G2 X  23.820 Y 288.960 I   0.004 J 195.489
G1 X  10.000 Y 275.130
G3 X 162.050 Y 212.150 I 143.881 J 132.331
G1 X 489.970 Y 212.150
F150
G1 Z   3.000
G0 Z  15.000 
M9 M5

(* SHAPE Nr: 76 *)
G0 X1309.110 Y 405.860
M3 M8
G0 Z   3.000 
G1 Z  -1.500
F400
G1 X1309.110 Y 325.140
G1 X1269.300 Y 322.900
G1 X1269.300 Y 246.960
G1 X 497.770 Y 246.960
G2 X  10.000 Y 449.000 I -26.204 J 626.552
G1 X  54.340 Y 493.350
G3 X 497.770 Y 309.670 I 443.437 J 443.428
G1 X1322.340 Y 309.670
G1 X1322.340 Y 325.140
G1 X 637.780 Y 325.140
G2 X  10.000 Y 585.180 I -33.718 J 806.401
G1 X  67.070 Y 642.250
G3 X 637.780 Y 405.860 I 570.704 J 570.714
G1 X1353.210 Y 405.860
G1 X1322.340 Y 458.350
G1 X 637.780 Y 458.350
G2 X  10.000 Y 718.390 I -33.718 J 806.401
G1 X  67.070 Y 775.460
G3 X 637.780 Y 539.060 I 570.716 J 570.709
G1 X1309.110 Y 539.060
G1 X1309.110 Y 458.350
F150
G1 Z  -3.000
F400
G1 X1309.110 Y 539.060
G1 X 637.780 Y 539.060
G2 X  67.070 Y 775.460 I   0.006 J 807.109
G1 X  10.000 Y 718.390
G3 X 637.780 Y 458.350 I 594.062 J 546.361
G1 X1322.340 Y 458.350
G1 X1353.210 Y 405.860
G1 X 637.780 Y 405.860
G2 X  67.070 Y 642.250 I  -0.006 J 807.104
G1 X  10.000 Y 585.180
G3 X 637.780 Y 325.140 I 594.062 J 546.361
G1 X1322.340 Y 325.140
G1 X1322.340 Y 309.670
G1 X 497.770 Y 309.670
G2 X  54.340 Y 493.350 I   0.007 J 627.108
G1 X  10.000 Y 449.000
G3 X 497.770 Y 246.960 I 461.566 J 424.512
G1 X1269.300 Y 246.960
G1 X1269.300 Y 322.900
G1 X1309.110 Y 325.140
G1 X1309.110 Y 405.860
F150
G1 Z   3.000
G0 Z  15.000 
M9 M5

(* SHAPE Nr: 77 *)
G0 X1456.280 Y 432.610
M3 M8
G0 Z   3.000 
G1 Z  -1.500
F400
G1 X1505.150 Y 460.830
G1 X1505.150 Y 517.260
G1 X1554.020 Y 489.040
G1 X1602.890 Y 517.260
G1 X1602.890 Y 460.830
G1 X1651.760 Y 432.610
G1 X1602.890 Y 404.400
G1 X1602.890 Y 347.970
G1 X1554.020 Y 376.180
G1 X1505.150 Y 347.970
G1 X1505.150 Y 404.400
G1 X1456.280 Y 432.610
F150
G1 Z  -3.000
F400
G1 X1505.150 Y 460.830
G1 X1505.150 Y 517.260
G1 X1554.020 Y 489.040
G1 X1602.890 Y 517.260
G1 X1602.890 Y 460.830
G1 X1651.760 Y 432.610
G1 X1602.890 Y 404.400
G1 X1602.890 Y 347.970
G1 X1554.020 Y 376.180
G1 X1505.150 Y 347.970
G1 X1505.150 Y 404.400
G1 X1456.280 Y 432.610
F150
G1 Z   3.000
G0 Z  15.000 
M9 M5

(* SHAPE Nr: 78 *)
G0 X1910.190 Y 130.140
M3 M8
G0 Z   3.000 
G1 Z  -1.500
F400
G1 X1582.270 Y 130.140
G2 X1430.220 Y 193.120 I  -8.169 J 195.311
G1 X1444.040 Y 206.940
G3 X1582.270 Y 149.680 I 138.234 J 138.229
G1 X1910.190 Y 149.680
G1 X1910.190 Y 116.910
G1 X2024.110 Y  32.700
G1 X2024.110 Y  13.150
G1 X1696.190 Y  13.150
G2 X1544.140 Y  76.130 I  -8.169 J 195.311
G1 X1557.960 Y  89.950
G3 X1696.190 Y  32.700 I 138.222 J 138.234
G1 X2024.110 Y  32.700
F150
G1 Z  -3.000
F400
G1 X1696.190 Y  32.700
G2 X1557.960 Y  89.950 I  -0.008 J 195.484
G1 X1544.140 Y  76.130
G3 X1696.190 Y  13.150 I 143.881 J 132.331
G1 X2024.110 Y  13.150
G1 X2024.110 Y  32.700
G1 X1910.190 Y 116.910
G1 X1910.190 Y 149.680
G1 X1582.270 Y 149.680
G2 X1444.040 Y 206.940 I   0.004 J 195.489
G1 X1430.220 Y 193.120
G3 X1582.270 Y 130.140 I 143.881 J 132.331
G1 X1910.190 Y 130.140
F150
G1 Z   3.000
G0 Z  15.000 
M9 M5

(* SHAPE Nr: 79 *)
G0 X 991.380 Y 140.920
M3 M8
G0 Z   3.000 
G1 Z  -1.500
F400
G1 X1005.200 Y 154.740
G3 X1143.430 Y  97.490 I 138.222 J 138.234
G1 X1471.350 Y  97.490
G1 X1471.350 Y  77.940
G1 X1143.430 Y  77.940
G2 X 991.380 Y 140.920 I  -8.169 J 195.311
F150
G1 Z  -3.000
F400
G1 X1005.200 Y 154.740
G3 X1143.430 Y  97.490 I 138.222 J 138.234
G1 X1471.350 Y  97.490
G1 X1471.350 Y  77.940
G1 X1143.430 Y  77.940
G2 X 991.380 Y 140.920 I  -8.169 J 195.311
F150
G1 Z   3.000
G0 Z  15.000 
M9 M5

(* SHAPE Nr: 80 *)
G0 X 504.790 Y 119.650
M3 M8
G0 Z   3.000 
G1 Z  -1.500
F400
G1 X 518.610 Y 133.470
G3 X 656.840 Y  76.220 I 138.222 J 138.234
G1 X 984.760 Y  76.220
G1 X 984.760 Y  56.670
G1 X 656.840 Y  56.670
G2 X 504.790 Y 119.650 I  -8.169 J 195.311
F150
G1 Z  -3.000
F400
G1 X 518.610 Y 133.470
G3 X 656.840 Y  76.220 I 138.222 J 138.234
G1 X 984.760 Y  76.220
G1 X 984.760 Y  56.670
G1 X 656.840 Y  56.670
G2 X 504.790 Y 119.650 I  -8.169 J 195.311
F150
G1 Z   3.000
G0 Z  15.000 
M9 M5

(* SHAPE Nr: 81 *)
G0 X 192.280 Y1958.590
M3 M8
G0 Z   3.000 
G1 Z  -1.500
F400
G1 X 192.280 Y2039.300
G1 X 863.610 Y2039.300
G2 X1491.390 Y1779.260 I  33.718 J-806.401
G1 X1434.320 Y1722.190
G3 X 863.610 Y1958.590 I-570.714 J-570.706
G1 X 192.280 Y1958.590
F150
G1 Z  -3.000
F400
G1 X 192.280 Y2039.300
G1 X 863.610 Y2039.300
G2 X1491.390 Y1779.260 I  33.718 J-806.401
G1 X1434.320 Y1722.190
G3 X 863.610 Y1958.590 I-570.714 J-570.706
G1 X 192.280 Y1958.590
F150
G1 Z   3.000
G0 Z  15.000 
M9 M5

(* SHAPE Nr: 82 *)
G0 X 637.780 Y1722.900
M3 M8
G0 Z   3.000 
G1 Z  -1.500
F400
G2 X  10.000 Y1982.930 I -33.729 J 806.396
G1 X  67.070 Y2040.000
G3 X 637.780 Y1803.610 I 570.704 J 570.714
G1 X1309.110 Y1803.610
G1 X1309.110 Y1722.900
G1 X 637.780 Y1722.900
F150
G1 Z  -3.000
F400
G2 X  10.000 Y1982.930 I -33.729 J 806.396
G1 X  67.070 Y2040.000
G3 X 637.780 Y1803.610 I 570.704 J 570.714
G1 X1309.110 Y1803.610
G1 X1309.110 Y1722.900
G1 X 637.780 Y1722.900
F150
G1 Z   3.000
G0 Z  15.000 
M9 M5

(* SHAPE Nr: 83 *)
G0 X1417.600 Y2040.000
M3 M8
G0 Z   3.000 
G1 Z  -1.500
F400
G1 X1466.470 Y2011.790
G1 X1515.340 Y2040.000
G1 X1515.340 Y1983.570
G1 X1564.210 Y1955.350
G1 X1515.340 Y1927.140
G1 X1515.340 Y1870.710
G1 X1466.470 Y1898.930
G1 X1417.600 Y1870.710
G1 X1417.600 Y1927.140
G1 X1368.730 Y1955.350
G1 X1417.600 Y1983.570
G1 X1417.600 Y2040.000
G1 X2753.850 Y2040.000
G1 X2753.850 Y1712.080
G2 X2690.870 Y1560.030 I-195.311 J  -8.169
G1 X2677.040 Y1573.850
G3 X2734.300 Y1712.080 I-138.229 J 138.234
G1 X2734.300 Y2040.000
G1 X2753.850 Y2040.000
G1 X2756.280 Y1441.910
G1 X2702.100 Y1427.760
G1 X2737.620 Y1384.460
G1 X2685.460 Y1404.850
G1 X2688.750 Y1348.950
G1 X2658.540 Y1396.110
G1 X2628.340 Y1348.950
G1 X2631.620 Y1404.850
G1 X2579.470 Y1384.460
G1 X2614.990 Y1427.760
G1 X2560.800 Y1441.910
G1 X2614.990 Y1456.060
G1 X2579.470 Y1499.360
G1 X2571.080 Y1509.590
G1 X2559.810 Y1515.080
G1 X2545.110 Y1515.080
G1 X2545.110 Y 730.320
G2 X2343.070 Y 242.550 I-626.552 J -26.204
G1 X2298.730 Y 286.890
G3 X2482.400 Y 730.320 I-443.433 J 443.425
G1 X2482.400 Y1501.850
F150
G1 Z  -3.000
F400
G1 X2482.400 Y 730.320
G2 X2298.730 Y 286.890 I-627.103 J  -0.005
G1 X2343.070 Y 242.550
G3 X2545.110 Y 730.320 I-424.512 J 461.566
G1 X2545.110 Y1515.080
G1 X2559.810 Y1515.080
G1 X2571.080 Y1509.590
G1 X2579.470 Y1499.360
G1 X2614.990 Y1456.060
G1 X2560.800 Y1441.910
G1 X2614.990 Y1427.760
G1 X2579.470 Y1384.460
G1 X2631.620 Y1404.850
G1 X2628.340 Y1348.950
G1 X2658.540 Y1396.110
G1 X2688.750 Y1348.950
G1 X2685.460 Y1404.850
G1 X2737.620 Y1384.460
G1 X2702.100 Y1427.760
G1 X2756.280 Y1441.910
G1 X2753.850 Y2040.000
G1 X2734.300 Y2040.000
G1 X2734.300 Y1712.080
G2 X2677.040 Y1573.850 I-195.489 J   0.004
G1 X2690.870 Y1560.030
G3 X2753.850 Y1712.080 I-132.331 J 143.881
G1 X2753.850 Y2040.000
G1 X1417.600 Y2040.000
G1 X1417.600 Y1983.570
G1 X1368.730 Y1955.350
G1 X1417.600 Y1927.140
G1 X1417.600 Y1870.710
G1 X1466.470 Y1898.930
G1 X1515.340 Y1870.710
G1 X1515.340 Y1927.140
G1 X1564.210 Y1955.350
G1 X1515.340 Y1983.570
G1 X1515.340 Y2040.000
G1 X1466.470 Y2011.790
G1 X1417.600 Y2040.000
F150
G1 Z   3.000
G0 Z  15.000 
M9 M5

(* SHAPE Nr: 84 *)
G0 X2466.840 Y1544.850
M3 M8
G0 Z   3.000 
G1 Z  -1.500
F400
G1 X2466.840 Y 773.320
G2 X2264.800 Y 285.550 I-626.552 J -26.204
G1 X2220.460 Y 329.890
G3 X2404.140 Y 773.320 I-443.428 J 443.437
G1 X2404.140 Y1600.870
G1 X2388.540 Y1600.870
G1 X2388.540 Y 816.110
G2 X2186.500 Y 328.340 I-626.552 J -26.204
G1 X2142.150 Y 372.680
G3 X2325.830 Y 816.110 I-443.428 J 443.437
G1 X2325.830 Y1644.300
G1 X2310.340 Y1644.300
G1 X2310.340 Y 859.540
G2 X2108.290 Y 371.770 I-626.557 J -26.193
G1 X2063.950 Y 416.110
G3 X2247.630 Y 859.540 I-443.428 J 443.437
G1 X2247.630 Y1631.070
G1 X2266.940 Y1655.800
G1 X2260.320 Y1667.260
G1 X2232.110 Y1716.130
G1 X2162.450 Y1716.130
G1 X2162.450 Y1701.430
G1 X2231.980 Y1673.520
G1 X2231.980 Y 901.990
G2 X2029.940 Y 414.220 I-626.552 J -26.204
G1 X1985.590 Y 458.560
G3 X2169.270 Y 901.990 I-443.426 J 443.436
G1 X2169.270 Y1772.490
G1 X2075.390 Y1772.490
G1 X2075.390 Y 987.730
G2 X1873.350 Y 499.960 I-626.552 J -26.204
G1 X1829.000 Y 544.300
G3 X2012.680 Y 987.730 I-443.426 J 443.436
G1 X2012.680 Y1815.910
G1 X1997.200 Y1815.910
G1 X1997.200 Y1031.150
G2 X1795.160 Y 543.380 I-626.552 J -26.204
G1 X1750.810 Y 587.720
G3 X1934.490 Y1031.150 I-443.426 J 443.436
G1 X1934.490 Y1823.950
G1 X1919.050 Y1823.950
G1 X1919.050 Y1139.390
G2 X1659.020 Y 511.610 I-806.396 J -33.729
G1 X1601.950 Y 568.680
G3 X1838.340 Y1139.390 I-570.714 J 570.704
G1 X1838.340 Y1870.950
G1 X1822.360 Y1870.950
G1 X1822.360 Y1186.390
G2 X1562.320 Y 558.610 I-806.401 J -33.718
G1 X1505.250 Y 615.680
G3 X1741.650 Y1186.390 I-570.709 J 570.716
G1 X1741.650 Y1857.720
G1 X1822.360 Y1857.720
G1 X1825.110 Y1810.720
G1 X1919.050 Y1810.720
G1 X1921.260 Y1802.680
G1 X1997.200 Y1802.680
G1 X1999.450 Y1759.260
G1 X2156.040 Y1759.260
G1 X2156.040 Y1673.520
G1 X2231.980 Y1673.520
F150
G1 Z  -3.000
F400
G1 X2156.040 Y1673.520
G1 X2156.040 Y1759.260
G1 X1999.450 Y1759.260
G1 X1997.200 Y1802.680
G1 X1921.260 Y1802.680
G1 X1919.050 Y1810.720
G1 X1825.110 Y1810.720
G1 X1822.360 Y1857.720
G1 X1741.650 Y1857.720
G1 X1741.650 Y1186.390
G2 X1505.250 Y 615.680 I-807.109 J   0.006
G1 X1562.320 Y 558.610
G3 X1822.360 Y1186.390 I-546.361 J 594.062
G1 X1822.360 Y1870.950
G1 X1838.340 Y1870.950
G1 X1838.340 Y1139.390
G2 X1601.950 Y 568.680 I-807.104 J  -0.006
G1 X1659.020 Y 511.610
G3 X1919.050 Y1139.390 I-546.366 J 594.051
G1 X1919.050 Y1823.950
G1 X1934.490 Y1823.950
G1 X1934.490 Y1031.150
G2 X1750.810 Y 587.720 I-627.106 J   0.006
G1 X1795.160 Y 543.380
G3 X1997.200 Y1031.150 I-424.512 J 461.566
G1 X1997.200 Y1815.910
G1 X2012.680 Y1815.910
G1 X2012.680 Y 987.730
G2 X1829.000 Y 544.300 I-627.106 J   0.006
G1 X1873.350 Y 499.960
G3 X2075.390 Y 987.730 I-424.512 J 461.566
G1 X2075.390 Y1772.490
G1 X2169.270 Y1772.490
G1 X2169.270 Y 901.990
G2 X1985.590 Y 458.560 I-627.106 J   0.006
G1 X2029.940 Y 414.220
G3 X2231.980 Y 901.990 I-424.512 J 461.566
G1 X2231.980 Y1673.520
G1 X2162.450 Y1701.430
G1 X2162.450 Y1716.130
G1 X2232.110 Y1716.130
G1 X2260.320 Y1667.260
G1 X2266.940 Y1655.800
G1 X2247.630 Y1631.070
G1 X2247.630 Y 859.540
G2 X2063.950 Y 416.110 I-627.108 J   0.007
G1 X2108.290 Y 371.770
G3 X2310.340 Y 859.540 I-424.507 J 461.577
G1 X2310.340 Y1644.300
G1 X2325.830 Y1644.300
G1 X2325.830 Y 816.110
G2 X2142.150 Y 372.680 I-627.108 J   0.007
G1 X2186.500 Y 328.340
G3 X2388.540 Y 816.110 I-424.512 J 461.566
G1 X2388.540 Y1600.870
G1 X2404.140 Y1600.870
G1 X2404.140 Y 773.320
G2 X2220.460 Y 329.890 I-627.108 J   0.007
G1 X2264.800 Y 285.550
G3 X2466.840 Y 773.320 I-424.512 J 461.566
G1 X2466.840 Y1544.850
F150
G1 Z   3.000
G0 Z  15.000 
M9 M5

(* SHAPE Nr: 85 *)
G0 X1309.110 Y 790.820
M3 M8
G0 Z   3.000 
G1 Z  -1.500
F400
G1 X 637.780 Y 790.820
G2 X  10.000 Y1050.850 I -33.729 J 806.396
G1 X  67.070 Y1107.920
G3 X 637.780 Y 871.530 I 570.704 J 570.714
G1 X1309.110 Y 871.530
G1 X1309.110 Y 777.590
G1 X1505.960 Y 696.790
G1 X1505.960 Y1412.220
G2 X1765.990 Y2040.000 I 806.396 J  33.729
G1 X1823.060 Y1982.930
G3 X1586.670 Y1412.220 I 570.714 J-570.704
G1 X1586.670 Y 740.890
G1 X1505.960 Y 740.890
F150
G1 Z  -3.000
F400
G1 X1586.670 Y 740.890
G1 X1586.670 Y1412.220
G2 X1823.060 Y1982.930 I 807.104 J   0.006
G1 X1765.990 Y2040.000
G3 X1505.960 Y1412.220 I 546.366 J-594.051
G1 X1505.960 Y 696.790
G1 X1309.110 Y 777.590
G1 X1309.110 Y 871.530
G1 X 637.780 Y 871.530
G2 X  67.070 Y1107.920 I  -0.006 J 807.104
G1 X  10.000 Y1050.850
G3 X 637.780 Y 790.820 I 594.051 J 546.366
G1 X1309.110 Y 790.820
F150
G1 Z   3.000
G0 Z  15.000 
M9 M5

(* SHAPE Nr: 86 *)
G0 X2542.180 Y  92.440
M3 M8
G0 Z   3.000 
G1 Z  -1.500
F400
G3 X2725.850 Y 535.870 I-443.431 J 443.424
G1 X2725.850 Y1307.400
G1 X2788.560 Y1307.400
G1 X2788.560 Y 535.870
G2 X2586.520 Y  48.100 I-626.552 J -26.204
G1 X2542.180 Y  92.440
F150
G1 Z  -3.000
F400
G3 X2725.850 Y 535.870 I-443.431 J 443.424
G1 X2725.850 Y1307.400
G1 X2788.560 Y1307.400
G1 X2788.560 Y 535.870
G2 X2586.520 Y  48.100 I-626.552 J -26.204
G1 X2542.180 Y  92.440
F150
G1 Z   3.000
G0 Z  15.000 
M9 M5

(* SHAPE Nr: 87 *)
G0 X2153.630 Y1716.090
M3 M8
G0 Z   3.000 
G1 Z  -1.500
F400
G1 X2153.630 Y 944.550
G2 X1951.590 Y 456.790 I-626.541 J -26.199
G1 X1907.250 Y 501.130
G3 X2090.920 Y 944.550 I-443.418 J 443.419
G1 X2090.920 Y1716.090
G1 X2153.630 Y1716.090
G1 X2153.630 Y1708.740
G1 X2169.060 Y1704.670
G1 X2175.680 Y1716.130
G1 X2203.890 Y1765.000
G1 X2175.680 Y1813.870
G1 X2232.110 Y1813.870
G1 X2260.320 Y1862.740
G1 X2288.540 Y1813.870
G1 X2344.970 Y1813.870
G1 X2316.750 Y1765.000
G1 X2344.970 Y1716.130
G1 X2288.540 Y1716.130
G1 X2260.320 Y1667.260
G1 X2234.400 Y1645.770
G1 X2234.400 Y1631.070
G1 X2310.340 Y1631.070
G1 X2312.600 Y1587.640
G1 X2388.540 Y1587.640
G1 X2390.910 Y1544.850
G1 X2466.840 Y1544.850
G1 X2469.170 Y1501.850
G1 X2545.110 Y1501.850
G1 X2579.470 Y1499.360
G1 X2631.620 Y1478.960
G1 X2628.340 Y1534.860
G1 X2658.540 Y1487.710
G1 X2688.750 Y1534.860
G1 X2685.460 Y1478.960
G1 X2737.620 Y1499.360
G1 X2702.100 Y1456.060
G1 X2756.280 Y1441.910
F150
G1 Z  -3.000
F400
G1 X2702.100 Y1456.060
G1 X2737.620 Y1499.360
G1 X2685.460 Y1478.960
G1 X2688.750 Y1534.860
G1 X2658.540 Y1487.710
G1 X2628.340 Y1534.860
G1 X2631.620 Y1478.960
G1 X2579.470 Y1499.360
G1 X2545.110 Y1501.850
G1 X2469.170 Y1501.850
G1 X2466.840 Y1544.850
G1 X2390.910 Y1544.850
G1 X2388.540 Y1587.640
G1 X2312.600 Y1587.640
G1 X2310.340 Y1631.070
G1 X2234.400 Y1631.070
G1 X2234.400 Y1645.770
G1 X2260.320 Y1667.260
G1 X2288.540 Y1716.130
G1 X2344.970 Y1716.130
G1 X2316.750 Y1765.000
G1 X2344.970 Y1813.870
G1 X2288.540 Y1813.870
G1 X2260.320 Y1862.740
G1 X2232.110 Y1813.870
G1 X2175.680 Y1813.870
G1 X2203.890 Y1765.000
G1 X2175.680 Y1716.130
G1 X2169.060 Y1704.670
G1 X2153.630 Y1708.740
G1 X2153.630 Y1716.090
G1 X2090.920 Y1716.090
G1 X2090.920 Y 944.550
G2 X1907.250 Y 501.130 I-627.088 J  -0.001
G1 X1951.590 Y 456.790
G3 X2153.630 Y 944.550 I-424.501 J 461.561
G1 X2153.630 Y1716.090
F150
G1 Z   3.000
G0 Z  15.000 
M9 M5
G0 X   0.000 Y   0.000
M2 (Program end)