(Generated with: DXF2GCODE, Version: REMOVED, Date: $Date$)
(Created from file: )
(Output format description: G-CODE for LinuxCNC)
(Time: Thu Sep 13 16:01:01 2018)
G21 (Units in millimeters)
G90 (Absolute programming)
G64 (Default cutting) G17 (XY plane) G40 (Cancel radius comp.) G49 (Cancel length comp.)
G0 Z  15.000 

(*** LAYER: FRAME_Z18 ***)
T1 M6
S6000

(* SHAPE Nr: 138 *)
G0 X   0.000 Y   0.000
M3 M8
G0 Z   3.000 
F150
G1 Z  -1.500
F400
G1 X   0.000 Y2050.000
G1 X2800.000 Y2050.000
G1 X2800.000 Y   0.000
G1 X   0.000 Y   0.000
F150
G1 Z  -3.000
F400
G1 X   0.000 Y2050.000
G1 X2800.000 Y2050.000
G1 X2800.000 Y   0.000
G1 X   0.000 Y   0.000
F150
G1 Z   3.000
G0 Z  15.000 
M9 M5

(*** LAYER: BORDER_D0_T132_RK1_A0_W0_EM1_RI1_ID0009 ***)

(* SHAPE Nr: 0 *)
G0 X  94.640 Y1844.510
M3 M8
G0 Z   3.000 
G1 Z  -1.500
F400
G1 X  74.380 Y1907.150
G1 X  10.000 Y1893.380
G1 X  54.110 Y1942.250
G1 X  10.000 Y1991.120
G1 X  74.380 Y1977.350
G1 X  94.640 Y2039.990
G1 X 114.910 Y1977.350
G1 X 179.280 Y1991.120
G1 X 135.180 Y1942.250
G1 X 179.280 Y1893.380
G1 X 114.910 Y1907.150
G1 X  94.640 Y1844.510
F150
G1 Z  -3.000
F400
G1 X  74.380 Y1907.150
G1 X  10.000 Y1893.380
G1 X  54.110 Y1942.250
G1 X  10.000 Y1991.120
G1 X  74.380 Y1977.350
G1 X  94.640 Y2039.990
G1 X 114.910 Y1977.350
G1 X 179.280 Y1991.120
G1 X 135.180 Y1942.250
G1 X 179.280 Y1893.380
G1 X 114.910 Y1907.150
G1 X  94.640 Y1844.510
F150
G1 Z   3.000
G0 Z  15.000 
M9 M5

(* SHAPE Nr: 1 *)
G0 X  94.640 Y1634.340
M3 M8
G0 Z   3.000 
G1 Z  -1.500
F400
G1 X  74.380 Y1696.980
G1 X  10.000 Y1683.210
G1 X  54.110 Y1732.080
G1 X  10.000 Y1780.950
G1 X  74.380 Y1767.180
G1 X  94.640 Y1829.820
G1 X 114.910 Y1767.180
G1 X 179.280 Y1780.950
G1 X 135.180 Y1732.080
G1 X 179.280 Y1683.210
G1 X 114.910 Y1696.980
G1 X  94.640 Y1634.340
F150
G1 Z  -3.000
F400
G1 X  74.380 Y1696.980
G1 X  10.000 Y1683.210
G1 X  54.110 Y1732.080
G1 X  10.000 Y1780.950
G1 X  74.380 Y1767.180
G1 X  94.640 Y1829.820
G1 X 114.910 Y1767.180
G1 X 179.280 Y1780.950
G1 X 135.180 Y1732.080
G1 X 179.280 Y1683.210
G1 X 114.910 Y1696.980
G1 X  94.640 Y1634.340
F150
G1 Z   3.000
G0 Z  15.000 
M9 M5

(* SHAPE Nr: 2 *)
G0 X  94.640 Y1424.160
M3 M8
G0 Z   3.000 
G1 Z  -1.500
F400
G1 X  74.380 Y1486.800
G1 X  10.000 Y1473.030
G1 X  54.110 Y1521.900
G1 X  10.000 Y1570.770
G1 X  74.380 Y1557.000
G1 X  94.640 Y1619.640
G1 X 114.910 Y1557.000
G1 X 179.280 Y1570.770
G1 X 135.180 Y1521.900
G1 X 179.280 Y1473.030
G1 X 114.910 Y1486.800
G1 X  94.640 Y1424.160
F150
G1 Z  -3.000
F400
G1 X  74.380 Y1486.800
G1 X  10.000 Y1473.030
G1 X  54.110 Y1521.900
G1 X  10.000 Y1570.770
G1 X  74.380 Y1557.000
G1 X  94.640 Y1619.640
G1 X 114.910 Y1557.000
G1 X 179.280 Y1570.770
G1 X 135.180 Y1521.900
G1 X 179.280 Y1473.030
G1 X 114.910 Y1486.800
G1 X  94.640 Y1424.160
F150
G1 Z   3.000
G0 Z  15.000 
M9 M5

(* SHAPE Nr: 3 *)
G0 X 248.760 Y1480.690
M3 M8
G0 Z   3.000 
G1 Z  -1.500
F400
G1 X 228.500 Y1543.330
G1 X 164.120 Y1529.560
G1 X 208.230 Y1578.430
G1 X 164.120 Y1627.300
G1 X 228.500 Y1613.530
G1 X 248.760 Y1676.170
G1 X 269.030 Y1613.530
G1 X 333.400 Y1627.300
G1 X 289.300 Y1578.430
G1 X 333.400 Y1529.560
G1 X 269.030 Y1543.330
G1 X 248.760 Y1480.690
F150
G1 Z  -3.000
F400
G1 X 228.500 Y1543.330
G1 X 164.120 Y1529.560
G1 X 208.230 Y1578.430
G1 X 164.120 Y1627.300
G1 X 228.500 Y1613.530
G1 X 248.760 Y1676.170
G1 X 269.030 Y1613.530
G1 X 333.400 Y1627.300
G1 X 289.300 Y1578.430
G1 X 333.400 Y1529.560
G1 X 269.030 Y1543.330
G1 X 248.760 Y1480.690
F150
G1 Z   3.000
G0 Z  15.000 
M9 M5

(* SHAPE Nr: 4 *)
G0 X 395.430 Y1531.400
M3 M8
G0 Z   3.000 
G1 Z  -1.500
F400
G1 X 375.170 Y1594.040
G1 X 310.790 Y1580.270
G1 X 354.900 Y1629.140
G1 X 310.790 Y1678.010
G1 X 375.170 Y1664.240
G1 X 395.430 Y1726.880
G1 X 415.700 Y1664.240
G1 X 480.070 Y1678.010
G1 X 435.970 Y1629.140
G1 X 480.070 Y1580.270
G1 X 415.700 Y1594.040
G1 X 395.430 Y1531.400
F150
G1 Z  -3.000
F400
G1 X 375.170 Y1594.040
G1 X 310.790 Y1580.270
G1 X 354.900 Y1629.140
G1 X 310.790 Y1678.010
G1 X 375.170 Y1664.240
G1 X 395.430 Y1726.880
G1 X 415.700 Y1664.240
G1 X 480.070 Y1678.010
G1 X 435.970 Y1629.140
G1 X 480.070 Y1580.270
G1 X 415.700 Y1594.040
G1 X 395.430 Y1531.400
F150
G1 Z   3.000
G0 Z  15.000 
M9 M5

(* SHAPE Nr: 5 *)
G0 X 560.780 Y1502.240
M3 M8
G0 Z   3.000 
G1 Z  -1.500
F400
G1 X 540.520 Y1564.880
G1 X 476.140 Y1551.110
G1 X 520.250 Y1599.980
G1 X 476.140 Y1648.850
G1 X 540.520 Y1635.080
G1 X 560.780 Y1697.720
G1 X 581.050 Y1635.080
G1 X 645.420 Y1648.850
G1 X 601.320 Y1599.980
G1 X 645.420 Y1551.110
G1 X 581.050 Y1564.880
G1 X 560.780 Y1502.240
F150
G1 Z  -3.000
F400
G1 X 540.520 Y1564.880
G1 X 476.140 Y1551.110
G1 X 520.250 Y1599.980
G1 X 476.140 Y1648.850
G1 X 540.520 Y1635.080
G1 X 560.780 Y1697.720
G1 X 581.050 Y1635.080
G1 X 645.420 Y1648.850
G1 X 601.320 Y1599.980
G1 X 645.420 Y1551.110
G1 X 581.050 Y1564.880
G1 X 560.780 Y1502.240
F150
G1 Z   3.000
G0 Z  15.000 
M9 M5

(* SHAPE Nr: 8 *)
G0 X 243.160 Y1690.950
M3 M8
G0 Z   3.000 
G1 Z  -1.500
F400
G1 X 256.930 Y1755.330
G1 X 194.290 Y1775.590
G1 X 256.930 Y1795.860
G1 X 243.160 Y1860.240
G1 X 292.030 Y1816.130
G1 X 340.900 Y1860.240
G1 X 327.130 Y1795.860
G1 X 389.770 Y1775.590
G1 X 327.130 Y1755.330
G1 X 340.900 Y1690.950
G1 X 292.030 Y1735.060
G1 X 243.160 Y1690.950
F150
G1 Z  -3.000
F400
G1 X 256.930 Y1755.330
G1 X 194.290 Y1775.590
G1 X 256.930 Y1795.860
G1 X 243.160 Y1860.240
G1 X 292.030 Y1816.130
G1 X 340.900 Y1860.240
G1 X 327.130 Y1795.860
G1 X 389.770 Y1775.590
G1 X 327.130 Y1755.330
G1 X 340.900 Y1690.950
G1 X 292.030 Y1735.060
G1 X 243.160 Y1690.950
F150
G1 Z   3.000
G0 Z  15.000 
M9 M5

(* SHAPE Nr: 9 *)
G0 X 443.620 Y1844.510
M3 M8
G0 Z   3.000 
G1 Z  -1.500
F400
G1 X 423.360 Y1907.150
G1 X 358.980 Y1893.380
G1 X 403.090 Y1942.250
G1 X 358.980 Y1991.120
G1 X 423.360 Y1977.350
G1 X 443.620 Y2039.990
G1 X 463.890 Y1977.350
G1 X 528.260 Y1991.120
G1 X 484.160 Y1942.250
G1 X 528.260 Y1893.380
G1 X 463.890 Y1907.150
G1 X 443.620 Y1844.510
F150
G1 Z  -3.000
F400
G1 X 423.360 Y1907.150
G1 X 358.980 Y1893.380
G1 X 403.090 Y1942.250
G1 X 358.980 Y1991.120
G1 X 423.360 Y1977.350
G1 X 443.620 Y2039.990
G1 X 463.890 Y1977.350
G1 X 528.260 Y1991.120
G1 X 484.160 Y1942.250
G1 X 528.260 Y1893.380
G1 X 463.890 Y1907.150
G1 X 443.620 Y1844.510
F150
G1 Z   3.000
G0 Z  15.000 
M9 M5

(* SHAPE Nr: 10 *)
G0 X 220.290 Y1870.710
M3 M8
G0 Z   3.000 
G1 Z  -1.500
F400
G1 X 234.060 Y1935.090
G1 X 171.420 Y1955.350
G1 X 234.060 Y1975.620
G1 X 220.290 Y2040.000
G1 X 269.160 Y1995.890
G1 X 318.030 Y2040.000
G1 X 304.260 Y1975.620
G1 X 366.900 Y1955.350
G1 X 304.260 Y1935.090
G1 X 318.030 Y1870.710
G1 X 269.160 Y1914.820
G1 X 220.290 Y1870.710
F150
G1 Z  -3.000
F400
G1 X 234.060 Y1935.090
G1 X 171.420 Y1955.350
G1 X 234.060 Y1975.620
G1 X 220.290 Y2040.000
G1 X 269.160 Y1995.890
G1 X 318.030 Y2040.000
G1 X 304.260 Y1975.620
G1 X 366.900 Y1955.350
G1 X 304.260 Y1935.090
G1 X 318.030 Y1870.710
G1 X 269.160 Y1914.820
G1 X 220.290 Y1870.710
F150
G1 Z   3.000
G0 Z  15.000 
M9 M5

(* SHAPE Nr: 11 *)
G0 X 569.190 Y1870.710
M3 M8
G0 Z   3.000 
G1 Z  -1.500
F400
G1 X 582.960 Y1935.090
G1 X 520.320 Y1955.350
G1 X 582.960 Y1975.620
G1 X 569.190 Y2040.000
G1 X 618.060 Y1995.890
G1 X 666.930 Y2040.000
G1 X 653.160 Y1975.620
G1 X 715.800 Y1955.350
G1 X 653.160 Y1935.090
G1 X 666.930 Y1870.710
G1 X 618.060 Y1914.820
G1 X 569.190 Y1870.710
F150
G1 Z  -3.000
F400
G1 X 582.960 Y1935.090
G1 X 520.320 Y1955.350
G1 X 582.960 Y1975.620
G1 X 569.190 Y2040.000
G1 X 618.060 Y1995.890
G1 X 666.930 Y2040.000
G1 X 653.160 Y1975.620
G1 X 715.800 Y1955.350
G1 X 653.160 Y1935.090
G1 X 666.930 Y1870.710
G1 X 618.060 Y1914.820
G1 X 569.190 Y1870.710
F150
G1 Z   3.000
G0 Z  15.000 
M9 M5

(* SHAPE Nr: 12 *)
G0 X 792.550 Y1844.510
M3 M8
G0 Z   3.000 
G1 Z  -1.500
F400
G1 X 772.290 Y1907.150
G1 X 707.910 Y1893.380
G1 X 752.020 Y1942.250
G1 X 707.910 Y1991.120
G1 X 772.290 Y1977.350
G1 X 792.550 Y2039.990
G1 X 812.820 Y1977.350
G1 X 877.190 Y1991.120
G1 X 833.090 Y1942.250
G1 X 877.190 Y1893.380
G1 X 812.820 Y1907.150
G1 X 792.550 Y1844.510
F150
G1 Z  -3.000
F400
G1 X 772.290 Y1907.150
G1 X 707.910 Y1893.380
G1 X 752.020 Y1942.250
G1 X 707.910 Y1991.120
G1 X 772.290 Y1977.350
G1 X 792.550 Y2039.990
G1 X 812.820 Y1977.350
G1 X 877.190 Y1991.120
G1 X 833.090 Y1942.250
G1 X 877.190 Y1893.380
G1 X 812.820 Y1907.150
G1 X 792.550 Y1844.510
F150
G1 Z   3.000
G0 Z  15.000 
M9 M5

(* SHAPE Nr: 13 *)
G0 X 758.240 Y1691.670
M3 M8
G0 Z   3.000 
G1 Z  -1.500
F400
G1 X 737.980 Y1754.310
G1 X 673.600 Y1740.540
G1 X 717.710 Y1789.410
G1 X 673.600 Y1838.280
G1 X 737.980 Y1824.510
G1 X 758.240 Y1887.150
G1 X 778.510 Y1824.510
G1 X 842.880 Y1838.280
G1 X 798.780 Y1789.410
G1 X 842.880 Y1740.540
G1 X 778.510 Y1754.310
G1 X 758.240 Y1691.670
F150
G1 Z  -3.000
F400
G1 X 737.980 Y1754.310
G1 X 673.600 Y1740.540
G1 X 717.710 Y1789.410
G1 X 673.600 Y1838.280
G1 X 737.980 Y1824.510
G1 X 758.240 Y1887.150
G1 X 778.510 Y1824.510
G1 X 842.880 Y1838.280
G1 X 798.780 Y1789.410
G1 X 842.880 Y1740.540
G1 X 778.510 Y1754.310
G1 X 758.240 Y1691.670
F150
G1 Z   3.000
G0 Z  15.000 
M9 M5

(* SHAPE Nr: 14 *)
G0 X 773.470 Y1495.500
M3 M8
G0 Z   3.000 
G1 Z  -1.500
F400
G1 X 753.210 Y1558.140
G1 X 688.830 Y1544.370
G1 X 732.940 Y1593.240
G1 X 688.830 Y1642.110
G1 X 753.210 Y1628.340
G1 X 773.470 Y1690.980
G1 X 793.740 Y1628.340
G1 X 858.110 Y1642.110
G1 X 814.010 Y1593.240
G1 X 858.110 Y1544.370
G1 X 793.740 Y1558.140
G1 X 773.470 Y1495.500
F150
G1 Z  -3.000
F400
G1 X 753.210 Y1558.140
G1 X 688.830 Y1544.370
G1 X 732.940 Y1593.240
G1 X 688.830 Y1642.110
G1 X 753.210 Y1628.340
G1 X 773.470 Y1690.980
G1 X 793.740 Y1628.340
G1 X 858.110 Y1642.110
G1 X 814.010 Y1593.240
G1 X 858.110 Y1544.370
G1 X 793.740 Y1558.140
G1 X 773.470 Y1495.500
F150
G1 Z   3.000
G0 Z  15.000 
M9 M5

(* SHAPE Nr: 15 *)
G0 X 801.110 Y1337.680
M3 M8
G0 Z   3.000 
G1 Z  -1.500
F400
G1 X 780.850 Y1400.320
G1 X 716.470 Y1386.550
G1 X 760.580 Y1435.420
G1 X 716.470 Y1484.290
G1 X 780.850 Y1470.520
G1 X 801.110 Y1533.160
G1 X 821.380 Y1470.520
G1 X 885.750 Y1484.290
G1 X 841.650 Y1435.420
G1 X 885.750 Y1386.550
G1 X 821.380 Y1400.320
G1 X 801.110 Y1337.680
F150
G1 Z  -3.000
F400
G1 X 780.850 Y1400.320
G1 X 716.470 Y1386.550
G1 X 760.580 Y1435.420
G1 X 716.470 Y1484.290
G1 X 780.850 Y1470.520
G1 X 801.110 Y1533.160
G1 X 821.380 Y1470.520
G1 X 885.750 Y1484.290
G1 X 841.650 Y1435.420
G1 X 885.750 Y1386.550
G1 X 821.380 Y1400.320
G1 X 801.110 Y1337.680
F150
G1 Z   3.000
G0 Z  15.000 
M9 M5

(* SHAPE Nr: 16 *)
G0 X 746.790 Y1183.130
M3 M8
G0 Z   3.000 
G1 Z  -1.500
F400
G1 X 790.900 Y1232.000
G1 X 746.790 Y1280.870
G1 X 811.170 Y1267.100
G1 X 831.430 Y1329.740
G1 X 851.700 Y1267.100
G1 X 916.070 Y1280.870
G1 X 871.970 Y1232.000
G1 X 916.070 Y1183.130
G1 X 851.700 Y1196.900
G1 X 831.430 Y1134.260
G1 X 811.170 Y1196.900
G1 X 746.790 Y1183.130
F150
G1 Z  -3.000
F400
G1 X 790.900 Y1232.000
G1 X 746.790 Y1280.870
G1 X 811.170 Y1267.100
G1 X 831.430 Y1329.740
G1 X 851.700 Y1267.100
G1 X 916.070 Y1280.870
G1 X 871.970 Y1232.000
G1 X 916.070 Y1183.130
G1 X 851.700 Y1196.900
G1 X 831.430 Y1134.260
G1 X 811.170 Y1196.900
G1 X 746.790 Y1183.130
F150
G1 Z   3.000
G0 Z  15.000 
M9 M5

(* SHAPE Nr: 17 *)
G0 X 903.240 Y1227.300
M3 M8
G0 Z   3.000 
G1 Z  -1.500
F400
G1 X 947.350 Y1276.170
G1 X 903.240 Y1325.040
G1 X 967.620 Y1311.270
G1 X 987.880 Y1373.910
G1 X1008.150 Y1311.270
G1 X1072.520 Y1325.040
G1 X1028.420 Y1276.170
G1 X1072.520 Y1227.300
G1 X1008.150 Y1241.070
G1 X 987.880 Y1178.430
G1 X 967.620 Y1241.070
G1 X 903.240 Y1227.300
F150
G1 Z  -3.000
F400
G1 X 947.350 Y1276.170
G1 X 903.240 Y1325.040
G1 X 967.620 Y1311.270
G1 X 987.880 Y1373.910
G1 X1008.150 Y1311.270
G1 X1072.520 Y1325.040
G1 X1028.420 Y1276.170
G1 X1072.520 Y1227.300
G1 X1008.150 Y1241.070
G1 X 987.880 Y1178.430
G1 X 967.620 Y1241.070
G1 X 903.240 Y1227.300
F150
G1 Z   3.000
G0 Z  15.000 
M9 M5

(* SHAPE Nr: 18 *)
G0 X1100.120 Y1238.430
M3 M8
G0 Z   3.000 
G1 Z  -1.500
F400
G1 X1144.230 Y1287.300
G1 X1100.120 Y1336.170
G1 X1164.500 Y1322.400
G1 X1184.760 Y1385.040
G1 X1205.030 Y1322.400
G1 X1269.400 Y1336.170
G1 X1225.300 Y1287.300
G1 X1269.400 Y1238.430
G1 X1205.030 Y1252.200
G1 X1184.760 Y1189.560
G1 X1164.500 Y1252.200
G1 X1100.120 Y1238.430
F150
G1 Z  -3.000
F400
G1 X1144.230 Y1287.300
G1 X1100.120 Y1336.170
G1 X1164.500 Y1322.400
G1 X1184.760 Y1385.040
G1 X1205.030 Y1322.400
G1 X1269.400 Y1336.170
G1 X1225.300 Y1287.300
G1 X1269.400 Y1238.430
G1 X1205.030 Y1252.200
G1 X1184.760 Y1189.560
G1 X1164.500 Y1252.200
G1 X1100.120 Y1238.430
F150
G1 Z   3.000
G0 Z  15.000 
M9 M5

(* SHAPE Nr: 50 *)
G0 X1275.420 Y1870.710
M3 M8
G0 Z   3.000 
G1 Z  -1.500
F400
G1 X1289.190 Y1935.090
G1 X1226.550 Y1955.350
G1 X1289.190 Y1975.620
G1 X1275.420 Y2040.000
G1 X1324.290 Y1995.890
G1 X1373.160 Y2040.000
G1 X1359.390 Y1975.620
G1 X1422.030 Y1955.350
G1 X1359.390 Y1935.090
G1 X1373.160 Y1870.710
G1 X1324.290 Y1914.820
G1 X1275.420 Y1870.710
F150
G1 Z  -3.000
F400
G1 X1289.190 Y1935.090
G1 X1226.550 Y1955.350
G1 X1289.190 Y1975.620
G1 X1275.420 Y2040.000
G1 X1324.290 Y1995.890
G1 X1373.160 Y2040.000
G1 X1359.390 Y1975.620
G1 X1422.030 Y1955.350
G1 X1359.390 Y1935.090
G1 X1373.160 Y1870.710
G1 X1324.290 Y1914.820
G1 X1275.420 Y1870.710
F150
G1 Z   3.000
G0 Z  15.000 
M9 M5

(* SHAPE Nr: 51 *)
G0 X1065.180 Y1893.380
M3 M8
G0 Z   3.000 
G1 Z  -1.500
F400
G1 X1109.290 Y1942.250
G1 X1065.180 Y1991.120
G1 X1129.560 Y1977.350
G1 X1149.820 Y2039.990
G1 X1170.090 Y1977.350
G1 X1234.460 Y1991.120
G1 X1190.360 Y1942.250
G1 X1234.460 Y1893.380
G1 X1170.090 Y1907.150
G1 X1149.820 Y1844.510
G1 X1129.560 Y1907.150
G1 X1065.180 Y1893.380
F150
G1 Z  -3.000
F400
G1 X1109.290 Y1942.250
G1 X1065.180 Y1991.120
G1 X1129.560 Y1977.350
G1 X1149.820 Y2039.990
G1 X1170.090 Y1977.350
G1 X1234.460 Y1991.120
G1 X1190.360 Y1942.250
G1 X1234.460 Y1893.380
G1 X1170.090 Y1907.150
G1 X1149.820 Y1844.510
G1 X1129.560 Y1907.150
G1 X1065.180 Y1893.380
F150
G1 Z   3.000
G0 Z  15.000 
M9 M5

(* SHAPE Nr: 52 *)
G0 X 918.190 Y1870.710
M3 M8
G0 Z   3.000 
G1 Z  -1.500
F400
G1 X 931.960 Y1935.090
G1 X 869.320 Y1955.350
G1 X 931.960 Y1975.620
G1 X 918.190 Y2040.000
G1 X 967.060 Y1995.890
G1 X1015.930 Y2040.000
G1 X1002.160 Y1975.620
G1 X1064.800 Y1955.350
G1 X1002.160 Y1935.090
G1 X1015.930 Y1870.710
G1 X 967.060 Y1914.820
G1 X 918.190 Y1870.710
F150
G1 Z  -3.000
F400
G1 X 931.960 Y1935.090
G1 X 869.320 Y1955.350
G1 X 931.960 Y1975.620
G1 X 918.190 Y2040.000
G1 X 967.060 Y1995.890
G1 X1015.930 Y2040.000
G1 X1002.160 Y1975.620
G1 X1064.800 Y1955.350
G1 X1002.160 Y1935.090
G1 X1015.930 Y1870.710
G1 X 967.060 Y1914.820
G1 X 918.190 Y1870.710
F150
G1 Z   3.000
G0 Z  15.000 
M9 M5

(* SHAPE Nr: 53 *)
G0 X 960.330 Y1755.070
M3 M8
G0 Z   3.000 
G1 Z  -1.500
F400
G1 X1004.440 Y1803.940
G1 X 960.330 Y1852.810
G1 X1024.710 Y1839.040
G1 X1044.970 Y1901.680
G1 X1065.240 Y1839.040
G1 X1129.610 Y1852.810
G1 X1085.510 Y1803.940
G1 X1129.610 Y1755.070
G1 X1065.240 Y1768.840
G1 X1044.970 Y1706.200
G1 X1024.710 Y1768.840
G1 X 960.330 Y1755.070
F150
G1 Z  -3.000
F400
G1 X1004.440 Y1803.940
G1 X 960.330 Y1852.810
G1 X1024.710 Y1839.040
G1 X1044.970 Y1901.680
G1 X1065.240 Y1839.040
G1 X1129.610 Y1852.810
G1 X1085.510 Y1803.940
G1 X1129.610 Y1755.070
G1 X1065.240 Y1768.840
G1 X1044.970 Y1706.200
G1 X1024.710 Y1768.840
G1 X 960.330 Y1755.070
F150
G1 Z   3.000
G0 Z  15.000 
M9 M5

(* SHAPE Nr: 54 *)
G0 X1115.140 Y1714.210
M3 M8
G0 Z   3.000 
G1 Z  -1.500
F400
G1 X1159.250 Y1763.080
G1 X1115.140 Y1811.950
G1 X1179.520 Y1798.180
G1 X1199.780 Y1860.820
G1 X1220.050 Y1798.180
G1 X1284.420 Y1811.950
G1 X1240.320 Y1763.080
G1 X1284.420 Y1714.210
G1 X1220.050 Y1727.980
G1 X1199.780 Y1665.340
G1 X1179.520 Y1727.980
G1 X1115.140 Y1714.210
F150
G1 Z  -3.000
F400
G1 X1159.250 Y1763.080
G1 X1115.140 Y1811.950
G1 X1179.520 Y1798.180
G1 X1199.780 Y1860.820
G1 X1220.050 Y1798.180
G1 X1284.420 Y1811.950
G1 X1240.320 Y1763.080
G1 X1284.420 Y1714.210
G1 X1220.050 Y1727.980
G1 X1199.780 Y1665.340
G1 X1179.520 Y1727.980
G1 X1115.140 Y1714.210
F150
G1 Z   3.000
G0 Z  15.000 
M9 M5

(* SHAPE Nr: 55 *)
G0 X1141.780 Y1553.290
M3 M8
G0 Z   3.000 
G1 Z  -1.500
F400
G1 X1185.890 Y1602.160
G1 X1141.780 Y1651.030
G1 X1206.160 Y1637.260
G1 X1226.420 Y1699.900
G1 X1246.690 Y1637.260
G1 X1311.060 Y1651.030
G1 X1266.960 Y1602.160
G1 X1311.060 Y1553.290
G1 X1246.690 Y1567.060
G1 X1226.420 Y1504.420
G1 X1206.160 Y1567.060
G1 X1141.780 Y1553.290
F150
G1 Z  -3.000
F400
G1 X1185.890 Y1602.160
G1 X1141.780 Y1651.030
G1 X1206.160 Y1637.260
G1 X1226.420 Y1699.900
G1 X1246.690 Y1637.260
G1 X1311.060 Y1651.030
G1 X1266.960 Y1602.160
G1 X1311.060 Y1553.290
G1 X1246.690 Y1567.060
G1 X1226.420 Y1504.420
G1 X1206.160 Y1567.060
G1 X1141.780 Y1553.290
F150
G1 Z   3.000
G0 Z  15.000 
M9 M5

(* SHAPE Nr: 58 *)
G0 X1170.580 Y1399.000
M3 M8
G0 Z   3.000 
G1 Z  -1.500
F400
G1 X1214.690 Y1447.870
G1 X1170.580 Y1496.740
G1 X1234.960 Y1482.970
G1 X1255.220 Y1545.610
G1 X1275.490 Y1482.970
G1 X1339.860 Y1496.740
G1 X1295.760 Y1447.870
G1 X1339.860 Y1399.000
G1 X1275.490 Y1412.770
G1 X1255.220 Y1350.130
G1 X1234.960 Y1412.770
G1 X1170.580 Y1399.000
F150
G1 Z  -3.000
F400
G1 X1214.690 Y1447.870
G1 X1170.580 Y1496.740
G1 X1234.960 Y1482.970
G1 X1255.220 Y1545.610
G1 X1275.490 Y1482.970
G1 X1339.860 Y1496.740
G1 X1295.760 Y1447.870
G1 X1339.860 Y1399.000
G1 X1275.490 Y1412.770
G1 X1255.220 Y1350.130
G1 X1234.960 Y1412.770
G1 X1170.580 Y1399.000
F150
G1 Z   3.000
G0 Z  15.000 
M9 M5

(* SHAPE Nr: 60 *)
G0 X 990.200 Y 852.830
M3 M8
G0 Z   3.000 
G1 Z  -1.500
F400
G1 X1034.310 Y 901.700
G1 X 990.200 Y 950.570
G1 X1054.580 Y 936.800
G1 X1074.840 Y 999.440
G1 X1095.110 Y 936.800
G1 X1159.480 Y 950.570
G1 X1115.380 Y 901.700
G1 X1159.480 Y 852.830
G1 X1095.110 Y 866.600
G1 X1074.840 Y 803.960
G1 X1054.580 Y 866.600
G1 X 990.200 Y 852.830
F150
G1 Z  -3.000
F400
G1 X1034.310 Y 901.700
G1 X 990.200 Y 950.570
G1 X1054.580 Y 936.800
G1 X1074.840 Y 999.440
G1 X1095.110 Y 936.800
G1 X1159.480 Y 950.570
G1 X1115.380 Y 901.700
G1 X1159.480 Y 852.830
G1 X1095.110 Y 866.600
G1 X1074.840 Y 803.960
G1 X1054.580 Y 866.600
G1 X 990.200 Y 852.830
F150
G1 Z   3.000
G0 Z  15.000 
M9 M5

(* SHAPE Nr: 61 *)
G0 X 876.020 Y 962.140
M3 M8
G0 Z   3.000 
G1 Z  -1.500
F400
G1 X 920.130 Y1011.010
G1 X 876.020 Y1059.880
G1 X 940.400 Y1046.110
G1 X 960.660 Y1108.750
G1 X 980.930 Y1046.110
G1 X1045.300 Y1059.880
G1 X1001.200 Y1011.010
G1 X1045.300 Y 962.140
G1 X 980.930 Y 975.910
G1 X 960.660 Y 913.270
G1 X 940.400 Y 975.910
G1 X 876.020 Y 962.140
F150
G1 Z  -3.000
F400
G1 X 920.130 Y1011.010
G1 X 876.020 Y1059.880
G1 X 940.400 Y1046.110
G1 X 960.660 Y1108.750
G1 X 980.930 Y1046.110
G1 X1045.300 Y1059.880
G1 X1001.200 Y1011.010
G1 X1045.300 Y 962.140
G1 X 980.930 Y 975.910
G1 X 960.660 Y 913.270
G1 X 940.400 Y 975.910
G1 X 876.020 Y 962.140
F150
G1 Z   3.000
G0 Z  15.000 
M9 M5

(* SHAPE Nr: 63 *)
G0 X 724.960 Y1007.160
M3 M8
G0 Z   3.000 
G1 Z  -1.500
F400
G1 X 769.070 Y1056.030
G1 X 724.960 Y1104.900
G1 X 789.340 Y1091.130
G1 X 809.600 Y1153.770
G1 X 829.870 Y1091.130
G1 X 894.240 Y1104.900
G1 X 850.140 Y1056.030
G1 X 894.240 Y1007.160
G1 X 829.870 Y1020.930
G1 X 809.600 Y 958.290
G1 X 789.340 Y1020.930
G1 X 724.960 Y1007.160
F150
G1 Z  -3.000
F400
G1 X 769.070 Y1056.030
G1 X 724.960 Y1104.900
G1 X 789.340 Y1091.130
G1 X 809.600 Y1153.770
G1 X 829.870 Y1091.130
G1 X 894.240 Y1104.900
G1 X 850.140 Y1056.030
G1 X 894.240 Y1007.160
G1 X 829.870 Y1020.930
G1 X 809.600 Y 958.290
G1 X 789.340 Y1020.930
G1 X 724.960 Y1007.160
F150
G1 Z   3.000
G0 Z  15.000 
M9 M5

(* SHAPE Nr: 64 *)
G0 X 553.570 Y1029.680
M3 M8
G0 Z   3.000 
G1 Z  -1.500
F400
G1 X 597.680 Y1078.550
G1 X 553.570 Y1127.420
G1 X 617.950 Y1113.650
G1 X 638.210 Y1176.290
G1 X 658.480 Y1113.650
G1 X 722.850 Y1127.420
G1 X 678.750 Y1078.550
G1 X 722.850 Y1029.680
G1 X 658.480 Y1043.450
G1 X 638.210 Y 980.810
G1 X 617.950 Y1043.450
G1 X 553.570 Y1029.680
F150
G1 Z  -3.000
F400
G1 X 597.680 Y1078.550
G1 X 553.570 Y1127.420
G1 X 617.950 Y1113.650
G1 X 638.210 Y1176.290
G1 X 658.480 Y1113.650
G1 X 722.850 Y1127.420
G1 X 678.750 Y1078.550
G1 X 722.850 Y1029.680
G1 X 658.480 Y1043.450
G1 X 638.210 Y 980.810
G1 X 617.950 Y1043.450
G1 X 553.570 Y1029.680
F150
G1 Z   3.000
G0 Z  15.000 
M9 M5

(* SHAPE Nr: 66 *)
G0 X 467.240 Y 903.190
M3 M8
G0 Z   3.000 
G1 Z  -1.500
F400
G1 X 446.980 Y 965.830
G1 X 382.600 Y 952.060
G1 X 426.710 Y1000.930
G1 X 382.600 Y1049.800
G1 X 446.980 Y1036.030
G1 X 467.240 Y1098.670
G1 X 487.510 Y1036.030
G1 X 551.880 Y1049.800
G1 X 507.780 Y1000.930
G1 X 551.880 Y 952.060
G1 X 487.510 Y 965.830
G1 X 467.240 Y 903.190
F150
G1 Z  -3.000
F400
G1 X 446.980 Y 965.830
G1 X 382.600 Y 952.060
G1 X 426.710 Y1000.930
G1 X 382.600 Y1049.800
G1 X 446.980 Y1036.030
G1 X 467.240 Y1098.670
G1 X 487.510 Y1036.030
G1 X 551.880 Y1049.800
G1 X 507.780 Y1000.930
G1 X 551.880 Y 952.060
G1 X 487.510 Y 965.830
G1 X 467.240 Y 903.190
F150
G1 Z   3.000
G0 Z  15.000 
M9 M5

(* SHAPE Nr: 67 *)
G0 X 274.390 Y 820.320
M3 M8
G0 Z   3.000 
G1 Z  -1.500
F400
G1 X 288.160 Y 884.700
G1 X 225.520 Y 904.960
G1 X 288.160 Y 925.230
G1 X 274.390 Y 989.610
G1 X 323.260 Y 945.500
G1 X 372.130 Y 989.610
G1 X 358.360 Y 925.230
G1 X 421.000 Y 904.960
G1 X 358.360 Y 884.700
G1 X 372.130 Y 820.320
G1 X 323.260 Y 864.430
G1 X 274.390 Y 820.320
F150
G1 Z  -3.000
F400
G1 X 288.160 Y 884.700
G1 X 225.520 Y 904.960
G1 X 288.160 Y 925.230
G1 X 274.390 Y 989.610
G1 X 323.260 Y 945.500
G1 X 372.130 Y 989.610
G1 X 358.360 Y 925.230
G1 X 421.000 Y 904.960
G1 X 358.360 Y 884.700
G1 X 372.130 Y 820.320
G1 X 323.260 Y 864.430
G1 X 274.390 Y 820.320
F150
G1 Z   3.000
G0 Z  15.000 
M9 M5

(* SHAPE Nr: 69 *)
G0 X 315.410 Y 637.430
M3 M8
G0 Z   3.000 
G1 Z  -1.500
F400
G1 X 295.150 Y 700.070
G1 X 230.770 Y 686.300
G1 X 274.880 Y 735.170
G1 X 230.770 Y 784.040
G1 X 295.150 Y 770.270
G1 X 315.410 Y 832.910
G1 X 335.680 Y 770.270
G1 X 400.050 Y 784.040
G1 X 355.950 Y 735.170
G1 X 400.050 Y 686.300
G1 X 335.680 Y 700.070
G1 X 315.410 Y 637.430
F150
G1 Z  -3.000
F400
G1 X 295.150 Y 700.070
G1 X 230.770 Y 686.300
G1 X 274.880 Y 735.170
G1 X 230.770 Y 784.040
G1 X 295.150 Y 770.270
G1 X 315.410 Y 832.910
G1 X 335.680 Y 770.270
G1 X 400.050 Y 784.040
G1 X 355.950 Y 735.170
G1 X 400.050 Y 686.300
G1 X 335.680 Y 700.070
G1 X 315.410 Y 637.430
F150
G1 Z   3.000
G0 Z  15.000 
M9 M5

(* SHAPE Nr: 70 *)
G0 X 254.120 Y 515.180
M3 M8
G0 Z   3.000 
G1 Z  -1.500
F400
G1 X 298.230 Y 564.050
G1 X 254.120 Y 612.920
G1 X 318.500 Y 599.150
G1 X 338.760 Y 661.790
G1 X 359.030 Y 599.150
G1 X 423.400 Y 612.920
G1 X 379.300 Y 564.050
G1 X 423.400 Y 515.180
G1 X 359.030 Y 528.950
G1 X 338.760 Y 466.310
G1 X 318.500 Y 528.950
G1 X 254.120 Y 515.180
F150
G1 Z  -3.000
F400
G1 X 298.230 Y 564.050
G1 X 254.120 Y 612.920
G1 X 318.500 Y 599.150
G1 X 338.760 Y 661.790
G1 X 359.030 Y 599.150
G1 X 423.400 Y 612.920
G1 X 379.300 Y 564.050
G1 X 423.400 Y 515.180
G1 X 359.030 Y 528.950
G1 X 338.760 Y 466.310
G1 X 318.500 Y 528.950
G1 X 254.120 Y 515.180
F150
G1 Z   3.000
G0 Z  15.000 
M9 M5

(* SHAPE Nr: 71 *)
G0 X 183.310 Y 354.540
M3 M8
G0 Z   3.000 
G1 Z  -1.500
F400
G1 X 227.420 Y 403.410
G1 X 183.310 Y 452.280
G1 X 247.690 Y 438.510
G1 X 267.950 Y 501.150
G1 X 288.220 Y 438.510
G1 X 352.590 Y 452.280
G1 X 308.490 Y 403.410
G1 X 352.590 Y 354.540
G1 X 288.220 Y 368.310
G1 X 267.950 Y 305.670
G1 X 247.690 Y 368.310
G1 X 183.310 Y 354.540
F150
G1 Z  -3.000
F400
G1 X 227.420 Y 403.410
G1 X 183.310 Y 452.280
G1 X 247.690 Y 438.510
G1 X 267.950 Y 501.150
G1 X 288.220 Y 438.510
G1 X 352.590 Y 452.280
G1 X 308.490 Y 403.410
G1 X 352.590 Y 354.540
G1 X 288.220 Y 368.310
G1 X 267.950 Y 305.670
G1 X 247.690 Y 368.310
G1 X 183.310 Y 354.540
F150
G1 Z   3.000
G0 Z  15.000 
M9 M5

(* SHAPE Nr: 72 *)
G0 X 362.780 Y 366.410
M3 M8
G0 Z   3.000 
G1 Z  -1.500
F400
G1 X 406.890 Y 415.280
G1 X 362.780 Y 464.150
G1 X 427.160 Y 450.380
G1 X 447.420 Y 513.020
G1 X 467.690 Y 450.380
G1 X 532.060 Y 464.150
G1 X 487.960 Y 415.280
G1 X 532.060 Y 366.410
G1 X 467.690 Y 380.180
G1 X 447.420 Y 317.540
G1 X 427.160 Y 380.180
G1 X 362.780 Y 366.410
F150
G1 Z  -3.000
F400
G1 X 406.890 Y 415.280
G1 X 362.780 Y 464.150
G1 X 427.160 Y 450.380
G1 X 447.420 Y 513.020
G1 X 467.690 Y 450.380
G1 X 532.060 Y 464.150
G1 X 487.960 Y 415.280
G1 X 532.060 Y 366.410
G1 X 467.690 Y 380.180
G1 X 447.420 Y 317.540
G1 X 427.160 Y 380.180
G1 X 362.780 Y 366.410
F150
G1 Z   3.000
G0 Z  15.000 
M9 M5

(* SHAPE Nr: 73 *)
G0 X 433.580 Y 527.110
M3 M8
G0 Z   3.000 
G1 Z  -1.500
F400
G1 X 477.690 Y 575.980
G1 X 433.580 Y 624.850
G1 X 497.960 Y 611.080
G1 X 518.220 Y 673.720
G1 X 538.490 Y 611.080
G1 X 602.860 Y 624.850
G1 X 558.760 Y 575.980
G1 X 602.860 Y 527.110
G1 X 538.490 Y 540.880
G1 X 518.220 Y 478.240
G1 X 497.960 Y 540.880
G1 X 433.580 Y 527.110
F150
G1 Z  -3.000
F400
G1 X 477.690 Y 575.980
G1 X 433.580 Y 624.850
G1 X 497.960 Y 611.080
G1 X 518.220 Y 673.720
G1 X 538.490 Y 611.080
G1 X 602.860 Y 624.850
G1 X 558.760 Y 575.980
G1 X 602.860 Y 527.110
G1 X 538.490 Y 540.880
G1 X 518.220 Y 478.240
G1 X 497.960 Y 540.880
G1 X 433.580 Y 527.110
F150
G1 Z   3.000
G0 Z  15.000 
M9 M5

(* SHAPE Nr: 74 *)
G0 X 580.710 Y 477.720
M3 M8
G0 Z   3.000 
G1 Z  -1.500
F400
G1 X 624.820 Y 526.590
G1 X 580.710 Y 575.460
G1 X 645.090 Y 561.690
G1 X 665.350 Y 624.330
G1 X 685.620 Y 561.690
G1 X 749.990 Y 575.460
G1 X 705.890 Y 526.590
G1 X 749.990 Y 477.720
G1 X 685.620 Y 491.490
G1 X 665.350 Y 428.850
G1 X 645.090 Y 491.490
G1 X 580.710 Y 477.720
F150
G1 Z  -3.000
F400
G1 X 624.820 Y 526.590
G1 X 580.710 Y 575.460
G1 X 645.090 Y 561.690
G1 X 665.350 Y 624.330
G1 X 685.620 Y 561.690
G1 X 749.990 Y 575.460
G1 X 705.890 Y 526.590
G1 X 749.990 Y 477.720
G1 X 685.620 Y 491.490
G1 X 665.350 Y 428.850
G1 X 645.090 Y 491.490
G1 X 580.710 Y 477.720
F150
G1 Z   3.000
G0 Z  15.000 
M9 M5

(* SHAPE Nr: 75 *)
G0 X 607.610 Y 317.550
M3 M8
G0 Z   3.000 
G1 Z  -1.500
F400
G1 X 651.720 Y 366.420
G1 X 607.610 Y 415.290
G1 X 671.990 Y 401.520
G1 X 692.250 Y 464.160
G1 X 712.520 Y 401.520
G1 X 776.890 Y 415.290
G1 X 732.790 Y 366.420
G1 X 776.890 Y 317.550
G1 X 712.520 Y 331.320
G1 X 692.250 Y 268.680
G1 X 671.990 Y 331.320
G1 X 607.610 Y 317.550
F150
G1 Z  -3.000
F400
G1 X 651.720 Y 366.420
G1 X 607.610 Y 415.290
G1 X 671.990 Y 401.520
G1 X 692.250 Y 464.160
G1 X 712.520 Y 401.520
G1 X 776.890 Y 415.290
G1 X 732.790 Y 366.420
G1 X 776.890 Y 317.550
G1 X 712.520 Y 331.320
G1 X 692.250 Y 268.680
G1 X 671.990 Y 331.320
G1 X 607.610 Y 317.550
F150
G1 Z   3.000
G0 Z  15.000 
M9 M5

(* SHAPE Nr: 76 *)
G0 X 414.040 Y 116.740
M3 M8
G0 Z   3.000 
G1 Z  -1.500
F400
G1 X 476.680 Y 137.010
G1 X 462.910 Y 201.390
G1 X 511.780 Y 157.280
G1 X 560.650 Y 201.390
G1 X 546.880 Y 137.010
G1 X 609.520 Y 116.740
G1 X 546.880 Y  96.480
G1 X 560.650 Y  32.100
G1 X 511.780 Y  76.210
G1 X 462.910 Y  32.100
G1 X 476.680 Y  96.480
G1 X 414.040 Y 116.740
F150
G1 Z  -3.000
F400
G1 X 476.680 Y 137.010
G1 X 462.910 Y 201.390
G1 X 511.780 Y 157.280
G1 X 560.650 Y 201.390
G1 X 546.880 Y 137.010
G1 X 609.520 Y 116.740
G1 X 546.880 Y  96.480
G1 X 560.650 Y  32.100
G1 X 511.780 Y  76.210
G1 X 462.910 Y  32.100
G1 X 476.680 Y  96.480
G1 X 414.040 Y 116.740
F150
G1 Z   3.000
G0 Z  15.000 
M9 M5

(* SHAPE Nr: 77 *)
G0 X 597.300 Y  76.200
M3 M8
G0 Z   3.000 
G1 Z  -1.500
F400
G1 X 641.410 Y 125.070
G1 X 597.300 Y 173.940
G1 X 661.680 Y 160.170
G1 X 681.940 Y 222.810
G1 X 702.210 Y 160.170
G1 X 766.580 Y 173.940
G1 X 722.480 Y 125.070
G1 X 766.580 Y  76.200
G1 X 702.210 Y  89.970
G1 X 681.940 Y  27.330
G1 X 661.680 Y  89.970
G1 X 597.300 Y  76.200
F150
G1 Z  -3.000
F400
G1 X 641.410 Y 125.070
G1 X 597.300 Y 173.940
G1 X 661.680 Y 160.170
G1 X 681.940 Y 222.810
G1 X 702.210 Y 160.170
G1 X 766.580 Y 173.940
G1 X 722.480 Y 125.070
G1 X 766.580 Y  76.200
G1 X 702.210 Y  89.970
G1 X 681.940 Y  27.330
G1 X 661.680 Y  89.970
G1 X 597.300 Y  76.200
F150
G1 Z   3.000
G0 Z  15.000 
M9 M5

(* SHAPE Nr: 78 *)
G0 X 773.880 Y  59.470
M3 M8
G0 Z   3.000 
G1 Z  -1.500
F400
G1 X 817.990 Y 108.340
G1 X 773.880 Y 157.210
G1 X 838.260 Y 143.440
G1 X 858.520 Y 206.080
G1 X 878.790 Y 143.440
G1 X 943.160 Y 157.210
G1 X 899.060 Y 108.340
G1 X 943.160 Y  59.470
G1 X 878.790 Y  73.240
G1 X 858.520 Y  10.600
G1 X 838.260 Y  73.240
G1 X 773.880 Y  59.470
F150
G1 Z  -3.000
F400
G1 X 817.990 Y 108.340
G1 X 773.880 Y 157.210
G1 X 838.260 Y 143.440
G1 X 858.520 Y 206.080
G1 X 878.790 Y 143.440
G1 X 943.160 Y 157.210
G1 X 899.060 Y 108.340
G1 X 943.160 Y  59.470
G1 X 878.790 Y  73.240
G1 X 858.520 Y  10.600
G1 X 838.260 Y  73.240
G1 X 773.880 Y  59.470
F150
G1 Z   3.000
G0 Z  15.000 
M9 M5

(* SHAPE Nr: 79 *)
G0 X 931.480 Y 117.270
M3 M8
G0 Z   3.000 
G1 Z  -1.500
F400
G1 X 994.120 Y 137.540
G1 X 980.350 Y 201.920
G1 X1029.220 Y 157.810
G1 X1078.090 Y 201.920
G1 X1064.320 Y 137.540
G1 X1126.960 Y 117.270
G1 X1064.320 Y  97.010
G1 X1078.090 Y  32.630
G1 X1029.220 Y  76.740
G1 X 980.350 Y  32.630
G1 X 994.120 Y  97.010
G1 X 931.480 Y 117.270
F150
G1 Z  -3.000
F400
G1 X 994.120 Y 137.540
G1 X 980.350 Y 201.920
G1 X1029.220 Y 157.810
G1 X1078.090 Y 201.920
G1 X1064.320 Y 137.540
G1 X1126.960 Y 117.270
G1 X1064.320 Y  97.010
G1 X1078.090 Y  32.630
G1 X1029.220 Y  76.740
G1 X 980.350 Y  32.630
G1 X 994.120 Y  97.010
G1 X 931.480 Y 117.270
F150
G1 Z   3.000
G0 Z  15.000 
M9 M5

(* SHAPE Nr: 80 *)
G0 X1115.100 Y  77.080
M3 M8
G0 Z   3.000 
G1 Z  -1.500
F400
G1 X1159.210 Y 125.950
G1 X1115.100 Y 174.820
G1 X1179.480 Y 161.050
G1 X1199.740 Y 223.690
G1 X1220.010 Y 161.050
G1 X1284.380 Y 174.820
G1 X1240.280 Y 125.950
G1 X1284.380 Y  77.080
G1 X1220.010 Y  90.850
G1 X1199.740 Y  28.210
G1 X1179.480 Y  90.850
G1 X1115.100 Y  77.080
F150
G1 Z  -3.000
F400
G1 X1159.210 Y 125.950
G1 X1115.100 Y 174.820
G1 X1179.480 Y 161.050
G1 X1199.740 Y 223.690
G1 X1220.010 Y 161.050
G1 X1284.380 Y 174.820
G1 X1240.280 Y 125.950
G1 X1284.380 Y  77.080
G1 X1220.010 Y  90.850
G1 X1199.740 Y  28.210
G1 X1179.480 Y  90.850
G1 X1115.100 Y  77.080
F150
G1 Z   3.000
G0 Z  15.000 
M9 M5

(* SHAPE Nr: 81 *)
G0 X 972.370 Y 315.650
M3 M8
G0 Z   3.000 
G1 Z  -1.500
F400
G1 X1016.480 Y 364.520
G1 X 972.370 Y 413.390
G1 X1036.750 Y 399.620
G1 X1057.010 Y 462.260
G1 X1077.280 Y 399.620
G1 X1141.650 Y 413.390
G1 X1097.550 Y 364.520
G1 X1141.650 Y 315.650
G1 X1077.280 Y 329.420
G1 X1057.010 Y 266.780
G1 X1036.750 Y 329.420
G1 X 972.370 Y 315.650
F150
G1 Z  -3.000
F400
G1 X1016.480 Y 364.520
G1 X 972.370 Y 413.390
G1 X1036.750 Y 399.620
G1 X1057.010 Y 462.260
G1 X1077.280 Y 399.620
G1 X1141.650 Y 413.390
G1 X1097.550 Y 364.520
G1 X1141.650 Y 315.650
G1 X1077.280 Y 329.420
G1 X1057.010 Y 266.780
G1 X1036.750 Y 329.420
G1 X 972.370 Y 315.650
F150
G1 Z   3.000
G0 Z  15.000 
M9 M5

(* SHAPE Nr: 82 *)
G0 X 808.590 Y 346.560
M3 M8
G0 Z   3.000 
G1 Z  -1.500
F400
G1 X 852.700 Y 395.430
G1 X 808.590 Y 444.300
G1 X 872.970 Y 430.530
G1 X 893.230 Y 493.170
G1 X 913.500 Y 430.530
G1 X 977.870 Y 444.300
G1 X 933.770 Y 395.430
G1 X 977.870 Y 346.560
G1 X 913.500 Y 360.330
G1 X 893.230 Y 297.690
G1 X 872.970 Y 360.330
G1 X 808.590 Y 346.560
F150
G1 Z  -3.000
F400
G1 X 852.700 Y 395.430
G1 X 808.590 Y 444.300
G1 X 872.970 Y 430.530
G1 X 893.230 Y 493.170
G1 X 913.500 Y 430.530
G1 X 977.870 Y 444.300
G1 X 933.770 Y 395.430
G1 X 977.870 Y 346.560
G1 X 913.500 Y 360.330
G1 X 893.230 Y 297.690
G1 X 872.970 Y 360.330
G1 X 808.590 Y 346.560
F150
G1 Z   3.000
G0 Z  15.000 
M9 M5

(* SHAPE Nr: 85 *)
G0 X1016.310 Y 690.230
M3 M8
G0 Z   3.000 
G1 Z  -1.500
F400
G1 X1060.420 Y 739.100
G1 X1016.310 Y 787.970
G1 X1080.690 Y 774.200
G1 X1100.950 Y 836.840
G1 X1121.220 Y 774.200
G1 X1185.590 Y 787.970
G1 X1141.490 Y 739.100
G1 X1185.590 Y 690.230
G1 X1121.220 Y 704.000
G1 X1100.950 Y 641.360
G1 X1080.690 Y 704.000
G1 X1016.310 Y 690.230
F150
G1 Z  -3.000
F400
G1 X1060.420 Y 739.100
G1 X1016.310 Y 787.970
G1 X1080.690 Y 774.200
G1 X1100.950 Y 836.840
G1 X1121.220 Y 774.200
G1 X1185.590 Y 787.970
G1 X1141.490 Y 739.100
G1 X1185.590 Y 690.230
G1 X1121.220 Y 704.000
G1 X1100.950 Y 641.360
G1 X1080.690 Y 704.000
G1 X1016.310 Y 690.230
F150
G1 Z   3.000
G0 Z  15.000 
M9 M5

(* SHAPE Nr: 86 *)
G0 X1041.820 Y 525.820
M3 M8
G0 Z   3.000 
G1 Z  -1.500
F400
G1 X1085.930 Y 574.690
G1 X1041.820 Y 623.560
G1 X1106.200 Y 609.790
G1 X1126.460 Y 672.430
G1 X1146.730 Y 609.790
G1 X1211.100 Y 623.560
G1 X1167.000 Y 574.690
G1 X1211.100 Y 525.820
G1 X1146.730 Y 539.590
G1 X1126.460 Y 476.950
G1 X1106.200 Y 539.590
G1 X1041.820 Y 525.820
F150
G1 Z  -3.000
F400
G1 X1085.930 Y 574.690
G1 X1041.820 Y 623.560
G1 X1106.200 Y 609.790
G1 X1126.460 Y 672.430
G1 X1146.730 Y 609.790
G1 X1211.100 Y 623.560
G1 X1167.000 Y 574.690
G1 X1211.100 Y 525.820
G1 X1146.730 Y 539.590
G1 X1126.460 Y 476.950
G1 X1106.200 Y 539.590
G1 X1041.820 Y 525.820
F150
G1 Z   3.000
G0 Z  15.000 
M9 M5

(* SHAPE Nr: 93 *)
G0 X 660.240 Y1156.990
M3 M8
G0 Z   3.000 
G1 Z  -1.500
F400
G1 X 639.980 Y1219.630
G1 X 575.600 Y1205.860
G1 X 619.710 Y1254.730
G1 X 575.600 Y1303.600
G1 X 639.980 Y1289.830
G1 X 660.240 Y1352.470
G1 X 680.510 Y1289.830
G1 X 744.880 Y1303.600
G1 X 700.780 Y1254.730
G1 X 744.880 Y1205.860
G1 X 680.510 Y1219.630
G1 X 660.240 Y1156.990
F150
G1 Z  -3.000
F400
G1 X 639.980 Y1219.630
G1 X 575.600 Y1205.860
G1 X 619.710 Y1254.730
G1 X 575.600 Y1303.600
G1 X 639.980 Y1289.830
G1 X 660.240 Y1352.470
G1 X 680.510 Y1289.830
G1 X 744.880 Y1303.600
G1 X 700.780 Y1254.730
G1 X 744.880 Y1205.860
G1 X 680.510 Y1219.630
G1 X 660.240 Y1156.990
F150
G1 Z   3.000
G0 Z  15.000 
M9 M5

(* SHAPE Nr: 94 *)
G0 X 456.670 Y1120.970
M3 M8
G0 Z   3.000 
G1 Z  -1.500
F400
G1 X 436.410 Y1183.610
G1 X 372.030 Y1169.840
G1 X 416.140 Y1218.710
G1 X 372.030 Y1267.580
G1 X 436.410 Y1253.810
G1 X 456.670 Y1316.450
G1 X 476.940 Y1253.810
G1 X 541.310 Y1267.580
G1 X 497.210 Y1218.710
G1 X 541.310 Y1169.840
G1 X 476.940 Y1183.610
G1 X 456.670 Y1120.970
F150
G1 Z  -3.000
F400
G1 X 436.410 Y1183.610
G1 X 372.030 Y1169.840
G1 X 416.140 Y1218.710
G1 X 372.030 Y1267.580
G1 X 436.410 Y1253.810
G1 X 456.670 Y1316.450
G1 X 476.940 Y1253.810
G1 X 541.310 Y1267.580
G1 X 497.210 Y1218.710
G1 X 541.310 Y1169.840
G1 X 476.940 Y1183.610
G1 X 456.670 Y1120.970
F150
G1 Z   3.000
G0 Z  15.000 
M9 M5

(* SHAPE Nr: 95 *)
G0 X 309.060 Y1169.810
M3 M8
G0 Z   3.000 
G1 Z  -1.500
F400
G1 X 288.800 Y1232.450
G1 X 224.420 Y1218.680
G1 X 268.530 Y1267.550
G1 X 224.420 Y1316.420
G1 X 288.800 Y1302.650
G1 X 309.060 Y1365.290
G1 X 329.330 Y1302.650
G1 X 393.700 Y1316.420
G1 X 349.600 Y1267.550
G1 X 393.700 Y1218.680
G1 X 329.330 Y1232.450
G1 X 309.060 Y1169.810
F150
G1 Z  -3.000
F400
G1 X 288.800 Y1232.450
G1 X 224.420 Y1218.680
G1 X 268.530 Y1267.550
G1 X 224.420 Y1316.420
G1 X 288.800 Y1302.650
G1 X 309.060 Y1365.290
G1 X 329.330 Y1302.650
G1 X 393.700 Y1316.420
G1 X 349.600 Y1267.550
G1 X 393.700 Y1218.680
G1 X 329.330 Y1232.450
G1 X 309.060 Y1169.810
F150
G1 Z   3.000
G0 Z  15.000 
M9 M5

(* SHAPE Nr: 96 *)
G0 X 281.140 Y1326.780
M3 M8
G0 Z   3.000 
G1 Z  -1.500
F400
G1 X 260.880 Y1389.420
G1 X 196.500 Y1375.650
G1 X 240.610 Y1424.520
G1 X 196.500 Y1473.390
G1 X 260.880 Y1459.620
G1 X 281.140 Y1522.260
G1 X 301.410 Y1459.620
G1 X 365.780 Y1473.390
G1 X 321.680 Y1424.520
G1 X 365.780 Y1375.650
G1 X 301.410 Y1389.420
G1 X 281.140 Y1326.780
F150
G1 Z  -3.000
F400
G1 X 260.880 Y1389.420
G1 X 196.500 Y1375.650
G1 X 240.610 Y1424.520
G1 X 196.500 Y1473.390
G1 X 260.880 Y1459.620
G1 X 281.140 Y1522.260
G1 X 301.410 Y1459.620
G1 X 365.780 Y1473.390
G1 X 321.680 Y1424.520
G1 X 365.780 Y1375.650
G1 X 301.410 Y1389.420
G1 X 281.140 Y1326.780
F150
G1 Z   3.000
G0 Z  15.000 
M9 M5

(* SHAPE Nr: 97 *)
G0 X  94.640 Y1213.970
M3 M8
G0 Z   3.000 
G1 Z  -1.500
F400
G1 X  74.380 Y1276.610
G1 X  10.000 Y1262.840
G1 X  54.110 Y1311.710
G1 X  10.000 Y1360.580
G1 X  74.380 Y1346.810
G1 X  94.640 Y1409.450
G1 X 114.910 Y1346.810
G1 X 179.280 Y1360.580
G1 X 135.180 Y1311.710
G1 X 179.280 Y1262.840
G1 X 114.910 Y1276.610
G1 X  94.640 Y1213.970
F150
G1 Z  -3.000
F400
G1 X  74.380 Y1276.610
G1 X  10.000 Y1262.840
G1 X  54.110 Y1311.710
G1 X  10.000 Y1360.580
G1 X  74.380 Y1346.810
G1 X  94.640 Y1409.450
G1 X 114.910 Y1346.810
G1 X 179.280 Y1360.580
G1 X 135.180 Y1311.710
G1 X 179.280 Y1262.840
G1 X 114.910 Y1276.610
G1 X  94.640 Y1213.970
F150
G1 Z   3.000
G0 Z  15.000 
M9 M5

(* SHAPE Nr: 98 *)
G0 X  94.640 Y1003.800
M3 M8
G0 Z   3.000 
G1 Z  -1.500
F400
G1 X  74.380 Y1066.440
G1 X  10.000 Y1052.670
G1 X  54.110 Y1101.540
G1 X  10.000 Y1150.410
G1 X  74.380 Y1136.640
G1 X  94.640 Y1199.280
G1 X 114.910 Y1136.640
G1 X 179.280 Y1150.410
G1 X 135.180 Y1101.540
G1 X 179.280 Y1052.670
G1 X 114.910 Y1066.440
G1 X  94.640 Y1003.800
F150
G1 Z  -3.000
F400
G1 X  74.380 Y1066.440
G1 X  10.000 Y1052.670
G1 X  54.110 Y1101.540
G1 X  10.000 Y1150.410
G1 X  74.380 Y1136.640
G1 X  94.640 Y1199.280
G1 X 114.910 Y1136.640
G1 X 179.280 Y1150.410
G1 X 135.180 Y1101.540
G1 X 179.280 Y1052.670
G1 X 114.910 Y1066.440
G1 X  94.640 Y1003.800
F150
G1 Z   3.000
G0 Z  15.000 
M9 M5

(* SHAPE Nr: 99 *)
G0 X 245.220 Y 958.200
M3 M8
G0 Z   3.000 
G1 Z  -1.500
F400
G1 X 224.960 Y1020.840
G1 X 160.580 Y1007.070
G1 X 204.690 Y1055.940
G1 X 160.580 Y1104.810
G1 X 224.960 Y1091.040
G1 X 245.220 Y1153.680
G1 X 265.490 Y1091.040
G1 X 329.860 Y1104.810
G1 X 285.760 Y1055.940
G1 X 329.860 Y1007.070
G1 X 265.490 Y1020.840
G1 X 245.220 Y 958.200
F150
G1 Z  -3.000
F400
G1 X 224.960 Y1020.840
G1 X 160.580 Y1007.070
G1 X 204.690 Y1055.940
G1 X 160.580 Y1104.810
G1 X 224.960 Y1091.040
G1 X 245.220 Y1153.680
G1 X 265.490 Y1091.040
G1 X 329.860 Y1104.810
G1 X 285.760 Y1055.940
G1 X 329.860 Y1007.070
G1 X 265.490 Y1020.840
G1 X 245.220 Y 958.200
F150
G1 Z   3.000
G0 Z  15.000 
M9 M5

(* SHAPE Nr: 100 *)
G0 X  94.640 Y 793.610
M3 M8
G0 Z   3.000 
G1 Z  -1.500
F400
G1 X  74.380 Y 856.250
G1 X  10.000 Y 842.480
G1 X  54.110 Y 891.350
G1 X  10.000 Y 940.220
G1 X  74.380 Y 926.450
G1 X  94.640 Y 989.090
G1 X 114.910 Y 926.450
G1 X 179.280 Y 940.220
G1 X 135.180 Y 891.350
G1 X 179.280 Y 842.480
G1 X 114.910 Y 856.250
G1 X  94.640 Y 793.610
F150
G1 Z  -3.000
F400
G1 X  74.380 Y 856.250
G1 X  10.000 Y 842.480
G1 X  54.110 Y 891.350
G1 X  10.000 Y 940.220
G1 X  74.380 Y 926.450
G1 X  94.640 Y 989.090
G1 X 114.910 Y 926.450
G1 X 179.280 Y 940.220
G1 X 135.180 Y 891.350
G1 X 179.280 Y 842.480
G1 X 114.910 Y 856.250
G1 X  94.640 Y 793.610
F150
G1 Z   3.000
G0 Z  15.000 
M9 M5

(* SHAPE Nr: 101 *)
G0 X  94.640 Y 583.440
M3 M8
G0 Z   3.000 
G1 Z  -1.500
F400
G1 X  74.380 Y 646.080
G1 X  10.000 Y 632.310
G1 X  54.110 Y 681.180
G1 X  10.000 Y 730.050
G1 X  74.380 Y 716.280
G1 X  94.640 Y 778.920
G1 X 114.910 Y 716.280
G1 X 179.280 Y 730.050
G1 X 135.180 Y 681.180
G1 X 179.280 Y 632.310
G1 X 114.910 Y 646.080
G1 X  94.640 Y 583.440
F150
G1 Z  -3.000
F400
G1 X  74.380 Y 646.080
G1 X  10.000 Y 632.310
G1 X  54.110 Y 681.180
G1 X  10.000 Y 730.050
G1 X  74.380 Y 716.280
G1 X  94.640 Y 778.920
G1 X 114.910 Y 716.280
G1 X 179.280 Y 730.050
G1 X 135.180 Y 681.180
G1 X 179.280 Y 632.310
G1 X 114.910 Y 646.080
G1 X  94.640 Y 583.440
F150
G1 Z   3.000
G0 Z  15.000 
M9 M5

(* SHAPE Nr: 102 *)
G0 X  94.640 Y 373.250
M3 M8
G0 Z   3.000 
G1 Z  -1.500
F400
G1 X  74.380 Y 435.890
G1 X  10.000 Y 422.120
G1 X  54.110 Y 470.990
G1 X  10.000 Y 519.860
G1 X  74.380 Y 506.090
G1 X  94.640 Y 568.730
G1 X 114.910 Y 506.090
G1 X 179.280 Y 519.860
G1 X 135.180 Y 470.990
G1 X 179.280 Y 422.120
G1 X 114.910 Y 435.890
G1 X  94.640 Y 373.250
F150
G1 Z  -3.000
F400
G1 X  74.380 Y 435.890
G1 X  10.000 Y 422.120
G1 X  54.110 Y 470.990
G1 X  10.000 Y 519.860
G1 X  74.380 Y 506.090
G1 X  94.640 Y 568.730
G1 X 114.910 Y 506.090
G1 X 179.280 Y 519.860
G1 X 135.180 Y 470.990
G1 X 179.280 Y 422.120
G1 X 114.910 Y 435.890
G1 X  94.640 Y 373.250
F150
G1 Z   3.000
G0 Z  15.000 
M9 M5

(* SHAPE Nr: 103 *)
G0 X  94.640 Y 163.070
M3 M8
G0 Z   3.000 
G1 Z  -1.500
F400
G1 X  74.380 Y 225.710
G1 X  10.000 Y 211.940
G1 X  54.110 Y 260.810
G1 X  10.000 Y 309.680
G1 X  74.380 Y 295.910
G1 X  94.640 Y 358.550
G1 X 114.910 Y 295.910
G1 X 179.280 Y 309.680
G1 X 135.180 Y 260.810
G1 X 179.280 Y 211.940
G1 X 114.910 Y 225.710
G1 X  94.640 Y 163.070
F150
G1 Z  -3.000
F400
G1 X  74.380 Y 225.710
G1 X  10.000 Y 211.940
G1 X  54.110 Y 260.810
G1 X  10.000 Y 309.680
G1 X  74.380 Y 295.910
G1 X  94.640 Y 358.550
G1 X 114.910 Y 295.910
G1 X 179.280 Y 309.680
G1 X 135.180 Y 260.810
G1 X 179.280 Y 211.940
G1 X 114.910 Y 225.710
G1 X  94.640 Y 163.070
F150
G1 Z   3.000
G0 Z  15.000 
M9 M5

(* SHAPE Nr: 104 *)
G0 X  70.720 Y  96.780
M3 M8
G0 Z   3.000 
G1 Z  -1.500
F400
G1 X 133.360 Y 117.050
G1 X 119.590 Y 181.430
G1 X 168.460 Y 137.320
G1 X 217.330 Y 181.430
G1 X 203.560 Y 117.050
G1 X 266.200 Y  96.780
G1 X 203.560 Y  76.520
G1 X 217.330 Y  12.140
G1 X 168.460 Y  56.250
G1 X 119.590 Y  12.140
G1 X 133.360 Y  76.520
G1 X  70.720 Y  96.780
F150
G1 Z  -3.000
F400
G1 X 133.360 Y 117.050
G1 X 119.590 Y 181.430
G1 X 168.460 Y 137.320
G1 X 217.330 Y 181.430
G1 X 203.560 Y 117.050
G1 X 266.200 Y  96.780
G1 X 203.560 Y  76.520
G1 X 217.330 Y  12.140
G1 X 168.460 Y  56.250
G1 X 119.590 Y  12.140
G1 X 133.360 Y  76.520
G1 X  70.720 Y  96.780
F150
G1 Z   3.000
G0 Z  15.000 
M9 M5

(* SHAPE Nr: 105 *)
G0 X 256.340 Y  58.860
M3 M8
G0 Z   3.000 
G1 Z  -1.500
F400
G1 X 300.450 Y 107.730
G1 X 256.340 Y 156.600
G1 X 320.720 Y 142.830
G1 X 340.980 Y 205.470
G1 X 361.250 Y 142.830
G1 X 425.620 Y 156.600
G1 X 381.520 Y 107.730
G1 X 425.620 Y  58.860
G1 X 361.250 Y  72.630
G1 X 340.980 Y   9.990
G1 X 320.720 Y  72.630
G1 X 256.340 Y  58.860
F150
G1 Z  -3.000
F400
G1 X 300.450 Y 107.730
G1 X 256.340 Y 156.600
G1 X 320.720 Y 142.830
G1 X 340.980 Y 205.470
G1 X 361.250 Y 142.830
G1 X 425.620 Y 156.600
G1 X 381.520 Y 107.730
G1 X 425.620 Y  58.860
G1 X 361.250 Y  72.630
G1 X 340.980 Y   9.990
G1 X 320.720 Y  72.630
G1 X 256.340 Y  58.860
F150
G1 Z   3.000
G0 Z  15.000 
M9 M5

(*** LAYER: BORDER_D0_T132_RK1_A0_W0_EM1_RI1_ID0007 ***)

(* SHAPE Nr: 6 *)
G0 X 529.880 Y1359.470
M3 M8
G0 Z   3.000 
G1 Z  -1.500
F400
G1 X 551.830 Y1427.010
G1 X 494.380 Y1468.750
G1 X 565.390 Y1468.750
G1 X 587.330 Y1536.280
G1 X 609.280 Y1468.750
G1 X 680.290 Y1468.750
G1 X 622.840 Y1427.010
G1 X 644.780 Y1359.470
G1 X 587.330 Y1401.210
G1 X 529.880 Y1359.470
F150
G1 Z  -3.000
F400
G1 X 551.830 Y1427.010
G1 X 494.380 Y1468.750
G1 X 565.390 Y1468.750
G1 X 587.330 Y1536.280
G1 X 609.280 Y1468.750
G1 X 680.290 Y1468.750
G1 X 622.840 Y1427.010
G1 X 644.780 Y1359.470
G1 X 587.330 Y1401.210
G1 X 529.880 Y1359.470
F150
G1 Z   3.000
G0 Z  15.000 
M9 M5

(* SHAPE Nr: 7 *)
G0 X 522.830 Y1675.910
M3 M8
G0 Z   3.000 
G1 Z  -1.500
F400
G1 X 500.880 Y1743.440
G1 X 429.870 Y1743.440
G1 X 487.320 Y1785.180
G1 X 465.380 Y1852.720
G1 X 522.830 Y1810.980
G1 X 580.280 Y1852.720
G1 X 558.330 Y1785.180
G1 X 615.780 Y1743.440
G1 X 544.770 Y1743.440
G1 X 522.830 Y1675.910
F150
G1 Z  -3.000
F400
G1 X 500.880 Y1743.440
G1 X 429.870 Y1743.440
G1 X 487.320 Y1785.180
G1 X 465.380 Y1852.720
G1 X 522.830 Y1810.980
G1 X 580.280 Y1852.720
G1 X 558.330 Y1785.180
G1 X 615.780 Y1743.440
G1 X 544.770 Y1743.440
G1 X 522.830 Y1675.910
F150
G1 Z   3.000
G0 Z  15.000 
M9 M5

(* SHAPE Nr: 20 *)
G0 X1230.890 Y1042.420
M3 M8
G0 Z   3.000 
G1 Z  -1.500
F400
G1 X1272.630 Y1099.870
G1 X1230.890 Y1157.320
G1 X1298.430 Y1135.370
G1 X1340.170 Y1192.820
G1 X1340.170 Y1121.810
G1 X1407.700 Y1099.870
G1 X1340.170 Y1077.920
G1 X1340.170 Y1006.910
G1 X1298.430 Y1064.360
G1 X1230.890 Y1042.420
F150
G1 Z  -3.000
F400
G1 X1272.630 Y1099.870
G1 X1230.890 Y1157.320
G1 X1298.430 Y1135.370
G1 X1340.170 Y1192.820
G1 X1340.170 Y1121.810
G1 X1407.700 Y1099.870
G1 X1340.170 Y1077.920
G1 X1340.170 Y1006.910
G1 X1298.430 Y1064.360
G1 X1230.890 Y1042.420
F150
G1 Z   3.000
G0 Z  15.000 
M9 M5

(* SHAPE Nr: 27 *)
G0 X1898.410 Y1120.500
M3 M8
G0 Z   3.000 
G1 Z  -1.500
F400
G1 X1940.150 Y1177.950
G1 X1898.410 Y1235.400
G1 X1965.950 Y1213.450
G1 X2007.690 Y1270.900
G1 X2007.690 Y1199.890
G1 X2075.220 Y1177.950
G1 X2007.690 Y1156.000
G1 X2007.690 Y1084.990
G1 X1965.950 Y1142.440
G1 X1898.410 Y1120.500
F150
G1 Z  -3.000
F400
G1 X1940.150 Y1177.950
G1 X1898.410 Y1235.400
G1 X1965.950 Y1213.450
G1 X2007.690 Y1270.900
G1 X2007.690 Y1199.890
G1 X2075.220 Y1177.950
G1 X2007.690 Y1156.000
G1 X2007.690 Y1084.990
G1 X1965.950 Y1142.440
G1 X1898.410 Y1120.500
F150
G1 Z   3.000
G0 Z  15.000 
M9 M5

(* SHAPE Nr: 39 *)
G0 X2325.130 Y1180.550
M3 M8
G0 Z   3.000 
G1 Z  -1.500
F400
G1 X2366.870 Y1238.000
G1 X2325.130 Y1295.450
G1 X2392.670 Y1273.500
G1 X2434.410 Y1330.950
G1 X2434.410 Y1259.940
G1 X2501.940 Y1238.000
G1 X2434.410 Y1216.050
G1 X2434.410 Y1145.040
G1 X2392.670 Y1202.490
G1 X2325.130 Y1180.550
F150
G1 Z  -3.000
F400
G1 X2366.870 Y1238.000
G1 X2325.130 Y1295.450
G1 X2392.670 Y1273.500
G1 X2434.410 Y1330.950
G1 X2434.410 Y1259.940
G1 X2501.940 Y1238.000
G1 X2434.410 Y1216.050
G1 X2434.410 Y1145.040
G1 X2392.670 Y1202.490
G1 X2325.130 Y1180.550
F150
G1 Z   3.000
G0 Z  15.000 
M9 M5

(* SHAPE Nr: 57 *)
G0 X 939.150 Y1536.590
M3 M8
G0 Z   3.000 
G1 Z  -1.500
F400
G1 X 917.200 Y1604.120
G1 X 846.190 Y1604.120
G1 X 903.640 Y1645.860
G1 X 881.700 Y1713.400
G1 X 939.150 Y1671.660
G1 X 996.600 Y1713.400
G1 X 974.650 Y1645.860
G1 X1032.100 Y1604.120
G1 X 961.090 Y1604.120
G1 X 939.150 Y1536.590
F150
G1 Z  -3.000
F400
G1 X 917.200 Y1604.120
G1 X 846.190 Y1604.120
G1 X 903.640 Y1645.860
G1 X 881.700 Y1713.400
G1 X 939.150 Y1671.660
G1 X 996.600 Y1713.400
G1 X 974.650 Y1645.860
G1 X1032.100 Y1604.120
G1 X 961.090 Y1604.120
G1 X 939.150 Y1536.590
F150
G1 Z   3.000
G0 Z  15.000 
M9 M5

(* SHAPE Nr: 59 *)
G0 X1207.950 Y 809.510
M3 M8
G0 Z   3.000 
G1 Z  -1.500
F400
G1 X1207.950 Y 880.520
G1 X1140.420 Y 902.460
G1 X1207.950 Y 924.410
G1 X1207.950 Y 995.420
G1 X1249.690 Y 937.970
G1 X1317.230 Y 959.910
G1 X1275.490 Y 902.460
G1 X1317.230 Y 845.010
G1 X1249.690 Y 866.960
G1 X1207.950 Y 809.510
F150
G1 Z  -3.000
F400
G1 X1207.950 Y 880.520
G1 X1140.420 Y 902.460
G1 X1207.950 Y 924.410
G1 X1207.950 Y 995.420
G1 X1249.690 Y 937.970
G1 X1317.230 Y 959.910
G1 X1275.490 Y 902.460
G1 X1317.230 Y 845.010
G1 X1249.690 Y 866.960
G1 X1207.950 Y 809.510
F150
G1 Z   3.000
G0 Z  15.000 
M9 M5

(* SHAPE Nr: 62 *)
G0 X 732.180 Y 822.310
M3 M8
G0 Z   3.000 
G1 Z  -1.500
F400
G1 X 773.920 Y 879.760
G1 X 732.180 Y 937.210
G1 X 799.720 Y 915.260
G1 X 841.460 Y 972.710
G1 X 841.460 Y 901.700
G1 X 908.990 Y 879.760
G1 X 841.460 Y 857.810
G1 X 841.460 Y 786.800
G1 X 799.720 Y 844.250
G1 X 732.180 Y 822.310
F150
G1 Z  -3.000
F400
G1 X 773.920 Y 879.760
G1 X 732.180 Y 937.210
G1 X 799.720 Y 915.260
G1 X 841.460 Y 972.710
G1 X 841.460 Y 901.700
G1 X 908.990 Y 879.760
G1 X 841.460 Y 857.810
G1 X 841.460 Y 786.800
G1 X 799.720 Y 844.250
G1 X 732.180 Y 822.310
F150
G1 Z   3.000
G0 Z  15.000 
M9 M5

(* SHAPE Nr: 65 *)
G0 X 562.940 Y 752.430
M3 M8
G0 Z   3.000 
G1 Z  -1.500
F400
G1 X 584.890 Y 819.970
G1 X 527.440 Y 861.710
G1 X 598.450 Y 861.710
G1 X 620.390 Y 929.240
G1 X 642.340 Y 861.710
G1 X 713.350 Y 861.710
G1 X 655.900 Y 819.970
G1 X 677.840 Y 752.430
G1 X 620.390 Y 794.170
G1 X 562.940 Y 752.430
F150
G1 Z  -3.000
F400
G1 X 584.890 Y 819.970
G1 X 527.440 Y 861.710
G1 X 598.450 Y 861.710
G1 X 620.390 Y 929.240
G1 X 642.340 Y 861.710
G1 X 713.350 Y 861.710
G1 X 655.900 Y 819.970
G1 X 677.840 Y 752.430
G1 X 620.390 Y 794.170
G1 X 562.940 Y 752.430
F150
G1 Z   3.000
G0 Z  15.000 
M9 M5

(* SHAPE Nr: 68 *)
G0 X 448.940 Y 643.420
M3 M8
G0 Z   3.000 
G1 Z  -1.500
F400
G1 X 448.940 Y 714.430
G1 X 381.410 Y 736.370
G1 X 448.940 Y 758.320
G1 X 448.940 Y 829.330
G1 X 490.680 Y 771.880
G1 X 558.220 Y 793.820
G1 X 516.480 Y 736.370
G1 X 558.220 Y 678.920
G1 X 490.680 Y 700.870
G1 X 448.940 Y 643.420
F150
G1 Z  -3.000
F400
G1 X 448.940 Y 714.430
G1 X 381.410 Y 736.370
G1 X 448.940 Y 758.320
G1 X 448.940 Y 829.330
G1 X 490.680 Y 771.880
G1 X 558.220 Y 793.820
G1 X 516.480 Y 736.370
G1 X 558.220 Y 678.920
G1 X 490.680 Y 700.870
G1 X 448.940 Y 643.420
F150
G1 Z   3.000
G0 Z  15.000 
M9 M5

(*** LAYER: BORDER_D0_T132_RK1_A0_W0_EM1_RI1_ID0023 ***)

(* SHAPE Nr: 19 *)
G0 X1093.680 Y1005.540
M3 M8
G0 Z   3.000 
G1 Z  -1.500
F400
G1 X1044.810 Y1090.180
G1 X1093.680 Y1174.830
G1 X1191.420 Y1174.830
G1 X1240.290 Y1090.180
G1 X1191.420 Y1005.540
G1 X1093.680 Y1005.540
F150
G1 Z  -3.000
F400
G1 X1044.810 Y1090.180
G1 X1093.680 Y1174.830
G1 X1191.420 Y1174.830
G1 X1240.290 Y1090.180
G1 X1191.420 Y1005.540
G1 X1093.680 Y1005.540
F150
G1 Z   3.000
G0 Z  15.000 
M9 M5

(* SHAPE Nr: 22 *)
G0 X1314.680 Y1212.100
M3 M8
G0 Z   3.000 
G1 Z  -1.500
F400
G1 X1265.810 Y1296.740
G1 X1314.680 Y1381.390
G1 X1412.420 Y1381.390
G1 X1461.290 Y1296.740
G1 X1412.420 Y1212.100
G1 X1314.680 Y1212.100
F150
G1 Z  -3.000
F400
G1 X1265.810 Y1296.740
G1 X1314.680 Y1381.390
G1 X1412.420 Y1381.390
G1 X1461.290 Y1296.740
G1 X1412.420 Y1212.100
G1 X1314.680 Y1212.100
F150
G1 Z   3.000
G0 Z  15.000 
M9 M5

(* SHAPE Nr: 23 *)
G0 X1446.610 Y1139.540
M3 M8
G0 Z   3.000 
G1 Z  -1.500
F400
G1 X1446.610 Y1237.280
G1 X1531.250 Y1286.150
G1 X1615.890 Y1237.280
G1 X1615.890 Y1139.540
G1 X1531.250 Y1090.670
G1 X1446.610 Y1139.540
F150
G1 Z  -3.000
F400
G1 X1446.610 Y1237.280
G1 X1531.250 Y1286.150
G1 X1615.890 Y1237.280
G1 X1615.890 Y1139.540
G1 X1531.250 Y1090.670
G1 X1446.610 Y1139.540
F150
G1 Z   3.000
G0 Z  15.000 
M9 M5

(* SHAPE Nr: 24 *)
G0 X1439.400 Y1364.130
M3 M8
G0 Z   3.000 
G1 Z  -1.500
F400
G1 X1390.530 Y1448.770
G1 X1439.400 Y1533.420
G1 X1537.140 Y1533.420
G1 X1586.010 Y1448.770
G1 X1537.140 Y1364.130
G1 X1439.400 Y1364.130
F150
G1 Z  -3.000
F400
G1 X1390.530 Y1448.770
G1 X1439.400 Y1533.420
G1 X1537.140 Y1533.420
G1 X1586.010 Y1448.770
G1 X1537.140 Y1364.130
G1 X1439.400 Y1364.130
F150
G1 Z   3.000
G0 Z  15.000 
M9 M5

(* SHAPE Nr: 35 *)
G0 X2343.220 Y 641.120
M3 M8
G0 Z   3.000 
G1 Z  -1.500
F400
G1 X2343.220 Y 738.860
G1 X2427.860 Y 787.730
G1 X2512.500 Y 738.860
G1 X2512.500 Y 641.120
G1 X2427.860 Y 592.250
G1 X2343.220 Y 641.120
F150
G1 Z  -3.000
F400
G1 X2343.220 Y 738.860
G1 X2427.860 Y 787.730
G1 X2512.500 Y 738.860
G1 X2512.500 Y 641.120
G1 X2427.860 Y 592.250
G1 X2343.220 Y 641.120
F150
G1 Z   3.000
G0 Z  15.000 
M9 M5

(* SHAPE Nr: 36 *)
G0 X2243.120 Y 795.790
M3 M8
G0 Z   3.000 
G1 Z  -1.500
F400
G1 X2243.120 Y 893.530
G1 X2327.760 Y 942.400
G1 X2412.400 Y 893.530
G1 X2412.400 Y 795.790
G1 X2327.760 Y 746.920
G1 X2243.120 Y 795.790
F150
G1 Z  -3.000
F400
G1 X2243.120 Y 893.530
G1 X2327.760 Y 942.400
G1 X2412.400 Y 893.530
G1 X2412.400 Y 795.790
G1 X2327.760 Y 746.920
G1 X2243.120 Y 795.790
F150
G1 Z   3.000
G0 Z  15.000 
M9 M5

(* SHAPE Nr: 37 *)
G0 X2455.330 Y 936.810
M3 M8
G0 Z   3.000 
G1 Z  -1.500
F400
G1 X2455.330 Y1034.550
G1 X2539.970 Y1083.420
G1 X2624.610 Y1034.550
G1 X2624.610 Y 936.810
G1 X2539.970 Y 887.940
G1 X2455.330 Y 936.810
F150
G1 Z  -3.000
F400
G1 X2455.330 Y1034.550
G1 X2539.970 Y1083.420
G1 X2624.610 Y1034.550
G1 X2624.610 Y 936.810
G1 X2539.970 Y 887.940
G1 X2455.330 Y 936.810
F150
G1 Z   3.000
G0 Z  15.000 
M9 M5

(* SHAPE Nr: 38 *)
G0 X2245.680 Y1044.020
M3 M8
G0 Z   3.000 
G1 Z  -1.500
F400
G1 X2294.550 Y1128.670
G1 X2392.290 Y1128.670
G1 X2441.160 Y1044.020
G1 X2392.290 Y 959.380
G1 X2294.550 Y 959.380
G1 X2245.680 Y1044.020
F150
G1 Z  -3.000
F400
G1 X2294.550 Y1128.670
G1 X2392.290 Y1128.670
G1 X2441.160 Y1044.020
G1 X2392.290 Y 959.380
G1 X2294.550 Y 959.380
G1 X2245.680 Y1044.020
F150
G1 Z   3.000
G0 Z  15.000 
M9 M5

(* SHAPE Nr: 40 *)
G0 X2320.890 Y1406.120
M3 M8
G0 Z   3.000 
G1 Z  -1.500
F400
G1 X2320.890 Y1503.860
G1 X2405.530 Y1552.730
G1 X2490.170 Y1503.860
G1 X2490.170 Y1406.120
G1 X2405.530 Y1357.250
G1 X2320.890 Y1406.120
F150
G1 Z  -3.000
F400
G1 X2320.890 Y1503.860
G1 X2405.530 Y1552.730
G1 X2490.170 Y1503.860
G1 X2490.170 Y1406.120
G1 X2405.530 Y1357.250
G1 X2320.890 Y1406.120
F150
G1 Z   3.000
G0 Z  15.000 
M9 M5

(* SHAPE Nr: 84 *)
G0 X 719.970 Y 620.560
M3 M8
G0 Z   3.000 
G1 Z  -1.500
F400
G1 X 671.100 Y 705.200
G1 X 719.970 Y 789.850
G1 X 817.710 Y 789.850
G1 X 866.580 Y 705.200
G1 X 817.710 Y 620.560
G1 X 719.970 Y 620.560
F150
G1 Z  -3.000
F400
G1 X 671.100 Y 705.200
G1 X 719.970 Y 789.850
G1 X 817.710 Y 789.850
G1 X 866.580 Y 705.200
G1 X 817.710 Y 620.560
G1 X 719.970 Y 620.560
F150
G1 Z   3.000
G0 Z  15.000 
M9 M5

(* SHAPE Nr: 92 *)
G0 X2440.390 Y  97.460
M3 M8
G0 Z   3.000 
G1 Z  -1.500
F400
G1 X2489.260 Y 182.110
G1 X2587.000 Y 182.110
G1 X2635.870 Y  97.460
G1 X2587.000 Y  12.820
G1 X2489.260 Y  12.820
G1 X2440.390 Y  97.460
F150
G1 Z  -3.000
F400
G1 X2489.260 Y 182.110
G1 X2587.000 Y 182.110
G1 X2635.870 Y  97.460
G1 X2587.000 Y  12.820
G1 X2489.260 Y  12.820
G1 X2440.390 Y  97.460
F150
G1 Z   3.000
G0 Z  15.000 
M9 M5

(*** LAYER: BORDER_D0_T132_RK1_A0_W0_EM1_RI1_ID0018 ***)

(* SHAPE Nr: 21 *)
G0 X1390.160 Y 667.060
M3 M8
G0 Z   3.000 
G1 Z  -1.500
F400
G2 X1378.120 Y 697.370 I 246.893 J 115.619
G2 X1368.350 Y 732.490 I 361.196 J 119.400
G2 X1361.140 Y 771.340 I 472.487 J 107.781
G2 X1356.740 Y 812.750 I 561.472 J  80.598
G2 X1355.250 Y 855.460 I 611.416 J  42.711
G2 X1356.740 Y 898.170 I 612.906 J  -0.001
G2 X1361.140 Y 939.580 I 565.872 J -39.188
G2 X1368.350 Y 978.430 I 479.697 J -68.931
G2 X1378.120 Y1013.550 I 370.966 J -84.280
G2 X1390.160 Y1043.860 I 258.933 J -85.309
G2 X1404.120 Y1068.450 I 160.877 J -75.074
G2 X1419.560 Y1086.570 I  87.857 J -59.224
G2 X1436.020 Y1097.660 I  42.094 J -44.717
G2 X1452.990 Y1101.400 I  17.159 J -37.487
G2 X1469.960 Y1097.660 I  -0.189 J -41.227
G2 X1486.420 Y1086.570 I -25.634 J -55.807
G2 X1501.860 Y1068.450 I -72.417 J -77.344
G2 X1515.820 Y1043.860 I-146.917 J -99.664
G2 X1527.860 Y1013.550 I-246.893 J-115.619
G2 X1537.630 Y 978.430 I-361.196 J-119.400
G2 X1544.840 Y 939.580 I-472.487 J-107.781
G2 X1549.240 Y 898.170 I-561.472 J -80.598
G2 X1550.730 Y 855.460 I-611.416 J -42.711
G2 X1549.240 Y 812.750 I-612.906 J   0.001
G2 X1544.840 Y 771.340 I-565.872 J  39.188
G2 X1537.630 Y 732.490 I-479.697 J  68.931
G2 X1527.860 Y 697.370 I-370.966 J  84.280
G2 X1515.820 Y 667.060 I-258.933 J  85.309
G2 X1501.860 Y 642.470 I-160.877 J  75.074
G2 X1486.420 Y 624.350 I -87.858 J  59.225
G2 X1469.960 Y 613.260 I -42.094 J  44.717
G2 X1452.990 Y 609.520 I -17.159 J  37.487
G2 X1436.020 Y 613.260 I   0.189 J  41.227
G2 X1419.560 Y 624.350 I  25.634 J  55.807
G2 X1404.120 Y 642.470 I  72.417 J  77.344
G2 X1390.160 Y 667.060 I 146.917 J  99.664
F150
G1 Z  -3.000
F400
G2 X1378.120 Y 697.370 I 246.893 J 115.619
G2 X1368.350 Y 732.490 I 361.196 J 119.400
G2 X1361.140 Y 771.340 I 472.487 J 107.781
G2 X1356.740 Y 812.750 I 561.472 J  80.598
G2 X1355.250 Y 855.460 I 611.416 J  42.711
G2 X1356.740 Y 898.170 I 612.906 J  -0.001
G2 X1361.140 Y 939.580 I 565.872 J -39.188
G2 X1368.350 Y 978.430 I 479.697 J -68.931
G2 X1378.120 Y1013.550 I 370.966 J -84.280
G2 X1390.160 Y1043.860 I 258.933 J -85.309
G2 X1404.120 Y1068.450 I 160.877 J -75.074
G2 X1419.560 Y1086.570 I  87.857 J -59.224
G2 X1436.020 Y1097.660 I  42.094 J -44.717
G2 X1452.990 Y1101.400 I  17.159 J -37.487
G2 X1469.960 Y1097.660 I  -0.189 J -41.227
G2 X1486.420 Y1086.570 I -25.634 J -55.807
G2 X1501.860 Y1068.450 I -72.417 J -77.344
G2 X1515.820 Y1043.860 I-146.917 J -99.664
G2 X1527.860 Y1013.550 I-246.893 J-115.619
G2 X1537.630 Y 978.430 I-361.196 J-119.400
G2 X1544.840 Y 939.580 I-472.487 J-107.781
G2 X1549.240 Y 898.170 I-561.472 J -80.598
G2 X1550.730 Y 855.460 I-611.416 J -42.711
G2 X1549.240 Y 812.750 I-612.906 J   0.001
G2 X1544.840 Y 771.340 I-565.872 J  39.188
G2 X1537.630 Y 732.490 I-479.697 J  68.931
G2 X1527.860 Y 697.370 I-370.966 J  84.280
G2 X1515.820 Y 667.060 I-258.933 J  85.309
G2 X1501.860 Y 642.470 I-160.877 J  75.074
G2 X1486.420 Y 624.350 I -87.858 J  59.225
G2 X1469.960 Y 613.260 I -42.094 J  44.717
G2 X1452.990 Y 609.520 I -17.159 J  37.487
G2 X1436.020 Y 613.260 I   0.189 J  41.227
G2 X1419.560 Y 624.350 I  25.634 J  55.807
G2 X1404.120 Y 642.470 I  72.417 J  77.344
G2 X1390.160 Y 667.060 I 146.917 J  99.664
F150
G1 Z   3.000
G0 Z  15.000 
M9 M5

(* SHAPE Nr: 25 *)
G0 X1738.140 Y1096.440
M3 M8
G0 Z   3.000 
G1 Z  -1.500
F400
G2 X1724.180 Y1121.030 I 146.917 J  99.664
G2 X1712.140 Y1151.340 I 246.893 J 115.619
G2 X1702.370 Y1186.460 I 361.196 J 119.400
G2 X1695.160 Y1225.310 I 472.487 J 107.781
G2 X1690.760 Y1266.720 I 561.472 J  80.598
G2 X1689.270 Y1309.430 I 611.451 J  42.712
G2 X1690.760 Y1352.140 I 612.906 J  -0.001
G2 X1695.160 Y1393.550 I 565.872 J -39.188
G2 X1702.370 Y1432.400 I 479.697 J -68.931
G2 X1712.140 Y1467.520 I 370.966 J -84.280
G2 X1724.180 Y1497.830 I 258.933 J -85.309
G2 X1738.140 Y1522.420 I 160.877 J -75.074
G2 X1753.580 Y1540.540 I  87.857 J -59.224
G2 X1770.040 Y1551.630 I  42.094 J -44.717
G2 X1787.010 Y1555.370 I  17.159 J -37.487
G2 X1803.980 Y1551.630 I  -0.189 J -41.227
G2 X1820.440 Y1540.540 I -25.634 J -55.807
G2 X1835.880 Y1522.420 I -72.417 J -77.344
G2 X1849.840 Y1497.830 I-146.917 J -99.664
G2 X1861.880 Y1467.520 I-246.893 J-115.619
G2 X1871.650 Y1432.400 I-361.196 J-119.400
G2 X1878.860 Y1393.550 I-472.487 J-107.781
G2 X1883.260 Y1352.140 I-561.472 J -80.598
G2 X1884.750 Y1309.430 I-611.416 J -42.711
G2 X1883.260 Y1266.720 I-612.906 J   0.001
G2 X1878.860 Y1225.310 I-565.872 J  39.188
G2 X1871.650 Y1186.460 I-479.697 J  68.931
G2 X1861.880 Y1151.340 I-370.966 J  84.280
G2 X1849.840 Y1121.030 I-258.933 J  85.309
G2 X1835.880 Y1096.440 I-160.873 J  75.072
G2 X1820.440 Y1078.320 I -87.858 J  59.225
G2 X1803.980 Y1067.230 I -42.094 J  44.717
G2 X1787.010 Y1063.490 I -17.159 J  37.487
G2 X1770.040 Y1067.230 I   0.189 J  41.227
G2 X1753.580 Y1078.320 I  25.634 J  55.807
G2 X1738.140 Y1096.440 I  72.417 J  77.344
F150
G1 Z  -3.000
F400
G2 X1724.180 Y1121.030 I 146.917 J  99.664
G2 X1712.140 Y1151.340 I 246.893 J 115.619
G2 X1702.370 Y1186.460 I 361.196 J 119.400
G2 X1695.160 Y1225.310 I 472.487 J 107.781
G2 X1690.760 Y1266.720 I 561.472 J  80.598
G2 X1689.270 Y1309.430 I 611.451 J  42.712
G2 X1690.760 Y1352.140 I 612.906 J  -0.001
G2 X1695.160 Y1393.550 I 565.872 J -39.188
G2 X1702.370 Y1432.400 I 479.697 J -68.931
G2 X1712.140 Y1467.520 I 370.966 J -84.280
G2 X1724.180 Y1497.830 I 258.933 J -85.309
G2 X1738.140 Y1522.420 I 160.877 J -75.074
G2 X1753.580 Y1540.540 I  87.857 J -59.224
G2 X1770.040 Y1551.630 I  42.094 J -44.717
G2 X1787.010 Y1555.370 I  17.159 J -37.487
G2 X1803.980 Y1551.630 I  -0.189 J -41.227
G2 X1820.440 Y1540.540 I -25.634 J -55.807
G2 X1835.880 Y1522.420 I -72.417 J -77.344
G2 X1849.840 Y1497.830 I-146.917 J -99.664
G2 X1861.880 Y1467.520 I-246.893 J-115.619
G2 X1871.650 Y1432.400 I-361.196 J-119.400
G2 X1878.860 Y1393.550 I-472.487 J-107.781
G2 X1883.260 Y1352.140 I-561.472 J -80.598
G2 X1884.750 Y1309.430 I-611.416 J -42.711
G2 X1883.260 Y1266.720 I-612.906 J   0.001
G2 X1878.860 Y1225.310 I-565.872 J  39.188
G2 X1871.650 Y1186.460 I-479.697 J  68.931
G2 X1861.880 Y1151.340 I-370.966 J  84.280
G2 X1849.840 Y1121.030 I-258.933 J  85.309
G2 X1835.880 Y1096.440 I-160.873 J  75.072
G2 X1820.440 Y1078.320 I -87.858 J  59.225
G2 X1803.980 Y1067.230 I -42.094 J  44.717
G2 X1787.010 Y1063.490 I -17.159 J  37.487
G2 X1770.040 Y1067.230 I   0.189 J  41.227
G2 X1753.580 Y1078.320 I  25.634 J  55.807
G2 X1738.140 Y1096.440 I  72.417 J  77.344
F150
G1 Z   3.000
G0 Z  15.000 
M9 M5

(* SHAPE Nr: 28 *)
G0 X2055.810 Y 676.430
M3 M8
G0 Z   3.000 
G1 Z  -1.500
F400
G2 X2046.040 Y 711.550 I 361.196 J 119.400
G2 X2038.830 Y 750.400 I 472.487 J 107.781
G2 X2034.430 Y 791.810 I 561.472 J  80.598
G2 X2032.940 Y 834.520 I 611.451 J  42.712
G2 X2034.430 Y 877.230 I 612.906 J  -0.001
G2 X2038.830 Y 918.640 I 565.872 J -39.188
G2 X2046.040 Y 957.490 I 479.697 J -68.931
G2 X2055.810 Y 992.610 I 370.966 J -84.280
G2 X2067.850 Y1022.920 I 258.933 J -85.309
G2 X2081.810 Y1047.510 I 160.877 J -75.074
G2 X2097.250 Y1065.630 I  87.858 J -59.225
G2 X2113.710 Y1076.720 I  42.094 J -44.717
G2 X2130.680 Y1080.460 I  17.159 J -37.487
G2 X2147.650 Y1076.720 I  -0.189 J -41.227
G2 X2164.110 Y1065.630 I -25.634 J -55.807
G2 X2179.550 Y1047.510 I -72.417 J -77.344
G2 X2193.510 Y1022.920 I-146.917 J -99.664
G2 X2205.550 Y 992.610 I-246.893 J-115.619
G2 X2215.320 Y 957.490 I-361.196 J-119.400
G2 X2222.530 Y 918.640 I-472.487 J-107.781
G2 X2226.930 Y 877.230 I-561.472 J -80.598
G2 X2228.420 Y 834.520 I-611.416 J -42.711
G2 X2226.930 Y 791.810 I-612.906 J   0.001
G2 X2222.530 Y 750.400 I-565.872 J  39.188
G2 X2215.320 Y 711.550 I-479.697 J  68.931
G2 X2205.550 Y 676.430 I-370.966 J  84.280
G2 X2193.510 Y 646.120 I-258.933 J  85.309
G2 X2179.550 Y 621.530 I-160.877 J  75.074
G2 X2164.110 Y 603.410 I -87.857 J  59.224
G2 X2147.650 Y 592.320 I -42.094 J  44.717
G2 X2130.680 Y 588.580 I -17.159 J  37.487
G2 X2113.710 Y 592.320 I   0.189 J  41.227
G2 X2097.250 Y 603.410 I  25.634 J  55.807
G2 X2081.810 Y 621.530 I  72.418 J  77.345
G2 X2067.850 Y 646.120 I 146.917 J  99.664
G2 X2055.810 Y 676.430 I 246.893 J 115.619
F150
G1 Z  -3.000
F400
G2 X2046.040 Y 711.550 I 361.196 J 119.400
G2 X2038.830 Y 750.400 I 472.487 J 107.781
G2 X2034.430 Y 791.810 I 561.472 J  80.598
G2 X2032.940 Y 834.520 I 611.451 J  42.712
G2 X2034.430 Y 877.230 I 612.906 J  -0.001
G2 X2038.830 Y 918.640 I 565.872 J -39.188
G2 X2046.040 Y 957.490 I 479.697 J -68.931
G2 X2055.810 Y 992.610 I 370.966 J -84.280
G2 X2067.850 Y1022.920 I 258.933 J -85.309
G2 X2081.810 Y1047.510 I 160.877 J -75.074
G2 X2097.250 Y1065.630 I  87.858 J -59.225
G2 X2113.710 Y1076.720 I  42.094 J -44.717
G2 X2130.680 Y1080.460 I  17.159 J -37.487
G2 X2147.650 Y1076.720 I  -0.189 J -41.227
G2 X2164.110 Y1065.630 I -25.634 J -55.807
G2 X2179.550 Y1047.510 I -72.417 J -77.344
G2 X2193.510 Y1022.920 I-146.917 J -99.664
G2 X2205.550 Y 992.610 I-246.893 J-115.619
G2 X2215.320 Y 957.490 I-361.196 J-119.400
G2 X2222.530 Y 918.640 I-472.487 J-107.781
G2 X2226.930 Y 877.230 I-561.472 J -80.598
G2 X2228.420 Y 834.520 I-611.416 J -42.711
G2 X2226.930 Y 791.810 I-612.906 J   0.001
G2 X2222.530 Y 750.400 I-565.872 J  39.188
G2 X2215.320 Y 711.550 I-479.697 J  68.931
G2 X2205.550 Y 676.430 I-370.966 J  84.280
G2 X2193.510 Y 646.120 I-258.933 J  85.309
G2 X2179.550 Y 621.530 I-160.877 J  75.074
G2 X2164.110 Y 603.410 I -87.857 J  59.224
G2 X2147.650 Y 592.320 I -42.094 J  44.717
G2 X2130.680 Y 588.580 I -17.159 J  37.487
G2 X2113.710 Y 592.320 I   0.189 J  41.227
G2 X2097.250 Y 603.410 I  25.634 J  55.807
G2 X2081.810 Y 621.530 I  72.418 J  77.345
G2 X2067.850 Y 646.120 I 146.917 J  99.664
G2 X2055.810 Y 676.430 I 246.893 J 115.619
F150
G1 Z   3.000
G0 Z  15.000 
M9 M5

(* SHAPE Nr: 29 *)
G0 X1845.980 Y 706.130
M3 M8
G0 Z   3.000 
G1 Z  -1.500
F400
G2 X1836.210 Y 741.250 I 361.196 J 119.400
G2 X1829.000 Y 780.100 I 472.487 J 107.781
G2 X1824.600 Y 821.510 I 561.472 J  80.598
G2 X1823.110 Y 864.220 I 611.416 J  42.711
G2 X1824.600 Y 906.930 I 612.906 J  -0.001
G2 X1829.000 Y 948.340 I 565.872 J -39.188
G2 X1836.210 Y 987.190 I 479.697 J -68.931
G2 X1845.980 Y1022.310 I 370.966 J -84.280
G2 X1858.020 Y1052.620 I 258.933 J -85.309
G2 X1871.980 Y1077.210 I 160.877 J -75.074
G2 X1887.420 Y1095.330 I  87.857 J -59.224
G2 X1903.880 Y1106.420 I  42.094 J -44.717
G2 X1920.850 Y1110.160 I  17.159 J -37.487
G2 X1937.820 Y1106.420 I  -0.189 J -41.227
G2 X1954.280 Y1095.330 I -25.634 J -55.807
G2 X1969.720 Y1077.210 I -72.417 J -77.344
G2 X1983.680 Y1052.620 I-146.917 J -99.664
G2 X1995.720 Y1022.310 I-246.893 J-115.619
G2 X2005.490 Y 987.190 I-361.196 J-119.400
G2 X2012.700 Y 948.340 I-472.487 J-107.781
G2 X2017.100 Y 906.930 I-561.472 J -80.598
G2 X2018.590 Y 864.220 I-611.416 J -42.711
G2 X2017.100 Y 821.510 I-612.906 J   0.001
G2 X2012.700 Y 780.100 I-565.872 J  39.188
G2 X2005.490 Y 741.250 I-479.697 J  68.931
G2 X1995.720 Y 706.130 I-370.966 J  84.280
G2 X1983.680 Y 675.820 I-258.933 J  85.309
G2 X1969.720 Y 651.230 I-160.877 J  75.074
G2 X1954.280 Y 633.110 I -87.858 J  59.225
G2 X1937.820 Y 622.020 I -42.094 J  44.717
G2 X1920.850 Y 618.280 I -17.159 J  37.487
G2 X1903.880 Y 622.020 I   0.189 J  41.227
G2 X1887.420 Y 633.110 I  25.634 J  55.807
G2 X1871.980 Y 651.230 I  72.418 J  77.345
G2 X1858.020 Y 675.820 I 146.917 J  99.664
G2 X1845.980 Y 706.130 I 246.893 J 115.619
F150
G1 Z  -3.000
F400
G2 X1836.210 Y 741.250 I 361.196 J 119.400
G2 X1829.000 Y 780.100 I 472.487 J 107.781
G2 X1824.600 Y 821.510 I 561.472 J  80.598
G2 X1823.110 Y 864.220 I 611.416 J  42.711
G2 X1824.600 Y 906.930 I 612.906 J  -0.001
G2 X1829.000 Y 948.340 I 565.872 J -39.188
G2 X1836.210 Y 987.190 I 479.697 J -68.931
G2 X1845.980 Y1022.310 I 370.966 J -84.280
G2 X1858.020 Y1052.620 I 258.933 J -85.309
G2 X1871.980 Y1077.210 I 160.877 J -75.074
G2 X1887.420 Y1095.330 I  87.857 J -59.224
G2 X1903.880 Y1106.420 I  42.094 J -44.717
G2 X1920.850 Y1110.160 I  17.159 J -37.487
G2 X1937.820 Y1106.420 I  -0.189 J -41.227
G2 X1954.280 Y1095.330 I -25.634 J -55.807
G2 X1969.720 Y1077.210 I -72.417 J -77.344
G2 X1983.680 Y1052.620 I-146.917 J -99.664
G2 X1995.720 Y1022.310 I-246.893 J-115.619
G2 X2005.490 Y 987.190 I-361.196 J-119.400
G2 X2012.700 Y 948.340 I-472.487 J-107.781
G2 X2017.100 Y 906.930 I-561.472 J -80.598
G2 X2018.590 Y 864.220 I-611.416 J -42.711
G2 X2017.100 Y 821.510 I-612.906 J   0.001
G2 X2012.700 Y 780.100 I-565.872 J  39.188
G2 X2005.490 Y 741.250 I-479.697 J  68.931
G2 X1995.720 Y 706.130 I-370.966 J  84.280
G2 X1983.680 Y 675.820 I-258.933 J  85.309
G2 X1969.720 Y 651.230 I-160.877 J  75.074
G2 X1954.280 Y 633.110 I -87.858 J  59.225
G2 X1937.820 Y 622.020 I -42.094 J  44.717
G2 X1920.850 Y 618.280 I -17.159 J  37.487
G2 X1903.880 Y 622.020 I   0.189 J  41.227
G2 X1887.420 Y 633.110 I  25.634 J  55.807
G2 X1871.980 Y 651.230 I  72.418 J  77.345
G2 X1858.020 Y 675.820 I 146.917 J  99.664
G2 X1845.980 Y 706.130 I 246.893 J 115.619
F150
G1 Z   3.000
G0 Z  15.000 
M9 M5

(* SHAPE Nr: 30 *)
G0 X1599.840 Y 630.910
M3 M8
G0 Z   3.000 
G1 Z  -1.500
F400
G2 X1587.800 Y 661.220 I 246.893 J 115.619
G2 X1578.030 Y 696.340 I 361.196 J 119.400
G2 X1570.820 Y 735.190 I 472.487 J 107.781
G2 X1566.420 Y 776.600 I 561.472 J  80.598
G2 X1564.930 Y 819.310 I 611.416 J  42.711
G2 X1566.420 Y 862.020 I 612.906 J  -0.001
G2 X1570.820 Y 903.430 I 565.872 J -39.188
G2 X1578.030 Y 942.280 I 479.697 J -68.931
G2 X1587.800 Y 977.400 I 370.966 J -84.280
G2 X1599.840 Y1007.710 I 258.933 J -85.309
G2 X1613.800 Y1032.300 I 160.877 J -75.074
G2 X1629.240 Y1050.420 I  87.858 J -59.225
G2 X1645.700 Y1061.510 I  42.094 J -44.717
G2 X1662.670 Y1065.250 I  17.159 J -37.487
G2 X1679.640 Y1061.510 I  -0.189 J -41.227
G2 X1696.100 Y1050.420 I -25.634 J -55.807
G2 X1711.540 Y1032.300 I -72.418 J -77.345
G2 X1725.500 Y1007.710 I-146.917 J -99.664
G2 X1737.540 Y 977.400 I-246.893 J-115.619
G2 X1747.310 Y 942.280 I-361.196 J-119.400
G2 X1754.520 Y 903.430 I-472.487 J-107.781
G2 X1758.920 Y 862.020 I-561.472 J -80.598
G2 X1760.410 Y 819.310 I-611.416 J -42.711
G2 X1758.920 Y 776.600 I-612.906 J   0.001
G2 X1754.520 Y 735.190 I-565.872 J  39.188
G2 X1747.310 Y 696.340 I-479.697 J  68.931
G2 X1737.540 Y 661.220 I-370.966 J  84.280
G2 X1725.500 Y 630.910 I-258.933 J  85.309
G2 X1711.540 Y 606.320 I-160.877 J  75.074
G2 X1696.100 Y 588.200 I -87.858 J  59.225
G2 X1679.640 Y 577.110 I -42.094 J  44.717
G2 X1662.670 Y 573.370 I -17.159 J  37.487
G2 X1645.700 Y 577.110 I   0.189 J  41.227
G2 X1629.240 Y 588.200 I  25.634 J  55.807
G2 X1613.800 Y 606.320 I  72.418 J  77.345
G2 X1599.840 Y 630.910 I 146.917 J  99.664
F150
G1 Z  -3.000
F400
G2 X1587.800 Y 661.220 I 246.893 J 115.619
G2 X1578.030 Y 696.340 I 361.196 J 119.400
G2 X1570.820 Y 735.190 I 472.487 J 107.781
G2 X1566.420 Y 776.600 I 561.472 J  80.598
G2 X1564.930 Y 819.310 I 611.416 J  42.711
G2 X1566.420 Y 862.020 I 612.906 J  -0.001
G2 X1570.820 Y 903.430 I 565.872 J -39.188
G2 X1578.030 Y 942.280 I 479.697 J -68.931
G2 X1587.800 Y 977.400 I 370.966 J -84.280
G2 X1599.840 Y1007.710 I 258.933 J -85.309
G2 X1613.800 Y1032.300 I 160.877 J -75.074
G2 X1629.240 Y1050.420 I  87.858 J -59.225
G2 X1645.700 Y1061.510 I  42.094 J -44.717
G2 X1662.670 Y1065.250 I  17.159 J -37.487
G2 X1679.640 Y1061.510 I  -0.189 J -41.227
G2 X1696.100 Y1050.420 I -25.634 J -55.807
G2 X1711.540 Y1032.300 I -72.418 J -77.345
G2 X1725.500 Y1007.710 I-146.917 J -99.664
G2 X1737.540 Y 977.400 I-246.893 J-115.619
G2 X1747.310 Y 942.280 I-361.196 J-119.400
G2 X1754.520 Y 903.430 I-472.487 J-107.781
G2 X1758.920 Y 862.020 I-561.472 J -80.598
G2 X1760.410 Y 819.310 I-611.416 J -42.711
G2 X1758.920 Y 776.600 I-612.906 J   0.001
G2 X1754.520 Y 735.190 I-565.872 J  39.188
G2 X1747.310 Y 696.340 I-479.697 J  68.931
G2 X1737.540 Y 661.220 I-370.966 J  84.280
G2 X1725.500 Y 630.910 I-258.933 J  85.309
G2 X1711.540 Y 606.320 I-160.877 J  75.074
G2 X1696.100 Y 588.200 I -87.858 J  59.225
G2 X1679.640 Y 577.110 I -42.094 J  44.717
G2 X1662.670 Y 573.370 I -17.159 J  37.487
G2 X1645.700 Y 577.110 I   0.189 J  41.227
G2 X1629.240 Y 588.200 I  25.634 J  55.807
G2 X1613.800 Y 606.320 I  72.418 J  77.345
G2 X1599.840 Y 630.910 I 146.917 J  99.664
F150
G1 Z   3.000
G0 Z  15.000 
M9 M5

(* SHAPE Nr: 31 *)
G0 X1633.460 Y 250.440
M3 M8
G0 Z   3.000 
G1 Z  -1.500
F400
G2 X1629.060 Y 291.850 I 561.472 J  80.598
G2 X1627.570 Y 334.560 I 611.451 J  42.712
G2 X1629.060 Y 377.270 I 612.906 J  -0.001
G2 X1633.460 Y 418.680 I 565.872 J -39.188
G2 X1640.670 Y 457.530 I 479.697 J -68.931
G2 X1650.440 Y 492.650 I 370.966 J -84.280
G2 X1662.480 Y 522.960 I 258.933 J -85.309
G2 X1676.440 Y 547.550 I 160.877 J -75.074
G2 X1691.880 Y 565.670 I  87.858 J -59.225
G2 X1708.340 Y 576.760 I  42.094 J -44.717
G2 X1725.310 Y 580.500 I  17.159 J -37.487
G2 X1742.280 Y 576.760 I  -0.189 J -41.227
G2 X1758.740 Y 565.670 I -25.634 J -55.807
G2 X1774.180 Y 547.550 I -72.418 J -77.345
G2 X1788.140 Y 522.960 I-146.917 J -99.664
G2 X1800.180 Y 492.650 I-246.893 J-115.619
G2 X1809.950 Y 457.530 I-361.196 J-119.400
G2 X1817.160 Y 418.680 I-472.487 J-107.781
G2 X1821.560 Y 377.270 I-561.472 J -80.598
G2 X1823.050 Y 334.560 I-611.416 J -42.711
G2 X1821.560 Y 291.850 I-612.906 J   0.001
G2 X1817.160 Y 250.440 I-565.872 J  39.188
G2 X1809.950 Y 211.590 I-479.697 J  68.931
G2 X1800.180 Y 176.470 I-370.966 J  84.280
G2 X1788.140 Y 146.160 I-258.933 J  85.309
G2 X1774.180 Y 121.570 I-160.877 J  75.074
G2 X1758.740 Y 103.450 I -87.858 J  59.225
G2 X1742.280 Y  92.360 I -42.094 J  44.717
G2 X1725.310 Y  88.620 I -17.159 J  37.487
G2 X1708.340 Y  92.360 I   0.189 J  41.227
G2 X1691.880 Y 103.450 I  25.634 J  55.807
G2 X1676.440 Y 121.570 I  72.418 J  77.345
G2 X1662.480 Y 146.160 I 146.917 J  99.664
G2 X1650.440 Y 176.470 I 246.893 J 115.619
G2 X1640.670 Y 211.590 I 361.196 J 119.400
G2 X1633.460 Y 250.440 I 472.487 J 107.781
F150
G1 Z  -3.000
F400
G2 X1629.060 Y 291.850 I 561.472 J  80.598
G2 X1627.570 Y 334.560 I 611.451 J  42.712
G2 X1629.060 Y 377.270 I 612.906 J  -0.001
G2 X1633.460 Y 418.680 I 565.872 J -39.188
G2 X1640.670 Y 457.530 I 479.697 J -68.931
G2 X1650.440 Y 492.650 I 370.966 J -84.280
G2 X1662.480 Y 522.960 I 258.933 J -85.309
G2 X1676.440 Y 547.550 I 160.877 J -75.074
G2 X1691.880 Y 565.670 I  87.858 J -59.225
G2 X1708.340 Y 576.760 I  42.094 J -44.717
G2 X1725.310 Y 580.500 I  17.159 J -37.487
G2 X1742.280 Y 576.760 I  -0.189 J -41.227
G2 X1758.740 Y 565.670 I -25.634 J -55.807
G2 X1774.180 Y 547.550 I -72.418 J -77.345
G2 X1788.140 Y 522.960 I-146.917 J -99.664
G2 X1800.180 Y 492.650 I-246.893 J-115.619
G2 X1809.950 Y 457.530 I-361.196 J-119.400
G2 X1817.160 Y 418.680 I-472.487 J-107.781
G2 X1821.560 Y 377.270 I-561.472 J -80.598
G2 X1823.050 Y 334.560 I-611.416 J -42.711
G2 X1821.560 Y 291.850 I-612.906 J   0.001
G2 X1817.160 Y 250.440 I-565.872 J  39.188
G2 X1809.950 Y 211.590 I-479.697 J  68.931
G2 X1800.180 Y 176.470 I-370.966 J  84.280
G2 X1788.140 Y 146.160 I-258.933 J  85.309
G2 X1774.180 Y 121.570 I-160.877 J  75.074
G2 X1758.740 Y 103.450 I -87.858 J  59.225
G2 X1742.280 Y  92.360 I -42.094 J  44.717
G2 X1725.310 Y  88.620 I -17.159 J  37.487
G2 X1708.340 Y  92.360 I   0.189 J  41.227
G2 X1691.880 Y 103.450 I  25.634 J  55.807
G2 X1676.440 Y 121.570 I  72.418 J  77.345
G2 X1662.480 Y 146.160 I 146.917 J  99.664
G2 X1650.440 Y 176.470 I 246.893 J 115.619
G2 X1640.670 Y 211.590 I 361.196 J 119.400
G2 X1633.460 Y 250.440 I 472.487 J 107.781
F150
G1 Z   3.000
G0 Z  15.000 
M9 M5

(* SHAPE Nr: 32 *)
G0 X1842.960 Y 206.920
M3 M8
G0 Z   3.000 
G1 Z  -1.500
F400
G2 X1838.560 Y 248.330 I 561.472 J  80.598
G2 X1837.070 Y 291.040 I 611.451 J  42.712
G2 X1838.560 Y 333.750 I 612.906 J  -0.001
G2 X1842.960 Y 375.160 I 565.872 J -39.188
G2 X1850.170 Y 414.010 I 479.697 J -68.931
G2 X1859.940 Y 449.130 I 370.966 J -84.280
G2 X1871.980 Y 479.440 I 258.933 J -85.309
G2 X1885.940 Y 504.030 I 160.877 J -75.074
G2 X1901.380 Y 522.150 I  87.858 J -59.225
G2 X1917.840 Y 533.240 I  42.094 J -44.717
G2 X1934.810 Y 536.980 I  17.159 J -37.487
G2 X1951.780 Y 533.240 I  -0.189 J -41.227
G2 X1968.240 Y 522.150 I -25.634 J -55.807
G2 X1983.680 Y 504.030 I -72.418 J -77.345
G2 X1997.640 Y 479.440 I-146.917 J -99.664
G2 X2009.680 Y 449.130 I-246.893 J-115.619
G2 X2019.450 Y 414.010 I-361.196 J-119.400
G2 X2026.660 Y 375.160 I-472.487 J-107.781
G2 X2031.060 Y 333.750 I-561.472 J -80.598
G2 X2032.550 Y 291.040 I-611.416 J -42.711
G2 X2031.060 Y 248.330 I-612.906 J   0.001
G2 X2026.660 Y 206.920 I-565.872 J  39.188
G2 X2019.450 Y 168.070 I-479.697 J  68.931
G2 X2009.680 Y 132.950 I-370.966 J  84.280
G2 X1997.640 Y 102.640 I-258.933 J  85.309
G2 X1983.680 Y  78.050 I-160.877 J  75.074
G2 X1968.240 Y  59.930 I -87.858 J  59.225
G2 X1951.780 Y  48.840 I -42.094 J  44.717
G2 X1934.810 Y  45.100 I -17.159 J  37.487
G2 X1917.840 Y  48.840 I   0.189 J  41.227
G2 X1901.380 Y  59.930 I  25.634 J  55.807
G2 X1885.940 Y  78.050 I  72.418 J  77.345
G2 X1871.980 Y 102.640 I 146.917 J  99.664
G2 X1859.940 Y 132.950 I 246.893 J 115.619
G2 X1850.170 Y 168.070 I 361.196 J 119.400
G2 X1842.960 Y 206.920 I 472.487 J 107.781
F150
G1 Z  -3.000
F400
G2 X1838.560 Y 248.330 I 561.472 J  80.598
G2 X1837.070 Y 291.040 I 611.451 J  42.712
G2 X1838.560 Y 333.750 I 612.906 J  -0.001
G2 X1842.960 Y 375.160 I 565.872 J -39.188
G2 X1850.170 Y 414.010 I 479.697 J -68.931
G2 X1859.940 Y 449.130 I 370.966 J -84.280
G2 X1871.980 Y 479.440 I 258.933 J -85.309
G2 X1885.940 Y 504.030 I 160.877 J -75.074
G2 X1901.380 Y 522.150 I  87.858 J -59.225
G2 X1917.840 Y 533.240 I  42.094 J -44.717
G2 X1934.810 Y 536.980 I  17.159 J -37.487
G2 X1951.780 Y 533.240 I  -0.189 J -41.227
G2 X1968.240 Y 522.150 I -25.634 J -55.807
G2 X1983.680 Y 504.030 I -72.418 J -77.345
G2 X1997.640 Y 479.440 I-146.917 J -99.664
G2 X2009.680 Y 449.130 I-246.893 J-115.619
G2 X2019.450 Y 414.010 I-361.196 J-119.400
G2 X2026.660 Y 375.160 I-472.487 J-107.781
G2 X2031.060 Y 333.750 I-561.472 J -80.598
G2 X2032.550 Y 291.040 I-611.416 J -42.711
G2 X2031.060 Y 248.330 I-612.906 J   0.001
G2 X2026.660 Y 206.920 I-565.872 J  39.188
G2 X2019.450 Y 168.070 I-479.697 J  68.931
G2 X2009.680 Y 132.950 I-370.966 J  84.280
G2 X1997.640 Y 102.640 I-258.933 J  85.309
G2 X1983.680 Y  78.050 I-160.877 J  75.074
G2 X1968.240 Y  59.930 I -87.858 J  59.225
G2 X1951.780 Y  48.840 I -42.094 J  44.717
G2 X1934.810 Y  45.100 I -17.159 J  37.487
G2 X1917.840 Y  48.840 I   0.189 J  41.227
G2 X1901.380 Y  59.930 I  25.634 J  55.807
G2 X1885.940 Y  78.050 I  72.418 J  77.345
G2 X1871.980 Y 102.640 I 146.917 J  99.664
G2 X1859.940 Y 132.950 I 246.893 J 115.619
G2 X1850.170 Y 168.070 I 361.196 J 119.400
G2 X1842.960 Y 206.920 I 472.487 J 107.781
F150
G1 Z   3.000
G0 Z  15.000 
M9 M5

(* SHAPE Nr: 33 *)
G0 X2055.750 Y 245.310
M3 M8
G0 Z   3.000 
G1 Z  -1.500
F400
G2 X2051.350 Y 286.720 I 561.472 J  80.598
G2 X2049.860 Y 329.430 I 611.451 J  42.712
G2 X2051.350 Y 372.140 I 612.906 J  -0.001
G2 X2055.750 Y 413.550 I 565.872 J -39.188
G2 X2062.960 Y 452.400 I 479.697 J -68.931
G2 X2072.730 Y 487.520 I 370.966 J -84.280
G2 X2084.770 Y 517.830 I 258.933 J -85.309
G2 X2098.730 Y 542.420 I 160.873 J -75.072
G2 X2114.170 Y 560.540 I  87.858 J -59.225
G2 X2130.630 Y 571.630 I  42.094 J -44.717
G2 X2147.600 Y 575.370 I  17.159 J -37.487
G2 X2164.570 Y 571.630 I  -0.189 J -41.227
G2 X2181.030 Y 560.540 I -25.634 J -55.807
G2 X2196.470 Y 542.420 I -72.417 J -77.344
G2 X2210.430 Y 517.830 I-146.917 J -99.664
G2 X2222.470 Y 487.520 I-246.893 J-115.619
G2 X2232.240 Y 452.400 I-361.196 J-119.400
G2 X2239.450 Y 413.550 I-472.487 J-107.781
G2 X2243.850 Y 372.140 I-561.472 J -80.598
G2 X2245.340 Y 329.430 I-611.416 J -42.711
G2 X2243.850 Y 286.720 I-612.906 J   0.001
G2 X2239.450 Y 245.310 I-565.872 J  39.188
G2 X2232.240 Y 206.460 I-479.697 J  68.931
G2 X2222.470 Y 171.340 I-370.966 J  84.280
G2 X2210.430 Y 141.030 I-258.933 J  85.309
G2 X2196.470 Y 116.440 I-160.877 J  75.074
G2 X2181.030 Y  98.320 I -87.857 J  59.224
G2 X2164.570 Y  87.230 I -42.094 J  44.717
G2 X2147.600 Y  83.490 I -17.159 J  37.487
G2 X2130.630 Y  87.230 I   0.189 J  41.227
G2 X2114.170 Y  98.320 I  25.634 J  55.807
G2 X2098.730 Y 116.440 I  72.418 J  77.345
G2 X2084.770 Y 141.030 I 146.913 J  99.662
G2 X2072.730 Y 171.340 I 246.893 J 115.619
G2 X2062.960 Y 206.460 I 361.196 J 119.400
G2 X2055.750 Y 245.310 I 472.487 J 107.781
F150
G1 Z  -3.000
F400
G2 X2051.350 Y 286.720 I 561.472 J  80.598
G2 X2049.860 Y 329.430 I 611.451 J  42.712
G2 X2051.350 Y 372.140 I 612.906 J  -0.001
G2 X2055.750 Y 413.550 I 565.872 J -39.188
G2 X2062.960 Y 452.400 I 479.697 J -68.931
G2 X2072.730 Y 487.520 I 370.966 J -84.280
G2 X2084.770 Y 517.830 I 258.933 J -85.309
G2 X2098.730 Y 542.420 I 160.873 J -75.072
G2 X2114.170 Y 560.540 I  87.858 J -59.225
G2 X2130.630 Y 571.630 I  42.094 J -44.717
G2 X2147.600 Y 575.370 I  17.159 J -37.487
G2 X2164.570 Y 571.630 I  -0.189 J -41.227
G2 X2181.030 Y 560.540 I -25.634 J -55.807
G2 X2196.470 Y 542.420 I -72.417 J -77.344
G2 X2210.430 Y 517.830 I-146.917 J -99.664
G2 X2222.470 Y 487.520 I-246.893 J-115.619
G2 X2232.240 Y 452.400 I-361.196 J-119.400
G2 X2239.450 Y 413.550 I-472.487 J-107.781
G2 X2243.850 Y 372.140 I-561.472 J -80.598
G2 X2245.340 Y 329.430 I-611.416 J -42.711
G2 X2243.850 Y 286.720 I-612.906 J   0.001
G2 X2239.450 Y 245.310 I-565.872 J  39.188
G2 X2232.240 Y 206.460 I-479.697 J  68.931
G2 X2222.470 Y 171.340 I-370.966 J  84.280
G2 X2210.430 Y 141.030 I-258.933 J  85.309
G2 X2196.470 Y 116.440 I-160.877 J  75.074
G2 X2181.030 Y  98.320 I -87.857 J  59.224
G2 X2164.570 Y  87.230 I -42.094 J  44.717
G2 X2147.600 Y  83.490 I -17.159 J  37.487
G2 X2130.630 Y  87.230 I   0.189 J  41.227
G2 X2114.170 Y  98.320 I  25.634 J  55.807
G2 X2098.730 Y 116.440 I  72.418 J  77.345
G2 X2084.770 Y 141.030 I 146.913 J  99.662
G2 X2072.730 Y 171.340 I 246.893 J 115.619
G2 X2062.960 Y 206.460 I 361.196 J 119.400
G2 X2055.750 Y 245.310 I 472.487 J 107.781
F150
G1 Z   3.000
G0 Z  15.000 
M9 M5

(* SHAPE Nr: 34 *)
G0 X2260.450 Y 234.510
M3 M8
G0 Z   3.000 
G1 Z  -1.500
F400
G2 X2258.960 Y 277.220 I 611.451 J  42.712
G2 X2260.450 Y 319.930 I 612.906 J  -0.001
G2 X2264.850 Y 361.340 I 565.872 J -39.188
G2 X2272.060 Y 400.190 I 479.697 J -68.931
G2 X2281.830 Y 435.310 I 370.966 J -84.280
G2 X2293.870 Y 465.620 I 258.933 J -85.309
G2 X2307.830 Y 490.210 I 160.873 J -75.072
G2 X2323.270 Y 508.330 I  87.858 J -59.225
G2 X2339.730 Y 519.420 I  42.094 J -44.717
G2 X2356.700 Y 523.160 I  17.159 J -37.487
G2 X2373.670 Y 519.420 I  -0.189 J -41.227
G2 X2390.130 Y 508.330 I -25.634 J -55.807
G2 X2405.570 Y 490.210 I -72.417 J -77.344
G2 X2419.530 Y 465.620 I-146.917 J -99.664
G2 X2431.570 Y 435.310 I-246.893 J-115.619
G2 X2441.340 Y 400.190 I-361.196 J-119.400
G2 X2448.550 Y 361.340 I-472.487 J-107.781
G2 X2452.950 Y 319.930 I-561.472 J -80.598
G2 X2454.440 Y 277.220 I-611.416 J -42.711
G2 X2452.950 Y 234.510 I-612.906 J   0.001
G2 X2448.550 Y 193.100 I-565.872 J  39.188
G2 X2441.340 Y 154.250 I-479.697 J  68.931
G2 X2431.570 Y 119.130 I-370.966 J  84.280
G2 X2419.530 Y  88.820 I-258.933 J  85.309
G2 X2405.570 Y  64.230 I-160.877 J  75.074
G2 X2390.130 Y  46.110 I -87.857 J  59.224
G2 X2373.670 Y  35.020 I -42.094 J  44.717
G2 X2356.700 Y  31.280 I -17.159 J  37.487
G2 X2339.730 Y  35.020 I   0.189 J  41.227
G2 X2323.270 Y  46.110 I  25.634 J  55.807
G2 X2307.830 Y  64.230 I  72.418 J  77.345
G2 X2293.870 Y  88.820 I 146.913 J  99.662
G2 X2281.830 Y 119.130 I 246.893 J 115.619
G2 X2272.060 Y 154.250 I 361.196 J 119.400
G2 X2264.850 Y 193.100 I 472.487 J 107.781
G2 X2260.450 Y 234.510 I 561.472 J  80.598
F150
G1 Z  -3.000
F400
G2 X2258.960 Y 277.220 I 611.451 J  42.712
G2 X2260.450 Y 319.930 I 612.906 J  -0.001
G2 X2264.850 Y 361.340 I 565.872 J -39.188
G2 X2272.060 Y 400.190 I 479.697 J -68.931
G2 X2281.830 Y 435.310 I 370.966 J -84.280
G2 X2293.870 Y 465.620 I 258.933 J -85.309
G2 X2307.830 Y 490.210 I 160.873 J -75.072
G2 X2323.270 Y 508.330 I  87.858 J -59.225
G2 X2339.730 Y 519.420 I  42.094 J -44.717
G2 X2356.700 Y 523.160 I  17.159 J -37.487
G2 X2373.670 Y 519.420 I  -0.189 J -41.227
G2 X2390.130 Y 508.330 I -25.634 J -55.807
G2 X2405.570 Y 490.210 I -72.417 J -77.344
G2 X2419.530 Y 465.620 I-146.917 J -99.664
G2 X2431.570 Y 435.310 I-246.893 J-115.619
G2 X2441.340 Y 400.190 I-361.196 J-119.400
G2 X2448.550 Y 361.340 I-472.487 J-107.781
G2 X2452.950 Y 319.930 I-561.472 J -80.598
G2 X2454.440 Y 277.220 I-611.416 J -42.711
G2 X2452.950 Y 234.510 I-612.906 J   0.001
G2 X2448.550 Y 193.100 I-565.872 J  39.188
G2 X2441.340 Y 154.250 I-479.697 J  68.931
G2 X2431.570 Y 119.130 I-370.966 J  84.280
G2 X2419.530 Y  88.820 I-258.933 J  85.309
G2 X2405.570 Y  64.230 I-160.877 J  75.074
G2 X2390.130 Y  46.110 I -87.857 J  59.224
G2 X2373.670 Y  35.020 I -42.094 J  44.717
G2 X2356.700 Y  31.280 I -17.159 J  37.487
G2 X2339.730 Y  35.020 I   0.189 J  41.227
G2 X2323.270 Y  46.110 I  25.634 J  55.807
G2 X2307.830 Y  64.230 I  72.418 J  77.345
G2 X2293.870 Y  88.820 I 146.913 J  99.662
G2 X2281.830 Y 119.130 I 246.893 J 115.619
G2 X2272.060 Y 154.250 I 361.196 J 119.400
G2 X2264.850 Y 193.100 I 472.487 J 107.781
G2 X2260.450 Y 234.510 I 561.472 J  80.598
F150
G1 Z   3.000
G0 Z  15.000 
M9 M5

(* SHAPE Nr: 41 *)
G0 X2146.540 Y1120.850
M3 M8
G0 Z   3.000 
G1 Z  -1.500
F400
G2 X2134.500 Y1151.160 I 246.893 J 115.619
G2 X2124.730 Y1186.280 I 361.196 J 119.400
G2 X2117.520 Y1225.130 I 472.487 J 107.781
G2 X2113.120 Y1266.540 I 561.472 J  80.598
G2 X2111.630 Y1309.250 I 611.451 J  42.712
G2 X2113.120 Y1351.960 I 612.906 J  -0.001
G2 X2117.520 Y1393.370 I 565.872 J -39.188
G2 X2124.730 Y1432.220 I 479.697 J -68.931
G2 X2134.500 Y1467.340 I 370.966 J -84.280
G2 X2146.540 Y1497.650 I 258.933 J -85.309
G2 X2160.500 Y1522.240 I 160.877 J -75.074
G2 X2175.940 Y1540.360 I  87.857 J -59.224
G2 X2192.400 Y1551.450 I  42.094 J -44.717
G2 X2209.370 Y1555.190 I  17.159 J -37.487
G2 X2226.340 Y1551.450 I  -0.189 J -41.227
G2 X2242.800 Y1540.360 I -25.634 J -55.807
G2 X2258.240 Y1522.240 I -72.417 J -77.344
G2 X2272.200 Y1497.650 I-146.917 J -99.664
G2 X2284.240 Y1467.340 I-246.893 J-115.619
G2 X2294.010 Y1432.220 I-361.196 J-119.400
G2 X2301.220 Y1393.370 I-472.487 J-107.781
G2 X2305.620 Y1351.960 I-561.472 J -80.598
G2 X2307.110 Y1309.250 I-611.416 J -42.711
G2 X2305.620 Y1266.540 I-612.906 J   0.001
G2 X2301.220 Y1225.130 I-565.872 J  39.188
G2 X2294.010 Y1186.280 I-479.697 J  68.931
G2 X2284.240 Y1151.160 I-370.966 J  84.280
G2 X2272.200 Y1120.850 I-258.933 J  85.309
G2 X2258.240 Y1096.260 I-160.877 J  75.074
G2 X2242.800 Y1078.140 I -87.857 J  59.224
G2 X2226.340 Y1067.050 I -42.094 J  44.717
G2 X2209.370 Y1063.310 I -17.159 J  37.487
G2 X2192.400 Y1067.050 I   0.189 J  41.227
G2 X2175.940 Y1078.140 I  25.634 J  55.807
G2 X2160.500 Y1096.260 I  72.418 J  77.345
G2 X2146.540 Y1120.850 I 146.913 J  99.662
F150
G1 Z  -3.000
F400
G2 X2134.500 Y1151.160 I 246.893 J 115.619
G2 X2124.730 Y1186.280 I 361.196 J 119.400
G2 X2117.520 Y1225.130 I 472.487 J 107.781
G2 X2113.120 Y1266.540 I 561.472 J  80.598
G2 X2111.630 Y1309.250 I 611.451 J  42.712
G2 X2113.120 Y1351.960 I 612.906 J  -0.001
G2 X2117.520 Y1393.370 I 565.872 J -39.188
G2 X2124.730 Y1432.220 I 479.697 J -68.931
G2 X2134.500 Y1467.340 I 370.966 J -84.280
G2 X2146.540 Y1497.650 I 258.933 J -85.309
G2 X2160.500 Y1522.240 I 160.877 J -75.074
G2 X2175.940 Y1540.360 I  87.857 J -59.224
G2 X2192.400 Y1551.450 I  42.094 J -44.717
G2 X2209.370 Y1555.190 I  17.159 J -37.487
G2 X2226.340 Y1551.450 I  -0.189 J -41.227
G2 X2242.800 Y1540.360 I -25.634 J -55.807
G2 X2258.240 Y1522.240 I -72.417 J -77.344
G2 X2272.200 Y1497.650 I-146.917 J -99.664
G2 X2284.240 Y1467.340 I-246.893 J-115.619
G2 X2294.010 Y1432.220 I-361.196 J-119.400
G2 X2301.220 Y1393.370 I-472.487 J-107.781
G2 X2305.620 Y1351.960 I-561.472 J -80.598
G2 X2307.110 Y1309.250 I-611.416 J -42.711
G2 X2305.620 Y1266.540 I-612.906 J   0.001
G2 X2301.220 Y1225.130 I-565.872 J  39.188
G2 X2294.010 Y1186.280 I-479.697 J  68.931
G2 X2284.240 Y1151.160 I-370.966 J  84.280
G2 X2272.200 Y1120.850 I-258.933 J  85.309
G2 X2258.240 Y1096.260 I-160.877 J  75.074
G2 X2242.800 Y1078.140 I -87.857 J  59.224
G2 X2226.340 Y1067.050 I -42.094 J  44.717
G2 X2209.370 Y1063.310 I -17.159 J  37.487
G2 X2192.400 Y1067.050 I   0.189 J  41.227
G2 X2175.940 Y1078.140 I  25.634 J  55.807
G2 X2160.500 Y1096.260 I  72.418 J  77.345
G2 X2146.540 Y1120.850 I 146.913 J  99.662
F150
G1 Z   3.000
G0 Z  15.000 
M9 M5

(* SHAPE Nr: 42 *)
G0 X2563.700 Y1118.490
M3 M8
G0 Z   3.000 
G1 Z  -1.500
F400
G2 X2551.660 Y1148.800 I 246.893 J 115.619
G2 X2541.890 Y1183.920 I 361.196 J 119.400
G2 X2534.680 Y1222.770 I 472.487 J 107.781
G2 X2530.280 Y1264.180 I 561.472 J  80.598
G2 X2528.790 Y1306.890 I 611.451 J  42.712
G2 X2530.280 Y1349.600 I 612.906 J  -0.001
G2 X2534.680 Y1391.010 I 565.872 J -39.188
G2 X2541.890 Y1429.860 I 479.697 J -68.931
G2 X2551.660 Y1464.980 I 370.966 J -84.280
G2 X2563.700 Y1495.290 I 258.933 J -85.309
G2 X2577.660 Y1519.880 I 160.877 J -75.074
G2 X2593.100 Y1538.000 I  87.857 J -59.224
G2 X2609.560 Y1549.090 I  42.094 J -44.717
G2 X2626.530 Y1552.830 I  17.159 J -37.487
G2 X2643.500 Y1549.090 I  -0.189 J -41.227
G2 X2659.960 Y1538.000 I -25.634 J -55.807
G2 X2675.400 Y1519.880 I -72.417 J -77.344
G2 X2689.360 Y1495.290 I-146.917 J -99.664
G2 X2701.400 Y1464.980 I-246.893 J-115.619
G2 X2711.170 Y1429.860 I-361.196 J-119.400
G2 X2718.380 Y1391.010 I-472.487 J-107.781
G2 X2722.780 Y1349.600 I-561.472 J -80.598
G2 X2724.270 Y1306.890 I-611.416 J -42.711
G2 X2722.780 Y1264.180 I-612.906 J   0.001
G2 X2718.380 Y1222.770 I-565.872 J  39.188
G2 X2711.170 Y1183.920 I-479.697 J  68.931
G2 X2701.400 Y1148.800 I-370.966 J  84.280
G2 X2689.360 Y1118.490 I-258.933 J  85.309
G2 X2675.400 Y1093.900 I-160.877 J  75.074
G2 X2659.960 Y1075.780 I -87.857 J  59.224
G2 X2643.500 Y1064.690 I -42.094 J  44.717
G2 X2626.530 Y1060.950 I -17.159 J  37.487
G2 X2609.560 Y1064.690 I   0.189 J  41.227
G2 X2593.100 Y1075.780 I  25.634 J  55.807
G2 X2577.660 Y1093.900 I  72.418 J  77.345
G2 X2563.700 Y1118.490 I 146.913 J  99.662
F150
G1 Z  -3.000
F400
G2 X2551.660 Y1148.800 I 246.893 J 115.619
G2 X2541.890 Y1183.920 I 361.196 J 119.400
G2 X2534.680 Y1222.770 I 472.487 J 107.781
G2 X2530.280 Y1264.180 I 561.472 J  80.598
G2 X2528.790 Y1306.890 I 611.451 J  42.712
G2 X2530.280 Y1349.600 I 612.906 J  -0.001
G2 X2534.680 Y1391.010 I 565.872 J -39.188
G2 X2541.890 Y1429.860 I 479.697 J -68.931
G2 X2551.660 Y1464.980 I 370.966 J -84.280
G2 X2563.700 Y1495.290 I 258.933 J -85.309
G2 X2577.660 Y1519.880 I 160.877 J -75.074
G2 X2593.100 Y1538.000 I  87.857 J -59.224
G2 X2609.560 Y1549.090 I  42.094 J -44.717
G2 X2626.530 Y1552.830 I  17.159 J -37.487
G2 X2643.500 Y1549.090 I  -0.189 J -41.227
G2 X2659.960 Y1538.000 I -25.634 J -55.807
G2 X2675.400 Y1519.880 I -72.417 J -77.344
G2 X2689.360 Y1495.290 I-146.917 J -99.664
G2 X2701.400 Y1464.980 I-246.893 J-115.619
G2 X2711.170 Y1429.860 I-361.196 J-119.400
G2 X2718.380 Y1391.010 I-472.487 J-107.781
G2 X2722.780 Y1349.600 I-561.472 J -80.598
G2 X2724.270 Y1306.890 I-611.416 J -42.711
G2 X2722.780 Y1264.180 I-612.906 J   0.001
G2 X2718.380 Y1222.770 I-565.872 J  39.188
G2 X2711.170 Y1183.920 I-479.697 J  68.931
G2 X2701.400 Y1148.800 I-370.966 J  84.280
G2 X2689.360 Y1118.490 I-258.933 J  85.309
G2 X2675.400 Y1093.900 I-160.877 J  75.074
G2 X2659.960 Y1075.780 I -87.857 J  59.224
G2 X2643.500 Y1064.690 I -42.094 J  44.717
G2 X2626.530 Y1060.950 I -17.159 J  37.487
G2 X2609.560 Y1064.690 I   0.189 J  41.227
G2 X2593.100 Y1075.780 I  25.634 J  55.807
G2 X2577.660 Y1093.900 I  72.418 J  77.345
G2 X2563.700 Y1118.490 I 146.913 J  99.662
F150
G1 Z   3.000
G0 Z  15.000 
M9 M5

(* SHAPE Nr: 44 *)
G0 X2518.280 Y1581.070
M3 M8
G0 Z   3.000 
G1 Z  -1.500
F400
G2 X2504.320 Y1605.660 I 146.913 J  99.662
G2 X2492.280 Y1635.970 I 246.893 J 115.619
G2 X2482.510 Y1671.090 I 361.196 J 119.400
G2 X2475.300 Y1709.940 I 472.487 J 107.781
G2 X2470.900 Y1751.350 I 561.472 J  80.598
G2 X2469.410 Y1794.060 I 611.416 J  42.711
G2 X2470.900 Y1836.770 I 612.941 J  -0.002
G2 X2475.300 Y1878.180 I 565.872 J -39.188
G2 X2482.510 Y1917.030 I 479.697 J -68.931
G2 X2492.280 Y1952.150 I 370.966 J -84.280
G2 X2504.320 Y1982.460 I 258.933 J -85.309
G2 X2518.280 Y2007.050 I 160.873 J -75.072
G2 X2533.720 Y2025.170 I  87.858 J -59.225
G2 X2550.180 Y2036.260 I  42.094 J -44.717
G2 X2567.150 Y2040.000 I  17.159 J -37.487
G2 X2584.120 Y2036.260 I  -0.189 J -41.227
G2 X2600.580 Y2025.170 I -25.634 J -55.807
G2 X2616.020 Y2007.050 I -72.418 J -77.345
G2 X2629.980 Y1982.460 I-146.917 J -99.664
G2 X2642.020 Y1952.150 I-246.893 J-115.619
G2 X2651.790 Y1917.030 I-361.196 J-119.400
G2 X2659.000 Y1878.180 I-472.487 J-107.781
G2 X2663.400 Y1836.770 I-561.472 J -80.598
G2 X2664.890 Y1794.060 I-611.416 J -42.711
G2 X2663.400 Y1751.350 I-612.906 J   0.001
G2 X2659.000 Y1709.940 I-565.872 J  39.188
G2 X2651.790 Y1671.090 I-479.697 J  68.931
G2 X2642.020 Y1635.970 I-370.966 J  84.280
G2 X2629.980 Y1605.660 I-258.933 J  85.309
G2 X2616.020 Y1581.070 I-160.877 J  75.074
G2 X2600.580 Y1562.950 I -87.857 J  59.224
G2 X2584.120 Y1551.860 I -42.094 J  44.717
G2 X2567.150 Y1548.120 I -17.159 J  37.487
G2 X2550.180 Y1551.860 I   0.189 J  41.227
G2 X2533.720 Y1562.950 I  25.634 J  55.807
G2 X2518.280 Y1581.070 I  72.418 J  77.345
F150
G1 Z  -3.000
F400
G2 X2504.320 Y1605.660 I 146.913 J  99.662
G2 X2492.280 Y1635.970 I 246.893 J 115.619
G2 X2482.510 Y1671.090 I 361.196 J 119.400
G2 X2475.300 Y1709.940 I 472.487 J 107.781
G2 X2470.900 Y1751.350 I 561.472 J  80.598
G2 X2469.410 Y1794.060 I 611.416 J  42.711
G2 X2470.900 Y1836.770 I 612.941 J  -0.002
G2 X2475.300 Y1878.180 I 565.872 J -39.188
G2 X2482.510 Y1917.030 I 479.697 J -68.931
G2 X2492.280 Y1952.150 I 370.966 J -84.280
G2 X2504.320 Y1982.460 I 258.933 J -85.309
G2 X2518.280 Y2007.050 I 160.873 J -75.072
G2 X2533.720 Y2025.170 I  87.858 J -59.225
G2 X2550.180 Y2036.260 I  42.094 J -44.717
G2 X2567.150 Y2040.000 I  17.159 J -37.487
G2 X2584.120 Y2036.260 I  -0.189 J -41.227
G2 X2600.580 Y2025.170 I -25.634 J -55.807
G2 X2616.020 Y2007.050 I -72.418 J -77.345
G2 X2629.980 Y1982.460 I-146.917 J -99.664
G2 X2642.020 Y1952.150 I-246.893 J-115.619
G2 X2651.790 Y1917.030 I-361.196 J-119.400
G2 X2659.000 Y1878.180 I-472.487 J-107.781
G2 X2663.400 Y1836.770 I-561.472 J -80.598
G2 X2664.890 Y1794.060 I-611.416 J -42.711
G2 X2663.400 Y1751.350 I-612.906 J   0.001
G2 X2659.000 Y1709.940 I-565.872 J  39.188
G2 X2651.790 Y1671.090 I-479.697 J  68.931
G2 X2642.020 Y1635.970 I-370.966 J  84.280
G2 X2629.980 Y1605.660 I-258.933 J  85.309
G2 X2616.020 Y1581.070 I-160.877 J  75.074
G2 X2600.580 Y1562.950 I -87.857 J  59.224
G2 X2584.120 Y1551.860 I -42.094 J  44.717
G2 X2567.150 Y1548.120 I -17.159 J  37.487
G2 X2550.180 Y1551.860 I   0.189 J  41.227
G2 X2533.720 Y1562.950 I  25.634 J  55.807
G2 X2518.280 Y1581.070 I  72.418 J  77.345
F150
G1 Z   3.000
G0 Z  15.000 
M9 M5

(* SHAPE Nr: 45 *)
G0 X2308.110 Y1581.070
M3 M8
G0 Z   3.000 
G1 Z  -1.500
F400
G2 X2294.150 Y1605.660 I 146.913 J  99.662
G2 X2282.110 Y1635.970 I 246.893 J 115.619
G2 X2272.340 Y1671.090 I 361.196 J 119.400
G2 X2265.130 Y1709.940 I 472.487 J 107.781
G2 X2260.730 Y1751.350 I 561.472 J  80.598
G2 X2259.240 Y1794.060 I 611.416 J  42.711
G2 X2260.730 Y1836.770 I 612.941 J  -0.002
G2 X2265.130 Y1878.180 I 565.872 J -39.188
G2 X2272.340 Y1917.030 I 479.697 J -68.931
G2 X2282.110 Y1952.150 I 370.966 J -84.280
G2 X2294.150 Y1982.460 I 258.933 J -85.309
G2 X2308.110 Y2007.050 I 160.873 J -75.072
G2 X2323.550 Y2025.170 I  87.858 J -59.225
G2 X2340.010 Y2036.260 I  42.094 J -44.717
G2 X2356.980 Y2040.000 I  17.159 J -37.487
G2 X2373.950 Y2036.260 I  -0.189 J -41.227
G2 X2390.410 Y2025.170 I -25.634 J -55.807
G2 X2405.850 Y2007.050 I -72.418 J -77.345
G2 X2419.810 Y1982.460 I-146.917 J -99.664
G2 X2431.850 Y1952.150 I-246.893 J-115.619
G2 X2441.620 Y1917.030 I-361.196 J-119.400
G2 X2448.830 Y1878.180 I-472.487 J-107.781
G2 X2453.230 Y1836.770 I-561.472 J -80.598
G2 X2454.720 Y1794.060 I-611.416 J -42.711
G2 X2453.230 Y1751.350 I-612.906 J   0.001
G2 X2448.830 Y1709.940 I-565.872 J  39.188
G2 X2441.620 Y1671.090 I-479.697 J  68.931
G2 X2431.850 Y1635.970 I-370.966 J  84.280
G2 X2419.810 Y1605.660 I-258.933 J  85.309
G2 X2405.850 Y1581.070 I-160.877 J  75.074
G2 X2390.410 Y1562.950 I -87.857 J  59.224
G2 X2373.950 Y1551.860 I -42.094 J  44.717
G2 X2356.980 Y1548.120 I -17.159 J  37.487
G2 X2340.010 Y1551.860 I   0.189 J  41.227
G2 X2323.550 Y1562.950 I  25.634 J  55.807
G2 X2308.110 Y1581.070 I  72.418 J  77.345
F150
G1 Z  -3.000
F400
G2 X2294.150 Y1605.660 I 146.913 J  99.662
G2 X2282.110 Y1635.970 I 246.893 J 115.619
G2 X2272.340 Y1671.090 I 361.196 J 119.400
G2 X2265.130 Y1709.940 I 472.487 J 107.781
G2 X2260.730 Y1751.350 I 561.472 J  80.598
G2 X2259.240 Y1794.060 I 611.416 J  42.711
G2 X2260.730 Y1836.770 I 612.941 J  -0.002
G2 X2265.130 Y1878.180 I 565.872 J -39.188
G2 X2272.340 Y1917.030 I 479.697 J -68.931
G2 X2282.110 Y1952.150 I 370.966 J -84.280
G2 X2294.150 Y1982.460 I 258.933 J -85.309
G2 X2308.110 Y2007.050 I 160.873 J -75.072
G2 X2323.550 Y2025.170 I  87.858 J -59.225
G2 X2340.010 Y2036.260 I  42.094 J -44.717
G2 X2356.980 Y2040.000 I  17.159 J -37.487
G2 X2373.950 Y2036.260 I  -0.189 J -41.227
G2 X2390.410 Y2025.170 I -25.634 J -55.807
G2 X2405.850 Y2007.050 I -72.418 J -77.345
G2 X2419.810 Y1982.460 I-146.917 J -99.664
G2 X2431.850 Y1952.150 I-246.893 J-115.619
G2 X2441.620 Y1917.030 I-361.196 J-119.400
G2 X2448.830 Y1878.180 I-472.487 J-107.781
G2 X2453.230 Y1836.770 I-561.472 J -80.598
G2 X2454.720 Y1794.060 I-611.416 J -42.711
G2 X2453.230 Y1751.350 I-612.906 J   0.001
G2 X2448.830 Y1709.940 I-565.872 J  39.188
G2 X2441.620 Y1671.090 I-479.697 J  68.931
G2 X2431.850 Y1635.970 I-370.966 J  84.280
G2 X2419.810 Y1605.660 I-258.933 J  85.309
G2 X2405.850 Y1581.070 I-160.877 J  75.074
G2 X2390.410 Y1562.950 I -87.857 J  59.224
G2 X2373.950 Y1551.860 I -42.094 J  44.717
G2 X2356.980 Y1548.120 I -17.159 J  37.487
G2 X2340.010 Y1551.860 I   0.189 J  41.227
G2 X2323.550 Y1562.950 I  25.634 J  55.807
G2 X2308.110 Y1581.070 I  72.418 J  77.345
F150
G1 Z   3.000
G0 Z  15.000 
M9 M5

(* SHAPE Nr: 46 *)
G0 X2097.910 Y1581.070
M3 M8
G0 Z   3.000 
G1 Z  -1.500
F400
G2 X2083.950 Y1605.660 I 146.913 J  99.662
G2 X2071.910 Y1635.970 I 246.893 J 115.619
G2 X2062.140 Y1671.090 I 361.196 J 119.400
G2 X2054.930 Y1709.940 I 472.487 J 107.781
G2 X2050.530 Y1751.350 I 561.472 J  80.598
G2 X2049.040 Y1794.060 I 611.416 J  42.711
G2 X2050.530 Y1836.770 I 612.941 J  -0.002
G2 X2054.930 Y1878.180 I 565.872 J -39.188
G2 X2062.140 Y1917.030 I 479.697 J -68.931
G2 X2071.910 Y1952.150 I 370.966 J -84.280
G2 X2083.950 Y1982.460 I 258.933 J -85.309
G2 X2097.910 Y2007.050 I 160.873 J -75.072
G2 X2113.350 Y2025.170 I  87.858 J -59.225
G2 X2129.810 Y2036.260 I  42.094 J -44.717
G2 X2146.780 Y2040.000 I  17.159 J -37.487
G2 X2163.750 Y2036.260 I  -0.189 J -41.227
G2 X2180.210 Y2025.170 I -25.634 J -55.807
G2 X2195.650 Y2007.050 I -72.417 J -77.344
G2 X2209.610 Y1982.460 I-146.917 J -99.664
G2 X2221.650 Y1952.150 I-246.893 J-115.619
G2 X2231.420 Y1917.030 I-361.196 J-119.400
G2 X2238.630 Y1878.180 I-472.487 J-107.781
G2 X2243.030 Y1836.770 I-561.472 J -80.598
G2 X2244.520 Y1794.060 I-611.416 J -42.711
G2 X2243.030 Y1751.350 I-612.906 J   0.001
G2 X2238.630 Y1709.940 I-565.872 J  39.188
G2 X2231.420 Y1671.090 I-479.697 J  68.931
G2 X2221.650 Y1635.970 I-370.966 J  84.280
G2 X2209.610 Y1605.660 I-258.933 J  85.309
G2 X2195.650 Y1581.070 I-160.877 J  75.074
G2 X2180.210 Y1562.950 I -87.857 J  59.224
G2 X2163.750 Y1551.860 I -42.094 J  44.717
G2 X2146.780 Y1548.120 I -17.159 J  37.487
G2 X2129.810 Y1551.860 I   0.189 J  41.227
G2 X2113.350 Y1562.950 I  25.634 J  55.807
G2 X2097.910 Y1581.070 I  72.418 J  77.345
F150
G1 Z  -3.000
F400
G2 X2083.950 Y1605.660 I 146.913 J  99.662
G2 X2071.910 Y1635.970 I 246.893 J 115.619
G2 X2062.140 Y1671.090 I 361.196 J 119.400
G2 X2054.930 Y1709.940 I 472.487 J 107.781
G2 X2050.530 Y1751.350 I 561.472 J  80.598
G2 X2049.040 Y1794.060 I 611.416 J  42.711
G2 X2050.530 Y1836.770 I 612.941 J  -0.002
G2 X2054.930 Y1878.180 I 565.872 J -39.188
G2 X2062.140 Y1917.030 I 479.697 J -68.931
G2 X2071.910 Y1952.150 I 370.966 J -84.280
G2 X2083.950 Y1982.460 I 258.933 J -85.309
G2 X2097.910 Y2007.050 I 160.873 J -75.072
G2 X2113.350 Y2025.170 I  87.858 J -59.225
G2 X2129.810 Y2036.260 I  42.094 J -44.717
G2 X2146.780 Y2040.000 I  17.159 J -37.487
G2 X2163.750 Y2036.260 I  -0.189 J -41.227
G2 X2180.210 Y2025.170 I -25.634 J -55.807
G2 X2195.650 Y2007.050 I -72.417 J -77.344
G2 X2209.610 Y1982.460 I-146.917 J -99.664
G2 X2221.650 Y1952.150 I-246.893 J-115.619
G2 X2231.420 Y1917.030 I-361.196 J-119.400
G2 X2238.630 Y1878.180 I-472.487 J-107.781
G2 X2243.030 Y1836.770 I-561.472 J -80.598
G2 X2244.520 Y1794.060 I-611.416 J -42.711
G2 X2243.030 Y1751.350 I-612.906 J   0.001
G2 X2238.630 Y1709.940 I-565.872 J  39.188
G2 X2231.420 Y1671.090 I-479.697 J  68.931
G2 X2221.650 Y1635.970 I-370.966 J  84.280
G2 X2209.610 Y1605.660 I-258.933 J  85.309
G2 X2195.650 Y1581.070 I-160.877 J  75.074
G2 X2180.210 Y1562.950 I -87.857 J  59.224
G2 X2163.750 Y1551.860 I -42.094 J  44.717
G2 X2146.780 Y1548.120 I -17.159 J  37.487
G2 X2129.810 Y1551.860 I   0.189 J  41.227
G2 X2113.350 Y1562.950 I  25.634 J  55.807
G2 X2097.910 Y1581.070 I  72.418 J  77.345
F150
G1 Z   3.000
G0 Z  15.000 
M9 M5

(* SHAPE Nr: 47 *)
G0 X1887.690 Y1581.070
M3 M8
G0 Z   3.000 
G1 Z  -1.500
F400
G2 X1873.730 Y1605.660 I 146.917 J  99.664
G2 X1861.690 Y1635.970 I 246.893 J 115.619
G2 X1851.920 Y1671.090 I 361.196 J 119.400
G2 X1844.710 Y1709.940 I 472.487 J 107.781
G2 X1840.310 Y1751.350 I 561.472 J  80.598
G2 X1838.820 Y1794.060 I 611.416 J  42.711
G2 X1840.310 Y1836.770 I 612.941 J  -0.002
G2 X1844.710 Y1878.180 I 565.872 J -39.188
G2 X1851.920 Y1917.030 I 479.697 J -68.931
G2 X1861.690 Y1952.150 I 370.966 J -84.280
G2 X1873.730 Y1982.460 I 258.933 J -85.309
G2 X1887.690 Y2007.050 I 160.877 J -75.074
G2 X1903.130 Y2025.170 I  87.858 J -59.225
G2 X1919.590 Y2036.260 I  42.094 J -44.717
G2 X1936.560 Y2040.000 I  17.159 J -37.487
G2 X1953.530 Y2036.260 I  -0.189 J -41.227
G2 X1969.990 Y2025.170 I -25.634 J -55.807
G2 X1985.430 Y2007.050 I -72.418 J -77.345
G2 X1999.390 Y1982.460 I-146.917 J -99.664
G2 X2011.430 Y1952.150 I-246.893 J-115.619
G2 X2021.200 Y1917.030 I-361.196 J-119.400
G2 X2028.410 Y1878.180 I-472.487 J-107.781
G2 X2032.810 Y1836.770 I-561.472 J -80.598
G2 X2034.300 Y1794.060 I-611.416 J -42.711
G2 X2032.810 Y1751.350 I-612.906 J   0.001
G2 X2028.410 Y1709.940 I-565.872 J  39.188
G2 X2021.200 Y1671.090 I-479.697 J  68.931
G2 X2011.430 Y1635.970 I-370.966 J  84.280
G2 X1999.390 Y1605.660 I-258.933 J  85.309
G2 X1985.430 Y1581.070 I-160.877 J  75.074
G2 X1969.990 Y1562.950 I -87.858 J  59.225
G2 X1953.530 Y1551.860 I -42.094 J  44.717
G2 X1936.560 Y1548.120 I -17.159 J  37.487
G2 X1919.590 Y1551.860 I   0.189 J  41.227
G2 X1903.130 Y1562.950 I  25.634 J  55.807
G2 X1887.690 Y1581.070 I  72.418 J  77.345
F150
G1 Z  -3.000
F400
G2 X1873.730 Y1605.660 I 146.917 J  99.664
G2 X1861.690 Y1635.970 I 246.893 J 115.619
G2 X1851.920 Y1671.090 I 361.196 J 119.400
G2 X1844.710 Y1709.940 I 472.487 J 107.781
G2 X1840.310 Y1751.350 I 561.472 J  80.598
G2 X1838.820 Y1794.060 I 611.416 J  42.711
G2 X1840.310 Y1836.770 I 612.941 J  -0.002
G2 X1844.710 Y1878.180 I 565.872 J -39.188
G2 X1851.920 Y1917.030 I 479.697 J -68.931
G2 X1861.690 Y1952.150 I 370.966 J -84.280
G2 X1873.730 Y1982.460 I 258.933 J -85.309
G2 X1887.690 Y2007.050 I 160.877 J -75.074
