(Generated with: DXF2GCODE, Version: REMOVED, Date: $Date$)
(Created from file: )
(Output format description: G-CODE for LinuxCNC)
(Time: Thu Sep 13 16:00:26 2018)
G21 (Units in millimeters)
G90 (Absolute programming)
G64 (Default cutting) G17 (XY plane) G40 (Cancel radius comp.) G49 (Cancel length comp.)
G0 Z  15.000 

(*** LAYER: FRAME_Z18 ***)
T1 M6
S6000

(* SHAPE Nr: 134 *)
G0 X   0.000 Y   0.000
M3 M8
G0 Z   3.000 
F150
G1 Z  -1.500
F400
G1 X   0.000 Y2050.000
G1 X2800.000 Y2050.000
G1 X2800.000 Y   0.000
G1 X   0.000 Y   0.000
F150
G1 Z  -3.000
F400
G1 X   0.000 Y2050.000
G1 X2800.000 Y2050.000
G1 X2800.000 Y   0.000
G1 X   0.000 Y   0.000
F150
G1 Z   3.000
G0 Z  15.000 
M9 M5

(*** LAYER: CONTOUR_D0 ***)

(* SHAPE Nr: 0 *)
G0 X 163.120 Y 127.120
M3 M8
G0 Z   3.000 
G1 Z  -1.500
F400
G2 X 150.750 Y 143.800 I  70.006 J  64.844
G2 X 139.560 Y 166.450 I  79.203 J  53.219
G2 X 129.900 Y 194.380 I 156.647 J  69.814
G2 X 122.070 Y 226.730 I 376.932 J 108.355
G2 X 116.300 Y 262.520 I 497.151 J  98.510
G2 X 112.760 Y 300.660 I 593.345 J  74.306
G2 X 111.570 Y 340.000 I 647.318 J  39.269
G2 X 112.760 Y 379.340 I 648.508 J   0.071
G2 X 116.300 Y 417.480 I 596.885 J -36.166
G2 X 122.070 Y 453.270 I 502.921 J -62.720
G2 X 129.900 Y 485.620 I 384.762 J -76.005
G2 X 139.560 Y 513.540 I 263.746 J -75.622
G2 X 150.750 Y 536.200 I 158.951 J -64.400
G2 X 163.120 Y 552.890 I  82.391 J -48.136
G2 X 176.320 Y 563.110 I  36.429 J -33.416
G2 X 189.920 Y 566.550 I  13.801 J -25.958
G2 X 203.530 Y 563.110 I  -0.191 J -29.398
G2 X 216.720 Y 552.890 I -23.248 J -43.626
G2 X 229.090 Y 536.200 I -70.021 J -64.826
G2 X 240.280 Y 513.540 I-147.761 J -87.060
G2 X 249.940 Y 485.620 I-254.086 J-103.542
G2 X 257.770 Y 453.270 I-376.932 J-108.355
G2 X 263.540 Y 417.480 I-497.151 J -98.510
G2 X 267.080 Y 379.340 I-593.345 J -74.306
G2 X 268.270 Y 340.000 I-647.318 J -39.269
G2 X 267.080 Y 300.660 I-648.508 J  -0.071
G2 X 263.540 Y 262.520 I-596.885 J  36.166
G2 X 257.770 Y 226.730 I-502.921 J  62.720
G2 X 249.940 Y 194.380 I-384.762 J  76.005
G2 X 240.280 Y 166.450 I-263.752 J  75.587
G2 X 229.090 Y 143.800 I-158.937 J  64.432
G2 X 216.720 Y 127.120 I -82.374 J  48.163
G2 X 203.530 Y 116.890 I -36.456 J  33.386
G2 X 189.920 Y 113.450 I -13.801 J  25.958
G2 X 176.320 Y 116.890 I   0.201 J  29.398
G2 X 163.120 Y 127.120 I  23.247 J  43.627
F150
G1 Z  -3.000
F400
G2 X 150.750 Y 143.800 I  70.006 J  64.844
G2 X 139.560 Y 166.450 I  79.203 J  53.219
G2 X 129.900 Y 194.380 I 156.647 J  69.814
G2 X 122.070 Y 226.730 I 376.932 J 108.355
G2 X 116.300 Y 262.520 I 497.151 J  98.510
G2 X 112.760 Y 300.660 I 593.345 J  74.306
G2 X 111.570 Y 340.000 I 647.318 J  39.269
G2 X 112.760 Y 379.340 I 648.508 J   0.071
G2 X 116.300 Y 417.480 I 596.885 J -36.166
G2 X 122.070 Y 453.270 I 502.921 J -62.720
G2 X 129.900 Y 485.620 I 384.762 J -76.005
G2 X 139.560 Y 513.540 I 263.746 J -75.622
G2 X 150.750 Y 536.200 I 158.951 J -64.400
G2 X 163.120 Y 552.890 I  82.391 J -48.136
G2 X 176.320 Y 563.110 I  36.429 J -33.416
G2 X 189.920 Y 566.550 I  13.801 J -25.958
G2 X 203.530 Y 563.110 I  -0.191 J -29.398
G2 X 216.720 Y 552.890 I -23.248 J -43.626
G2 X 229.090 Y 536.200 I -70.021 J -64.826
G2 X 240.280 Y 513.540 I-147.761 J -87.060
G2 X 249.940 Y 485.620 I-254.086 J-103.542
G2 X 257.770 Y 453.270 I-376.932 J-108.355
G2 X 263.540 Y 417.480 I-497.151 J -98.510
G2 X 267.080 Y 379.340 I-593.345 J -74.306
G2 X 268.270 Y 340.000 I-647.318 J -39.269
G2 X 267.080 Y 300.660 I-648.508 J  -0.071
G2 X 263.540 Y 262.520 I-596.885 J  36.166
G2 X 257.770 Y 226.730 I-502.921 J  62.720
G2 X 249.940 Y 194.380 I-384.762 J  76.005
G2 X 240.280 Y 166.450 I-263.752 J  75.587
G2 X 229.090 Y 143.800 I-158.937 J  64.432
G2 X 216.720 Y 127.120 I -82.374 J  48.163
G2 X 203.530 Y 116.890 I -36.456 J  33.386
G2 X 189.920 Y 113.450 I -13.801 J  25.958
G2 X 176.320 Y 116.890 I   0.201 J  29.398
G2 X 163.120 Y 127.120 I  23.247 J  43.627
F150
G1 Z   3.000
G0 Z  15.000 
M9 M5

(* SHAPE Nr: 1 *)
G0 X 377.620 Y 317.120
M3 M8
G0 Z   3.000 
G1 Z  -1.500
F400
G2 X 365.250 Y 333.800 I  70.004 J  64.843
G2 X 354.060 Y 356.450 I  79.203 J  53.219
G2 X 344.400 Y 384.380 I 156.647 J  69.814
G2 X 336.570 Y 416.730 I 376.932 J 108.355
G2 X 330.800 Y 452.520 I 497.151 J  98.510
G2 X 327.260 Y 490.660 I 593.345 J  74.306
G2 X 326.070 Y 530.000 I 647.318 J  39.269
G2 X 327.260 Y 569.340 I 648.508 J   0.071
G2 X 330.800 Y 607.480 I 596.885 J -36.166
G2 X 336.570 Y 643.270 I 502.921 J -62.720
G2 X 344.400 Y 675.620 I 384.762 J -76.005
G2 X 354.060 Y 703.540 I 263.746 J -75.622
G2 X 365.250 Y 726.200 I 158.951 J -64.400
G2 X 377.620 Y 742.890 I  82.391 J -48.136
G2 X 390.820 Y 753.110 I  36.429 J -33.416
G2 X 404.420 Y 756.550 I  13.801 J -25.958
G2 X 418.030 Y 753.110 I  -0.191 J -29.398
G2 X 431.220 Y 742.890 I -23.248 J -43.626
G2 X 443.590 Y 726.200 I -70.021 J -64.826
G2 X 454.780 Y 703.540 I-147.761 J -87.060
G2 X 464.440 Y 675.620 I-254.086 J-103.542
G2 X 472.270 Y 643.270 I-376.932 J-108.355
G2 X 478.040 Y 607.480 I-497.151 J -98.510
G2 X 481.580 Y 569.340 I-593.345 J -74.306
G2 X 482.770 Y 530.000 I-647.318 J -39.269
G2 X 481.580 Y 490.660 I-648.508 J  -0.071
G2 X 478.040 Y 452.520 I-596.885 J  36.166
G2 X 472.270 Y 416.730 I-502.921 J  62.720
G2 X 464.440 Y 384.380 I-384.762 J  76.005
G2 X 454.780 Y 356.450 I-263.752 J  75.587
G2 X 443.590 Y 333.800 I-158.937 J  64.432
G2 X 431.220 Y 317.120 I -82.376 J  48.164
G2 X 418.030 Y 306.890 I -36.456 J  33.386
G2 X 404.420 Y 303.450 I -13.801 J  25.958
G2 X 390.820 Y 306.890 I   0.201 J  29.398
G2 X 377.620 Y 317.120 I  23.247 J  43.627
F150
G1 Z  -3.000
F400
G2 X 365.250 Y 333.800 I  70.004 J  64.843
G2 X 354.060 Y 356.450 I  79.203 J  53.219
G2 X 344.400 Y 384.380 I 156.647 J  69.814
G2 X 336.570 Y 416.730 I 376.932 J 108.355
G2 X 330.800 Y 452.520 I 497.151 J  98.510
G2 X 327.260 Y 490.660 I 593.345 J  74.306
G2 X 326.070 Y 530.000 I 647.318 J  39.269
G2 X 327.260 Y 569.340 I 648.508 J   0.071
G2 X 330.800 Y 607.480 I 596.885 J -36.166
G2 X 336.570 Y 643.270 I 502.921 J -62.720
G2 X 344.400 Y 675.620 I 384.762 J -76.005
G2 X 354.060 Y 703.540 I 263.746 J -75.622
G2 X 365.250 Y 726.200 I 158.951 J -64.400
G2 X 377.620 Y 742.890 I  82.391 J -48.136
G2 X 390.820 Y 753.110 I  36.429 J -33.416
G2 X 404.420 Y 756.550 I  13.801 J -25.958
G2 X 418.030 Y 753.110 I  -0.191 J -29.398
G2 X 431.220 Y 742.890 I -23.248 J -43.626
G2 X 443.590 Y 726.200 I -70.021 J -64.826
G2 X 454.780 Y 703.540 I-147.761 J -87.060
G2 X 464.440 Y 675.620 I-254.086 J-103.542
G2 X 472.270 Y 643.270 I-376.932 J-108.355
G2 X 478.040 Y 607.480 I-497.151 J -98.510
G2 X 481.580 Y 569.340 I-593.345 J -74.306
G2 X 482.770 Y 530.000 I-647.318 J -39.269
G2 X 481.580 Y 490.660 I-648.508 J  -0.071
G2 X 478.040 Y 452.520 I-596.885 J  36.166
G2 X 472.270 Y 416.730 I-502.921 J  62.720
G2 X 464.440 Y 384.380 I-384.762 J  76.005
G2 X 454.780 Y 356.450 I-263.752 J  75.587
G2 X 443.590 Y 333.800 I-158.937 J  64.432
G2 X 431.220 Y 317.120 I -82.376 J  48.164
G2 X 418.030 Y 306.890 I -36.456 J  33.386
G2 X 404.420 Y 303.450 I -13.801 J  25.958
G2 X 390.820 Y 306.890 I   0.201 J  29.398
G2 X 377.620 Y 317.120 I  23.247 J  43.627
F150
G1 Z   3.000
G0 Z  15.000 
M9 M5

(* SHAPE Nr: 2 *)
G0 X2403.920 Y 437.650
M3 M8
G0 Z   3.000 
G1 Z  -1.500
F400
G2 X2398.150 Y 473.440 I 497.151 J  98.510
G2 X2394.610 Y 511.580 I 593.345 J  74.306
G2 X2393.420 Y 550.920 I 647.318 J  39.269
G2 X2394.610 Y 590.260 I 648.508 J   0.071
G2 X2398.150 Y 628.400 I 596.885 J -36.166
G2 X2403.920 Y 664.190 I 502.921 J -62.720
G2 X2411.750 Y 696.540 I 384.762 J -76.005
G2 X2421.410 Y 724.460 I 263.746 J -75.622
G2 X2432.600 Y 747.120 I 158.951 J -64.400
G2 X2444.970 Y 763.810 I  82.392 J -48.137
G2 X2458.170 Y 774.030 I  36.429 J -33.416
G2 X2471.770 Y 777.470 I  13.801 J -25.958
G2 X2485.380 Y 774.030 I  -0.191 J -29.398
G2 X2498.570 Y 763.810 I -23.248 J -43.626
G2 X2510.940 Y 747.120 I -70.022 J -64.827
G2 X2522.130 Y 724.460 I-147.761 J -87.060
G2 X2531.790 Y 696.540 I-254.086 J-103.542
G2 X2539.620 Y 664.190 I-376.932 J-108.355
G2 X2545.390 Y 628.400 I-497.151 J -98.510
G2 X2548.930 Y 590.260 I-593.345 J -74.306
G2 X2550.120 Y 550.920 I-647.318 J -39.269
G2 X2548.930 Y 511.580 I-648.508 J  -0.071
G2 X2545.390 Y 473.440 I-596.885 J  36.166
G2 X2539.620 Y 437.650 I-502.921 J  62.720
G2 X2531.790 Y 405.300 I-384.762 J  76.005
G2 X2522.130 Y 377.370 I-263.762 J  75.590
G2 X2510.940 Y 354.720 I-158.937 J  64.432
G2 X2498.570 Y 338.040 I -82.376 J  48.164
G2 X2485.380 Y 327.810 I -36.456 J  33.386
G2 X2471.770 Y 324.370 I -13.801 J  25.958
G2 X2458.170 Y 327.810 I   0.201 J  29.398
G2 X2444.970 Y 338.040 I  23.247 J  43.627
G2 X2432.600 Y 354.720 I  70.006 J  64.844
G2 X2421.410 Y 377.370 I  79.203 J  53.219
G2 X2411.750 Y 405.300 I 156.647 J  69.814
G2 X2403.920 Y 437.650 I 376.932 J 108.355
F150
G1 Z  -3.000
F400
G2 X2398.150 Y 473.440 I 497.151 J  98.510
G2 X2394.610 Y 511.580 I 593.345 J  74.306
G2 X2393.420 Y 550.920 I 647.318 J  39.269
G2 X2394.610 Y 590.260 I 648.508 J   0.071
G2 X2398.150 Y 628.400 I 596.885 J -36.166
G2 X2403.920 Y 664.190 I 502.921 J -62.720
G2 X2411.750 Y 696.540 I 384.762 J -76.005
G2 X2421.410 Y 724.460 I 263.746 J -75.622
G2 X2432.600 Y 747.120 I 158.951 J -64.400
G2 X2444.970 Y 763.810 I  82.392 J -48.137
G2 X2458.170 Y 774.030 I  36.429 J -33.416
G2 X2471.770 Y 777.470 I  13.801 J -25.958
G2 X2485.380 Y 774.030 I  -0.191 J -29.398
G2 X2498.570 Y 763.810 I -23.248 J -43.626
G2 X2510.940 Y 747.120 I -70.022 J -64.827
G2 X2522.130 Y 724.460 I-147.761 J -87.060
G2 X2531.790 Y 696.540 I-254.086 J-103.542
G2 X2539.620 Y 664.190 I-376.932 J-108.355
G2 X2545.390 Y 628.400 I-497.151 J -98.510
G2 X2548.930 Y 590.260 I-593.345 J -74.306
G2 X2550.120 Y 550.920 I-647.318 J -39.269
G2 X2548.930 Y 511.580 I-648.508 J  -0.071
G2 X2545.390 Y 473.440 I-596.885 J  36.166
G2 X2539.620 Y 437.650 I-502.921 J  62.720
G2 X2531.790 Y 405.300 I-384.762 J  76.005
G2 X2522.130 Y 377.370 I-263.762 J  75.590
G2 X2510.940 Y 354.720 I-158.937 J  64.432
G2 X2498.570 Y 338.040 I -82.376 J  48.164
G2 X2485.380 Y 327.810 I -36.456 J  33.386
G2 X2471.770 Y 324.370 I -13.801 J  25.958
G2 X2458.170 Y 327.810 I   0.201 J  29.398
G2 X2444.970 Y 338.040 I  23.247 J  43.627
G2 X2432.600 Y 354.720 I  70.006 J  64.844
G2 X2421.410 Y 377.370 I  79.203 J  53.219
G2 X2411.750 Y 405.300 I 156.647 J  69.814
G2 X2403.920 Y 437.650 I 376.932 J 108.355
F150
G1 Z   3.000
G0 Z  15.000 
M9 M5

(* SHAPE Nr: 3 *)
G0 X1976.580 Y1041.540
M3 M8
G0 Z   3.000 
G1 Z  -1.500
F400
G2 X1973.140 Y1055.150 I  25.958 J  13.801
G2 X1976.580 Y1068.750 I  29.398 J  -0.201
G2 X1986.810 Y1081.950 I  43.627 J -23.247
G2 X2003.490 Y1094.320 I  64.843 J -70.004
G2 X2026.140 Y1105.510 I  53.219 J -79.203
G2 X2054.070 Y1115.170 I  69.814 J-156.647
G2 X2086.420 Y1123.000 I 108.355 J-376.932
G2 X2122.210 Y1128.770 I  98.510 J-497.151
G2 X2160.350 Y1132.310 I  74.306 J-593.345
G2 X2199.690 Y1133.500 I  39.269 J-647.318
G2 X2239.030 Y1132.310 I   0.071 J-648.508
G2 X2277.170 Y1128.770 I -36.166 J-596.885
G2 X2312.960 Y1123.000 I -62.720 J-502.921
G2 X2345.310 Y1115.170 I -76.005 J-384.762
G2 X2373.230 Y1105.510 I -75.622 J-263.746
G2 X2395.890 Y1094.320 I -64.400 J-158.951
G2 X2412.580 Y1081.950 I -48.136 J -82.391
G2 X2422.800 Y1068.750 I -33.416 J -36.429
G2 X2426.240 Y1055.150 I -25.958 J -13.801
G2 X2422.800 Y1041.540 I -29.398 J   0.191
G2 X2412.580 Y1028.350 I -43.626 J  23.248
G2 X2395.890 Y1015.980 I -64.826 J  70.021
G2 X2373.230 Y1004.790 I -87.060 J 147.761
G2 X2345.310 Y 995.130 I-103.542 J 254.086
G2 X2312.960 Y 987.300 I-108.355 J 376.932
G2 X2277.170 Y 981.530 I -98.510 J 497.151
G2 X2239.030 Y 977.990 I -74.306 J 593.345
G2 X2199.690 Y 976.800 I -39.269 J 647.318
G2 X2160.350 Y 977.990 I  -0.071 J 648.508
G2 X2122.210 Y 981.530 I  36.166 J 596.885
G2 X2086.420 Y 987.300 I  62.720 J 502.921
G2 X2054.070 Y 995.130 I  76.005 J 384.762
G2 X2026.140 Y1004.790 I  75.587 J 263.752
G2 X2003.490 Y1015.980 I  64.432 J 158.937
G2 X1986.810 Y1028.350 I  48.164 J  82.376
G2 X1976.580 Y1041.540 I  33.386 J  36.456
F150
G1 Z  -3.000
F400
G2 X1973.140 Y1055.150 I  25.958 J  13.801
G2 X1976.580 Y1068.750 I  29.398 J  -0.201
G2 X1986.810 Y1081.950 I  43.627 J -23.247
G2 X2003.490 Y1094.320 I  64.843 J -70.004
G2 X2026.140 Y1105.510 I  53.219 J -79.203
G2 X2054.070 Y1115.170 I  69.814 J-156.647
G2 X2086.420 Y1123.000 I 108.355 J-376.932
G2 X2122.210 Y1128.770 I  98.510 J-497.151
G2 X2160.350 Y1132.310 I  74.306 J-593.345
G2 X2199.690 Y1133.500 I  39.269 J-647.318
G2 X2239.030 Y1132.310 I   0.071 J-648.508
G2 X2277.170 Y1128.770 I -36.166 J-596.885
G2 X2312.960 Y1123.000 I -62.720 J-502.921
G2 X2345.310 Y1115.170 I -76.005 J-384.762
G2 X2373.230 Y1105.510 I -75.622 J-263.746
G2 X2395.890 Y1094.320 I -64.400 J-158.951
G2 X2412.580 Y1081.950 I -48.136 J -82.391
G2 X2422.800 Y1068.750 I -33.416 J -36.429
G2 X2426.240 Y1055.150 I -25.958 J -13.801
G2 X2422.800 Y1041.540 I -29.398 J   0.191
G2 X2412.580 Y1028.350 I -43.626 J  23.248
G2 X2395.890 Y1015.980 I -64.826 J  70.021
G2 X2373.230 Y1004.790 I -87.060 J 147.761
G2 X2345.310 Y 995.130 I-103.542 J 254.086
G2 X2312.960 Y 987.300 I-108.355 J 376.932
G2 X2277.170 Y 981.530 I -98.510 J 497.151
G2 X2239.030 Y 977.990 I -74.306 J 593.345
G2 X2199.690 Y 976.800 I -39.269 J 647.318
G2 X2160.350 Y 977.990 I  -0.071 J 648.508
G2 X2122.210 Y 981.530 I  36.166 J 596.885
G2 X2086.420 Y 987.300 I  62.720 J 502.921
G2 X2054.070 Y 995.130 I  76.005 J 384.762
G2 X2026.140 Y1004.790 I  75.587 J 263.752
G2 X2003.490 Y1015.980 I  64.432 J 158.937
G2 X1986.810 Y1028.350 I  48.164 J  82.376
G2 X1976.580 Y1041.540 I  33.386 J  36.456
F150
G1 Z   3.000
G0 Z  15.000 
M9 M5

(* SHAPE Nr: 4 *)
G0 X 729.040 Y 327.760
M3 M8
G0 Z   3.000 
G1 Z  -1.500
F400
G2 X 719.380 Y 355.690 I 156.647 J  69.814
G2 X 711.550 Y 388.040 I 376.932 J 108.355
G2 X 705.780 Y 423.830 I 497.151 J  98.510
G2 X 702.240 Y 461.970 I 593.345 J  74.306
G2 X 701.050 Y 501.310 I 647.318 J  39.269
G2 X 702.240 Y 540.650 I 648.508 J   0.071
G2 X 705.780 Y 578.790 I 596.885 J -36.166
G2 X 711.550 Y 614.580 I 502.921 J -62.720
G2 X 719.380 Y 646.930 I 384.762 J -76.005
G2 X 729.040 Y 674.850 I 263.746 J -75.622
G2 X 740.230 Y 697.510 I 158.951 J -64.400
G2 X 752.600 Y 714.200 I  82.391 J -48.136
G2 X 765.800 Y 724.420 I  36.429 J -33.416
G2 X 779.400 Y 727.860 I  13.801 J -25.958
G2 X 793.010 Y 724.420 I  -0.191 J -29.398
G2 X 806.200 Y 714.200 I -23.248 J -43.626
G2 X 818.570 Y 697.510 I -70.021 J -64.826
G2 X 829.760 Y 674.850 I-147.761 J -87.060
G2 X 839.420 Y 646.930 I-254.086 J-103.542
G2 X 847.250 Y 614.580 I-376.932 J-108.355
G2 X 853.020 Y 578.790 I-497.151 J -98.510
G2 X 856.560 Y 540.650 I-593.345 J -74.306
G2 X 857.750 Y 501.310 I-647.318 J -39.269
G2 X 856.560 Y 461.970 I-648.508 J  -0.071
G2 X 853.020 Y 423.830 I-596.885 J  36.166
G2 X 847.250 Y 388.040 I-502.921 J  62.720
G2 X 839.420 Y 355.690 I-384.762 J  76.005
G2 X 829.760 Y 327.760 I-263.752 J  75.587
G2 X 818.570 Y 305.110 I-158.937 J  64.432
G2 X 806.200 Y 288.430 I -82.376 J  48.164
G2 X 793.010 Y 278.200 I -36.456 J  33.386
G2 X 779.400 Y 274.760 I -13.801 J  25.958
G2 X 765.800 Y 278.200 I   0.201 J  29.398
G2 X 752.600 Y 288.430 I  23.247 J  43.627
G2 X 740.230 Y 305.110 I  70.004 J  64.843
G2 X 729.040 Y 327.760 I  79.203 J  53.219
F150
G1 Z  -3.000
F400
G2 X 719.380 Y 355.690 I 156.647 J  69.814
G2 X 711.550 Y 388.040 I 376.932 J 108.355
G2 X 705.780 Y 423.830 I 497.151 J  98.510
G2 X 702.240 Y 461.970 I 593.345 J  74.306
G2 X 701.050 Y 501.310 I 647.318 J  39.269
G2 X 702.240 Y 540.650 I 648.508 J   0.071
G2 X 705.780 Y 578.790 I 596.885 J -36.166
G2 X 711.550 Y 614.580 I 502.921 J -62.720
G2 X 719.380 Y 646.930 I 384.762 J -76.005
G2 X 729.040 Y 674.850 I 263.746 J -75.622
G2 X 740.230 Y 697.510 I 158.951 J -64.400
G2 X 752.600 Y 714.200 I  82.391 J -48.136
G2 X 765.800 Y 724.420 I  36.429 J -33.416
G2 X 779.400 Y 727.860 I  13.801 J -25.958
G2 X 793.010 Y 724.420 I  -0.191 J -29.398
G2 X 806.200 Y 714.200 I -23.248 J -43.626
G2 X 818.570 Y 697.510 I -70.021 J -64.826
G2 X 829.760 Y 674.850 I-147.761 J -87.060
G2 X 839.420 Y 646.930 I-254.086 J-103.542
G2 X 847.250 Y 614.580 I-376.932 J-108.355
G2 X 853.020 Y 578.790 I-497.151 J -98.510
G2 X 856.560 Y 540.650 I-593.345 J -74.306
G2 X 857.750 Y 501.310 I-647.318 J -39.269
G2 X 856.560 Y 461.970 I-648.508 J  -0.071
G2 X 853.020 Y 423.830 I-596.885 J  36.166
G2 X 847.250 Y 388.040 I-502.921 J  62.720
G2 X 839.420 Y 355.690 I-384.762 J  76.005
G2 X 829.760 Y 327.760 I-263.752 J  75.587
G2 X 818.570 Y 305.110 I-158.937 J  64.432
G2 X 806.200 Y 288.430 I -82.376 J  48.164
G2 X 793.010 Y 278.200 I -36.456 J  33.386
G2 X 779.400 Y 274.760 I -13.801 J  25.958
G2 X 765.800 Y 278.200 I   0.201 J  29.398
G2 X 752.600 Y 288.430 I  23.247 J  43.627
G2 X 740.230 Y 305.110 I  70.004 J  64.843
G2 X 729.040 Y 327.760 I  79.203 J  53.219
F150
G1 Z   3.000
G0 Z  15.000 
M9 M5

(* SHAPE Nr: 5 *)
G0 X2569.760 Y 228.350
M3 M8
G0 Z   3.000 
G1 Z  -1.500
F400
G2 X2568.570 Y 267.690 I 647.318 J  39.269
G2 X2569.760 Y 307.030 I 648.508 J   0.071
G2 X2573.300 Y 345.170 I 596.885 J -36.166
G2 X2579.070 Y 380.960 I 502.921 J -62.720
G2 X2586.900 Y 413.310 I 384.762 J -76.005
G2 X2596.560 Y 441.230 I 263.746 J -75.622
G2 X2607.750 Y 463.890 I 158.951 J -64.400
G2 X2620.120 Y 480.580 I  82.392 J -48.137
G2 X2633.320 Y 490.800 I  36.429 J -33.416
G2 X2646.920 Y 494.240 I  13.801 J -25.958
G2 X2660.530 Y 490.800 I  -0.191 J -29.398
G2 X2673.720 Y 480.580 I -23.248 J -43.626
G2 X2686.090 Y 463.890 I -70.022 J -64.827
G2 X2697.280 Y 441.230 I-147.761 J -87.060
G2 X2706.940 Y 413.310 I-254.086 J-103.542
G2 X2714.770 Y 380.960 I-376.932 J-108.355
G2 X2720.540 Y 345.170 I-497.151 J -98.510
G2 X2724.080 Y 307.030 I-593.345 J -74.306
G2 X2725.270 Y 267.690 I-647.318 J -39.269
G2 X2724.080 Y 228.350 I-648.508 J  -0.071
G2 X2720.540 Y 190.210 I-596.885 J  36.166
G2 X2714.770 Y 154.420 I-502.921 J  62.720
G2 X2706.940 Y 122.070 I-384.762 J  76.005
G2 X2697.280 Y  94.140 I-263.762 J  75.590
G2 X2686.090 Y  71.490 I-158.937 J  64.432
G2 X2673.720 Y  54.810 I -82.376 J  48.164
G2 X2660.530 Y  44.580 I -36.456 J  33.386
G2 X2646.920 Y  41.140 I -13.801 J  25.958
G2 X2633.320 Y  44.580 I   0.201 J  29.398
G2 X2620.120 Y  54.810 I  23.247 J  43.627
G2 X2607.750 Y  71.490 I  70.006 J  64.844
G2 X2596.560 Y  94.140 I  79.203 J  53.219
G2 X2586.900 Y 122.070 I 156.647 J  69.814
G2 X2579.070 Y 154.420 I 376.932 J 108.355
G2 X2573.300 Y 190.210 I 497.151 J  98.510
G2 X2569.760 Y 228.350 I 593.345 J  74.306
F150
G1 Z  -3.000
F400
G2 X2568.570 Y 267.690 I 647.318 J  39.269
G2 X2569.760 Y 307.030 I 648.508 J   0.071
G2 X2573.300 Y 345.170 I 596.885 J -36.166
G2 X2579.070 Y 380.960 I 502.921 J -62.720
G2 X2586.900 Y 413.310 I 384.762 J -76.005
G2 X2596.560 Y 441.230 I 263.746 J -75.622
G2 X2607.750 Y 463.890 I 158.951 J -64.400
G2 X2620.120 Y 480.580 I  82.392 J -48.137
G2 X2633.320 Y 490.800 I  36.429 J -33.416
G2 X2646.920 Y 494.240 I  13.801 J -25.958
G2 X2660.530 Y 490.800 I  -0.191 J -29.398
G2 X2673.720 Y 480.580 I -23.248 J -43.626
G2 X2686.090 Y 463.890 I -70.022 J -64.827
G2 X2697.280 Y 441.230 I-147.761 J -87.060
G2 X2706.940 Y 413.310 I-254.086 J-103.542
G2 X2714.770 Y 380.960 I-376.932 J-108.355
G2 X2720.540 Y 345.170 I-497.151 J -98.510
G2 X2724.080 Y 307.030 I-593.345 J -74.306
G2 X2725.270 Y 267.690 I-647.318 J -39.269
G2 X2724.080 Y 228.350 I-648.508 J  -0.071
G2 X2720.540 Y 190.210 I-596.885 J  36.166
G2 X2714.770 Y 154.420 I-502.921 J  62.720
G2 X2706.940 Y 122.070 I-384.762 J  76.005
G2 X2697.280 Y  94.140 I-263.762 J  75.590
G2 X2686.090 Y  71.490 I-158.937 J  64.432
G2 X2673.720 Y  54.810 I -82.376 J  48.164
G2 X2660.530 Y  44.580 I -36.456 J  33.386
G2 X2646.920 Y  41.140 I -13.801 J  25.958
G2 X2633.320 Y  44.580 I   0.201 J  29.398
G2 X2620.120 Y  54.810 I  23.247 J  43.627
G2 X2607.750 Y  71.490 I  70.006 J  64.844
G2 X2596.560 Y  94.140 I  79.203 J  53.219
G2 X2586.900 Y 122.070 I 156.647 J  69.814
G2 X2579.070 Y 154.420 I 376.932 J 108.355
G2 X2573.300 Y 190.210 I 497.151 J  98.510
G2 X2569.760 Y 228.350 I 593.345 J  74.306
F150
G1 Z   3.000
G0 Z  15.000 
M9 M5

(* SHAPE Nr: 6 *)
G0 X2082.170 Y 108.390
M3 M8
G0 Z   3.000 
G1 Z  -1.500
F400
G2 X2085.610 Y 121.990 I  29.398 J  -0.201
G2 X2095.840 Y 135.190 I  43.627 J -23.247
G2 X2112.520 Y 147.560 I  64.844 J -70.006
G2 X2135.170 Y 158.750 I  53.219 J -79.203
G2 X2163.100 Y 168.410 I  69.814 J-156.647
G2 X2195.450 Y 176.240 I 108.355 J-376.932
G2 X2231.240 Y 182.010 I  98.510 J-497.151
G2 X2269.380 Y 185.550 I  74.306 J-593.345
G2 X2308.720 Y 186.740 I  39.269 J-647.318
G2 X2348.060 Y 185.550 I   0.071 J-648.508
G2 X2386.200 Y 182.010 I -36.166 J-596.885
G2 X2421.990 Y 176.240 I -62.720 J-502.921
G2 X2454.340 Y 168.410 I -76.005 J-384.762
G2 X2482.260 Y 158.750 I -75.622 J-263.746
G2 X2504.920 Y 147.560 I -64.400 J-158.951
G2 X2521.610 Y 135.190 I -48.136 J -82.391
G2 X2531.830 Y 121.990 I -33.416 J -36.428
G2 X2535.270 Y 108.390 I -25.958 J -13.801
G2 X2531.830 Y  94.780 I -29.398 J   0.191
G2 X2521.610 Y  81.590 I -43.626 J  23.248
G2 X2504.920 Y  69.220 I -64.826 J  70.021
G2 X2482.260 Y  58.030 I -87.060 J 147.761
G2 X2454.340 Y  48.370 I-103.542 J 254.086
G2 X2421.990 Y  40.540 I-108.355 J 376.932
G2 X2386.200 Y  34.770 I -98.510 J 497.151
G2 X2348.060 Y  31.230 I -74.306 J 593.345
G2 X2308.720 Y  30.040 I -39.269 J 647.318
G2 X2269.380 Y  31.230 I  -0.071 J 648.508
G2 X2231.240 Y  34.770 I  36.166 J 596.885
G2 X2195.450 Y  40.540 I  62.720 J 502.921
G2 X2163.100 Y  48.370 I  76.005 J 384.762
G2 X2135.170 Y  58.030 I  75.587 J 263.752
G2 X2112.520 Y  69.220 I  64.432 J 158.937
G2 X2095.840 Y  81.590 I  48.164 J  82.376
G2 X2085.610 Y  94.780 I  33.386 J  36.456
G2 X2082.170 Y 108.390 I  25.958 J  13.801
F150
G1 Z  -3.000
F400
G2 X2085.610 Y 121.990 I  29.398 J  -0.201
G2 X2095.840 Y 135.190 I  43.627 J -23.247
G2 X2112.520 Y 147.560 I  64.844 J -70.006
G2 X2135.170 Y 158.750 I  53.219 J -79.203
G2 X2163.100 Y 168.410 I  69.814 J-156.647
G2 X2195.450 Y 176.240 I 108.355 J-376.932
G2 X2231.240 Y 182.010 I  98.510 J-497.151
G2 X2269.380 Y 185.550 I  74.306 J-593.345
G2 X2308.720 Y 186.740 I  39.269 J-647.318
G2 X2348.060 Y 185.550 I   0.071 J-648.508
G2 X2386.200 Y 182.010 I -36.166 J-596.885
G2 X2421.990 Y 176.240 I -62.720 J-502.921
G2 X2454.340 Y 168.410 I -76.005 J-384.762
G2 X2482.260 Y 158.750 I -75.622 J-263.746
G2 X2504.920 Y 147.560 I -64.400 J-158.951
G2 X2521.610 Y 135.190 I -48.136 J -82.391
G2 X2531.830 Y 121.990 I -33.416 J -36.428
G2 X2535.270 Y 108.390 I -25.958 J -13.801
G2 X2531.830 Y  94.780 I -29.398 J   0.191
G2 X2521.610 Y  81.590 I -43.626 J  23.248
G2 X2504.920 Y  69.220 I -64.826 J  70.021
G2 X2482.260 Y  58.030 I -87.060 J 147.761
G2 X2454.340 Y  48.370 I-103.542 J 254.086
G2 X2421.990 Y  40.540 I-108.355 J 376.932
G2 X2386.200 Y  34.770 I -98.510 J 497.151
G2 X2348.060 Y  31.230 I -74.306 J 593.345
G2 X2308.720 Y  30.040 I -39.269 J 647.318
G2 X2269.380 Y  31.230 I  -0.071 J 648.508
G2 X2231.240 Y  34.770 I  36.166 J 596.885
G2 X2195.450 Y  40.540 I  62.720 J 502.921
G2 X2163.100 Y  48.370 I  76.005 J 384.762
G2 X2135.170 Y  58.030 I  75.587 J 263.752
G2 X2112.520 Y  69.220 I  64.432 J 158.937
G2 X2095.840 Y  81.590 I  48.164 J  82.376
G2 X2085.610 Y  94.780 I  33.386 J  36.456
G2 X2082.170 Y 108.390 I  25.958 J  13.801
F150
G1 Z   3.000
G0 Z  15.000 
M9 M5

(* SHAPE Nr: 7 *)
G0 X2497.030 Y1131.450
M3 M8
G0 Z   3.000 
G1 Z  -1.500
F400
G2 X2487.370 Y1159.380 I 156.647 J  69.814
G2 X2479.540 Y1191.730 I 376.932 J 108.355
G2 X2473.770 Y1227.520 I 497.151 J  98.510
G2 X2470.230 Y1265.660 I 593.345 J  74.306
G2 X2469.040 Y1305.000 I 647.318 J  39.269
G2 X2470.230 Y1344.340 I 648.508 J   0.071
G2 X2473.770 Y1382.480 I 596.885 J -36.166
G2 X2479.540 Y1418.270 I 502.921 J -62.720
G2 X2487.370 Y1450.620 I 384.762 J -76.005
G2 X2497.030 Y1478.540 I 263.746 J -75.622
G2 X2508.220 Y1501.200 I 158.951 J -64.400
G2 X2520.590 Y1517.890 I  82.392 J -48.137
G2 X2533.790 Y1528.110 I  36.429 J -33.416
G2 X2547.390 Y1531.550 I  13.801 J -25.958
G2 X2561.000 Y1528.110 I  -0.191 J -29.398
G2 X2574.190 Y1517.890 I -23.248 J -43.626
G2 X2586.560 Y1501.200 I -70.022 J -64.827
G2 X2597.750 Y1478.540 I-147.761 J -87.060
G2 X2607.410 Y1450.620 I-254.086 J-103.542
G2 X2615.240 Y1418.270 I-376.932 J-108.355
G2 X2621.010 Y1382.480 I-497.151 J -98.510
G2 X2624.550 Y1344.340 I-593.345 J -74.306
G2 X2625.740 Y1305.000 I-647.318 J -39.269
G2 X2624.550 Y1265.660 I-648.508 J  -0.071
G2 X2621.010 Y1227.520 I-596.885 J  36.166
G2 X2615.240 Y1191.730 I-502.921 J  62.720
G2 X2607.410 Y1159.380 I-384.762 J  76.005
G2 X2597.750 Y1131.450 I-263.762 J  75.590
G2 X2586.560 Y1108.800 I-158.937 J  64.432
G2 X2574.190 Y1092.120 I -82.376 J  48.164
G2 X2561.000 Y1081.890 I -36.456 J  33.386
G2 X2547.390 Y1078.450 I -13.801 J  25.958
G2 X2533.790 Y1081.890 I   0.201 J  29.398
G2 X2520.590 Y1092.120 I  23.247 J  43.627
G2 X2508.220 Y1108.800 I  70.006 J  64.844
G2 X2497.030 Y1131.450 I  79.203 J  53.219
F150
G1 Z  -3.000
F400
G2 X2487.370 Y1159.380 I 156.647 J  69.814
G2 X2479.540 Y1191.730 I 376.932 J 108.355
G2 X2473.770 Y1227.520 I 497.151 J  98.510
G2 X2470.230 Y1265.660 I 593.345 J  74.306
G2 X2469.040 Y1305.000 I 647.318 J  39.269
G2 X2470.230 Y1344.340 I 648.508 J   0.071
G2 X2473.770 Y1382.480 I 596.885 J -36.166
G2 X2479.540 Y1418.270 I 502.921 J -62.720
G2 X2487.370 Y1450.620 I 384.762 J -76.005
G2 X2497.030 Y1478.540 I 263.746 J -75.622
G2 X2508.220 Y1501.200 I 158.951 J -64.400
G2 X2520.590 Y1517.890 I  82.392 J -48.137
G2 X2533.790 Y1528.110 I  36.429 J -33.416
G2 X2547.390 Y1531.550 I  13.801 J -25.958
G2 X2561.000 Y1528.110 I  -0.191 J -29.398
G2 X2574.190 Y1517.890 I -23.248 J -43.626
G2 X2586.560 Y1501.200 I -70.022 J -64.827
G2 X2597.750 Y1478.540 I-147.761 J -87.060
G2 X2607.410 Y1450.620 I-254.086 J-103.542
G2 X2615.240 Y1418.270 I-376.932 J-108.355
G2 X2621.010 Y1382.480 I-497.151 J -98.510
G2 X2624.550 Y1344.340 I-593.345 J -74.306
G2 X2625.740 Y1305.000 I-647.318 J -39.269
G2 X2624.550 Y1265.660 I-648.508 J  -0.071
G2 X2621.010 Y1227.520 I-596.885 J  36.166
G2 X2615.240 Y1191.730 I-502.921 J  62.720
G2 X2607.410 Y1159.380 I-384.762 J  76.005
G2 X2597.750 Y1131.450 I-263.762 J  75.590
G2 X2586.560 Y1108.800 I-158.937 J  64.432
G2 X2574.190 Y1092.120 I -82.376 J  48.164
G2 X2561.000 Y1081.890 I -36.456 J  33.386
G2 X2547.390 Y1078.450 I -13.801 J  25.958
G2 X2533.790 Y1081.890 I   0.201 J  29.398
G2 X2520.590 Y1092.120 I  23.247 J  43.627
G2 X2508.220 Y1108.800 I  70.006 J  64.844
G2 X2497.030 Y1131.450 I  79.203 J  53.219
F150
G1 Z   3.000
G0 Z  15.000 
M9 M5

(*** LAYER: BORDER_D0_T132_RK1_A0_W0_EM1_RI1_ID0020 ***)

(* SHAPE Nr: 8 *)
G0 X  10.000 Y 359.070
M3 M8
G0 Z   3.000 
G1 Z  -1.500
F400
G1 X  10.000 Y 605.010
G1 X  10.000 Y 850.950
G2 X  26.970 Y 847.210 I  -0.189 J -41.227
G2 X  43.430 Y 836.120 I -25.634 J -55.807
G2 X  58.870 Y 818.000 I -72.417 J -77.344
G2 X  72.830 Y 793.410 I-146.917 J -99.664
G2 X  84.870 Y 763.100 I-246.893 J-115.619
G2 X  94.640 Y 727.980 I-361.196 J-119.400
G2 X 101.850 Y 689.130 I-472.487 J-107.781
G2 X 106.250 Y 647.720 I-561.472 J -80.598
G2 X 107.740 Y 605.010 I-611.416 J -42.711
G2 X 106.250 Y 562.300 I-612.906 J   0.001
G2 X 101.850 Y 520.890 I-565.872 J  39.188
G2 X  94.640 Y 482.040 I-479.697 J  68.931
G2 X  84.870 Y 446.920 I-370.966 J  84.280
G2 X  72.830 Y 416.610 I-258.933 J  85.309
G2 X  58.870 Y 392.020 I-160.877 J  75.074
G2 X  43.430 Y 373.900 I -87.857 J  59.224
G2 X  26.970 Y 362.810 I -42.094 J  44.717
G2 X  10.000 Y 359.070 I -17.159 J  37.487
F150
G1 Z  -3.000
F400
G1 X  10.000 Y 605.010
G1 X  10.000 Y 850.950
G2 X  26.970 Y 847.210 I  -0.189 J -41.227
G2 X  43.430 Y 836.120 I -25.634 J -55.807
G2 X  58.870 Y 818.000 I -72.417 J -77.344
G2 X  72.830 Y 793.410 I-146.917 J -99.664
G2 X  84.870 Y 763.100 I-246.893 J-115.619
G2 X  94.640 Y 727.980 I-361.196 J-119.400
G2 X 101.850 Y 689.130 I-472.487 J-107.781
G2 X 106.250 Y 647.720 I-561.472 J -80.598
G2 X 107.740 Y 605.010 I-611.416 J -42.711
G2 X 106.250 Y 562.300 I-612.906 J   0.001
G2 X 101.850 Y 520.890 I-565.872 J  39.188
G2 X  94.640 Y 482.040 I-479.697 J  68.931
G2 X  84.870 Y 446.920 I-370.966 J  84.280
G2 X  72.830 Y 416.610 I-258.933 J  85.309
G2 X  58.870 Y 392.020 I-160.877 J  75.074
G2 X  43.430 Y 373.900 I -87.857 J  59.224
G2 X  26.970 Y 362.810 I -42.094 J  44.717
G2 X  10.000 Y 359.070 I -17.159 J  37.487
F150
G1 Z   3.000
G0 Z  15.000 
M9 M5

(* SHAPE Nr: 39 *)
G0 X1835.940 Y2006.570
M3 M8
G0 Z   3.000 
G1 Z  -1.500
F400
G2 X1824.850 Y2023.030 I  44.717 J  42.094
G2 X1821.110 Y2040.000 I  37.486 J  17.159
G1 X2067.050 Y2040.000
G1 X2312.990 Y2040.000
G2 X2309.250 Y2023.030 I -41.226 J   0.189
G2 X2298.160 Y2006.570 I -55.807 J  25.634
G2 X2280.040 Y1991.130 I -77.344 J  72.417
G2 X2255.450 Y1977.170 I -99.662 J 146.913
G2 X2225.140 Y1965.130 I-115.619 J 246.893
G2 X2190.020 Y1955.360 I-119.400 J 361.196
G2 X2151.170 Y1948.150 I-107.781 J 472.487
G2 X2109.760 Y1943.750 I -80.598 J 561.472
G2 X2067.050 Y1942.260 I -42.711 J 611.416
G2 X2024.340 Y1943.750 I   0.001 J 612.906
G2 X1982.930 Y1948.150 I  39.188 J 565.872
G2 X1944.080 Y1955.360 I  68.931 J 479.697
G2 X1908.960 Y1965.130 I  84.280 J 370.966
G2 X1878.650 Y1977.170 I  85.309 J 258.933
G2 X1854.060 Y1991.130 I  75.074 J 160.877
G2 X1835.940 Y2006.570 I  59.224 J  87.857
F150
G1 Z  -3.000
F400
G2 X1824.850 Y2023.030 I  44.717 J  42.094
G2 X1821.110 Y2040.000 I  37.486 J  17.159
G1 X2067.050 Y2040.000
G1 X2312.990 Y2040.000
G2 X2309.250 Y2023.030 I -41.226 J   0.189
G2 X2298.160 Y2006.570 I -55.807 J  25.634
G2 X2280.040 Y1991.130 I -77.344 J  72.417
G2 X2255.450 Y1977.170 I -99.662 J 146.913
G2 X2225.140 Y1965.130 I-115.619 J 246.893
G2 X2190.020 Y1955.360 I-119.400 J 361.196
G2 X2151.170 Y1948.150 I-107.781 J 472.487
G2 X2109.760 Y1943.750 I -80.598 J 561.472
G2 X2067.050 Y1942.260 I -42.711 J 611.416
G2 X2024.340 Y1943.750 I   0.001 J 612.906
G2 X1982.930 Y1948.150 I  39.188 J 565.872
G2 X1944.080 Y1955.360 I  68.931 J 479.697
G2 X1908.960 Y1965.130 I  84.280 J 370.966
G2 X1878.650 Y1977.170 I  85.309 J 258.933
G2 X1854.060 Y1991.130 I  75.074 J 160.877
G2 X1835.940 Y2006.570 I  59.224 J  87.857
F150
G1 Z   3.000
G0 Z  15.000 
M9 M5

(* SHAPE Nr: 49 *)
G0 X 280.510 Y 176.740
M3 M8
G0 Z   3.000 
G1 Z  -1.500
F400
G2 X 284.250 Y 193.710 I  41.227 J  -0.189
G2 X 295.340 Y 210.170 I  55.807 J -25.634
G2 X 313.460 Y 225.610 I  77.344 J -72.417
G2 X 338.050 Y 239.570 I  99.664 J-146.917
G2 X 368.360 Y 251.610 I 115.619 J-246.893
G2 X 403.480 Y 261.380 I 119.400 J-361.196
G2 X 442.330 Y 268.590 I 107.781 J-472.487
G2 X 483.740 Y 272.990 I  80.598 J-561.472
G2 X 526.450 Y 274.480 I  42.711 J-611.416
G2 X 569.160 Y 272.990 I  -0.001 J-612.906
G2 X 610.570 Y 268.590 I -39.188 J-565.872
G2 X 649.420 Y 261.380 I -68.931 J-479.697
G2 X 684.540 Y 251.610 I -84.280 J-370.966
G2 X 714.850 Y 239.570 I -85.309 J-258.933
G2 X 739.440 Y 225.610 I -75.074 J-160.877
G2 X 757.560 Y 210.170 I -59.224 J -87.857
G2 X 768.650 Y 193.710 I -44.717 J -42.094
G2 X 772.390 Y 176.740 I -37.487 J -17.159
G1 X 526.450 Y 176.740
G1 X 280.510 Y 176.740
F150
G1 Z  -3.000
F400
G2 X 284.250 Y 193.710 I  41.227 J  -0.189
G2 X 295.340 Y 210.170 I  55.807 J -25.634
G2 X 313.460 Y 225.610 I  77.344 J -72.417
G2 X 338.050 Y 239.570 I  99.664 J-146.917
G2 X 368.360 Y 251.610 I 115.619 J-246.893
G2 X 403.480 Y 261.380 I 119.400 J-361.196
G2 X 442.330 Y 268.590 I 107.781 J-472.487
G2 X 483.740 Y 272.990 I  80.598 J-561.472
G2 X 526.450 Y 274.480 I  42.711 J-611.416
G2 X 569.160 Y 272.990 I  -0.001 J-612.906
G2 X 610.570 Y 268.590 I -39.188 J-565.872
G2 X 649.420 Y 261.380 I -68.931 J-479.697
G2 X 684.540 Y 251.610 I -84.280 J-370.966
G2 X 714.850 Y 239.570 I -85.309 J-258.933
G2 X 739.440 Y 225.610 I -75.074 J-160.877
G2 X 757.560 Y 210.170 I -59.224 J -87.857
G2 X 768.650 Y 193.710 I -44.717 J -42.094
G2 X 772.390 Y 176.740 I -37.487 J -17.159
G1 X 526.450 Y 176.740
G1 X 280.510 Y 176.740
F150
G1 Z   3.000
G0 Z  15.000 
M9 M5

(* SHAPE Nr: 50 *)
G0 X 203.840 Y  51.130
M3 M8
G0 Z   3.000 
G1 Z  -1.500
F400
G2 X 207.580 Y  68.100 I  41.227 J  -0.189
G2 X 218.670 Y  84.560 I  55.807 J -25.634
G2 X 236.790 Y 100.000 I  77.344 J -72.417
G2 X 261.380 Y 113.960 I  99.664 J-146.917
G2 X 291.690 Y 126.000 I 115.619 J-246.893
G2 X 326.810 Y 135.770 I 119.400 J-361.196
G2 X 365.660 Y 142.980 I 107.781 J-472.487
G2 X 407.070 Y 147.380 I  80.598 J-561.472
G2 X 449.780 Y 148.870 I  42.711 J-611.416
G2 X 492.490 Y 147.380 I  -0.001 J-612.906
G2 X 533.900 Y 142.980 I -39.188 J-565.872
G2 X 572.750 Y 135.770 I -68.931 J-479.697
G2 X 607.870 Y 126.000 I -84.280 J-370.966
G2 X 638.180 Y 113.960 I -85.309 J-258.933
G2 X 662.770 Y 100.000 I -75.074 J-160.877
G2 X 680.890 Y  84.560 I -59.224 J -87.857
G2 X 691.980 Y  68.100 I -44.717 J -42.094
G2 X 695.720 Y  51.130 I -37.487 J -17.159
G1 X 449.780 Y  51.130
G1 X 203.840 Y  51.130
F150
G1 Z  -3.000
F400
G2 X 207.580 Y  68.100 I  41.227 J  -0.189
G2 X 218.670 Y  84.560 I  55.807 J -25.634
G2 X 236.790 Y 100.000 I  77.344 J -72.417
G2 X 261.380 Y 113.960 I  99.664 J-146.917
G2 X 291.690 Y 126.000 I 115.619 J-246.893
G2 X 326.810 Y 135.770 I 119.400 J-361.196
G2 X 365.660 Y 142.980 I 107.781 J-472.487
G2 X 407.070 Y 147.380 I  80.598 J-561.472
G2 X 449.780 Y 148.870 I  42.711 J-611.416
G2 X 492.490 Y 147.380 I  -0.001 J-612.906
G2 X 533.900 Y 142.980 I -39.188 J-565.872
G2 X 572.750 Y 135.770 I -68.931 J-479.697
G2 X 607.870 Y 126.000 I -84.280 J-370.966
G2 X 638.180 Y 113.960 I -85.309 J-258.933
G2 X 662.770 Y 100.000 I -75.074 J-160.877
G2 X 680.890 Y  84.560 I -59.224 J -87.857
G2 X 691.980 Y  68.100 I -44.717 J -42.094
G2 X 695.720 Y  51.130 I -37.487 J -17.159
G1 X 449.780 Y  51.130
G1 X 203.840 Y  51.130
F150
G1 Z   3.000
G0 Z  15.000 
M9 M5

(*** LAYER: BORDER_D0_T132_RK1_A0_W0_EM1_RI1_ID0021 ***)

(* SHAPE Nr: 9 *)
G0 X 141.050 Y 127.010
M3 M8
G0 Z   3.000 
G1 Z  -1.500
F400
G2 X 127.090 Y 151.600 I 146.917 J  99.664
G2 X 115.050 Y 181.910 I 246.893 J 115.619
G2 X 105.280 Y 217.030 I 361.196 J 119.400
G2 X  98.070 Y 255.880 I 472.487 J 107.781
G2 X  93.670 Y 297.290 I 561.472 J  80.598
G2 X  92.180 Y 340.000 I 611.416 J  42.711
G2 X  93.670 Y 382.710 I 612.906 J  -0.001
G2 X  98.070 Y 424.120 I 565.872 J -39.188
G2 X 105.280 Y 462.970 I 479.697 J -68.931
G2 X 115.050 Y 498.090 I 370.966 J -84.280
G2 X 127.090 Y 528.400 I 258.933 J -85.309
G2 X 141.050 Y 552.990 I 160.877 J -75.074
G2 X 156.490 Y 571.110 I  87.858 J -59.225
G2 X 172.950 Y 582.200 I  42.094 J -44.717
G2 X 189.920 Y 585.940 I  17.159 J -37.487
G2 X 206.890 Y 582.200 I  -0.189 J -41.227
G2 X 223.350 Y 571.110 I -25.634 J -55.807
G2 X 238.790 Y 552.990 I -72.417 J -77.344
G2 X 252.750 Y 528.400 I-146.917 J -99.664
G2 X 264.790 Y 498.090 I-246.893 J-115.619
G2 X 274.560 Y 462.970 I-361.196 J-119.400
G2 X 281.770 Y 424.120 I-472.487 J-107.781
G2 X 286.170 Y 382.710 I-561.472 J -80.598
G2 X 287.660 Y 340.000 I-611.416 J -42.711
G2 X 286.170 Y 297.290 I-612.906 J   0.001
G2 X 281.770 Y 255.880 I-565.872 J  39.188
G2 X 274.560 Y 217.030 I-479.697 J  68.931
G2 X 264.790 Y 181.910 I-370.966 J  84.280
G2 X 252.750 Y 151.600 I-258.933 J  85.309
G2 X 238.790 Y 127.010 I-160.877 J  75.074
G2 X 223.350 Y 108.890 I -87.858 J  59.225
G2 X 206.890 Y  97.800 I -42.094 J  44.717
G2 X 189.920 Y  94.060 I -17.159 J  37.487
G2 X 172.950 Y  97.800 I   0.189 J  41.227
G2 X 156.490 Y 108.890 I  25.634 J  55.807
G2 X 141.050 Y 127.010 I  72.418 J  77.345
F150
G1 Z  -3.000
F400
G2 X 127.090 Y 151.600 I 146.917 J  99.664
G2 X 115.050 Y 181.910 I 246.893 J 115.619
G2 X 105.280 Y 217.030 I 361.196 J 119.400
G2 X  98.070 Y 255.880 I 472.487 J 107.781
G2 X  93.670 Y 297.290 I 561.472 J  80.598
G2 X  92.180 Y 340.000 I 611.416 J  42.711
G2 X  93.670 Y 382.710 I 612.906 J  -0.001
G2 X  98.070 Y 424.120 I 565.872 J -39.188
G2 X 105.280 Y 462.970 I 479.697 J -68.931
G2 X 115.050 Y 498.090 I 370.966 J -84.280
G2 X 127.090 Y 528.400 I 258.933 J -85.309
G2 X 141.050 Y 552.990 I 160.877 J -75.074
G2 X 156.490 Y 571.110 I  87.858 J -59.225
G2 X 172.950 Y 582.200 I  42.094 J -44.717
G2 X 189.920 Y 585.940 I  17.159 J -37.487
G2 X 206.890 Y 582.200 I  -0.189 J -41.227
G2 X 223.350 Y 571.110 I -25.634 J -55.807
G2 X 238.790 Y 552.990 I -72.417 J -77.344
G2 X 252.750 Y 528.400 I-146.917 J -99.664
G2 X 264.790 Y 498.090 I-246.893 J-115.619
G2 X 274.560 Y 462.970 I-361.196 J-119.400
G2 X 281.770 Y 424.120 I-472.487 J-107.781
G2 X 286.170 Y 382.710 I-561.472 J -80.598
G2 X 287.660 Y 340.000 I-611.416 J -42.711
G2 X 286.170 Y 297.290 I-612.906 J   0.001
G2 X 281.770 Y 255.880 I-565.872 J  39.188
G2 X 274.560 Y 217.030 I-479.697 J  68.931
G2 X 264.790 Y 181.910 I-370.966 J  84.280
G2 X 252.750 Y 151.600 I-258.933 J  85.309
G2 X 238.790 Y 127.010 I-160.877 J  75.074
G2 X 223.350 Y 108.890 I -87.858 J  59.225
G2 X 206.890 Y  97.800 I -42.094 J  44.717
G2 X 189.920 Y  94.060 I -17.159 J  37.487
G2 X 172.950 Y  97.800 I   0.189 J  41.227
G2 X 156.490 Y 108.890 I  25.634 J  55.807
G2 X 141.050 Y 127.010 I  72.418 J  77.345
F150
G1 Z   3.000
G0 Z  15.000 
M9 M5

(* SHAPE Nr: 10 *)
G0 X 355.550 Y 317.010
M3 M8
G0 Z   3.000 
G1 Z  -1.500
F400
G2 X 341.590 Y 341.600 I 146.917 J  99.664
G2 X 329.550 Y 371.910 I 246.893 J 115.619
G2 X 319.780 Y 407.030 I 361.196 J 119.400
G2 X 312.570 Y 445.880 I 472.487 J 107.781
G2 X 308.170 Y 487.290 I 561.472 J  80.598
G2 X 306.680 Y 530.000 I 611.416 J  42.711
G2 X 308.170 Y 572.710 I 612.906 J  -0.001
G2 X 312.570 Y 614.120 I 565.872 J -39.188
G2 X 319.780 Y 652.970 I 479.697 J -68.931
G2 X 329.550 Y 688.090 I 370.966 J -84.280
G2 X 341.590 Y 718.400 I 258.933 J -85.309
G2 X 355.550 Y 742.990 I 160.877 J -75.074
G2 X 370.990 Y 761.110 I  87.857 J -59.224
G2 X 387.450 Y 772.200 I  42.094 J -44.717
G2 X 404.420 Y 775.940 I  17.159 J -37.487
G2 X 421.390 Y 772.200 I  -0.189 J -41.227
G2 X 437.850 Y 761.110 I -25.634 J -55.807
G2 X 453.290 Y 742.990 I -72.417 J -77.344
G2 X 467.250 Y 718.400 I-146.917 J -99.664
G2 X 479.290 Y 688.090 I-246.893 J-115.619
G2 X 489.060 Y 652.970 I-361.196 J-119.400
G2 X 496.270 Y 614.120 I-472.487 J-107.781
G2 X 500.670 Y 572.710 I-561.472 J -80.598
G2 X 502.160 Y 530.000 I-611.416 J -42.711
G2 X 500.670 Y 487.290 I-612.906 J   0.001
G2 X 496.270 Y 445.880 I-565.872 J  39.188
G2 X 489.060 Y 407.030 I-479.697 J  68.931
G2 X 479.290 Y 371.910 I-370.966 J  84.280
G2 X 467.250 Y 341.600 I-258.933 J  85.309
G2 X 453.290 Y 317.010 I-160.877 J  75.074
G2 X 437.850 Y 298.890 I -87.858 J  59.225
G2 X 421.390 Y 287.800 I -42.094 J  44.717
G2 X 404.420 Y 284.060 I -17.159 J  37.487
G2 X 387.450 Y 287.800 I   0.189 J  41.227
G2 X 370.990 Y 298.890 I  25.634 J  55.807
G2 X 355.550 Y 317.010 I  72.418 J  77.345
F150
G1 Z  -3.000
F400
G2 X 341.590 Y 341.600 I 146.917 J  99.664
G2 X 329.550 Y 371.910 I 246.893 J 115.619
G2 X 319.780 Y 407.030 I 361.196 J 119.400
G2 X 312.570 Y 445.880 I 472.487 J 107.781
G2 X 308.170 Y 487.290 I 561.472 J  80.598
G2 X 306.680 Y 530.000 I 611.416 J  42.711
G2 X 308.170 Y 572.710 I 612.906 J  -0.001
G2 X 312.570 Y 614.120 I 565.872 J -39.188
G2 X 319.780 Y 652.970 I 479.697 J -68.931
G2 X 329.550 Y 688.090 I 370.966 J -84.280
G2 X 341.590 Y 718.400 I 258.933 J -85.309
G2 X 355.550 Y 742.990 I 160.877 J -75.074
G2 X 370.990 Y 761.110 I  87.857 J -59.224
G2 X 387.450 Y 772.200 I  42.094 J -44.717
G2 X 404.420 Y 775.940 I  17.159 J -37.487
G2 X 421.390 Y 772.200 I  -0.189 J -41.227
G2 X 437.850 Y 761.110 I -25.634 J -55.807
G2 X 453.290 Y 742.990 I -72.417 J -77.344
G2 X 467.250 Y 718.400 I-146.917 J -99.664
G2 X 479.290 Y 688.090 I-246.893 J-115.619
G2 X 489.060 Y 652.970 I-361.196 J-119.400
G2 X 496.270 Y 614.120 I-472.487 J-107.781
G2 X 500.670 Y 572.710 I-561.472 J -80.598
G2 X 502.160 Y 530.000 I-611.416 J -42.711
G2 X 500.670 Y 487.290 I-612.906 J   0.001
G2 X 496.270 Y 445.880 I-565.872 J  39.188
G2 X 489.060 Y 407.030 I-479.697 J  68.931
G2 X 479.290 Y 371.910 I-370.966 J  84.280
G2 X 467.250 Y 341.600 I-258.933 J  85.309
G2 X 453.290 Y 317.010 I-160.877 J  75.074
G2 X 437.850 Y 298.890 I -87.858 J  59.225
G2 X 421.390 Y 287.800 I -42.094 J  44.717
G2 X 404.420 Y 284.060 I -17.159 J  37.487
G2 X 387.450 Y 287.800 I   0.189 J  41.227
G2 X 370.990 Y 298.890 I  25.634 J  55.807
G2 X 355.550 Y 317.010 I  72.418 J  77.345
F150
G1 Z   3.000
G0 Z  15.000 
M9 M5

(* SHAPE Nr: 29 *)
G0 X2387.130 Y 427.950
M3 M8
G0 Z   3.000 
G1 Z  -1.500
F400
G2 X2379.920 Y 466.800 I 472.487 J 107.781
G2 X2375.520 Y 508.210 I 561.472 J  80.598
G2 X2374.030 Y 550.920 I 611.451 J  42.712
G2 X2375.520 Y 593.630 I 612.906 J  -0.001
G2 X2379.920 Y 635.040 I 565.872 J -39.188
G2 X2387.130 Y 673.890 I 479.697 J -68.931
G2 X2396.900 Y 709.010 I 370.966 J -84.280
G2 X2408.940 Y 739.320 I 258.933 J -85.309
G2 X2422.900 Y 763.910 I 160.873 J -75.072
G2 X2438.340 Y 782.030 I  87.858 J -59.225
G2 X2454.800 Y 793.120 I  42.094 J -44.717
G2 X2471.770 Y 796.860 I  17.159 J -37.487
G2 X2488.740 Y 793.120 I  -0.189 J -41.227
G2 X2505.200 Y 782.030 I -25.634 J -55.807
G2 X2520.640 Y 763.910 I -72.417 J -77.344
G2 X2534.600 Y 739.320 I-146.917 J -99.664
G2 X2546.640 Y 709.010 I-246.893 J-115.619
G2 X2556.410 Y 673.890 I-361.196 J-119.400
G2 X2563.620 Y 635.040 I-472.487 J-107.781
G2 X2568.020 Y 593.630 I-561.472 J -80.598
G2 X2569.510 Y 550.920 I-611.416 J -42.711
G2 X2568.020 Y 508.210 I-612.906 J   0.001
G2 X2563.620 Y 466.800 I-565.872 J  39.188
G2 X2556.410 Y 427.950 I-479.697 J  68.931
G2 X2546.640 Y 392.830 I-370.966 J  84.280
G2 X2534.600 Y 362.520 I-258.933 J  85.309
G2 X2520.640 Y 337.930 I-160.877 J  75.074
G2 X2505.200 Y 319.810 I -87.857 J  59.224
G2 X2488.740 Y 308.720 I -42.094 J  44.717
G2 X2471.770 Y 304.980 I -17.159 J  37.487
G2 X2454.800 Y 308.720 I   0.189 J  41.227
G2 X2438.340 Y 319.810 I  25.634 J  55.807
G2 X2422.900 Y 337.930 I  72.418 J  77.345
G2 X2408.940 Y 362.520 I 146.913 J  99.662
G2 X2396.900 Y 392.830 I 246.893 J 115.619
G2 X2387.130 Y 427.950 I 361.196 J 119.400
F150
G1 Z  -3.000
F400
G2 X2379.920 Y 466.800 I 472.487 J 107.781
G2 X2375.520 Y 508.210 I 561.472 J  80.598
G2 X2374.030 Y 550.920 I 611.451 J  42.712
G2 X2375.520 Y 593.630 I 612.906 J  -0.001
G2 X2379.920 Y 635.040 I 565.872 J -39.188
G2 X2387.130 Y 673.890 I 479.697 J -68.931
G2 X2396.900 Y 709.010 I 370.966 J -84.280
G2 X2408.940 Y 739.320 I 258.933 J -85.309
G2 X2422.900 Y 763.910 I 160.873 J -75.072
G2 X2438.340 Y 782.030 I  87.858 J -59.225
G2 X2454.800 Y 793.120 I  42.094 J -44.717
G2 X2471.770 Y 796.860 I  17.159 J -37.487
G2 X2488.740 Y 793.120 I  -0.189 J -41.227
G2 X2505.200 Y 782.030 I -25.634 J -55.807
G2 X2520.640 Y 763.910 I -72.417 J -77.344
G2 X2534.600 Y 739.320 I-146.917 J -99.664
G2 X2546.640 Y 709.010 I-246.893 J-115.619
G2 X2556.410 Y 673.890 I-361.196 J-119.400
G2 X2563.620 Y 635.040 I-472.487 J-107.781
G2 X2568.020 Y 593.630 I-561.472 J -80.598
G2 X2569.510 Y 550.920 I-611.416 J -42.711
G2 X2568.020 Y 508.210 I-612.906 J   0.001
G2 X2563.620 Y 466.800 I-565.872 J  39.188
G2 X2556.410 Y 427.950 I-479.697 J  68.931
G2 X2546.640 Y 392.830 I-370.966 J  84.280
G2 X2534.600 Y 362.520 I-258.933 J  85.309
G2 X2520.640 Y 337.930 I-160.877 J  75.074
G2 X2505.200 Y 319.810 I -87.857 J  59.224
G2 X2488.740 Y 308.720 I -42.094 J  44.717
G2 X2471.770 Y 304.980 I -17.159 J  37.487
G2 X2454.800 Y 308.720 I   0.189 J  41.227
G2 X2438.340 Y 319.810 I  25.634 J  55.807
G2 X2422.900 Y 337.930 I  72.418 J  77.345
G2 X2408.940 Y 362.520 I 146.913 J  99.662
G2 X2396.900 Y 392.830 I 246.893 J 115.619
G2 X2387.130 Y 427.950 I 361.196 J 119.400
F150
G1 Z   3.000
G0 Z  15.000 
M9 M5

(* SHAPE Nr: 34 *)
G0 X1957.490 Y1038.180
M3 M8
G0 Z   3.000 
G1 Z  -1.500
F400
G2 X1953.750 Y1055.150 I  37.487 J  17.159
G2 X1957.490 Y1072.120 I  41.227 J  -0.189
G2 X1968.580 Y1088.580 I  55.807 J -25.634
G2 X1986.700 Y1104.020 I  77.345 J -72.418
G2 X2011.290 Y1117.980 I  99.664 J-146.917
G2 X2041.600 Y1130.020 I 115.619 J-246.893
G2 X2076.720 Y1139.790 I 119.400 J-361.196
G2 X2115.570 Y1147.000 I 107.781 J-472.487
G2 X2156.980 Y1151.400 I  80.598 J-561.472
G2 X2199.690 Y1152.890 I  42.711 J-611.416
G2 X2242.400 Y1151.400 I  -0.001 J-612.906
G2 X2283.810 Y1147.000 I -39.188 J-565.872
G2 X2322.660 Y1139.790 I -68.931 J-479.697
G2 X2357.780 Y1130.020 I -84.280 J-370.966
G2 X2388.090 Y1117.980 I -85.309 J-258.933
G2 X2412.680 Y1104.020 I -75.074 J-160.877
G2 X2430.800 Y1088.580 I -59.224 J -87.857
G2 X2441.890 Y1072.120 I -44.717 J -42.094
G2 X2445.630 Y1055.150 I -37.487 J -17.159
G2 X2441.890 Y1038.180 I -41.227 J   0.189
G2 X2430.800 Y1021.720 I -55.807 J  25.634
G2 X2412.680 Y1006.280 I -77.344 J  72.417
G2 X2388.090 Y 992.320 I -99.664 J 146.917
G2 X2357.780 Y 980.280 I-115.619 J 246.893
G2 X2322.660 Y 970.510 I-119.400 J 361.196
G2 X2283.810 Y 963.300 I-107.781 J 472.487
G2 X2242.400 Y 958.900 I -80.598 J 561.472
G2 X2199.690 Y 957.410 I -42.711 J 611.416
G2 X2156.980 Y 958.900 I   0.001 J 612.906
G2 X2115.570 Y 963.300 I  39.188 J 565.872
G2 X2076.720 Y 970.510 I  68.931 J 479.697
G2 X2041.600 Y 980.280 I  84.280 J 370.966
G2 X2011.290 Y 992.320 I  85.309 J 258.933
G2 X1986.700 Y1006.280 I  75.074 J 160.877
G2 X1968.580 Y1021.720 I  59.224 J  87.857
G2 X1957.490 Y1038.180 I  44.717 J  42.094
F150
G1 Z  -3.000
F400
G2 X1953.750 Y1055.150 I  37.487 J  17.159
G2 X1957.490 Y1072.120 I  41.227 J  -0.189
G2 X1968.580 Y1088.580 I  55.807 J -25.634
G2 X1986.700 Y1104.020 I  77.345 J -72.418
G2 X2011.290 Y1117.980 I  99.664 J-146.917
G2 X2041.600 Y1130.020 I 115.619 J-246.893
G2 X2076.720 Y1139.790 I 119.400 J-361.196
G2 X2115.570 Y1147.000 I 107.781 J-472.487
G2 X2156.980 Y1151.400 I  80.598 J-561.472
G2 X2199.690 Y1152.890 I  42.711 J-611.416
G2 X2242.400 Y1151.400 I  -0.001 J-612.906
G2 X2283.810 Y1147.000 I -39.188 J-565.872
G2 X2322.660 Y1139.790 I -68.931 J-479.697
G2 X2357.780 Y1130.020 I -84.280 J-370.966
G2 X2388.090 Y1117.980 I -85.309 J-258.933
G2 X2412.680 Y1104.020 I -75.074 J-160.877
G2 X2430.800 Y1088.580 I -59.224 J -87.857
G2 X2441.890 Y1072.120 I -44.717 J -42.094
G2 X2445.630 Y1055.150 I -37.487 J -17.159
G2 X2441.890 Y1038.180 I -41.227 J   0.189
G2 X2430.800 Y1021.720 I -55.807 J  25.634
G2 X2412.680 Y1006.280 I -77.344 J  72.417
G2 X2388.090 Y 992.320 I -99.664 J 146.917
G2 X2357.780 Y 980.280 I-115.619 J 246.893
G2 X2322.660 Y 970.510 I-119.400 J 361.196
G2 X2283.810 Y 963.300 I-107.781 J 472.487
G2 X2242.400 Y 958.900 I -80.598 J 561.472
G2 X2199.690 Y 957.410 I -42.711 J 611.416
G2 X2156.980 Y 958.900 I   0.001 J 612.906
G2 X2115.570 Y 963.300 I  39.188 J 565.872
G2 X2076.720 Y 970.510 I  68.931 J 479.697
G2 X2041.600 Y 980.280 I  84.280 J 370.966
G2 X2011.290 Y 992.320 I  85.309 J 258.933
G2 X1986.700 Y1006.280 I  75.074 J 160.877
G2 X1968.580 Y1021.720 I  59.224 J  87.857
G2 X1957.490 Y1038.180 I  44.717 J  42.094
F150
G1 Z   3.000
G0 Z  15.000 
M9 M5

(* SHAPE Nr: 52 *)
G0 X 716.570 Y 312.910
M3 M8
G0 Z   3.000 
G1 Z  -1.500
F400
G2 X 704.530 Y 343.220 I 246.893 J 115.619
G2 X 694.760 Y 378.340 I 361.196 J 119.400
G2 X 687.550 Y 417.190 I 472.487 J 107.781
G2 X 683.150 Y 458.600 I 561.472 J  80.598
G2 X 681.660 Y 501.310 I 611.451 J  42.712
G2 X 683.150 Y 544.020 I 612.906 J  -0.001
G2 X 687.550 Y 585.430 I 565.872 J -39.188
G2 X 694.760 Y 624.280 I 479.697 J -68.931
G2 X 704.530 Y 659.400 I 370.966 J -84.280
G2 X 716.570 Y 689.710 I 258.933 J -85.309
G2 X 730.530 Y 714.300 I 160.877 J -75.074
G2 X 745.970 Y 732.420 I  87.857 J -59.224
G2 X 762.430 Y 743.510 I  42.094 J -44.717
G2 X 779.400 Y 747.250 I  17.159 J -37.487
G2 X 796.370 Y 743.510 I  -0.189 J -41.227
G2 X 812.830 Y 732.420 I -25.634 J -55.807
G2 X 828.270 Y 714.300 I -72.417 J -77.344
G2 X 842.230 Y 689.710 I-146.917 J -99.664
G2 X 854.270 Y 659.400 I-246.893 J-115.619
G2 X 864.040 Y 624.280 I-361.196 J-119.400
G2 X 871.250 Y 585.430 I-472.487 J-107.781
G2 X 875.650 Y 544.020 I-561.472 J -80.598
G2 X 877.140 Y 501.310 I-611.416 J -42.711
G2 X 875.650 Y 458.600 I-612.906 J   0.001
G2 X 871.250 Y 417.190 I-565.872 J  39.188
G2 X 864.040 Y 378.340 I-479.697 J  68.931
G2 X 854.270 Y 343.220 I-370.966 J  84.280
G2 X 842.230 Y 312.910 I-258.933 J  85.309
G2 X 828.270 Y 288.320 I-160.877 J  75.074
G2 X 812.830 Y 270.200 I -87.858 J  59.225
G2 X 796.370 Y 259.110 I -42.094 J  44.717
G2 X 779.400 Y 255.370 I -17.159 J  37.487
G2 X 762.430 Y 259.110 I   0.189 J  41.227
G2 X 745.970 Y 270.200 I  25.634 J  55.807
G2 X 730.530 Y 288.320 I  72.418 J  77.345
G2 X 716.570 Y 312.910 I 146.917 J  99.664
F150
G1 Z  -3.000
F400
G2 X 704.530 Y 343.220 I 246.893 J 115.619
G2 X 694.760 Y 378.340 I 361.196 J 119.400
G2 X 687.550 Y 417.190 I 472.487 J 107.781
G2 X 683.150 Y 458.600 I 561.472 J  80.598
G2 X 681.660 Y 501.310 I 611.451 J  42.712
G2 X 683.150 Y 544.020 I 612.906 J  -0.001
G2 X 687.550 Y 585.430 I 565.872 J -39.188
G2 X 694.760 Y 624.280 I 479.697 J -68.931
G2 X 704.530 Y 659.400 I 370.966 J -84.280
G2 X 716.570 Y 689.710 I 258.933 J -85.309
G2 X 730.530 Y 714.300 I 160.877 J -75.074
G2 X 745.970 Y 732.420 I  87.857 J -59.224
G2 X 762.430 Y 743.510 I  42.094 J -44.717
G2 X 779.400 Y 747.250 I  17.159 J -37.487
G2 X 796.370 Y 743.510 I  -0.189 J -41.227
G2 X 812.830 Y 732.420 I -25.634 J -55.807
G2 X 828.270 Y 714.300 I -72.417 J -77.344
G2 X 842.230 Y 689.710 I-146.917 J -99.664
G2 X 854.270 Y 659.400 I-246.893 J-115.619
G2 X 864.040 Y 624.280 I-361.196 J-119.400
G2 X 871.250 Y 585.430 I-472.487 J-107.781
G2 X 875.650 Y 544.020 I-561.472 J -80.598
G2 X 877.140 Y 501.310 I-611.416 J -42.711
G2 X 875.650 Y 458.600 I-612.906 J   0.001
G2 X 871.250 Y 417.190 I-565.872 J  39.188
G2 X 864.040 Y 378.340 I-479.697 J  68.931
G2 X 854.270 Y 343.220 I-370.966 J  84.280
G2 X 842.230 Y 312.910 I-258.933 J  85.309
G2 X 828.270 Y 288.320 I-160.877 J  75.074
G2 X 812.830 Y 270.200 I -87.858 J  59.225
G2 X 796.370 Y 259.110 I -42.094 J  44.717
G2 X 779.400 Y 255.370 I -17.159 J  37.487
G2 X 762.430 Y 259.110 I   0.189 J  41.227
G2 X 745.970 Y 270.200 I  25.634 J  55.807
G2 X 730.530 Y 288.320 I  72.418 J  77.345
G2 X 716.570 Y 312.910 I 146.917 J  99.664
F150
G1 Z   3.000
G0 Z  15.000 
M9 M5

(* SHAPE Nr: 56 *)
G0 X2550.670 Y 224.980
M3 M8
G0 Z   3.000 
G1 Z  -1.500
F400
G2 X2549.180 Y 267.690 I 611.451 J  42.712
G2 X2550.670 Y 310.400 I 612.906 J  -0.001
G2 X2555.070 Y 351.810 I 565.872 J -39.188
G2 X2562.280 Y 390.660 I 479.697 J -68.931
G2 X2572.050 Y 425.780 I 370.966 J -84.280
G2 X2584.090 Y 456.090 I 258.933 J -85.309
G2 X2598.050 Y 480.680 I 160.873 J -75.072
G2 X2613.490 Y 498.800 I  87.858 J -59.225
G2 X2629.950 Y 509.890 I  42.094 J -44.717
G2 X2646.920 Y 513.630 I  17.159 J -37.487
G2 X2663.890 Y 509.890 I  -0.189 J -41.227
G2 X2680.350 Y 498.800 I -25.634 J -55.807
G2 X2695.790 Y 480.680 I -72.417 J -77.344
G2 X2709.750 Y 456.090 I-146.917 J -99.664
G2 X2721.790 Y 425.780 I-246.893 J-115.619
G2 X2731.560 Y 390.660 I-361.196 J-119.400
G2 X2738.770 Y 351.810 I-472.487 J-107.781
G2 X2743.170 Y 310.400 I-561.472 J -80.598
G2 X2744.660 Y 267.690 I-611.416 J -42.711
G2 X2743.170 Y 224.980 I-612.906 J   0.001
G2 X2738.770 Y 183.570 I-565.872 J  39.188
G2 X2731.560 Y 144.720 I-479.697 J  68.931
G2 X2721.790 Y 109.600 I-370.966 J  84.280
G2 X2709.750 Y  79.290 I-258.933 J  85.309
G2 X2695.790 Y  54.700 I-160.877 J  75.074
G2 X2680.350 Y  36.580 I -87.857 J  59.224
G2 X2663.890 Y  25.490 I -42.094 J  44.717
G2 X2646.920 Y  21.750 I -17.159 J  37.487
G2 X2629.950 Y  25.490 I   0.189 J  41.227
G2 X2613.490 Y  36.580 I  25.634 J  55.807
G2 X2598.050 Y  54.700 I  72.418 J  77.345
G2 X2584.090 Y  79.290 I 146.913 J  99.662
G2 X2572.050 Y 109.600 I 246.893 J 115.619
G2 X2562.280 Y 144.720 I 361.196 J 119.400
G2 X2555.070 Y 183.570 I 472.487 J 107.781
G2 X2550.670 Y 224.980 I 561.472 J  80.598
F150
G1 Z  -3.000
F400
G2 X2549.180 Y 267.690 I 611.451 J  42.712
G2 X2550.670 Y 310.400 I 612.906 J  -0.001
G2 X2555.070 Y 351.810 I 565.872 J -39.188
G2 X2562.280 Y 390.660 I 479.697 J -68.931
G2 X2572.050 Y 425.780 I 370.966 J -84.280
G2 X2584.090 Y 456.090 I 258.933 J -85.309
G2 X2598.050 Y 480.680 I 160.873 J -75.072
G2 X2613.490 Y 498.800 I  87.858 J -59.225
G2 X2629.950 Y 509.890 I  42.094 J -44.717
G2 X2646.920 Y 513.630 I  17.159 J -37.487
G2 X2663.890 Y 509.890 I  -0.189 J -41.227
G2 X2680.350 Y 498.800 I -25.634 J -55.807
G2 X2695.790 Y 480.680 I -72.417 J -77.344
G2 X2709.750 Y 456.090 I-146.917 J -99.664
G2 X2721.790 Y 425.780 I-246.893 J-115.619
G2 X2731.560 Y 390.660 I-361.196 J-119.400
G2 X2738.770 Y 351.810 I-472.487 J-107.781
G2 X2743.170 Y 310.400 I-561.472 J -80.598
G2 X2744.660 Y 267.690 I-611.416 J -42.711
G2 X2743.170 Y 224.980 I-612.906 J   0.001
G2 X2738.770 Y 183.570 I-565.872 J  39.188
G2 X2731.560 Y 144.720 I-479.697 J  68.931
G2 X2721.790 Y 109.600 I-370.966 J  84.280
G2 X2709.750 Y  79.290 I-258.933 J  85.309
G2 X2695.790 Y  54.700 I-160.877 J  75.074
G2 X2680.350 Y  36.580 I -87.857 J  59.224
G2 X2663.890 Y  25.490 I -42.094 J  44.717
G2 X2646.920 Y  21.750 I -17.159 J  37.487
G2 X2629.950 Y  25.490 I   0.189 J  41.227
G2 X2613.490 Y  36.580 I  25.634 J  55.807
G2 X2598.050 Y  54.700 I  72.418 J  77.345
G2 X2584.090 Y  79.290 I 146.913 J  99.662
G2 X2572.050 Y 109.600 I 246.893 J 115.619
G2 X2562.280 Y 144.720 I 361.196 J 119.400
G2 X2555.070 Y 183.570 I 472.487 J 107.781
G2 X2550.670 Y 224.980 I 561.472 J  80.598
F150
G1 Z   3.000
G0 Z  15.000 
M9 M5

(* SHAPE Nr: 58 *)
G0 X2062.780 Y 108.390
M3 M8
G0 Z   3.000 
G1 Z  -1.500
F400
G2 X2066.520 Y 125.360 I  41.227 J  -0.189
G2 X2077.610 Y 141.820 I  55.807 J -25.634
G2 X2095.730 Y 157.260 I  77.344 J -72.417
G2 X2120.320 Y 171.220 I  99.664 J-146.917
G2 X2150.630 Y 183.260 I 115.619 J-246.893
G2 X2185.750 Y 193.030 I 119.400 J-361.196
G2 X2224.600 Y 200.240 I 107.781 J-472.487
G2 X2266.010 Y 204.640 I  80.598 J-561.472
G2 X2308.720 Y 206.130 I  42.711 J-611.416
G2 X2351.430 Y 204.640 I  -0.001 J-612.906
G2 X2392.840 Y 200.240 I -39.188 J-565.872
G2 X2431.690 Y 193.030 I -68.931 J-479.697
G2 X2466.810 Y 183.260 I -84.280 J-370.966
G2 X2497.120 Y 171.220 I -85.309 J-258.933
G2 X2521.710 Y 157.260 I -75.074 J-160.877
G2 X2539.830 Y 141.820 I -59.224 J -87.857
G2 X2550.920 Y 125.360 I -44.717 J -42.094
G2 X2554.660 Y 108.390 I -37.487 J -17.159
G2 X2550.920 Y  91.420 I -41.227 J   0.189
G2 X2539.830 Y  74.960 I -55.807 J  25.634
G2 X2521.710 Y  59.520 I -77.344 J  72.417
G2 X2497.120 Y  45.560 I -99.664 J 146.917
G2 X2466.810 Y  33.520 I-115.619 J 246.893
G2 X2431.690 Y  23.750 I-119.400 J 361.196
G2 X2392.840 Y  16.540 I-107.781 J 472.487
G2 X2351.430 Y  12.140 I -80.598 J 561.472
G2 X2308.720 Y  10.650 I -42.711 J 611.416
G2 X2266.010 Y  12.140 I   0.001 J 612.906
G2 X2224.600 Y  16.540 I  39.188 J 565.872
G2 X2185.750 Y  23.750 I  68.931 J 479.697
G2 X2150.630 Y  33.520 I  84.280 J 370.966
G2 X2120.320 Y  45.560 I  85.309 J 258.933
G2 X2095.730 Y  59.520 I  75.072 J 160.873
G2 X2077.610 Y  74.960 I  59.224 J  87.857
G2 X2066.520 Y  91.420 I  44.717 J  42.094
G2 X2062.780 Y 108.390 I  37.487 J  17.159
F150
G1 Z  -3.000
F400
G2 X2066.520 Y 125.360 I  41.227 J  -0.189
G2 X2077.610 Y 141.820 I  55.807 J -25.634
G2 X2095.730 Y 157.260 I  77.344 J -72.417
G2 X2120.320 Y 171.220 I  99.664 J-146.917
G2 X2150.630 Y 183.260 I 115.619 J-246.893
G2 X2185.750 Y 193.030 I 119.400 J-361.196
G2 X2224.600 Y 200.240 I 107.781 J-472.487
G2 X2266.010 Y 204.640 I  80.598 J-561.472
G2 X2308.720 Y 206.130 I  42.711 J-611.416
G2 X2351.430 Y 204.640 I  -0.001 J-612.906
G2 X2392.840 Y 200.240 I -39.188 J-565.872
G2 X2431.690 Y 193.030 I -68.931 J-479.697
G2 X2466.810 Y 183.260 I -84.280 J-370.966
G2 X2497.120 Y 171.220 I -85.309 J-258.933
G2 X2521.710 Y 157.260 I -75.074 J-160.877
G2 X2539.830 Y 141.820 I -59.224 J -87.857
G2 X2550.920 Y 125.360 I -44.717 J -42.094
G2 X2554.660 Y 108.390 I -37.487 J -17.159
G2 X2550.920 Y  91.420 I -41.227 J   0.189
G2 X2539.830 Y  74.960 I -55.807 J  25.634
G2 X2521.710 Y  59.520 I -77.344 J  72.417
G2 X2497.120 Y  45.560 I -99.664 J 146.917
G2 X2466.810 Y  33.520 I-115.619 J 246.893
G2 X2431.690 Y  23.750 I-119.400 J 361.196
G2 X2392.840 Y  16.540 I-107.781 J 472.487
G2 X2351.430 Y  12.140 I -80.598 J 561.472
G2 X2308.720 Y  10.650 I -42.711 J 611.416
G2 X2266.010 Y  12.140 I   0.001 J 612.906
G2 X2224.600 Y  16.540 I  39.188 J 565.872
G2 X2185.750 Y  23.750 I  68.931 J 479.697
G2 X2150.630 Y  33.520 I  84.280 J 370.966
G2 X2120.320 Y  45.560 I  85.309 J 258.933
G2 X2095.730 Y  59.520 I  75.072 J 160.873
G2 X2077.610 Y  74.960 I  59.224 J  87.857
G2 X2066.520 Y  91.420 I  44.717 J  42.094
G2 X2062.780 Y 108.390 I  37.487 J  17.159
F150
G1 Z   3.000
G0 Z  15.000 
M9 M5

(* SHAPE Nr: 61 *)
G0 X2484.560 Y1116.600
M3 M8
G0 Z   3.000 
G1 Z  -1.500
F400
G2 X2472.520 Y1146.910 I 246.893 J 115.619
G2 X2462.750 Y1182.030 I 361.196 J 119.400
G2 X2455.540 Y1220.880 I 472.487 J 107.781
G2 X2451.140 Y1262.290 I 561.472 J  80.598
G2 X2449.650 Y1305.000 I 611.451 J  42.712
G2 X2451.140 Y1347.710 I 612.906 J  -0.001
G2 X2455.540 Y1389.120 I 565.872 J -39.188
G2 X2462.750 Y1427.970 I 479.697 J -68.931
G2 X2472.520 Y1463.090 I 370.966 J -84.280
G2 X2484.560 Y1493.400 I 258.933 J -85.309
G2 X2498.520 Y1517.990 I 160.877 J -75.074
G2 X2513.960 Y1536.110 I  87.857 J -59.224
G2 X2530.420 Y1547.200 I  42.094 J -44.717
G2 X2547.390 Y1550.940 I  17.159 J -37.487
G2 X2564.360 Y1547.200 I  -0.189 J -41.227
G2 X2580.820 Y1536.110 I -25.634 J -55.807
G2 X2596.260 Y1517.990 I -72.417 J -77.344
G2 X2610.220 Y1493.400 I-146.917 J -99.664
G2 X2622.260 Y1463.090 I-246.893 J-115.619
G2 X2632.030 Y1427.970 I-361.196 J-119.400
G2 X2639.240 Y1389.120 I-472.487 J-107.781
G2 X2643.640 Y1347.710 I-561.472 J -80.598
G2 X2645.130 Y1305.000 I-611.416 J -42.711
G2 X2643.640 Y1262.290 I-612.906 J   0.001
G2 X2639.240 Y1220.880 I-565.872 J  39.188
G2 X2632.030 Y1182.030 I-479.697 J  68.931
G2 X2622.260 Y1146.910 I-370.966 J  84.280
G2 X2610.220 Y1116.600 I-258.933 J  85.309
G2 X2596.260 Y1092.010 I-160.877 J  75.074
G2 X2580.820 Y1073.890 I -87.857 J  59.224
G2 X2564.360 Y1062.800 I -42.094 J  44.717
G2 X2547.390 Y1059.060 I -17.159 J  37.487
G2 X2530.420 Y1062.800 I   0.189 J  41.227
G2 X2513.960 Y1073.890 I  25.634 J  55.807
G2 X2498.520 Y1092.010 I  72.418 J  77.345
G2 X2484.560 Y1116.600 I 146.913 J  99.662
F150
G1 Z  -3.000
F400
G2 X2472.520 Y1146.910 I 246.893 J 115.619
G2 X2462.750 Y1182.030 I 361.196 J 119.400
G2 X2455.540 Y1220.880 I 472.487 J 107.781
G2 X2451.140 Y1262.290 I 561.472 J  80.598
G2 X2449.650 Y1305.000 I 611.451 J  42.712
G2 X2451.140 Y1347.710 I 612.906 J  -0.001
G2 X2455.540 Y1389.120 I 565.872 J -39.188
G2 X2462.750 Y1427.970 I 479.697 J -68.931
G2 X2472.520 Y1463.090 I 370.966 J -84.280
G2 X2484.560 Y1493.400 I 258.933 J -85.309
G2 X2498.520 Y1517.990 I 160.877 J -75.074
G2 X2513.960 Y1536.110 I  87.857 J -59.224
G2 X2530.420 Y1547.200 I  42.094 J -44.717
G2 X2547.390 Y1550.940 I  17.159 J -37.487
G2 X2564.360 Y1547.200 I  -0.189 J -41.227
G2 X2580.820 Y1536.110 I -25.634 J -55.807
G2 X2596.260 Y1517.990 I -72.417 J -77.344
G2 X2610.220 Y1493.400 I-146.917 J -99.664
G2 X2622.260 Y1463.090 I-246.893 J-115.619
G2 X2632.030 Y1427.970 I-361.196 J-119.400
G2 X2639.240 Y1389.120 I-472.487 J-107.781
G2 X2643.640 Y1347.710 I-561.472 J -80.598
G2 X2645.130 Y1305.000 I-611.416 J -42.711
G2 X2643.640 Y1262.290 I-612.906 J   0.001
G2 X2639.240 Y1220.880 I-565.872 J  39.188
G2 X2632.030 Y1182.030 I-479.697 J  68.931
G2 X2622.260 Y1146.910 I-370.966 J  84.280
G2 X2610.220 Y1116.600 I-258.933 J  85.309
G2 X2596.260 Y1092.010 I-160.877 J  75.074
G2 X2580.820 Y1073.890 I -87.857 J  59.224
G2 X2564.360 Y1062.800 I -42.094 J  44.717
G2 X2547.390 Y1059.060 I -17.159 J  37.487
G2 X2530.420 Y1062.800 I   0.189 J  41.227
G2 X2513.960 Y1073.890 I  25.634 J  55.807
G2 X2498.520 Y1092.010 I  72.418 J  77.345
G2 X2484.560 Y1116.600 I 146.913 J  99.662
F150
G1 Z   3.000
G0 Z  15.000 
M9 M5

(*** LAYER: BORDER_D0_T132_RK1_A0_W0_EM1_RI1_ID0007 ***)

(* SHAPE Nr: 11 *)
G0 X 119.280 Y 830.940
M3 M8
G0 Z   3.000 
G1 Z  -1.500
F400
G1 X  77.540 Y 888.390
G1 X  10.000 Y 866.450
G1 X  51.740 Y 923.900
G1 X  10.000 Y 981.350
G1 X  77.540 Y 959.400
G1 X 119.280 Y1016.850
G1 X 119.280 Y 945.840
G1 X 186.810 Y 923.900
G1 X 119.280 Y 901.950
G1 X 119.280 Y 830.940
F150
G1 Z  -3.000
F400
G1 X  77.540 Y 888.390
G1 X  10.000 Y 866.450
G1 X  51.740 Y 923.900
G1 X  10.000 Y 981.350
G1 X  77.540 Y 959.400
G1 X 119.280 Y1016.850
G1 X 119.280 Y 945.840
G1 X 186.810 Y 923.900
G1 X 119.280 Y 901.950
G1 X 119.280 Y 830.940
F150
G1 Z   3.000
G0 Z  15.000 
M9 M5

(* SHAPE Nr: 14 *)
G0 X 119.280 Y1453.350
M3 M8
G0 Z   3.000 
G1 Z  -1.500
F400
G1 X  77.540 Y1510.800
G1 X  10.000 Y1488.860
G1 X  51.740 Y1546.310
G1 X  10.000 Y1603.760
G1 X  77.540 Y1581.810
G1 X 119.280 Y1639.260
G1 X 119.280 Y1568.250
G1 X 186.810 Y1546.310
G1 X 119.280 Y1524.360
G1 X 119.280 Y1453.350
F150
G1 Z  -3.000
F400
G1 X  77.540 Y1510.800
G1 X  10.000 Y1488.860
G1 X  51.740 Y1546.310
G1 X  10.000 Y1603.760
G1 X  77.540 Y1581.810
G1 X 119.280 Y1639.260
G1 X 119.280 Y1568.250
G1 X 186.810 Y1546.310
G1 X 119.280 Y1524.360
G1 X 119.280 Y1453.350
F150
G1 Z   3.000
G0 Z  15.000 
M9 M5

(* SHAPE Nr: 18 *)
G0 X1231.820 Y1230.010
M3 M8
G0 Z   3.000 
G1 Z  -1.500
F400
G1 X1289.270 Y1271.750
G1 X1267.330 Y1339.290
G1 X1324.780 Y1297.550
G1 X1382.230 Y1339.290
G1 X1360.280 Y1271.750
G1 X1417.730 Y1230.010
G1 X1346.720 Y1230.010
G1 X1324.780 Y1162.480
G1 X1302.830 Y1230.010
G1 X1231.820 Y1230.010
F150
G1 Z  -3.000
F400
G1 X1289.270 Y1271.750
G1 X1267.330 Y1339.290
G1 X1324.780 Y1297.550
G1 X1382.230 Y1339.290
G1 X1360.280 Y1271.750
G1 X1417.730 Y1230.010
G1 X1346.720 Y1230.010
G1 X1324.780 Y1162.480
G1 X1302.830 Y1230.010
G1 X1231.820 Y1230.010
F150
G1 Z   3.000
G0 Z  15.000 
M9 M5

(* SHAPE Nr: 20 *)
G0 X1381.140 Y 883.250
M3 M8
G0 Z   3.000 
G1 Z  -1.500
F400
G1 X1448.670 Y 905.200
G1 X1448.670 Y 976.210
G1 X1490.410 Y 918.760
G1 X1557.950 Y 940.700
G1 X1516.210 Y 883.250
G1 X1557.950 Y 825.800
G1 X1490.410 Y 847.750
G1 X1448.670 Y 790.300
G1 X1448.670 Y 861.310
G1 X1381.140 Y 883.250
F150
G1 Z  -3.000
F400
G1 X1448.670 Y 905.200
G1 X1448.670 Y 976.210
G1 X1490.410 Y 918.760
G1 X1557.950 Y 940.700
G1 X1516.210 Y 883.250
G1 X1557.950 Y 825.800
G1 X1490.410 Y 847.750
G1 X1448.670 Y 790.300
G1 X1448.670 Y 861.310
G1 X1381.140 Y 883.250
F150
G1 Z   3.000
G0 Z  15.000 
M9 M5

(* SHAPE Nr: 24 *)
G0 X1592.380 Y 227.670
M3 M8
G0 Z   3.000 
G1 Z  -1.500
F400
G1 X1663.390 Y 227.670
G1 X1685.330 Y 295.200
G1 X1707.280 Y 227.670
G1 X1778.290 Y 227.670
G1 X1720.840 Y 185.930
G1 X1742.780 Y 118.390
G1 X1685.330 Y 160.130
G1 X1627.880 Y 118.390
G1 X1649.830 Y 185.930
G1 X1592.380 Y 227.670
F150
G1 Z  -3.000
F400
G1 X1663.390 Y 227.670
G1 X1685.330 Y 295.200
G1 X1707.280 Y 227.670
G1 X1778.290 Y 227.670
G1 X1720.840 Y 185.930
G1 X1742.780 Y 118.390
G1 X1685.330 Y 160.130
G1 X1627.880 Y 118.390
G1 X1649.830 Y 185.930
G1 X1592.380 Y 227.670
F150
G1 Z   3.000
G0 Z  15.000 
M9 M5

(* SHAPE Nr: 28 *)
G0 X2204.790 Y 831.250
M3 M8
G0 Z   3.000 
G1 Z  -1.500
F400
G1 X2262.240 Y 872.990
G1 X2240.300 Y 940.530
G1 X2297.750 Y 898.790
G1 X2355.200 Y 940.530
G1 X2333.250 Y 872.990
G1 X2390.700 Y 831.250
G1 X2319.690 Y 831.250
G1 X2297.750 Y 763.720
G1 X2275.800 Y 831.250
G1 X2204.790 Y 831.250
F150
G1 Z  -3.000
F400
G1 X2262.240 Y 872.990
G1 X2240.300 Y 940.530
G1 X2297.750 Y 898.790
G1 X2355.200 Y 940.530
G1 X2333.250 Y 872.990
G1 X2390.700 Y 831.250
G1 X2319.690 Y 831.250
G1 X2297.750 Y 763.720
G1 X2275.800 Y 831.250
G1 X2204.790 Y 831.250
F150
G1 Z   3.000
G0 Z  15.000 
M9 M5

(* SHAPE Nr: 30 *)
G0 X2377.640 Y 879.130
M3 M8
G0 Z   3.000 
G1 Z  -1.500
F400
G1 X2435.090 Y 920.870
G1 X2413.150 Y 988.410
G1 X2470.600 Y 946.670
G1 X2528.050 Y 988.410
G1 X2506.100 Y 920.870
G1 X2563.550 Y 879.130
G1 X2492.540 Y 879.130
G1 X2470.600 Y 811.600
G1 X2448.650 Y 879.130
G1 X2377.640 Y 879.130
F150
G1 Z  -3.000
F400
G1 X2435.090 Y 920.870
G1 X2413.150 Y 988.410
G1 X2470.600 Y 946.670
G1 X2528.050 Y 988.410
G1 X2506.100 Y 920.870
G1 X2563.550 Y 879.130
G1 X2492.540 Y 879.130
G1 X2470.600 Y 811.600
G1 X2448.650 Y 879.130
G1 X2377.640 Y 879.130
F150
G1 Z   3.000
G0 Z  15.000 
M9 M5

(* SHAPE Nr: 31 *)
G0 X2533.010 Y 809.120
M3 M8
G0 Z   3.000 
G1 Z  -1.500
F400
G1 X2604.020 Y 809.120
G1 X2625.960 Y 876.650
G1 X2647.910 Y 809.120
G1 X2718.920 Y 809.120
G1 X2661.470 Y 767.380
G1 X2683.410 Y 699.840
G1 X2625.960 Y 741.580
G1 X2568.510 Y 699.840
G1 X2590.460 Y 767.380
G1 X2533.010 Y 809.120
F150
G1 Z  -3.000
F400
G1 X2604.020 Y 809.120
G1 X2625.960 Y 876.650
G1 X2647.910 Y 809.120
G1 X2718.920 Y 809.120
G1 X2661.470 Y 767.380
G1 X2683.410 Y 699.840
G1 X2625.960 Y 741.580
G1 X2568.510 Y 699.840
G1 X2590.460 Y 767.380
G1 X2533.010 Y 809.120
F150
G1 Z   3.000
G0 Z  15.000 
M9 M5

(* SHAPE Nr: 33 *)
G0 X2567.720 Y 934.710
M3 M8
G0 Z   3.000 
G1 Z  -1.500
F400
G1 X2589.670 Y1002.250
G1 X2532.220 Y1043.990
G1 X2603.230 Y1043.990
G1 X2625.170 Y1111.520
G1 X2647.120 Y1043.990
G1 X2718.130 Y1043.990
G1 X2660.680 Y1002.250
G1 X2682.620 Y 934.710
G1 X2625.170 Y 976.450
G1 X2567.720 Y 934.710
F150
G1 Z  -3.000
F400
G1 X2589.670 Y1002.250
G1 X2532.220 Y1043.990
G1 X2603.230 Y1043.990
G1 X2625.170 Y1111.520
G1 X2647.120 Y1043.990
G1 X2718.130 Y1043.990
G1 X2660.680 Y1002.250
G1 X2682.620 Y 934.710
G1 X2625.170 Y 976.450
G1 X2567.720 Y 934.710
F150
G1 Z   3.000
G0 Z  15.000 
M9 M5

(* SHAPE Nr: 41 *)
G0 X1341.860 Y1930.720
M3 M8
G0 Z   3.000 
G1 Z  -1.500
F400
G1 X1399.310 Y1972.460
G1 X1377.370 Y2040.000
G1 X1434.820 Y1998.260
G1 X1492.270 Y2040.000
G1 X1470.320 Y1972.460
G1 X1527.770 Y1930.720
G1 X1456.760 Y1930.720
G1 X1434.820 Y1863.190
G1 X1412.870 Y1930.720
G1 X1341.860 Y1930.720
F150
G1 Z  -3.000
F400
G1 X1399.310 Y1972.460
G1 X1377.370 Y2040.000
G1 X1434.820 Y1998.260
G1 X1492.270 Y2040.000
G1 X1470.320 Y1972.460
G1 X1527.770 Y1930.720
G1 X1456.760 Y1930.720
G1 X1434.820 Y1863.190
G1 X1412.870 Y1930.720
G1 X1341.860 Y1930.720
F150
G1 Z   3.000
G0 Z  15.000 
M9 M5

(* SHAPE Nr: 42 *)
G0 X1422.220 Y1196.260
M3 M8
G0 Z   3.000 
G1 Z  -1.500
F400
G1 X1444.170 Y1263.800
G1 X1386.720 Y1305.540
G1 X1457.730 Y1305.540
G1 X1479.670 Y1373.070
G1 X1501.620 Y1305.540
G1 X1572.630 Y1305.540
G1 X1515.180 Y1263.800
G1 X1537.120 Y1196.260
G1 X1479.670 Y1238.000
G1 X1422.220 Y1196.260
F150
G1 Z  -3.000
F400
G1 X1444.170 Y1263.800
G1 X1386.720 Y1305.540
G1 X1457.730 Y1305.540
G1 X1479.670 Y1373.070
G1 X1501.620 Y1305.540
G1 X1572.630 Y1305.540
G1 X1515.180 Y1263.800
G1 X1537.120 Y1196.260
G1 X1479.670 Y1238.000
G1 X1422.220 Y1196.260
F150
G1 Z   3.000
G0 Z  15.000 
M9 M5

(* SHAPE Nr: 45 *)
G0 X1045.000 Y 655.010
M3 M8
G0 Z   3.000 
G1 Z  -1.500
F400
G1 X1102.450 Y 696.750
G1 X1080.510 Y 764.290
G1 X1137.960 Y 722.550
G1 X1195.410 Y 764.290
G1 X1173.460 Y 696.750
G1 X1230.910 Y 655.010
G1 X1159.900 Y 655.010
G1 X1137.960 Y 587.480
G1 X1116.010 Y 655.010
G1 X1045.000 Y 655.010
F150
G1 Z  -3.000
F400
G1 X1102.450 Y 696.750
G1 X1080.510 Y 764.290
G1 X1137.960 Y 722.550
G1 X1195.410 Y 764.290
G1 X1173.460 Y 696.750
G1 X1230.910 Y 655.010
G1 X1159.900 Y 655.010
G1 X1137.960 Y 587.480
G1 X1116.010 Y 655.010
G1 X1045.000 Y 655.010
F150
G1 Z   3.000
G0 Z  15.000 
M9 M5

(* SHAPE Nr: 46 *)
G0 X 988.460 Y 339.910
M3 M8
G0 Z   3.000 
G1 Z  -1.500
F400
G1 X1059.470 Y 339.910
G1 X1081.410 Y 407.440
G1 X1103.360 Y 339.910
G1 X1174.370 Y 339.910
G1 X1116.920 Y 298.170
G1 X1138.860 Y 230.630
G1 X1081.410 Y 272.370
G1 X1023.960 Y 230.630
G1 X1045.910 Y 298.170
G1 X 988.460 Y 339.910
F150
G1 Z  -3.000
F400
G1 X1059.470 Y 339.910
G1 X1081.410 Y 407.440
G1 X1103.360 Y 339.910
G1 X1174.370 Y 339.910
G1 X1116.920 Y 298.170
G1 X1138.860 Y 230.630
G1 X1081.410 Y 272.370
G1 X1023.960 Y 230.630
G1 X1045.910 Y 298.170
G1 X 988.460 Y 339.910
F150
G1 Z   3.000
G0 Z  15.000 
M9 M5

(* SHAPE Nr: 48 *)
G0 X 846.140 Y 226.040
M3 M8
G0 Z   3.000 
G1 Z  -1.500
F400
G1 X 913.670 Y 247.990
G1 X 913.670 Y 319.000
G1 X 955.410 Y 261.550
G1 X1022.950 Y 283.490
G1 X 981.210 Y 226.040
G1 X1022.950 Y 168.590
G1 X 955.410 Y 190.540
G1 X 913.670 Y 133.090
G1 X 913.670 Y 204.100
G1 X 846.140 Y 226.040
F150
G1 Z  -3.000
F400
G1 X 913.670 Y 247.990
G1 X 913.670 Y 319.000
G1 X 955.410 Y 261.550
G1 X1022.950 Y 283.490
G1 X 981.210 Y 226.040
G1 X1022.950 Y 168.590
G1 X 955.410 Y 190.540
G1 X 913.670 Y 133.090
G1 X 913.670 Y 204.100
G1 X 846.140 Y 226.040
F150
G1 Z   3.000
G0 Z  15.000 
M9 M5

(* SHAPE Nr: 54 *)
G0 X 955.010 Y 122.090
M3 M8
G0 Z   3.000 
G1 Z  -1.500
F400
G1 X1026.020 Y 122.090
G1 X1047.960 Y 189.620
G1 X1069.910 Y 122.090
G1 X1140.920 Y 122.090
G1 X1083.470 Y  80.350
G1 X1105.410 Y  12.810
G1 X1047.960 Y  54.550
G1 X 990.510 Y  12.810
G1 X1012.460 Y  80.350
G1 X 955.010 Y 122.090
F150
G1 Z  -3.000
F400
G1 X1026.020 Y 122.090
G1 X1047.960 Y 189.620
G1 X1069.910 Y 122.090
G1 X1140.920 Y 122.090
G1 X1083.470 Y  80.350
G1 X1105.410 Y  12.810
G1 X1047.960 Y  54.550
G1 X 990.510 Y  12.810
G1 X1012.460 Y  80.350
G1 X 955.010 Y 122.090
F150
G1 Z   3.000
G0 Z  15.000 
M9 M5

(* SHAPE Nr: 62 *)
G0 X2602.980 Y1795.880
M3 M8
G0 Z   3.000 
G1 Z  -1.500
F400
G1 X2670.510 Y1817.830
G1 X2670.510 Y1888.840
G1 X2712.250 Y1831.390
G1 X2779.790 Y1853.330
G1 X2738.050 Y1795.880
G1 X2779.790 Y1738.430
G1 X2712.250 Y1760.380
G1 X2670.510 Y1702.930
G1 X2670.510 Y1773.940
G1 X2602.980 Y1795.880
F150
G1 Z  -3.000
F400
G1 X2670.510 Y1817.830
G1 X2670.510 Y1888.840
G1 X2712.250 Y1831.390
G1 X2779.790 Y1853.330
G1 X2738.050 Y1795.880
G1 X2779.790 Y1738.430
G1 X2712.250 Y1760.380
G1 X2670.510 Y1702.930
G1 X2670.510 Y1773.940
G1 X2602.980 Y1795.880
F150
G1 Z   3.000
G0 Z  15.000 
M9 M5

(* SHAPE Nr: 63 *)
G0 X2445.960 Y1889.600
M3 M8
G0 Z   3.000 
G1 Z  -1.500
F400
G1 X2487.700 Y1947.050
G1 X2445.960 Y2004.500
G1 X2513.500 Y1982.550
G1 X2555.240 Y2040.000
G1 X2555.240 Y1968.990
G1 X2622.770 Y1947.050
G1 X2555.240 Y1925.100
G1 X2555.240 Y1854.090
G1 X2513.500 Y1911.540
G1 X2445.960 Y1889.600
F150
G1 Z  -3.000
F400
G1 X2487.700 Y1947.050
G1 X2445.960 Y2004.500
G1 X2513.500 Y1982.550
G1 X2555.240 Y2040.000
G1 X2555.240 Y1968.990
G1 X2622.770 Y1947.050
G1 X2555.240 Y1925.100
G1 X2555.240 Y1854.090
G1 X2513.500 Y1911.540
G1 X2445.960 Y1889.600
F150
G1 Z   3.000
G0 Z  15.000 
M9 M5

(* SHAPE Nr: 64 *)
G0 X2604.680 Y1889.600
M3 M8
G0 Z   3.000 
G1 Z  -1.500
F400
G1 X2646.420 Y1947.050
G1 X2604.680 Y2004.500
G1 X2672.220 Y1982.550
G1 X2713.960 Y2040.000
G1 X2713.960 Y1968.990
G1 X2781.490 Y1947.050
G1 X2713.960 Y1925.100
G1 X2713.960 Y1854.090
G1 X2672.220 Y1911.540
G1 X2604.680 Y1889.600
F150
G1 Z  -3.000
F400
G1 X2646.420 Y1947.050
G1 X2604.680 Y2004.500
G1 X2672.220 Y1982.550
G1 X2713.960 Y2040.000
G1 X2713.960 Y1968.990
G1 X2781.490 Y1947.050
G1 X2713.960 Y1925.100
G1 X2713.960 Y1854.090
G1 X2672.220 Y1911.540
G1 X2604.680 Y1889.600
F150
G1 Z   3.000
G0 Z  15.000 
M9 M5

(* SHAPE Nr: 66 *)
G0 X 499.440 Y1863.190
M3 M8
G0 Z   3.000 
G1 Z  -1.500
F400
G1 X 521.390 Y1930.730
G1 X 463.940 Y1972.470
G1 X 534.950 Y1972.470
G1 X 556.890 Y2040.000
G1 X 578.840 Y1972.470
G1 X 649.850 Y1972.470
G1 X 592.400 Y1930.730
G1 X 614.340 Y1863.190
G1 X 556.890 Y1904.930
G1 X 499.440 Y1863.190
F150
G1 Z  -3.000
F400
G1 X 521.390 Y1930.730
G1 X 463.940 Y1972.470
G1 X 534.950 Y1972.470
G1 X 556.890 Y2040.000
G1 X 578.840 Y1972.470
G1 X 649.850 Y1972.470
G1 X 592.400 Y1930.730
G1 X 614.340 Y1863.190
G1 X 556.890 Y1904.930
G1 X 499.440 Y1863.190
F150
G1 Z   3.000
G0 Z  15.000 
M9 M5

(* SHAPE Nr: 70 *)
G0 X 119.280 Y1854.090
M3 M8
G0 Z   3.000 
G1 Z  -1.500
F400
G1 X  77.540 Y1911.540
G1 X  10.000 Y1889.600
G1 X  51.740 Y1947.050
G1 X  10.000 Y2004.500
G1 X  77.540 Y1982.550
G1 X 119.280 Y2040.000
G1 X 119.280 Y1968.990
G1 X 186.810 Y1947.050
G1 X 119.280 Y1925.100
G1 X 119.280 Y1854.090
F150
G1 Z  -3.000
F400
G1 X  77.540 Y1911.540
G1 X  10.000 Y1889.600
G1 X  51.740 Y1947.050
G1 X  10.000 Y2004.500
G1 X  77.540 Y1982.550
G1 X 119.280 Y2040.000
G1 X 119.280 Y1968.990
G1 X 186.810 Y1947.050
G1 X 119.280 Y1925.100
G1 X 119.280 Y1854.090
F150
G1 Z   3.000
G0 Z  15.000 
M9 M5

(*** LAYER: BORDER_D0_T132_RK1_A0_W0_EM1_RI1_ID0013 ***)

(* SHAPE Nr: 12 *)
G0 X  10.000 Y1165.910
M3 M8
G0 Z   3.000 
G1 Z  -1.500
F400
G1 X  10.000 Y1190.490
G1 X  10.000 Y1215.070
G2 X 205.480 Y1215.070 I  97.740 J-130.352
G1 X 205.480 Y1165.910
G3 X  10.000 Y1165.910 I -97.740 J -81.189
F150
G1 Z  -3.000
F400
G1 X  10.000 Y1190.490
G1 X  10.000 Y1215.070
G2 X 205.480 Y1215.070 I  97.740 J-130.352
G1 X 205.480 Y1165.910
G3 X  10.000 Y1165.910 I -97.740 J -81.189
F150
G1 Z   3.000
G0 Z  15.000 
M9 M5

(* SHAPE Nr: 13 *)
G0 X  42.580 Y1268.940
M3 M8
G0 Z   3.000 
G1 Z  -1.500
F400
G2 X  42.580 Y1464.420 I 130.352 J  97.740
G1 X  91.740 Y1464.420
G3 X  91.740 Y1268.940 I  81.189 J -97.740
G1 X  67.160 Y1268.940
G1 X  42.580 Y1268.940
F150
G1 Z  -3.000
F400
G2 X  42.580 Y1464.420 I 130.352 J  97.740
G1 X  91.740 Y1464.420
G3 X  91.740 Y1268.940 I  81.189 J -97.740
G1 X  67.160 Y1268.940
G1 X  42.580 Y1268.940
F150
G1 Z   3.000
G0 Z  15.000 
M9 M5

(* SHAPE Nr: 16 *)
G0 X 657.480 Y1191.980
M3 M8
G0 Z   3.000 
G1 Z  -1.500
F400
G3 X 657.480 Y1387.460 I -81.189 J  97.740
G1 X 682.060 Y1387.460
G1 X 706.640 Y1387.460
G2 X 706.640 Y1191.980 I-130.352 J -97.740
G1 X 657.480 Y1191.980
F150
G1 Z  -3.000
F400
G3 X 657.480 Y1387.460 I -81.189 J  97.740
G1 X 682.060 Y1387.460
G1 X 706.640 Y1387.460
G2 X 706.640 Y1191.980 I-130.352 J -97.740
G1 X 657.480 Y1191.980
F150
G1 Z   3.000
G0 Z  15.000 
M9 M5

(* SHAPE Nr: 22 *)
G0 X1482.080 Y 615.040
M3 M8
G0 Z   3.000 
G1 Z  -1.500
F400
G2 X1482.080 Y 810.520 I 130.352 J  97.740
G1 X1531.240 Y 810.520
G3 X1531.240 Y 615.040 I  81.189 J -97.740
G1 X1506.660 Y 615.040
G1 X1482.080 Y 615.040
F150
G1 Z  -3.000
F400
G2 X1482.080 Y 810.520 I 130.352 J  97.740
G1 X1531.240 Y 810.520
G3 X1531.240 Y 615.040 I  81.189 J -97.740
G1 X1506.660 Y 615.040
G1 X1482.080 Y 615.040
F150
G1 Z   3.000
G0 Z  15.000 
M9 M5

(* SHAPE Nr: 23 *)
G0 X1494.450 Y 527.160
M3 M8
G0 Z   3.000 
G1 Z  -1.500
F400
G1 X1494.450 Y 551.740
G1 X1494.450 Y 576.320
G2 X1689.930 Y 576.320 I  97.740 J-130.352
G1 X1689.930 Y 527.160
G3 X1494.450 Y 527.160 I -97.740 J -81.189
F150
G1 Z  -3.000
F400
G1 X1494.450 Y 551.740
G1 X1494.450 Y 576.320
G2 X1689.930 Y 576.320 I  97.740 J-130.352
G1 X1689.930 Y 527.160
G3 X1494.450 Y 527.160 I -97.740 J -81.189
F150
G1 Z   3.000
G0 Z  15.000 
M9 M5

(* SHAPE Nr: 25 *)
G0 X1797.010 Y  28.450
M3 M8
G0 Z   3.000 
G1 Z  -1.500
F400
G2 X1797.010 Y 223.930 I 130.352 J  97.740
G1 X1846.170 Y 223.930
G3 X1846.170 Y  28.450 I  81.189 J -97.740
G1 X1821.590 Y  28.450
G1 X1797.010 Y  28.450
F150
G1 Z  -3.000
F400
G2 X1797.010 Y 223.930 I 130.352 J  97.740
G1 X1846.170 Y 223.930
G3 X1846.170 Y  28.450 I  81.189 J -97.740
G1 X1821.590 Y  28.450
G1 X1797.010 Y  28.450
F150
G1 Z   3.000
G0 Z  15.000 
M9 M5

(* SHAPE Nr: 27 *)
G0 X2253.500 Y 477.500
M3 M8
G0 Z   3.000 
G1 Z  -1.500
F400
G2 X2253.500 Y 672.980 I 130.352 J  97.740
G1 X2302.660 Y 672.980
G3 X2302.660 Y 477.500 I  81.189 J -97.740
G1 X2278.080 Y 477.500
G1 X2253.500 Y 477.500
F150
G1 Z  -3.000
F400
G2 X2253.500 Y 672.980 I 130.352 J  97.740
G1 X2302.660 Y 672.980
G3 X2302.660 Y 477.500 I  81.189 J -97.740
G1 X2278.080 Y 477.500
G1 X2253.500 Y 477.500
F150
G1 Z   3.000
G0 Z  15.000 
M9 M5

(* SHAPE Nr: 35 *)
G0 X2074.910 Y1184.130
M3 M8
G0 Z   3.000 
G1 Z  -1.500
F400
G1 X2074.910 Y1208.710
G1 X2074.910 Y1233.290
G2 X2270.390 Y1233.290 I  97.740 J-130.352
G1 X2270.390 Y1184.130
G3 X2074.910 Y1184.130 I -97.740 J -81.189
F150
G1 Z  -3.000
F400
G1 X2074.910 Y1208.710
G1 X2074.910 Y1233.290
G2 X2270.390 Y1233.290 I  97.740 J-130.352
G1 X2270.390 Y1184.130
G3 X2074.910 Y1184.130 I -97.740 J -81.189
F150
G1 Z   3.000
G0 Z  15.000 
M9 M5

(* SHAPE Nr: 36 *)
G0 X1820.050 Y1329.170
M3 M8
G0 Z   3.000 
G1 Z  -1.500
F400
G1 X1820.050 Y1378.330
G3 X2015.530 Y1378.330 I  97.740 J  81.189
G1 X2015.530 Y1353.750
G1 X2015.530 Y1329.170
G2 X1820.050 Y1329.170 I -97.740 J 130.352
F150
G1 Z  -3.000
F400
G1 X1820.050 Y1378.330
G3 X2015.530 Y1378.330 I  97.740 J  81.189
G1 X2015.530 Y1353.750
G1 X2015.530 Y1329.170
G2 X1820.050 Y1329.170 I -97.740 J 130.352
F150
G1 Z   3.000
G0 Z  15.000 
M9 M5

(* SHAPE Nr: 38 *)
G0 X1852.650 Y1754.400
M3 M8
G0 Z   3.000 
G1 Z  -1.500
F400
G2 X1852.650 Y1949.880 I 130.352 J  97.740
G1 X1901.810 Y1949.880
G3 X1901.810 Y1754.400 I  81.189 J -97.740
G1 X1877.230 Y1754.400
G1 X1852.650 Y1754.400
F150
G1 Z  -3.000
F400
G2 X1852.650 Y1949.880 I 130.352 J  97.740
G1 X1901.810 Y1949.880
G3 X1901.810 Y1754.400 I  81.189 J -97.740
G1 X1877.230 Y1754.400
G1 X1852.650 Y1754.400
F150
G1 Z   3.000
G0 Z  15.000 
M9 M5

(* SHAPE Nr: 40 *)
G0 X1507.800 Y1990.840
M3 M8
G0 Z   3.000 
G1 Z  -1.500
F400
G1 X1507.800 Y2040.000
G3 X1703.280 Y2040.000 I  97.740 J  81.189
G1 X1703.280 Y2015.420
G1 X1703.280 Y1990.840
G2 X1507.800 Y1990.840 I -97.740 J 130.352
F150
G1 Z  -3.000
F400
G1 X1507.800 Y2040.000
G3 X1703.280 Y2040.000 I  97.740 J  81.189
G1 X1703.280 Y2015.420
G1 X1703.280 Y1990.840
G2 X1507.800 Y1990.840 I -97.740 J 130.352
F150
G1 Z   3.000
G0 Z  15.000 
M9 M5

(* SHAPE Nr: 43 *)
G0 X1109.740 Y 811.390
M3 M8
G0 Z   3.000 
G1 Z  -1.500
F400
G1 X1109.740 Y 835.970
G1 X1109.740 Y 860.550
G2 X1305.220 Y 860.550 I  97.740 J-130.352
G1 X1305.220 Y 811.390
G3 X1109.740 Y 811.390 I -97.740 J -81.189
F150
G1 Z  -3.000
F400
G1 X1109.740 Y 835.970
G1 X1109.740 Y 860.550
G2 X1305.220 Y 860.550 I  97.740 J-130.352
G1 X1305.220 Y 811.390
G3 X1109.740 Y 811.390 I -97.740 J -81.189
F150
G1 Z   3.000
G0 Z  15.000 
M9 M5

(* SHAPE Nr: 51 *)
G0 X 548.350 Y 366.360
M3 M8
G0 Z   3.000 
G1 Z  -1.500
F400
G2 X 548.350 Y 561.840 I 130.352 J  97.740
G1 X 597.510 Y 561.840
G3 X 597.510 Y 366.360 I  81.189 J -97.740
G1 X 572.930 Y 366.360
G1 X 548.350 Y 366.360
F150
G1 Z  -3.000
F400
G2 X 548.350 Y 561.840 I 130.352 J  97.740
G1 X 597.510 Y 561.840
G3 X 597.510 Y 366.360 I  81.189 J -97.740
G1 X 572.930 Y 366.360
G1 X 548.350 Y 366.360
F150
G1 Z   3.000
G0 Z  15.000 
M9 M5

(* SHAPE Nr: 53 *)
G0 X 619.230 Y 865.960
M3 M8
G0 Z   3.000 
G1 Z  -1.500
F400
G1 X 619.230 Y 915.120
G3 X 814.710 Y 915.120 I  97.740 J  81.189
G1 X 814.710 Y 890.540
G1 X 814.710 Y 865.960
G2 X 619.230 Y 865.960 I -97.740 J 130.352
F150
G1 Z  -3.000
F400
G1 X 619.230 Y 915.120
G3 X 814.710 Y 915.120 I  97.740 J  81.189
G1 X 814.710 Y 890.540
G1 X 814.710 Y 865.960
G2 X 619.230 Y 865.960 I -97.740 J 130.352
F150
G1 Z   3.000
G0 Z  15.000 
M9 M5

(* SHAPE Nr: 55 *)
G0 X1879.500 Y 725.790
M3 M8
G0 Z   3.000 
G1 Z  -1.500
F400
G1 X1879.500 Y 774.950
G3 X2074.980 Y 774.950 I  97.740 J  81.189
G1 X2074.980 Y 750.370
G1 X2074.980 Y 725.790
G2 X1879.500 Y 725.790 I -97.740 J 130.352
F150
G1 Z  -3.000
F400
G1 X1879.500 Y 774.950
G3 X2074.980 Y 774.950 I  97.740 J  81.189
G1 X2074.980 Y 750.370
G1 X2074.980 Y 725.790
G2 X1879.500 Y 725.790 I -97.740 J 130.352
F150
G1 Z   3.000
G0 Z  15.000 
M9 M5

(* SHAPE Nr: 65 *)
G0 X 671.580 Y1777.260
M3 M8
G0 Z   3.000 
G1 Z  -1.500
F400
G2 X 671.580 Y1972.740 I 130.352 J  97.740
G1 X 720.740 Y1972.740
G3 X 720.740 Y1777.260 I  81.189 J -97.740
G1 X 696.160 Y1777.260
G1 X 671.580 Y1777.260
F150
G1 Z  -3.000
F400
G2 X 671.580 Y1972.740 I 130.352 J  97.740
G1 X 720.740 Y1972.740
G3 X 720.740 Y1777.260 I  81.189 J -97.740
G1 X 696.160 Y1777.260
G1 X 671.580 Y1777.260
F150
G1 Z   3.000
G0 Z  15.000 
M9 M5

(* SHAPE Nr: 68 *)
G0 X 229.890 Y1844.520
M3 M8
G0 Z   3.000 
G1 Z  -1.500
F400
G3 X 229.890 Y2040.000 I -81.189 J  97.740
G1 X 254.470 Y2040.000
G1 X 279.050 Y2040.000
G2 X 279.050 Y1844.520 I-130.352 J -97.740
G1 X 229.890 Y1844.520
F150
G1 Z  -3.000
F400
G3 X 229.890 Y2040.000 I -81.189 J  97.740
G1 X 254.470 Y2040.000
G1 X 279.050 Y2040.000
G2 X 279.050 Y1844.520 I-130.352 J -97.740
G1 X 229.890 Y1844.520
F150
G1 Z   3.000
G0 Z  15.000 
M9 M5

(* SHAPE Nr: 69 *)
G0 X 161.070 Y1844.520
M3 M8
G0 Z   3.000 
G1 Z  -1.500
F400
G3 X 161.070 Y2040.000 I -81.189 J  97.740
G1 X 185.650 Y2040.000
G1 X 210.230 Y2040.000
G2 X 210.230 Y1844.520 I-130.352 J -97.740
G1 X 161.070 Y1844.520
F150
G1 Z  -3.000
F400
G3 X 161.070 Y2040.000 I -81.189 J  97.740
G1 X 185.650 Y2040.000
G1 X 210.230 Y2040.000
G2 X 210.230 Y1844.520 I-130.352 J -97.740
G1 X 161.070 Y1844.520
F150
G1 Z   3.000
G0 Z  15.000 
M9 M5

(*** LAYER: BORDER_D0_T132_RK1_A0_W0_EM1_RI1_ID0008 ***)

(* SHAPE Nr: 15 *)
G0 X 167.700 Y 632.300
M3 M8
G0 Z   3.000 
G1 Z  -1.500
F400
G1 X 265.160 Y 932.260
G1 X  10.000 Y1117.640
G1 X 325.390 Y1117.640
G1 X 422.860 Y1417.590
G1 X 520.320 Y1117.640
G1 X 835.710 Y1117.640
G1 X 580.550 Y 932.260
G1 X 678.010 Y 632.300
G1 X 422.860 Y 817.680
G1 X 167.700 Y 632.300
F150
G1 Z  -3.000
F400
G1 X 265.160 Y 932.260
G1 X  10.000 Y1117.640
G1 X 325.390 Y1117.640
G1 X 422.860 Y1417.590
G1 X 520.320 Y1117.640
G1 X 835.710 Y1117.640
G1 X 580.550 Y 932.260
G1 X 678.010 Y 632.300
G1 X 422.860 Y 817.680
G1 X 167.700 Y 632.300
F150
G1 Z   3.000
G0 Z  15.000 
M9 M5

(* SHAPE Nr: 17 *)
G0 X1018.480 Y1254.710
M3 M8
G0 Z   3.000 
G1 Z  -1.500
F400
G1 X 921.020 Y1554.660
G1 X 605.630 Y1554.660
G1 X 860.790 Y1740.040
G1 X 763.330 Y2040.000
G1 X1018.480 Y1854.620
G1 X1273.640 Y2040.000
G1 X1176.180 Y1740.040
G1 X1431.340 Y1554.660
G1 X1115.950 Y1554.660
G1 X1018.480 Y1254.710
F150
G1 Z  -3.000
F400
G1 X 921.020 Y1554.660
G1 X 605.630 Y1554.660
G1 X 860.790 Y1740.040
G1 X 763.330 Y2040.000
G1 X1018.480 Y1854.620
G1 X1273.640 Y2040.000
G1 X1176.180 Y1740.040
G1 X1431.340 Y1554.660
G1 X1115.950 Y1554.660
G1 X1018.480 Y1254.710
F150
G1 Z   3.000
G0 Z  15.000 
M9 M5

(* SHAPE Nr: 19 *)
G0 X1313.880 Y1039.130
M3 M8
G0 Z   3.000 
G1 Z  -1.500
F400
G1 X1613.830 Y1136.590
G1 X1613.830 Y1451.980
G1 X1799.210 Y1196.820
G1 X2099.170 Y1294.280
G1 X1913.790 Y1039.130
G1 X2099.170 Y 783.970
G1 X1799.210 Y 881.430
G1 X1613.830 Y 626.270
G1 X1613.830 Y 941.660
G1 X1313.880 Y1039.130
F150
G1 Z  -3.000
F400
G1 X1613.830 Y1136.590
G1 X1613.830 Y1451.980
G1 X1799.210 Y1196.820
G1 X2099.170 Y1294.280
G1 X1913.790 Y1039.130
G1 X2099.170 Y 783.970
G1 X1799.210 Y 881.430
G1 X1613.830 Y 626.270
G1 X1613.830 Y 941.660
G1 X1313.880 Y1039.130
F150
G1 Z   3.000
G0 Z  15.000 
M9 M5

(* SHAPE Nr: 21 *)
G0 X 971.210 Y 510.010
M3 M8
G0 Z   3.000 
G1 Z  -1.500
F400
G1 X1286.600 Y 510.010
G1 X1384.070 Y 809.960
G1 X1481.530 Y 510.010
G1 X1796.920 Y 510.010
G1 X1541.760 Y 324.630
G1 X1639.220 Y  24.670
G1 X1384.070 Y 210.050
G1 X1128.910 Y  24.670
G1 X1226.370 Y 324.630
G1 X 971.210 Y 510.010
F150
G1 Z  -3.000
F400
G1 X1286.600 Y 510.010
G1 X1384.070 Y 809.960
G1 X1481.530 Y 510.010
G1 X1796.920 Y 510.010
G1 X1541.760 Y 324.630
G1 X1639.220 Y  24.670
G1 X1384.070 Y 210.050
G1 X1128.910 Y  24.670
G1 X1226.370 Y 324.630
G1 X 971.210 Y 510.010
F150
G1 Z   3.000
G0 Z  15.000 
M9 M5

(* SHAPE Nr: 26 *)
G0 X1600.330 Y 309.950
M3 M8
G0 Z   3.000 
G1 Z  -1.500
F400
G1 X1855.490 Y 495.330
G1 X1758.030 Y 795.290
G1 X2013.180 Y 609.910
G1 X2268.340 Y 795.290
G1 X2170.880 Y 495.330
G1 X2426.040 Y 309.950
G1 X2110.650 Y 309.950
G1 X2013.180 Y  10.000
G1 X1915.720 Y 309.950
G1 X1600.330 Y 309.950
F150
G1 Z  -3.000
F400
G1 X1855.490 Y 495.330
G1 X1758.030 Y 795.290
G1 X2013.180 Y 609.910
G1 X2268.340 Y 795.290
G1 X2170.880 Y 495.330
G1 X2426.040 Y 309.950
G1 X2110.650 Y 309.950
G1 X2013.180 Y  10.000
G1 X1915.720 Y 309.950
G1 X1600.330 Y 309.950
F150
G1 Z   3.000
G0 Z  15.000 
M9 M5

(* SHAPE Nr: 37 *)
G0 X1319.990 Y1371.990
M3 M8
G0 Z   3.000 
G1 Z  -1.500
F400
G1 X1505.370 Y1627.140
G1 X1319.990 Y1882.300
G1 X1619.950 Y1784.840
G1 X1805.330 Y2040.000
G1 X1805.330 Y1724.610
G1 X2105.280 Y1627.140
G1 X1805.330 Y1529.680
G1 X1805.330 Y1214.290
G1 X1619.950 Y1469.450
G1 X1319.990 Y1371.990
F150
G1 Z  -3.000
F400
G1 X1505.370 Y1627.140
G1 X1319.990 Y1882.300
G1 X1619.950 Y1784.840
G1 X1805.330 Y2040.000
G1 X1805.330 Y1724.610
G1 X2105.280 Y1627.140
G1 X1805.330 Y1529.680
G1 X1805.330 Y1214.290
G1 X1619.950 Y1469.450
G1 X1319.990 Y1371.990
F150
G1 Z   3.000
G0 Z  15.000 
M9 M5

(* SHAPE Nr: 44 *)
G0 X 605.630 Y 932.250
M3 M8
G0 Z   3.000 
G1 Z  -1.500
F400
G1 X 860.790 Y1117.630
G1 X 763.330 Y1417.590
G1 X1018.480 Y1232.210
G1 X1273.640 Y1417.590
G1 X1176.180 Y1117.630
G1 X1431.340 Y 932.250
G1 X1115.950 Y 932.250
G1 X1018.480 Y 632.300
G1 X 921.020 Y 932.250
G1 X 605.630 Y 932.250
F150
G1 Z  -3.000
F400
G1 X 860.790 Y1117.630
G1 X 763.330 Y1417.590
G1 X1018.480 Y1232.210
G1 X1273.640 Y1417.590
G1 X1176.180 Y1117.630
G1 X1431.340 Y 932.250
G1 X1115.950 Y 932.250
G1 X1018.480 Y 632.300
G1 X 921.020 Y 932.250
G1 X 605.630 Y 932.250
F150
G1 Z   3.000
G0 Z  15.000 
M9 M5

(* SHAPE Nr: 60 *)
G0 X1942.410 Y1371.990
M3 M8
G0 Z   3.000 
G1 Z  -1.500
F400
G1 X2127.790 Y1627.140
G1 X1942.410 Y1882.300
G1 X2242.370 Y1784.840
G1 X2427.750 Y2040.000
G1 X2427.750 Y1724.610
G1 X2727.700 Y1627.140
G1 X2427.750 Y1529.680
G1 X2427.750 Y1214.290
G1 X2242.370 Y1469.450
G1 X1942.410 Y1371.990
F150
G1 Z  -3.000
F400
G1 X2127.790 Y1627.140
G1 X1942.410 Y1882.300
G1 X2242.370 Y1784.840
G1 X2427.750 Y2040.000
G1 X2427.750 Y1724.610
G1 X2727.700 Y1627.140
G1 X2427.750 Y1529.680
G1 X2427.750 Y1214.290
G1 X2242.370 Y1469.450
G1 X1942.410 Y1371.990
F150
G1 Z   3.000
G0 Z  15.000 
M9 M5

(* SHAPE Nr: 67 *)
G0 X 167.700 Y1254.710
M3 M8
G0 Z   3.000 
G1 Z  -1.500
F400
G1 X 265.160 Y1554.670
G1 X  10.000 Y1740.050
G1 X 325.390 Y1740.050
G1 X 422.860 Y2040.000
G1 X 520.320 Y1740.050
G1 X 835.710 Y1740.050
G1 X 580.550 Y1554.670
G1 X 678.010 Y1254.710
G1 X 422.860 Y1440.090
G1 X 167.700 Y1254.710
F150
G1 Z  -3.000
F400
G1 X 265.160 Y1554.670
G1 X  10.000 Y1740.050
G1 X 325.390 Y1740.050
G1 X 422.860 Y2040.000
G1 X 520.320 Y1740.050
G1 X 835.710 Y1740.050
G1 X 580.550 Y1554.670
G1 X 678.010 Y1254.710
G1 X 422.860 Y1440.090
G1 X 167.700 Y1254.710
F150
G1 Z   3.000
G0 Z  15.000 
M9 M5

(*** LAYER: BORDER_D0_T132_RK1_A0_W0_EM1_RI1_ID0028 ***)

(* SHAPE Nr: 32 *)
G0 X2703.150 Y 837.710
M3 M8
G0 Z   3.000 
G1 Z  -1.500
F400
G3 X2760.400 Y 975.930 I-138.230 J 138.220
G1 X2760.400 Y1303.850
G1 X2779.950 Y1303.850
G1 X2779.950 Y 975.930
G2 X2716.970 Y 823.880 I-195.309 J  -8.170
G1 X2703.150 Y 837.710
F150
G1 Z  -3.000
F400
G3 X2760.400 Y 975.930 I-138.230 J 138.220
G1 X2760.400 Y1303.850
G1 X2779.950 Y1303.850
G1 X2779.950 Y 975.930
G2 X2716.970 Y 823.880 I-195.309 J  -8.170
G1 X2703.150 Y 837.710
F150
G1 Z   3.000
G0 Z  15.000 
M9 M5

(* SHAPE Nr: 47 *)
G0 X 834.660 Y 272.030
M3 M8
G0 Z   3.000 
G1 Z  -1.500
F400
G3 X 891.910 Y 410.250 I-138.230 J 138.220
G1 X 891.910 Y 738.170
G1 X 911.460 Y 738.170
G1 X 911.460 Y 410.250
G2 X 848.480 Y 258.200 I-195.309 J  -8.170
G1 X 834.660 Y 272.030
F150
G1 Z  -3.000
F400
G3 X 891.910 Y 410.250 I-138.230 J 138.220
G1 X 891.910 Y 738.170
G1 X 911.460 Y 738.170
G1 X 911.460 Y 410.250
G2 X 848.480 Y 258.200 I-195.309 J  -8.170
G1 X 834.660 Y 272.030
F150
G1 Z   3.000
G0 Z  15.000 
M9 M5

(* SHAPE Nr: 57 *)
G0 X2702.160 Y  37.020
M3 M8
G0 Z   3.000 
G1 Z  -1.500
F400
G3 X2759.410 Y 175.240 I-138.230 J 138.220
G1 X2759.410 Y 503.160
G1 X2778.960 Y 503.160
G1 X2778.960 Y 175.240
G2 X2715.980 Y  23.190 I-195.309 J  -8.170
G1 X2702.160 Y  37.020
F150
G1 Z  -3.000
F400
G3 X2759.410 Y 175.240 I-138.230 J 138.220
G1 X2759.410 Y 503.160
G1 X2778.960 Y 503.160
G1 X2778.960 Y 175.240
G2 X2715.980 Y  23.190 I-195.309 J  -8.170
G1 X2702.160 Y  37.020
F150
G1 Z   3.000
G0 Z  15.000 
M9 M5

(* SHAPE Nr: 59 *)
G0 X2685.200 Y1261.390
M3 M8
G0 Z   3.000 
G1 Z  -1.500
F400
G3 X2742.450 Y1399.610 I-138.230 J 138.220
G1 X2742.450 Y1727.530
G1 X2762.000 Y1727.530
G1 X2762.000 Y1399.610
G2 X2699.020 Y1247.560 I-195.309 J  -8.170
G1 X2685.200 Y1261.390
F150
G1 Z  -3.000
F400
G3 X2742.450 Y1399.610 I-138.230 J 138.220
G1 X2742.450 Y1727.530
G1 X2762.000 Y1727.530
G1 X2762.000 Y1399.610
G2 X2699.020 Y1247.560 I-195.309 J  -8.170
G1 X2685.200 Y1261.390
F150
G1 Z   3.000
G0 Z  15.000 
M9 M5

(*** LAYER: BORDER_D0_T132.1_RK1_A0_W0_EM1 ***)

(* SHAPE Nr: 71 *)
G0 X  10.000 Y 359.070
M3 M8
G0 Z   3.000 
G1 Z  -1.500
F400
G1 X  10.000 Y 850.950
G2 X  26.970 Y 847.220 I  -0.165 J -41.219
G2 X  43.430 Y 836.120 I -25.663 J -55.810
G2 X  58.870 Y 818.000 I -72.421 J -77.348
G2 X  72.830 Y 793.410 I-146.933 J -99.673
G2 X  84.870 Y 763.100 I-246.843 J-115.599
G2 X  94.640 Y 727.980 I-361.226 J-119.408
G2 X 101.850 Y 689.130 I-472.463 J-107.776
G2 X 106.250 Y 647.720 I-561.472 J -80.598
G2 X 107.740 Y 605.010 I-611.486 J -42.714
G2 X 106.250 Y 562.300 I-612.976 J   0.004
G2 X 101.850 Y 520.900 I-565.735 J  39.193
G2 X  94.640 Y 482.040 I-479.796 J  68.921
G2 X  84.870 Y 446.920 I-370.996 J  84.288
G2 X  72.830 Y 416.610 I-258.883 J  85.289
G2 X  58.870 Y 392.020 I-160.893 J  75.083
G2 X  43.430 Y 373.900 I -87.861 J  59.228
G2 X  26.970 Y 362.810 I -42.093 J  44.715
G2 X  10.000 Y 359.070 I -17.158 J  37.484
F150
G1 Z  -3.000
F400
G1 X  10.000 Y 850.950
G2 X  26.970 Y 847.220 I  -0.165 J -41.219
G2 X  43.430 Y 836.120 I -25.663 J -55.810
G2 X  58.870 Y 818.000 I -72.421 J -77.348
G2 X  72.830 Y 793.410 I-146.933 J -99.673
G2 X  84.870 Y 763.100 I-246.843 J-115.599
G2 X  94.640 Y 727.980 I-361.226 J-119.408
G2 X 101.850 Y 689.130 I-472.463 J-107.776
G2 X 106.250 Y 647.720 I-561.472 J -80.598
G2 X 107.740 Y 605.010 I-611.486 J -42.714
G2 X 106.250 Y 562.300 I-612.976 J   0.004
G2 X 101.850 Y 520.900 I-565.735 J  39.193
G2 X  94.640 Y 482.040 I-479.796 J  68.921
G2 X  84.870 Y 446.920 I-370.996 J  84.288
G2 X  72.830 Y 416.610 I-258.883 J  85.289
G2 X  58.870 Y 392.020 I-160.893 J  75.083
G2 X  43.430 Y 373.900 I -87.861 J  59.228
G2 X  26.970 Y 362.810 I -42.093 J  44.715
G2 X  10.000 Y 359.070 I -17.158 J  37.484
F150
G1 Z   3.000
G0 Z  15.000 
M9 M5

(* SHAPE Nr: 72 *)
G0 X 141.050 Y 127.010
M3 M8
G0 Z   3.000 
G1 Z  -1.500
F400
G2 X 127.090 Y 151.600 I 146.933 J  99.673
G2 X 115.050 Y 181.910 I 246.843 J 115.599
G2 X 105.270 Y 217.030 I 361.221 J 119.512
G2 X  98.070 Y 255.880 I 472.468 J 107.654
G2 X  93.660 Y 297.290 I 561.467 J  80.734
G2 X  92.180 Y 340.000 I 611.491 J  42.570
G2 X  93.660 Y 382.710 I 612.971 J   0.140
G2 X  98.070 Y 424.120 I 565.877 J -39.324
G2 X 105.270 Y 462.970 I 479.668 J -68.804
G2 X 115.050 Y 498.090 I 371.001 J -84.392
G2 X 127.090 Y 528.400 I 258.883 J -85.289
G2 X 141.050 Y 552.990 I 160.893 J -75.083
G2 X 156.490 Y 571.110 I  87.861 J -59.228
G2 X 172.950 Y 582.200 I  42.093 J -44.715
G2 X 189.920 Y 585.940 I  17.158 J -37.484
G2 X 206.890 Y 582.200 I  -0.188 J -41.224
G2 X 223.350 Y 571.110 I -25.633 J -55.805
G2 X 238.790 Y 552.990 I -72.421 J -77.348
G2 X 252.740 Y 528.400 I-146.938 J -99.610
G2 X 264.790 Y 498.090 I-246.838 J-115.683
G2 X 274.560 Y 462.970 I-361.226 J-119.408
G2 X 281.770 Y 424.120 I-472.463 J-107.776
G2 X 286.170 Y 382.710 I-561.472 J -80.598
G2 X 287.660 Y 340.000 I-611.486 J -42.714
G2 X 286.170 Y 297.290 I-612.976 J   0.004
G2 X 281.770 Y 255.880 I-565.872 J  39.188
G2 X 274.560 Y 217.030 I-479.673 J  68.926
G2 X 264.790 Y 181.910 I-370.996 J  84.288
G2 X 252.740 Y 151.600 I-258.888 J  85.373
G2 X 238.790 Y 127.010 I-160.888 J  75.020
G2 X 223.350 Y 108.890 I -87.861 J  59.228
G2 X 206.890 Y  97.800 I -42.093 J  44.715
G2 X 189.920 Y  94.060 I -17.158 J  37.484
G2 X 172.950 Y  97.800 I   0.188 J  41.224
G2 X 156.490 Y 108.890 I  25.633 J  55.805
G2 X 141.050 Y 127.010 I  72.421 J  77.348
F150
G1 Z  -3.000
F400
G2 X 127.090 Y 151.600 I 146.933 J  99.673
G2 X 115.050 Y 181.910 I 246.843 J 115.599
G2 X 105.270 Y 217.030 I 361.221 J 119.512
G2 X  98.070 Y 255.880 I 472.468 J 107.654
G2 X  93.660 Y 297.290 I 561.467 J  80.734
G2 X  92.180 Y 340.000 I 611.491 J  42.570
G2 X  93.660 Y 382.710 I 612.971 J   0.140
G2 X  98.070 Y 424.120 I 565.877 J -39.324
G2 X 105.270 Y 462.970 I 479.668 J -68.804
G2 X 115.050 Y 498.090 I 371.001 J -84.392
G2 X 127.090 Y 528.400 I 258.883 J -85.289
G2 X 141.050 Y 552.990 I 160.893 J -75.083
G2 X 156.490 Y 571.110 I  87.861 J -59.228
G2 X 172.950 Y 582.200 I  42.093 J -44.715
G2 X 189.920 Y 585.940 I  17.158 J -37.484
G2 X 206.890 Y 582.200 I  -0.188 J -41.224
G2 X 223.350 Y 571.110 I -25.633 J -55.805
G2 X 238.790 Y 552.990 I -72.421 J -77.348
G2 X 252.740 Y 528.400 I-146.938 J -99.610
G2 X 264.790 Y 498.090 I-246.838 J-115.683
G2 X 274.560 Y 462.970 I-361.226 J-119.408
G2 X 281.770 Y 424.120 I-472.463 J-107.776
G2 X 286.170 Y 382.710 I-561.472 J -80.598
G2 X 287.660 Y 340.000 I-611.486 J -42.714
G2 X 286.170 Y 297.290 I-612.976 J   0.004
G2 X 281.770 Y 255.880 I-565.872 J  39.188
G2 X 274.560 Y 217.030 I-479.673 J  68.926
G2 X 264.790 Y 181.910 I-370.996 J  84.288
G2 X 252.740 Y 151.600 I-258.888 J  85.373
G2 X 238.790 Y 127.010 I-160.888 J  75.020
G2 X 223.350 Y 108.890 I -87.861 J  59.228
G2 X 206.890 Y  97.800 I -42.093 J  44.715
G2 X 189.920 Y  94.060 I -17.158 J  37.484
G2 X 172.950 Y  97.800 I   0.188 J  41.224
G2 X 156.490 Y 108.890 I  25.633 J  55.805
G2 X 141.050 Y 127.010 I  72.421 J  77.348
F150
G1 Z   3.000
G0 Z  15.000 
M9 M5

(* SHAPE Nr: 73 *)
G0 X 355.550 Y 317.010
M3 M8
G0 Z   3.000 
G1 Z  -1.500
F400
G2 X 341.590 Y 341.600 I 146.933 J  99.673
G2 X 329.550 Y 371.910 I 246.851 J 115.603
G2 X 319.770 Y 407.030 I 361.221 J 119.512
G2 X 312.570 Y 445.880 I 472.468 J 107.654
G2 X 308.160 Y 487.290 I 561.467 J  80.734
G2 X 306.680 Y 530.000 I 611.491 J  42.570
G2 X 308.160 Y 572.710 I 612.971 J   0.140
G2 X 312.570 Y 614.120 I 565.877 J -39.324
G2 X 319.770 Y 652.970 I 479.668 J -68.804
G2 X 329.550 Y 688.090 I 371.001 J -84.392
G2 X 341.590 Y 718.400 I 258.883 J -85.289
G2 X 355.550 Y 742.990 I 160.893 J -75.083
G2 X 370.990 Y 761.110 I  87.861 J -59.228
G2 X 387.450 Y 772.200 I  42.093 J -44.715
G2 X 404.420 Y 775.940 I  17.158 J -37.484
G2 X 421.390 Y 772.200 I  -0.188 J -41.224
G2 X 437.850 Y 761.110 I -25.633 J -55.805
G2 X 453.290 Y 742.990 I -72.421 J -77.348
G2 X 467.240 Y 718.400 I-146.938 J -99.610
G2 X 479.290 Y 688.090 I-246.838 J-115.683
G2 X 489.060 Y 652.970 I-361.226 J-119.408
G2 X 496.270 Y 614.120 I-472.463 J-107.776
G2 X 500.670 Y 572.710 I-561.472 J -80.598
G2 X 502.160 Y 530.000 I-611.486 J -42.714
G2 X 500.670 Y 487.290 I-612.976 J   0.004
G2 X 496.270 Y 445.880 I-565.872 J  39.188
G2 X 489.060 Y 407.030 I-479.673 J  68.926
G2 X 479.290 Y 371.910 I-370.996 J  84.288
G2 X 467.240 Y 341.600 I-258.888 J  85.373
G2 X 453.290 Y 317.010 I-160.888 J  75.020
G2 X 437.850 Y 298.890 I -87.861 J  59.228
G2 X 421.390 Y 287.800 I -42.093 J  44.715
G2 X 404.420 Y 284.060 I -17.158 J  37.484
G2 X 387.450 Y 287.800 I   0.188 J  41.224
G2 X 370.990 Y 298.890 I  25.633 J  55.805
G2 X 355.550 Y 317.010 I  72.421 J  77.348
F150
G1 Z  -3.000
F400
G2 X 341.590 Y 341.600 I 146.933 J  99.673
G2 X 329.550 Y 371.910 I 246.851 J 115.603
G2 X 319.770 Y 407.030 I 361.221 J 119.512
G2 X 312.570 Y 445.880 I 472.468 J 107.654
G2 X 308.160 Y 487.290 I 561.467 J  80.734
G2 X 306.680 Y 530.000 I 611.491 J  42.570
G2 X 308.160 Y 572.710 I 612.971 J   0.140
G2 X 312.570 Y 614.120 I 565.877 J -39.324
G2 X 319.770 Y 652.970 I 479.668 J -68.804
G2 X 329.550 Y 688.090 I 371.001 J -84.392
G2 X 341.590 Y 718.400 I 258.883 J -85.289
G2 X 355.550 Y 742.990 I 160.893 J -75.083
G2 X 370.990 Y 761.110 I  87.861 J -59.228
G2 X 387.450 Y 772.200 I  42.093 J -44.715
G2 X 404.420 Y 775.940 I  17.158 J -37.484
G2 X 421.390 Y 772.200 I  -0.188 J -41.224
G2 X 437.850 Y 761.110 I -25.633 J -55.805
G2 X 453.290 Y 742.990 I -72.421 J -77.348
G2 X 467.240 Y 718.400 I-146.938 J -99.610
G2 X 479.290 Y 688.090 I-246.838 J-115.683
G2 X 489.060 Y 652.970 I-361.226 J-119.408
G2 X 496.270 Y 614.120 I-472.463 J-107.776
G2 X 500.670 Y 572.710 I-561.472 J -80.598
G2 X 502.160 Y 530.000 I-611.486 J -42.714
G2 X 500.670 Y 487.290 I-612.976 J   0.004
G2 X 496.270 Y 445.880 I-565.872 J  39.188
G2 X 489.060 Y 407.030 I-479.673 J  68.926
G2 X 479.290 Y 371.910 I-370.996 J  84.288
G2 X 467.240 Y 341.600 I-258.888 J  85.373
G2 X 453.290 Y 317.010 I-160.888 J  75.020
G2 X 437.850 Y 298.890 I -87.861 J  59.228
G2 X 421.390 Y 287.800 I -42.093 J  44.715
G2 X 404.420 Y 284.060 I -17.158 J  37.484
G2 X 387.450 Y 287.800 I   0.188 J  41.224
G2 X 370.990 Y 298.890 I  25.633 J  55.805
G2 X 355.550 Y 317.010 I  72.421 J  77.348
F150
G1 Z   3.000
G0 Z  15.000 
M9 M5

(* SHAPE Nr: 74 *)
G0 X 119.280 Y 830.940
M3 M8
G0 Z   3.000 
G1 Z  -1.500
F400
G1 X  77.540 Y 888.390
G1 X  10.000 Y 866.450
G1 X  51.740 Y 923.900
G1 X  10.000 Y 981.350
G1 X  77.540 Y 959.400
G1 X 119.280 Y1016.850
G1 X 119.280 Y 945.840
G1 X 186.810 Y 923.900
G1 X 119.280 Y 901.950
G1 X 119.280 Y 830.940
F150
G1 Z  -3.000
F400
G1 X  77.540 Y 888.390
G1 X  10.000 Y 866.450
G1 X  51.740 Y 923.900
G1 X  10.000 Y 981.350
G1 X  77.540 Y 959.400
G1 X 119.280 Y1016.850
G1 X 119.280 Y 945.840
G1 X 186.810 Y 923.900
G1 X 119.280 Y 901.950
G1 X 119.280 Y 830.940
F150
G1 Z   3.000
G0 Z  15.000 
M9 M5

(* SHAPE Nr: 75 *)
G0 X  10.000 Y1165.910
M3 M8
G0 Z   3.000 
G1 Z  -1.500
F400
G1 X  10.000 Y1215.070
G2 X 205.480 Y1215.070 I  97.740 J-130.352
G1 X 205.480 Y1165.910
G3 X  10.000 Y1165.910 I -97.740 J -81.189
F150
G1 Z  -3.000
F400
G1 X  10.000 Y1215.070
G2 X 205.480 Y1215.070 I  97.740 J-130.352
G1 X 205.480 Y1165.910
G3 X  10.000 Y1165.910 I -97.740 J -81.189
F150
G1 Z   3.000
G0 Z  15.000 
M9 M5

(* SHAPE Nr: 76 *)
G0 X  42.570 Y1268.940
M3 M8
G0 Z   3.000 
G1 Z  -1.500
F400
G2 X  42.570 Y1464.420 I 130.352 J  97.740
G1 X  91.740 Y1464.420
G3 X  91.740 Y1268.940 I  81.189 J -97.740
G1 X  42.570 Y1268.940
F150
G1 Z  -3.000
F400
G2 X  42.570 Y1464.420 I 130.352 J  97.740
G1 X  91.740 Y1464.420
G3 X  91.740 Y1268.940 I  81.189 J -97.740
G1 X  42.570 Y1268.940
F150
G1 Z   3.000
G0 Z  15.000 
M9 M5

(* SHAPE Nr: 77 *)
G0 X 119.280 Y1453.350
M3 M8
G0 Z   3.000 
G1 Z  -1.500
F400
G1 X  77.540 Y1510.800
G1 X  10.000 Y1488.850
G1 X  51.740 Y1546.300
G1 X  10.000 Y1603.750
G1 X  77.540 Y1581.810
G1 X 119.280 Y1639.260
G1 X 119.280 Y1568.250
G1 X 186.810 Y1546.300
G1 X 119.280 Y1524.360
G1 X 119.280 Y1453.350
F150
G1 Z  -3.000
F400
G1 X  77.540 Y1510.800
G1 X  10.000 Y1488.850
G1 X  51.740 Y1546.300
G1 X  10.000 Y1603.750
G1 X  77.540 Y1581.810
G1 X 119.280 Y1639.260
G1 X 119.280 Y1568.250
G1 X 186.810 Y1546.300
G1 X 119.280 Y1524.360
G1 X 119.280 Y1453.350
F150
G1 Z   3.000
G0 Z  15.000 
M9 M5

(* SHAPE Nr: 78 *)
G0 X 167.700 Y 632.290
M3 M8
G0 Z   3.000 
G1 Z  -1.500
F400
G1 X 265.160 Y 932.250
G1 X  10.000 Y1117.630
G1 X 325.390 Y1117.630
G1 X 422.850 Y1417.590
G1 X 520.320 Y1117.630
G1 X 835.710 Y1117.630
G1 X 580.550 Y 932.250
G1 X 678.010 Y 632.290
G1 X 422.850 Y 817.680
G1 X 167.700 Y 632.290
F150
G1 Z  -3.000
F400
G1 X 265.160 Y 932.250
G1 X  10.000 Y1117.630
G1 X 325.390 Y1117.630
G1 X 422.850 Y1417.590
G1 X 520.320 Y1117.630
G1 X 835.710 Y1117.630
G1 X 580.550 Y 932.250
G1 X 678.010 Y 632.290
G1 X 422.850 Y 817.680
G1 X 167.700 Y 632.290
F150
G1 Z   3.000
G0 Z  15.000 
M9 M5

(* SHAPE Nr: 79 *)
G0 X 657.480 Y1191.980
M3 M8
G0 Z   3.000 
G1 Z  -1.500
F400
G3 X 657.480 Y1387.460 I -81.189 J  97.740
G1 X 706.640 Y1387.460
G2 X 706.640 Y1191.980 I-130.352 J -97.740
G1 X 657.480 Y1191.980
F150
G1 Z  -3.000
F400
G3 X 657.480 Y1387.460 I -81.189 J  97.740
G1 X 706.640 Y1387.460
G2 X 706.640 Y1191.980 I-130.352 J -97.740
G1 X 657.480 Y1191.980
F150
G1 Z   3.000
G0 Z  15.000 
M9 M5

(* SHAPE Nr: 80 *)
G0 X1018.490 Y1254.710
M3 M8
G0 Z   3.000 
G1 Z  -1.500
F400
G1 X 921.030 Y1554.660
G1 X 605.640 Y1554.660
G1 X 860.790 Y1740.050
G1 X 763.330 Y2040.000
G1 X1018.490 Y1854.620
G1 X1273.650 Y2040.000
G1 X1176.190 Y1740.050
G1 X1431.340 Y1554.660
G1 X1115.950 Y1554.660
G1 X1018.490 Y1254.710
F150
G1 Z  -3.000
F400
G1 X 921.030 Y1554.660
G1 X 605.640 Y1554.660
G1 X 860.790 Y1740.050
G1 X 763.330 Y2040.000
G1 X1018.490 Y1854.620
G1 X1273.650 Y2040.000
G1 X1176.190 Y1740.050
G1 X1431.340 Y1554.660
G1 X1115.950 Y1554.660
G1 X1018.490 Y1254.710
F150
G1 Z   3.000
G0 Z  15.000 
M9 M5

(* SHAPE Nr: 81 *)
G0 X1231.810 Y1230.010
M3 M8
G0 Z   3.000 
G1 Z  -1.500
F400
G1 X1289.270 Y1271.750
G1 X1267.320 Y1339.290
G1 X1324.770 Y1297.550
G1 X1382.220 Y1339.290
G1 X1360.280 Y1271.750
G1 X1417.730 Y1230.010
G1 X1346.710 Y1230.010
G1 X1324.770 Y1162.470
G1 X1302.830 Y1230.010
G1 X1231.810 Y1230.010
F150
G1 Z  -3.000
F400
G1 X1289.270 Y1271.750
G1 X1267.320 Y1339.290
G1 X1324.770 Y1297.550
G1 X1382.220 Y1339.290
G1 X1360.280 Y1271.750
G1 X1417.730 Y1230.010
G1 X1346.710 Y1230.010
G1 X1324.770 Y1162.470
