(Generated with: DXF2GCODE, Version: REMOVED, Date: $Date$)
(Created from file: )
(Output format description: G-CODE for LinuxCNC)
(Time: Thu Sep 13 16:00:33 2018)
G21 (Units in millimeters)
G90 (Absolute programming)
G64 (Default cutting) G17 (XY plane) G40 (Cancel radius comp.) G49 (Cancel length comp.)
G0 Z  15.000 

(*** LAYER: FRAME_Z18 ***)
T1 M6
S6000

(* SHAPE Nr: 159 *)
G0 X   0.000 Y   0.000
M3 M8
G0 Z   3.000 
F150
G1 Z  -1.500
F400
G1 X   0.000 Y2050.000
G1 X2800.000 Y2050.000
G1 X2800.000 Y   0.000
G1 X   0.000 Y   0.000
F150
G1 Z  -3.000
F400
G1 X   0.000 Y2050.000
G1 X2800.000 Y2050.000
G1 X2800.000 Y   0.000
G1 X   0.000 Y   0.000
F150
G1 Z   3.000
G0 Z  15.000 
M9 M5

(*** LAYER: CONTOUR_D0 ***)

(* SHAPE Nr: 0 *)
G0 X 107.740 Y1567.510
M3 M8
G0 Z   3.000 
G1 Z  -1.500
F400
G2 X  94.140 Y1570.950 I   0.201 J  29.398
G2 X  80.940 Y1581.180 I  23.247 J  43.627
G2 X  68.570 Y1597.860 I  70.006 J  64.844
G2 X  57.380 Y1620.510 I  79.203 J  53.219
G2 X  47.720 Y1648.440 I 156.647 J  69.814
G2 X  39.890 Y1680.790 I 376.932 J 108.355
G2 X  34.120 Y1716.580 I 497.151 J  98.510
G2 X  30.580 Y1754.720 I 593.345 J  74.306
G2 X  29.390 Y1794.060 I 647.318 J  39.269
G2 X  30.580 Y1833.400 I 648.508 J   0.071
G2 X  34.120 Y1871.540 I 596.885 J -36.166
G2 X  39.890 Y1907.330 I 502.921 J -62.720
G2 X  47.720 Y1939.680 I 384.762 J -76.005
G2 X  57.380 Y1967.600 I 263.746 J -75.622
G2 X  68.570 Y1990.260 I 158.951 J -64.400
G2 X  80.940 Y2006.950 I  82.391 J -48.136
G2 X  94.140 Y2017.170 I  36.429 J -33.416
G2 X 107.740 Y2020.610 I  13.801 J -25.958
G2 X 121.350 Y2017.170 I  -0.191 J -29.398
G2 X 134.540 Y2006.950 I -23.248 J -43.626
G2 X 146.910 Y1990.260 I -70.021 J -64.826
G2 X 158.100 Y1967.600 I-147.761 J -87.060
G2 X 167.760 Y1939.680 I-254.086 J-103.542
G2 X 175.590 Y1907.330 I-376.932 J-108.355
G2 X 181.360 Y1871.540 I-497.151 J -98.510
G2 X 184.900 Y1833.400 I-593.345 J -74.306
G2 X 186.090 Y1794.060 I-647.318 J -39.269
G2 X 184.900 Y1754.720 I-648.508 J  -0.071
G2 X 181.360 Y1716.580 I-596.885 J  36.166
G2 X 175.590 Y1680.790 I-502.921 J  62.720
G2 X 167.760 Y1648.440 I-384.762 J  76.005
G2 X 158.100 Y1620.510 I-263.762 J  75.590
G2 X 146.910 Y1597.860 I-158.937 J  64.432
G2 X 134.540 Y1581.180 I -82.376 J  48.164
G2 X 121.350 Y1570.950 I -36.456 J  33.386
G2 X 107.740 Y1567.510 I -13.801 J  25.958
F150
G1 Z  -3.000
F400
G2 X  94.140 Y1570.950 I   0.201 J  29.398
G2 X  80.940 Y1581.180 I  23.247 J  43.627
G2 X  68.570 Y1597.860 I  70.006 J  64.844
G2 X  57.380 Y1620.510 I  79.203 J  53.219
G2 X  47.720 Y1648.440 I 156.647 J  69.814
G2 X  39.890 Y1680.790 I 376.932 J 108.355
G2 X  34.120 Y1716.580 I 497.151 J  98.510
G2 X  30.580 Y1754.720 I 593.345 J  74.306
G2 X  29.390 Y1794.060 I 647.318 J  39.269
G2 X  30.580 Y1833.400 I 648.508 J   0.071
G2 X  34.120 Y1871.540 I 596.885 J -36.166
G2 X  39.890 Y1907.330 I 502.921 J -62.720
G2 X  47.720 Y1939.680 I 384.762 J -76.005
G2 X  57.380 Y1967.600 I 263.746 J -75.622
G2 X  68.570 Y1990.260 I 158.951 J -64.400
G2 X  80.940 Y2006.950 I  82.391 J -48.136
G2 X  94.140 Y2017.170 I  36.429 J -33.416
G2 X 107.740 Y2020.610 I  13.801 J -25.958
G2 X 121.350 Y2017.170 I  -0.191 J -29.398
G2 X 134.540 Y2006.950 I -23.248 J -43.626
G2 X 146.910 Y1990.260 I -70.021 J -64.826
G2 X 158.100 Y1967.600 I-147.761 J -87.060
G2 X 167.760 Y1939.680 I-254.086 J-103.542
G2 X 175.590 Y1907.330 I-376.932 J-108.355
G2 X 181.360 Y1871.540 I-497.151 J -98.510
G2 X 184.900 Y1833.400 I-593.345 J -74.306
G2 X 186.090 Y1794.060 I-647.318 J -39.269
G2 X 184.900 Y1754.720 I-648.508 J  -0.071
G2 X 181.360 Y1716.580 I-596.885 J  36.166
G2 X 175.590 Y1680.790 I-502.921 J  62.720
G2 X 167.760 Y1648.440 I-384.762 J  76.005
G2 X 158.100 Y1620.510 I-263.762 J  75.590
G2 X 146.910 Y1597.860 I-158.937 J  64.432
G2 X 134.540 Y1581.180 I -82.376 J  48.164
G2 X 121.350 Y1570.950 I -36.456 J  33.386
G2 X 107.740 Y1567.510 I -13.801 J  25.958
F150
G1 Z   3.000
G0 Z  15.000 
M9 M5

(* SHAPE Nr: 1 *)
G0 X 317.920 Y1567.510
M3 M8
G0 Z   3.000 
G1 Z  -1.500
F400
G2 X 304.320 Y1570.950 I   0.201 J  29.398
G2 X 291.120 Y1581.180 I  23.247 J  43.627
G2 X 278.750 Y1597.860 I  70.006 J  64.844
G2 X 267.560 Y1620.510 I  79.203 J  53.219
G2 X 257.900 Y1648.440 I 156.647 J  69.814
G2 X 250.070 Y1680.790 I 376.932 J 108.355
G2 X 244.300 Y1716.580 I 497.151 J  98.510
G2 X 240.760 Y1754.720 I 593.345 J  74.306
G2 X 239.570 Y1794.060 I 647.318 J  39.269
G2 X 240.760 Y1833.400 I 648.508 J   0.071
G2 X 244.300 Y1871.540 I 596.885 J -36.166
G2 X 250.070 Y1907.330 I 502.921 J -62.720
G2 X 257.900 Y1939.680 I 384.762 J -76.005
G2 X 267.560 Y1967.600 I 263.746 J -75.622
G2 X 278.750 Y1990.260 I 158.951 J -64.400
G2 X 291.120 Y2006.950 I  82.391 J -48.136
G2 X 304.320 Y2017.170 I  36.429 J -33.416
G2 X 317.920 Y2020.610 I  13.801 J -25.958
G2 X 331.530 Y2017.170 I  -0.191 J -29.398
G2 X 344.720 Y2006.950 I -23.248 J -43.626
G2 X 357.090 Y1990.260 I -70.021 J -64.826
G2 X 368.280 Y1967.600 I-147.761 J -87.060
G2 X 377.940 Y1939.680 I-254.086 J-103.542
G2 X 385.770 Y1907.330 I-376.932 J-108.355
G2 X 391.540 Y1871.540 I-497.151 J -98.510
G2 X 395.080 Y1833.400 I-593.345 J -74.306
G2 X 396.270 Y1794.060 I-647.318 J -39.269
G2 X 395.080 Y1754.720 I-648.508 J  -0.071
G2 X 391.540 Y1716.580 I-596.885 J  36.166
G2 X 385.770 Y1680.790 I-502.921 J  62.720
G2 X 377.940 Y1648.440 I-384.762 J  76.005
G2 X 368.280 Y1620.510 I-263.752 J  75.587
G2 X 357.090 Y1597.860 I-158.937 J  64.432
G2 X 344.720 Y1581.180 I -82.376 J  48.164
G2 X 331.530 Y1570.950 I -36.456 J  33.386
G2 X 317.920 Y1567.510 I -13.801 J  25.958
F150
G1 Z  -3.000
F400
G2 X 304.320 Y1570.950 I   0.201 J  29.398
G2 X 291.120 Y1581.180 I  23.247 J  43.627
G2 X 278.750 Y1597.860 I  70.006 J  64.844
G2 X 267.560 Y1620.510 I  79.203 J  53.219
G2 X 257.900 Y1648.440 I 156.647 J  69.814
G2 X 250.070 Y1680.790 I 376.932 J 108.355
G2 X 244.300 Y1716.580 I 497.151 J  98.510
G2 X 240.760 Y1754.720 I 593.345 J  74.306
G2 X 239.570 Y1794.060 I 647.318 J  39.269
G2 X 240.760 Y1833.400 I 648.508 J   0.071
G2 X 244.300 Y1871.540 I 596.885 J -36.166
G2 X 250.070 Y1907.330 I 502.921 J -62.720
G2 X 257.900 Y1939.680 I 384.762 J -76.005
G2 X 267.560 Y1967.600 I 263.746 J -75.622
G2 X 278.750 Y1990.260 I 158.951 J -64.400
G2 X 291.120 Y2006.950 I  82.391 J -48.136
G2 X 304.320 Y2017.170 I  36.429 J -33.416
G2 X 317.920 Y2020.610 I  13.801 J -25.958
G2 X 331.530 Y2017.170 I  -0.191 J -29.398
G2 X 344.720 Y2006.950 I -23.248 J -43.626
G2 X 357.090 Y1990.260 I -70.021 J -64.826
G2 X 368.280 Y1967.600 I-147.761 J -87.060
G2 X 377.940 Y1939.680 I-254.086 J-103.542
G2 X 385.770 Y1907.330 I-376.932 J-108.355
G2 X 391.540 Y1871.540 I-497.151 J -98.510
G2 X 395.080 Y1833.400 I-593.345 J -74.306
G2 X 396.270 Y1794.060 I-647.318 J -39.269
G2 X 395.080 Y1754.720 I-648.508 J  -0.071
G2 X 391.540 Y1716.580 I-596.885 J  36.166
G2 X 385.770 Y1680.790 I-502.921 J  62.720
G2 X 377.940 Y1648.440 I-384.762 J  76.005
G2 X 368.280 Y1620.510 I-263.752 J  75.587
G2 X 357.090 Y1597.860 I-158.937 J  64.432
G2 X 344.720 Y1581.180 I -82.376 J  48.164
G2 X 331.530 Y1570.950 I -36.456 J  33.386
G2 X 317.920 Y1567.510 I -13.801 J  25.958
F150
G1 Z   3.000
G0 Z  15.000 
M9 M5

(* SHAPE Nr: 2 *)
G0 X 514.500 Y1570.950
M3 M8
G0 Z   3.000 
G1 Z  -1.500
F400
G2 X 501.300 Y1581.180 I  23.247 J  43.627
G2 X 488.930 Y1597.860 I  70.006 J  64.844
G2 X 477.740 Y1620.510 I  79.203 J  53.219
G2 X 468.080 Y1648.440 I 156.647 J  69.814
G2 X 460.250 Y1680.790 I 376.932 J 108.355
G2 X 454.480 Y1716.580 I 497.151 J  98.510
G2 X 450.940 Y1754.720 I 593.345 J  74.306
G2 X 449.750 Y1794.060 I 647.318 J  39.269
G2 X 450.940 Y1833.400 I 648.508 J   0.071
G2 X 454.480 Y1871.540 I 596.885 J -36.166
G2 X 460.250 Y1907.330 I 502.921 J -62.720
G2 X 468.080 Y1939.680 I 384.762 J -76.005
G2 X 477.740 Y1967.600 I 263.746 J -75.622
G2 X 488.930 Y1990.260 I 158.951 J -64.400
G2 X 501.300 Y2006.950 I  82.391 J -48.136
G2 X 514.500 Y2017.170 I  36.429 J -33.416
G2 X 528.100 Y2020.610 I  13.801 J -25.958
G2 X 541.710 Y2017.170 I  -0.191 J -29.398
G2 X 554.900 Y2006.950 I -23.248 J -43.626
G2 X 567.270 Y1990.260 I -70.021 J -64.826
G2 X 578.460 Y1967.600 I-147.761 J -87.060
G2 X 588.120 Y1939.680 I-254.086 J-103.542
G2 X 595.950 Y1907.330 I-376.932 J-108.355
G2 X 601.720 Y1871.540 I-497.151 J -98.510
G2 X 605.260 Y1833.400 I-593.345 J -74.306
G2 X 606.450 Y1794.060 I-647.318 J -39.269
G2 X 605.260 Y1754.720 I-648.508 J  -0.071
G2 X 601.720 Y1716.580 I-596.885 J  36.166
G2 X 595.950 Y1680.790 I-502.921 J  62.720
G2 X 588.120 Y1648.440 I-384.762 J  76.005
G2 X 578.460 Y1620.510 I-263.762 J  75.590
G2 X 567.270 Y1597.860 I-158.937 J  64.432
G2 X 554.900 Y1581.180 I -82.376 J  48.164
G2 X 541.710 Y1570.950 I -36.456 J  33.386
G2 X 528.100 Y1567.510 I -13.801 J  25.958
G2 X 514.500 Y1570.950 I   0.201 J  29.398
F150
G1 Z  -3.000
F400
G2 X 501.300 Y1581.180 I  23.247 J  43.627
G2 X 488.930 Y1597.860 I  70.006 J  64.844
G2 X 477.740 Y1620.510 I  79.203 J  53.219
G2 X 468.080 Y1648.440 I 156.647 J  69.814
G2 X 460.250 Y1680.790 I 376.932 J 108.355
G2 X 454.480 Y1716.580 I 497.151 J  98.510
G2 X 450.940 Y1754.720 I 593.345 J  74.306
G2 X 449.750 Y1794.060 I 647.318 J  39.269
G2 X 450.940 Y1833.400 I 648.508 J   0.071
G2 X 454.480 Y1871.540 I 596.885 J -36.166
G2 X 460.250 Y1907.330 I 502.921 J -62.720
G2 X 468.080 Y1939.680 I 384.762 J -76.005
G2 X 477.740 Y1967.600 I 263.746 J -75.622
G2 X 488.930 Y1990.260 I 158.951 J -64.400
G2 X 501.300 Y2006.950 I  82.391 J -48.136
G2 X 514.500 Y2017.170 I  36.429 J -33.416
G2 X 528.100 Y2020.610 I  13.801 J -25.958
G2 X 541.710 Y2017.170 I  -0.191 J -29.398
G2 X 554.900 Y2006.950 I -23.248 J -43.626
G2 X 567.270 Y1990.260 I -70.021 J -64.826
G2 X 578.460 Y1967.600 I-147.761 J -87.060
G2 X 588.120 Y1939.680 I-254.086 J-103.542
G2 X 595.950 Y1907.330 I-376.932 J-108.355
G2 X 601.720 Y1871.540 I-497.151 J -98.510
G2 X 605.260 Y1833.400 I-593.345 J -74.306
G2 X 606.450 Y1794.060 I-647.318 J -39.269
G2 X 605.260 Y1754.720 I-648.508 J  -0.071
G2 X 601.720 Y1716.580 I-596.885 J  36.166
G2 X 595.950 Y1680.790 I-502.921 J  62.720
G2 X 588.120 Y1648.440 I-384.762 J  76.005
G2 X 578.460 Y1620.510 I-263.762 J  75.590
G2 X 567.270 Y1597.860 I-158.937 J  64.432
G2 X 554.900 Y1581.180 I -82.376 J  48.164
G2 X 541.710 Y1570.950 I -36.456 J  33.386
G2 X 528.100 Y1567.510 I -13.801 J  25.958
G2 X 514.500 Y1570.950 I   0.201 J  29.398
F150
G1 Z   3.000
G0 Z  15.000 
M9 M5

(* SHAPE Nr: 3 *)
G0 X 724.680 Y1570.950
M3 M8
G0 Z   3.000 
G1 Z  -1.500
F400
G2 X 711.480 Y1581.180 I  23.247 J  43.627
G2 X 699.110 Y1597.860 I  70.006 J  64.844
G2 X 687.920 Y1620.510 I  79.203 J  53.219
G2 X 678.260 Y1648.440 I 156.647 J  69.814
G2 X 670.430 Y1680.790 I 376.932 J 108.355
G2 X 664.660 Y1716.580 I 497.151 J  98.510
G2 X 661.120 Y1754.720 I 593.345 J  74.306
G2 X 659.930 Y1794.060 I 647.318 J  39.269
G2 X 661.120 Y1833.400 I 648.508 J   0.071
G2 X 664.660 Y1871.540 I 596.885 J -36.166
G2 X 670.430 Y1907.330 I 502.921 J -62.720
G2 X 678.260 Y1939.680 I 384.762 J -76.005
G2 X 687.920 Y1967.600 I 263.746 J -75.622
G2 X 699.110 Y1990.260 I 158.951 J -64.400
G2 X 711.480 Y2006.950 I  82.391 J -48.136
G2 X 724.680 Y2017.170 I  36.429 J -33.416
G2 X 738.280 Y2020.610 I  13.801 J -25.958
G2 X 751.890 Y2017.170 I  -0.191 J -29.398
G2 X 765.080 Y2006.950 I -23.248 J -43.626
G2 X 777.450 Y1990.260 I -70.021 J -64.826
G2 X 788.640 Y1967.600 I-147.761 J -87.060
G2 X 798.300 Y1939.680 I-254.086 J-103.542
G2 X 806.130 Y1907.330 I-376.932 J-108.355
G2 X 811.900 Y1871.540 I-497.151 J -98.510
G2 X 815.440 Y1833.400 I-593.345 J -74.306
G2 X 816.630 Y1794.060 I-647.318 J -39.269
G2 X 815.440 Y1754.720 I-648.508 J  -0.071
G2 X 811.900 Y1716.580 I-596.885 J  36.166
G2 X 806.130 Y1680.790 I-502.921 J  62.720
G2 X 798.300 Y1648.440 I-384.762 J  76.005
G2 X 788.640 Y1620.510 I-263.762 J  75.590
G2 X 777.450 Y1597.860 I-158.937 J  64.432
G2 X 765.080 Y1581.180 I -82.376 J  48.164
G2 X 751.890 Y1570.950 I -36.456 J  33.386
G2 X 738.280 Y1567.510 I -13.801 J  25.958
G2 X 724.680 Y1570.950 I   0.201 J  29.398
F150
G1 Z  -3.000
F400
G2 X 711.480 Y1581.180 I  23.247 J  43.627
G2 X 699.110 Y1597.860 I  70.006 J  64.844
G2 X 687.920 Y1620.510 I  79.203 J  53.219
G2 X 678.260 Y1648.440 I 156.647 J  69.814
G2 X 670.430 Y1680.790 I 376.932 J 108.355
G2 X 664.660 Y1716.580 I 497.151 J  98.510
G2 X 661.120 Y1754.720 I 593.345 J  74.306
G2 X 659.930 Y1794.060 I 647.318 J  39.269
G2 X 661.120 Y1833.400 I 648.508 J   0.071
G2 X 664.660 Y1871.540 I 596.885 J -36.166
G2 X 670.430 Y1907.330 I 502.921 J -62.720
G2 X 678.260 Y1939.680 I 384.762 J -76.005
G2 X 687.920 Y1967.600 I 263.746 J -75.622
G2 X 699.110 Y1990.260 I 158.951 J -64.400
G2 X 711.480 Y2006.950 I  82.391 J -48.136
G2 X 724.680 Y2017.170 I  36.429 J -33.416
G2 X 738.280 Y2020.610 I  13.801 J -25.958
G2 X 751.890 Y2017.170 I  -0.191 J -29.398
G2 X 765.080 Y2006.950 I -23.248 J -43.626
G2 X 777.450 Y1990.260 I -70.021 J -64.826
G2 X 788.640 Y1967.600 I-147.761 J -87.060
G2 X 798.300 Y1939.680 I-254.086 J-103.542
G2 X 806.130 Y1907.330 I-376.932 J-108.355
G2 X 811.900 Y1871.540 I-497.151 J -98.510
G2 X 815.440 Y1833.400 I-593.345 J -74.306
G2 X 816.630 Y1794.060 I-647.318 J -39.269
G2 X 815.440 Y1754.720 I-648.508 J  -0.071
G2 X 811.900 Y1716.580 I-596.885 J  36.166
G2 X 806.130 Y1680.790 I-502.921 J  62.720
G2 X 798.300 Y1648.440 I-384.762 J  76.005
G2 X 788.640 Y1620.510 I-263.762 J  75.590
G2 X 777.450 Y1597.860 I-158.937 J  64.432
G2 X 765.080 Y1581.180 I -82.376 J  48.164
G2 X 751.890 Y1570.950 I -36.456 J  33.386
G2 X 738.280 Y1567.510 I -13.801 J  25.958
G2 X 724.680 Y1570.950 I   0.201 J  29.398
F150
G1 Z   3.000
G0 Z  15.000 
M9 M5

(* SHAPE Nr: 4 *)
G0 X 934.860 Y1570.950
M3 M8
G0 Z   3.000 
G1 Z  -1.500
F400
G2 X 921.660 Y1581.180 I  23.247 J  43.627
G2 X 909.290 Y1597.860 I  70.006 J  64.844
G2 X 898.100 Y1620.510 I  79.203 J  53.219
G2 X 888.440 Y1648.440 I 156.647 J  69.814
G2 X 880.610 Y1680.790 I 376.932 J 108.355
G2 X 874.840 Y1716.580 I 497.151 J  98.510
G2 X 871.300 Y1754.720 I 593.345 J  74.306
G2 X 870.110 Y1794.060 I 647.318 J  39.269
G2 X 871.300 Y1833.400 I 648.508 J   0.071
G2 X 874.840 Y1871.540 I 596.885 J -36.166
G2 X 880.610 Y1907.330 I 502.921 J -62.720
G2 X 888.440 Y1939.680 I 384.762 J -76.005
G2 X 898.100 Y1967.600 I 263.746 J -75.622
G2 X 909.290 Y1990.260 I 158.951 J -64.400
G2 X 921.660 Y2006.950 I  82.391 J -48.136
G2 X 934.860 Y2017.170 I  36.429 J -33.416
G2 X 948.460 Y2020.610 I  13.801 J -25.958
G2 X 962.070 Y2017.170 I  -0.191 J -29.398
G2 X 975.260 Y2006.950 I -23.248 J -43.626
G2 X 987.630 Y1990.260 I -70.021 J -64.826
G2 X 998.820 Y1967.600 I-147.761 J -87.060
G2 X1008.480 Y1939.680 I-254.086 J-103.542
G2 X1016.310 Y1907.330 I-376.932 J-108.355
G2 X1022.080 Y1871.540 I-497.151 J -98.510
G2 X1025.620 Y1833.400 I-593.345 J -74.306
G2 X1026.810 Y1794.060 I-647.318 J -39.269
G2 X1025.620 Y1754.720 I-648.508 J  -0.071
G2 X1022.080 Y1716.580 I-596.885 J  36.166
G2 X1016.310 Y1680.790 I-502.921 J  62.720
G2 X1008.480 Y1648.440 I-384.762 J  76.005
G2 X 998.820 Y1620.510 I-263.762 J  75.590
G2 X 987.630 Y1597.860 I-158.937 J  64.432
G2 X 975.260 Y1581.180 I -82.376 J  48.164
G2 X 962.070 Y1570.950 I -36.456 J  33.386
G2 X 948.460 Y1567.510 I -13.801 J  25.958
G2 X 934.860 Y1570.950 I   0.201 J  29.398
F150
G1 Z  -3.000
F400
G2 X 921.660 Y1581.180 I  23.247 J  43.627
G2 X 909.290 Y1597.860 I  70.006 J  64.844
G2 X 898.100 Y1620.510 I  79.203 J  53.219
G2 X 888.440 Y1648.440 I 156.647 J  69.814
G2 X 880.610 Y1680.790 I 376.932 J 108.355
G2 X 874.840 Y1716.580 I 497.151 J  98.510
G2 X 871.300 Y1754.720 I 593.345 J  74.306
G2 X 870.110 Y1794.060 I 647.318 J  39.269
G2 X 871.300 Y1833.400 I 648.508 J   0.071
G2 X 874.840 Y1871.540 I 596.885 J -36.166
G2 X 880.610 Y1907.330 I 502.921 J -62.720
G2 X 888.440 Y1939.680 I 384.762 J -76.005
G2 X 898.100 Y1967.600 I 263.746 J -75.622
G2 X 909.290 Y1990.260 I 158.951 J -64.400
G2 X 921.660 Y2006.950 I  82.391 J -48.136
G2 X 934.860 Y2017.170 I  36.429 J -33.416
G2 X 948.460 Y2020.610 I  13.801 J -25.958
G2 X 962.070 Y2017.170 I  -0.191 J -29.398
G2 X 975.260 Y2006.950 I -23.248 J -43.626
G2 X 987.630 Y1990.260 I -70.021 J -64.826
G2 X 998.820 Y1967.600 I-147.761 J -87.060
G2 X1008.480 Y1939.680 I-254.086 J-103.542
G2 X1016.310 Y1907.330 I-376.932 J-108.355
G2 X1022.080 Y1871.540 I-497.151 J -98.510
G2 X1025.620 Y1833.400 I-593.345 J -74.306
G2 X1026.810 Y1794.060 I-647.318 J -39.269
G2 X1025.620 Y1754.720 I-648.508 J  -0.071
G2 X1022.080 Y1716.580 I-596.885 J  36.166
G2 X1016.310 Y1680.790 I-502.921 J  62.720
G2 X1008.480 Y1648.440 I-384.762 J  76.005
G2 X 998.820 Y1620.510 I-263.762 J  75.590
G2 X 987.630 Y1597.860 I-158.937 J  64.432
G2 X 975.260 Y1581.180 I -82.376 J  48.164
G2 X 962.070 Y1570.950 I -36.456 J  33.386
G2 X 948.460 Y1567.510 I -13.801 J  25.958
G2 X 934.860 Y1570.950 I   0.201 J  29.398
F150
G1 Z   3.000
G0 Z  15.000 
M9 M5

(* SHAPE Nr: 5 *)
G0 X1145.040 Y1570.950
M3 M8
G0 Z   3.000 
G1 Z  -1.500
F400
G2 X1131.840 Y1581.180 I  23.247 J  43.627
G2 X1119.470 Y1597.860 I  70.004 J  64.843
G2 X1108.280 Y1620.510 I  79.203 J  53.219
G2 X1098.620 Y1648.440 I 156.647 J  69.814
G2 X1090.790 Y1680.790 I 376.932 J 108.355
G2 X1085.020 Y1716.580 I 497.151 J  98.510
G2 X1081.480 Y1754.720 I 593.345 J  74.306
G2 X1080.290 Y1794.060 I 647.318 J  39.269
G2 X1081.480 Y1833.400 I 648.508 J   0.071
G2 X1085.020 Y1871.540 I 596.885 J -36.166
G2 X1090.790 Y1907.330 I 502.921 J -62.720
G2 X1098.620 Y1939.680 I 384.762 J -76.005
G2 X1108.280 Y1967.600 I 263.746 J -75.622
G2 X1119.470 Y1990.260 I 158.951 J -64.400
G2 X1131.840 Y2006.950 I  82.391 J -48.136
G2 X1145.040 Y2017.170 I  36.429 J -33.416
G2 X1158.640 Y2020.610 I  13.801 J -25.958
G2 X1172.250 Y2017.170 I  -0.191 J -29.398
G2 X1185.440 Y2006.950 I -23.248 J -43.626
G2 X1197.810 Y1990.260 I -70.021 J -64.826
G2 X1209.000 Y1967.600 I-147.761 J -87.060
G2 X1218.660 Y1939.680 I-254.086 J-103.542
G2 X1226.490 Y1907.330 I-376.932 J-108.355
G2 X1232.260 Y1871.540 I-497.151 J -98.510
G2 X1235.800 Y1833.400 I-593.345 J -74.306
G2 X1236.990 Y1794.060 I-647.318 J -39.269
G2 X1235.800 Y1754.720 I-648.508 J  -0.071
G2 X1232.260 Y1716.580 I-596.885 J  36.166
G2 X1226.490 Y1680.790 I-502.921 J  62.720
G2 X1218.660 Y1648.440 I-384.762 J  76.005
G2 X1209.000 Y1620.510 I-263.752 J  75.587
G2 X1197.810 Y1597.860 I-158.937 J  64.432
G2 X1185.440 Y1581.180 I -82.376 J  48.164
G2 X1172.250 Y1570.950 I -36.456 J  33.386
G2 X1158.640 Y1567.510 I -13.801 J  25.958
G2 X1145.040 Y1570.950 I   0.201 J  29.398
F150
G1 Z  -3.000
F400
G2 X1131.840 Y1581.180 I  23.247 J  43.627
G2 X1119.470 Y1597.860 I  70.004 J  64.843
G2 X1108.280 Y1620.510 I  79.203 J  53.219
G2 X1098.620 Y1648.440 I 156.647 J  69.814
G2 X1090.790 Y1680.790 I 376.932 J 108.355
G2 X1085.020 Y1716.580 I 497.151 J  98.510
G2 X1081.480 Y1754.720 I 593.345 J  74.306
G2 X1080.290 Y1794.060 I 647.318 J  39.269
G2 X1081.480 Y1833.400 I 648.508 J   0.071
G2 X1085.020 Y1871.540 I 596.885 J -36.166
G2 X1090.790 Y1907.330 I 502.921 J -62.720
G2 X1098.620 Y1939.680 I 384.762 J -76.005
G2 X1108.280 Y1967.600 I 263.746 J -75.622
G2 X1119.470 Y1990.260 I 158.951 J -64.400
G2 X1131.840 Y2006.950 I  82.391 J -48.136
G2 X1145.040 Y2017.170 I  36.429 J -33.416
G2 X1158.640 Y2020.610 I  13.801 J -25.958
G2 X1172.250 Y2017.170 I  -0.191 J -29.398
G2 X1185.440 Y2006.950 I -23.248 J -43.626
G2 X1197.810 Y1990.260 I -70.021 J -64.826
G2 X1209.000 Y1967.600 I-147.761 J -87.060
G2 X1218.660 Y1939.680 I-254.086 J-103.542
G2 X1226.490 Y1907.330 I-376.932 J-108.355
G2 X1232.260 Y1871.540 I-497.151 J -98.510
G2 X1235.800 Y1833.400 I-593.345 J -74.306
G2 X1236.990 Y1794.060 I-647.318 J -39.269
G2 X1235.800 Y1754.720 I-648.508 J  -0.071
G2 X1232.260 Y1716.580 I-596.885 J  36.166
G2 X1226.490 Y1680.790 I-502.921 J  62.720
G2 X1218.660 Y1648.440 I-384.762 J  76.005
G2 X1209.000 Y1620.510 I-263.752 J  75.587
G2 X1197.810 Y1597.860 I-158.937 J  64.432
G2 X1185.440 Y1581.180 I -82.376 J  48.164
G2 X1172.250 Y1570.950 I -36.456 J  33.386
G2 X1158.640 Y1567.510 I -13.801 J  25.958
G2 X1145.040 Y1570.950 I   0.201 J  29.398
F150
G1 Z   3.000
G0 Z  15.000 
M9 M5

(* SHAPE Nr: 6 *)
G0 X1342.020 Y1581.180
M3 M8
G0 Z   3.000 
G1 Z  -1.500
F400
G2 X1329.650 Y1597.860 I  70.004 J  64.843
G2 X1318.460 Y1620.510 I  79.203 J  53.219
G2 X1308.800 Y1648.440 I 156.647 J  69.814
G2 X1300.970 Y1680.790 I 376.932 J 108.355
G2 X1295.200 Y1716.580 I 497.151 J  98.510
G2 X1291.660 Y1754.720 I 593.345 J  74.306
G2 X1290.470 Y1794.060 I 647.318 J  39.269
G2 X1291.660 Y1833.400 I 648.508 J   0.071
G2 X1295.200 Y1871.540 I 596.885 J -36.166
G2 X1300.970 Y1907.330 I 502.921 J -62.720
G2 X1308.800 Y1939.680 I 384.762 J -76.005
G2 X1318.460 Y1967.600 I 263.746 J -75.622
G2 X1329.650 Y1990.260 I 158.951 J -64.400
G2 X1342.020 Y2006.950 I  82.391 J -48.136
G2 X1355.220 Y2017.170 I  36.429 J -33.416
G2 X1368.820 Y2020.610 I  13.801 J -25.958
G2 X1382.430 Y2017.170 I  -0.191 J -29.398
G2 X1395.620 Y2006.950 I -23.248 J -43.626
G2 X1407.990 Y1990.260 I -70.021 J -64.826
G2 X1419.180 Y1967.600 I-147.761 J -87.060
G2 X1428.840 Y1939.680 I-254.086 J-103.542
G2 X1436.670 Y1907.330 I-376.932 J-108.355
G2 X1442.440 Y1871.540 I-497.151 J -98.510
G2 X1445.980 Y1833.400 I-593.345 J -74.306
G2 X1447.170 Y1794.060 I-647.318 J -39.269
G2 X1445.980 Y1754.720 I-648.508 J  -0.071
G2 X1442.440 Y1716.580 I-596.885 J  36.166
G2 X1436.670 Y1680.790 I-502.921 J  62.720
G2 X1428.840 Y1648.440 I-384.762 J  76.005
G2 X1419.180 Y1620.510 I-263.752 J  75.587
G2 X1407.990 Y1597.860 I-158.937 J  64.432
G2 X1395.620 Y1581.180 I -82.376 J  48.164
G2 X1382.430 Y1570.950 I -36.456 J  33.386
G2 X1368.820 Y1567.510 I -13.801 J  25.958
G2 X1355.220 Y1570.950 I   0.201 J  29.398
G2 X1342.020 Y1581.180 I  23.247 J  43.627
F150
G1 Z  -3.000
F400
G2 X1329.650 Y1597.860 I  70.004 J  64.843
G2 X1318.460 Y1620.510 I  79.203 J  53.219
G2 X1308.800 Y1648.440 I 156.647 J  69.814
G2 X1300.970 Y1680.790 I 376.932 J 108.355
G2 X1295.200 Y1716.580 I 497.151 J  98.510
G2 X1291.660 Y1754.720 I 593.345 J  74.306
G2 X1290.470 Y1794.060 I 647.318 J  39.269
G2 X1291.660 Y1833.400 I 648.508 J   0.071
G2 X1295.200 Y1871.540 I 596.885 J -36.166
G2 X1300.970 Y1907.330 I 502.921 J -62.720
G2 X1308.800 Y1939.680 I 384.762 J -76.005
G2 X1318.460 Y1967.600 I 263.746 J -75.622
G2 X1329.650 Y1990.260 I 158.951 J -64.400
G2 X1342.020 Y2006.950 I  82.391 J -48.136
G2 X1355.220 Y2017.170 I  36.429 J -33.416
G2 X1368.820 Y2020.610 I  13.801 J -25.958
G2 X1382.430 Y2017.170 I  -0.191 J -29.398
G2 X1395.620 Y2006.950 I -23.248 J -43.626
G2 X1407.990 Y1990.260 I -70.021 J -64.826
G2 X1419.180 Y1967.600 I-147.761 J -87.060
G2 X1428.840 Y1939.680 I-254.086 J-103.542
G2 X1436.670 Y1907.330 I-376.932 J-108.355
G2 X1442.440 Y1871.540 I-497.151 J -98.510
G2 X1445.980 Y1833.400 I-593.345 J -74.306
G2 X1447.170 Y1794.060 I-647.318 J -39.269
G2 X1445.980 Y1754.720 I-648.508 J  -0.071
G2 X1442.440 Y1716.580 I-596.885 J  36.166
G2 X1436.670 Y1680.790 I-502.921 J  62.720
G2 X1428.840 Y1648.440 I-384.762 J  76.005
G2 X1419.180 Y1620.510 I-263.752 J  75.587
G2 X1407.990 Y1597.860 I-158.937 J  64.432
G2 X1395.620 Y1581.180 I -82.376 J  48.164
G2 X1382.430 Y1570.950 I -36.456 J  33.386
G2 X1368.820 Y1567.510 I -13.801 J  25.958
G2 X1355.220 Y1570.950 I   0.201 J  29.398
G2 X1342.020 Y1581.180 I  23.247 J  43.627
F150
G1 Z   3.000
G0 Z  15.000 
M9 M5

(* SHAPE Nr: 7 *)
G0 X1552.200 Y1581.180
M3 M8
G0 Z   3.000 
G1 Z  -1.500
F400
G2 X1539.830 Y1597.860 I  70.006 J  64.844
G2 X1528.640 Y1620.510 I  79.203 J  53.219
G2 X1518.980 Y1648.440 I 156.647 J  69.814
G2 X1511.150 Y1680.790 I 376.932 J 108.355
G2 X1505.380 Y1716.580 I 497.151 J  98.510
G2 X1501.840 Y1754.720 I 593.345 J  74.306
G2 X1500.650 Y1794.060 I 647.318 J  39.269
G2 X1501.840 Y1833.400 I 648.508 J   0.071
G2 X1505.380 Y1871.540 I 596.885 J -36.166
G2 X1511.150 Y1907.330 I 502.921 J -62.720
G2 X1518.980 Y1939.680 I 384.762 J -76.005
G2 X1528.640 Y1967.600 I 263.746 J -75.622
G2 X1539.830 Y1990.260 I 158.951 J -64.400
G2 X1552.200 Y2006.950 I  82.391 J -48.136
G2 X1565.400 Y2017.170 I  36.429 J -33.416
G2 X1579.000 Y2020.610 I  13.801 J -25.958
G2 X1592.610 Y2017.170 I  -0.191 J -29.398
G2 X1605.800 Y2006.950 I -23.248 J -43.626
G2 X1618.170 Y1990.260 I -70.021 J -64.826
G2 X1629.360 Y1967.600 I-147.761 J -87.060
G2 X1639.020 Y1939.680 I-254.086 J-103.542
G2 X1646.850 Y1907.330 I-376.932 J-108.355
G2 X1652.620 Y1871.540 I-497.151 J -98.510
G2 X1656.160 Y1833.400 I-593.345 J -74.306
G2 X1657.350 Y1794.060 I-647.318 J -39.269
G2 X1656.160 Y1754.720 I-648.508 J  -0.071
G2 X1652.620 Y1716.580 I-596.885 J  36.166
G2 X1646.850 Y1680.790 I-502.921 J  62.720
G2 X1639.020 Y1648.440 I-384.762 J  76.005
G2 X1629.360 Y1620.510 I-263.762 J  75.590
G2 X1618.170 Y1597.860 I-158.937 J  64.432
G2 X1605.800 Y1581.180 I -82.376 J  48.164
G2 X1592.610 Y1570.950 I -36.456 J  33.386
G2 X1579.000 Y1567.510 I -13.801 J  25.958
G2 X1565.400 Y1570.950 I   0.201 J  29.398
G2 X1552.200 Y1581.180 I  23.247 J  43.627
F150
G1 Z  -3.000
F400
G2 X1539.830 Y1597.860 I  70.006 J  64.844
G2 X1528.640 Y1620.510 I  79.203 J  53.219
G2 X1518.980 Y1648.440 I 156.647 J  69.814
G2 X1511.150 Y1680.790 I 376.932 J 108.355
G2 X1505.380 Y1716.580 I 497.151 J  98.510
G2 X1501.840 Y1754.720 I 593.345 J  74.306
G2 X1500.650 Y1794.060 I 647.318 J  39.269
G2 X1501.840 Y1833.400 I 648.508 J   0.071
G2 X1505.380 Y1871.540 I 596.885 J -36.166
G2 X1511.150 Y1907.330 I 502.921 J -62.720
G2 X1518.980 Y1939.680 I 384.762 J -76.005
G2 X1528.640 Y1967.600 I 263.746 J -75.622
G2 X1539.830 Y1990.260 I 158.951 J -64.400
G2 X1552.200 Y2006.950 I  82.391 J -48.136
G2 X1565.400 Y2017.170 I  36.429 J -33.416
G2 X1579.000 Y2020.610 I  13.801 J -25.958
G2 X1592.610 Y2017.170 I  -0.191 J -29.398
G2 X1605.800 Y2006.950 I -23.248 J -43.626
G2 X1618.170 Y1990.260 I -70.021 J -64.826
G2 X1629.360 Y1967.600 I-147.761 J -87.060
G2 X1639.020 Y1939.680 I-254.086 J-103.542
G2 X1646.850 Y1907.330 I-376.932 J-108.355
G2 X1652.620 Y1871.540 I-497.151 J -98.510
G2 X1656.160 Y1833.400 I-593.345 J -74.306
G2 X1657.350 Y1794.060 I-647.318 J -39.269
G2 X1656.160 Y1754.720 I-648.508 J  -0.071
G2 X1652.620 Y1716.580 I-596.885 J  36.166
G2 X1646.850 Y1680.790 I-502.921 J  62.720
G2 X1639.020 Y1648.440 I-384.762 J  76.005
G2 X1629.360 Y1620.510 I-263.762 J  75.590
G2 X1618.170 Y1597.860 I-158.937 J  64.432
G2 X1605.800 Y1581.180 I -82.376 J  48.164
G2 X1592.610 Y1570.950 I -36.456 J  33.386
G2 X1579.000 Y1567.510 I -13.801 J  25.958
G2 X1565.400 Y1570.950 I   0.201 J  29.398
G2 X1552.200 Y1581.180 I  23.247 J  43.627
F150
G1 Z   3.000
G0 Z  15.000 
M9 M5

(* SHAPE Nr: 8 *)
G0 X1762.380 Y1581.180
M3 M8
G0 Z   3.000 
G1 Z  -1.500
F400
G2 X1750.010 Y1597.860 I  70.006 J  64.844
G2 X1738.820 Y1620.510 I  79.203 J  53.219
G2 X1729.160 Y1648.440 I 156.647 J  69.814
G2 X1721.330 Y1680.790 I 376.932 J 108.355
G2 X1715.560 Y1716.580 I 497.151 J  98.510
G2 X1712.020 Y1754.720 I 593.345 J  74.306
G2 X1710.830 Y1794.060 I 647.318 J  39.269
G2 X1712.020 Y1833.400 I 648.508 J   0.071
G2 X1715.560 Y1871.540 I 596.885 J -36.166
G2 X1721.330 Y1907.330 I 502.921 J -62.720
G2 X1729.160 Y1939.680 I 384.762 J -76.005
G2 X1738.820 Y1967.600 I 263.746 J -75.622
G2 X1750.010 Y1990.260 I 158.951 J -64.400
G2 X1762.380 Y2006.950 I  82.391 J -48.136
G2 X1775.580 Y2017.170 I  36.429 J -33.416
G2 X1789.180 Y2020.610 I  13.801 J -25.958
G2 X1802.790 Y2017.170 I  -0.191 J -29.398
G2 X1815.980 Y2006.950 I -23.248 J -43.626
G2 X1828.350 Y1990.260 I -70.021 J -64.826
G2 X1839.540 Y1967.600 I-147.761 J -87.060
G2 X1849.200 Y1939.680 I-254.086 J-103.542
G2 X1857.030 Y1907.330 I-376.932 J-108.355
G2 X1862.800 Y1871.540 I-497.151 J -98.510
G2 X1866.340 Y1833.400 I-593.345 J -74.306
G2 X1867.530 Y1794.060 I-647.318 J -39.269
G2 X1866.340 Y1754.720 I-648.508 J  -0.071
G2 X1862.800 Y1716.580 I-596.885 J  36.166
G2 X1857.030 Y1680.790 I-502.921 J  62.720
G2 X1849.200 Y1648.440 I-384.762 J  76.005
G2 X1839.540 Y1620.510 I-263.762 J  75.590
G2 X1828.350 Y1597.860 I-158.937 J  64.432
G2 X1815.980 Y1581.180 I -82.376 J  48.164
G2 X1802.790 Y1570.950 I -36.456 J  33.386
G2 X1789.180 Y1567.510 I -13.801 J  25.958
G2 X1775.580 Y1570.950 I   0.201 J  29.398
G2 X1762.380 Y1581.180 I  23.247 J  43.627
F150
G1 Z  -3.000
F400
G2 X1750.010 Y1597.860 I  70.006 J  64.844
G2 X1738.820 Y1620.510 I  79.203 J  53.219
G2 X1729.160 Y1648.440 I 156.647 J  69.814
G2 X1721.330 Y1680.790 I 376.932 J 108.355
G2 X1715.560 Y1716.580 I 497.151 J  98.510
G2 X1712.020 Y1754.720 I 593.345 J  74.306
G2 X1710.830 Y1794.060 I 647.318 J  39.269
G2 X1712.020 Y1833.400 I 648.508 J   0.071
G2 X1715.560 Y1871.540 I 596.885 J -36.166
G2 X1721.330 Y1907.330 I 502.921 J -62.720
G2 X1729.160 Y1939.680 I 384.762 J -76.005
G2 X1738.820 Y1967.600 I 263.746 J -75.622
G2 X1750.010 Y1990.260 I 158.951 J -64.400
G2 X1762.380 Y2006.950 I  82.391 J -48.136
G2 X1775.580 Y2017.170 I  36.429 J -33.416
G2 X1789.180 Y2020.610 I  13.801 J -25.958
G2 X1802.790 Y2017.170 I  -0.191 J -29.398
G2 X1815.980 Y2006.950 I -23.248 J -43.626
G2 X1828.350 Y1990.260 I -70.021 J -64.826
G2 X1839.540 Y1967.600 I-147.761 J -87.060
G2 X1849.200 Y1939.680 I-254.086 J-103.542
G2 X1857.030 Y1907.330 I-376.932 J-108.355
G2 X1862.800 Y1871.540 I-497.151 J -98.510
G2 X1866.340 Y1833.400 I-593.345 J -74.306
G2 X1867.530 Y1794.060 I-647.318 J -39.269
G2 X1866.340 Y1754.720 I-648.508 J  -0.071
G2 X1862.800 Y1716.580 I-596.885 J  36.166
G2 X1857.030 Y1680.790 I-502.921 J  62.720
G2 X1849.200 Y1648.440 I-384.762 J  76.005
G2 X1839.540 Y1620.510 I-263.762 J  75.590
G2 X1828.350 Y1597.860 I-158.937 J  64.432
G2 X1815.980 Y1581.180 I -82.376 J  48.164
G2 X1802.790 Y1570.950 I -36.456 J  33.386
G2 X1789.180 Y1567.510 I -13.801 J  25.958
G2 X1775.580 Y1570.950 I   0.201 J  29.398
G2 X1762.380 Y1581.180 I  23.247 J  43.627
F150
G1 Z   3.000
G0 Z  15.000 
M9 M5

(* SHAPE Nr: 9 *)
G0 X1972.560 Y1581.180
M3 M8
G0 Z   3.000 
G1 Z  -1.500
F400
G2 X1960.190 Y1597.860 I  70.004 J  64.843
G2 X1949.000 Y1620.510 I  79.203 J  53.219
G2 X1939.340 Y1648.440 I 156.647 J  69.814
G2 X1931.510 Y1680.790 I 376.932 J 108.355
G2 X1925.740 Y1716.580 I 497.151 J  98.510
G2 X1922.200 Y1754.720 I 593.345 J  74.306
G2 X1921.010 Y1794.060 I 647.318 J  39.269
G2 X1922.200 Y1833.400 I 648.508 J   0.071
G2 X1925.740 Y1871.540 I 596.885 J -36.166
G2 X1931.510 Y1907.330 I 502.921 J -62.720
G2 X1939.340 Y1939.680 I 384.762 J -76.005
G2 X1949.000 Y1967.600 I 263.746 J -75.622
G2 X1960.190 Y1990.260 I 158.951 J -64.400
G2 X1972.560 Y2006.950 I  82.391 J -48.136
G2 X1985.760 Y2017.170 I  36.429 J -33.416
G2 X1999.360 Y2020.610 I  13.801 J -25.958
G2 X2012.970 Y2017.170 I  -0.191 J -29.398
G2 X2026.160 Y2006.950 I -23.248 J -43.626
G2 X2038.530 Y1990.260 I -70.021 J -64.826
G2 X2049.720 Y1967.600 I-147.761 J -87.060
G2 X2059.380 Y1939.680 I-254.086 J-103.542
G2 X2067.210 Y1907.330 I-376.932 J-108.355
G2 X2072.980 Y1871.540 I-497.151 J -98.510
G2 X2076.520 Y1833.400 I-593.345 J -74.306
G2 X2077.710 Y1794.060 I-647.318 J -39.269
G2 X2076.520 Y1754.720 I-648.508 J  -0.071
G2 X2072.980 Y1716.580 I-596.885 J  36.166
G2 X2067.210 Y1680.790 I-502.921 J  62.720
G2 X2059.380 Y1648.440 I-384.762 J  76.005
G2 X2049.720 Y1620.510 I-263.762 J  75.590
G2 X2038.530 Y1597.860 I-158.937 J  64.432
G2 X2026.160 Y1581.180 I -82.376 J  48.164
G2 X2012.970 Y1570.950 I -36.456 J  33.386
G2 X1999.360 Y1567.510 I -13.801 J  25.958
G2 X1985.760 Y1570.950 I   0.201 J  29.398
G2 X1972.560 Y1581.180 I  23.247 J  43.627
F150
G1 Z  -3.000
F400
G2 X1960.190 Y1597.860 I  70.004 J  64.843
G2 X1949.000 Y1620.510 I  79.203 J  53.219
G2 X1939.340 Y1648.440 I 156.647 J  69.814
G2 X1931.510 Y1680.790 I 376.932 J 108.355
G2 X1925.740 Y1716.580 I 497.151 J  98.510
G2 X1922.200 Y1754.720 I 593.345 J  74.306
G2 X1921.010 Y1794.060 I 647.318 J  39.269
G2 X1922.200 Y1833.400 I 648.508 J   0.071
G2 X1925.740 Y1871.540 I 596.885 J -36.166
G2 X1931.510 Y1907.330 I 502.921 J -62.720
G2 X1939.340 Y1939.680 I 384.762 J -76.005
G2 X1949.000 Y1967.600 I 263.746 J -75.622
G2 X1960.190 Y1990.260 I 158.951 J -64.400
G2 X1972.560 Y2006.950 I  82.391 J -48.136
G2 X1985.760 Y2017.170 I  36.429 J -33.416
G2 X1999.360 Y2020.610 I  13.801 J -25.958
G2 X2012.970 Y2017.170 I  -0.191 J -29.398
G2 X2026.160 Y2006.950 I -23.248 J -43.626
G2 X2038.530 Y1990.260 I -70.021 J -64.826
G2 X2049.720 Y1967.600 I-147.761 J -87.060
G2 X2059.380 Y1939.680 I-254.086 J-103.542
G2 X2067.210 Y1907.330 I-376.932 J-108.355
G2 X2072.980 Y1871.540 I-497.151 J -98.510
G2 X2076.520 Y1833.400 I-593.345 J -74.306
G2 X2077.710 Y1794.060 I-647.318 J -39.269
G2 X2076.520 Y1754.720 I-648.508 J  -0.071
G2 X2072.980 Y1716.580 I-596.885 J  36.166
G2 X2067.210 Y1680.790 I-502.921 J  62.720
G2 X2059.380 Y1648.440 I-384.762 J  76.005
G2 X2049.720 Y1620.510 I-263.762 J  75.590
G2 X2038.530 Y1597.860 I-158.937 J  64.432
G2 X2026.160 Y1581.180 I -82.376 J  48.164
G2 X2012.970 Y1570.950 I -36.456 J  33.386
G2 X1999.360 Y1567.510 I -13.801 J  25.958
G2 X1985.760 Y1570.950 I   0.201 J  29.398
G2 X1972.560 Y1581.180 I  23.247 J  43.627
F150
G1 Z   3.000
G0 Z  15.000 
M9 M5

(* SHAPE Nr: 10 *)
G0 X2170.370 Y1597.860
M3 M8
G0 Z   3.000 
G1 Z  -1.500
F400
G2 X2159.180 Y1620.510 I  79.202 J  53.218
G2 X2149.520 Y1648.440 I 156.647 J  69.814
G2 X2141.690 Y1680.790 I 376.932 J 108.355
G2 X2135.920 Y1716.580 I 497.151 J  98.510
G2 X2132.380 Y1754.720 I 593.345 J  74.306
G2 X2131.190 Y1794.060 I 647.318 J  39.269
G2 X2132.380 Y1833.400 I 648.508 J   0.071
G2 X2135.920 Y1871.540 I 596.885 J -36.166
G2 X2141.690 Y1907.330 I 502.921 J -62.720
G2 X2149.520 Y1939.680 I 384.762 J -76.005
G2 X2159.180 Y1967.600 I 263.746 J -75.622
G2 X2170.370 Y1990.260 I 158.947 J -64.398
G2 X2182.740 Y2006.950 I  82.392 J -48.137
G2 X2195.940 Y2017.170 I  36.429 J -33.416
G2 X2209.540 Y2020.610 I  13.801 J -25.958
G2 X2223.150 Y2017.170 I  -0.191 J -29.398
G2 X2236.340 Y2006.950 I -23.248 J -43.626
G2 X2248.710 Y1990.260 I -70.022 J -64.827
G2 X2259.900 Y1967.600 I-147.761 J -87.060
G2 X2269.560 Y1939.680 I-254.086 J-103.542
G2 X2277.390 Y1907.330 I-376.932 J-108.355
G2 X2283.160 Y1871.540 I-497.151 J -98.510
G2 X2286.700 Y1833.400 I-593.345 J -74.306
G2 X2287.890 Y1794.060 I-647.318 J -39.269
G2 X2286.700 Y1754.720 I-648.508 J  -0.071
G2 X2283.160 Y1716.580 I-596.885 J  36.166
G2 X2277.390 Y1680.790 I-502.921 J  62.720
G2 X2269.560 Y1648.440 I-384.762 J  76.005
G2 X2259.900 Y1620.510 I-263.762 J  75.590
G2 X2248.710 Y1597.860 I-158.937 J  64.432
G2 X2236.340 Y1581.180 I -82.376 J  48.164
G2 X2223.150 Y1570.950 I -36.456 J  33.386
G2 X2209.540 Y1567.510 I -13.801 J  25.958
G2 X2195.940 Y1570.950 I   0.201 J  29.398
G2 X2182.740 Y1581.180 I  23.247 J  43.627
G2 X2170.370 Y1597.860 I  70.006 J  64.844
F150
G1 Z  -3.000
F400
G2 X2159.180 Y1620.510 I  79.202 J  53.218
G2 X2149.520 Y1648.440 I 156.647 J  69.814
G2 X2141.690 Y1680.790 I 376.932 J 108.355
G2 X2135.920 Y1716.580 I 497.151 J  98.510
G2 X2132.380 Y1754.720 I 593.345 J  74.306
G2 X2131.190 Y1794.060 I 647.318 J  39.269
G2 X2132.380 Y1833.400 I 648.508 J   0.071
G2 X2135.920 Y1871.540 I 596.885 J -36.166
G2 X2141.690 Y1907.330 I 502.921 J -62.720
G2 X2149.520 Y1939.680 I 384.762 J -76.005
G2 X2159.180 Y1967.600 I 263.746 J -75.622
G2 X2170.370 Y1990.260 I 158.947 J -64.398
G2 X2182.740 Y2006.950 I  82.392 J -48.137
G2 X2195.940 Y2017.170 I  36.429 J -33.416
G2 X2209.540 Y2020.610 I  13.801 J -25.958
G2 X2223.150 Y2017.170 I  -0.191 J -29.398
G2 X2236.340 Y2006.950 I -23.248 J -43.626
G2 X2248.710 Y1990.260 I -70.022 J -64.827
G2 X2259.900 Y1967.600 I-147.761 J -87.060
G2 X2269.560 Y1939.680 I-254.086 J-103.542
G2 X2277.390 Y1907.330 I-376.932 J-108.355
G2 X2283.160 Y1871.540 I-497.151 J -98.510
G2 X2286.700 Y1833.400 I-593.345 J -74.306
G2 X2287.890 Y1794.060 I-647.318 J -39.269
G2 X2286.700 Y1754.720 I-648.508 J  -0.071
G2 X2283.160 Y1716.580 I-596.885 J  36.166
G2 X2277.390 Y1680.790 I-502.921 J  62.720
G2 X2269.560 Y1648.440 I-384.762 J  76.005
G2 X2259.900 Y1620.510 I-263.762 J  75.590
G2 X2248.710 Y1597.860 I-158.937 J  64.432
G2 X2236.340 Y1581.180 I -82.376 J  48.164
G2 X2223.150 Y1570.950 I -36.456 J  33.386
G2 X2209.540 Y1567.510 I -13.801 J  25.958
G2 X2195.940 Y1570.950 I   0.201 J  29.398
G2 X2182.740 Y1581.180 I  23.247 J  43.627
G2 X2170.370 Y1597.860 I  70.006 J  64.844
F150
G1 Z   3.000
G0 Z  15.000 
M9 M5

(* SHAPE Nr: 11 *)
G0 X2380.550 Y1597.860
M3 M8
G0 Z   3.000 
G1 Z  -1.500
F400
G2 X2369.360 Y1620.510 I  79.203 J  53.219
G2 X2359.700 Y1648.440 I 156.647 J  69.814
G2 X2351.870 Y1680.790 I 376.932 J 108.355
G2 X2346.100 Y1716.580 I 497.151 J  98.510
G2 X2342.560 Y1754.720 I 593.345 J  74.306
G2 X2341.370 Y1794.060 I 647.318 J  39.269
G2 X2342.560 Y1833.400 I 648.508 J   0.071
G2 X2346.100 Y1871.540 I 596.885 J -36.166
G2 X2351.870 Y1907.330 I 502.921 J -62.720
G2 X2359.700 Y1939.680 I 384.762 J -76.005
G2 X2369.360 Y1967.600 I 263.746 J -75.622
G2 X2380.550 Y1990.260 I 158.951 J -64.400
G2 X2392.920 Y2006.950 I  82.392 J -48.137
G2 X2406.120 Y2017.170 I  36.429 J -33.416
G2 X2419.720 Y2020.610 I  13.801 J -25.958
G2 X2433.330 Y2017.170 I  -0.191 J -29.398
G2 X2446.520 Y2006.950 I -23.248 J -43.626
G2 X2458.890 Y1990.260 I -70.022 J -64.827
G2 X2470.080 Y1967.600 I-147.761 J -87.060
G2 X2479.740 Y1939.680 I-254.086 J-103.542
G2 X2487.570 Y1907.330 I-376.932 J-108.355
G2 X2493.340 Y1871.540 I-497.151 J -98.510
G2 X2496.880 Y1833.400 I-593.345 J -74.306
G2 X2498.070 Y1794.060 I-647.318 J -39.269
G2 X2496.880 Y1754.720 I-648.508 J  -0.071
G2 X2493.340 Y1716.580 I-596.885 J  36.166
G2 X2487.570 Y1680.790 I-502.921 J  62.720
G2 X2479.740 Y1648.440 I-384.762 J  76.005
G2 X2470.080 Y1620.510 I-263.762 J  75.590
G2 X2458.890 Y1597.860 I-158.937 J  64.432
G2 X2446.520 Y1581.180 I -82.376 J  48.164
G2 X2433.330 Y1570.950 I -36.456 J  33.386
G2 X2419.720 Y1567.510 I -13.801 J  25.958
G2 X2406.120 Y1570.950 I   0.201 J  29.398
G2 X2392.920 Y1581.180 I  23.247 J  43.627
G2 X2380.550 Y1597.860 I  70.006 J  64.844
F150
G1 Z  -3.000
F400
G2 X2369.360 Y1620.510 I  79.203 J  53.219
G2 X2359.700 Y1648.440 I 156.647 J  69.814
G2 X2351.870 Y1680.790 I 376.932 J 108.355
G2 X2346.100 Y1716.580 I 497.151 J  98.510
G2 X2342.560 Y1754.720 I 593.345 J  74.306
G2 X2341.370 Y1794.060 I 647.318 J  39.269
G2 X2342.560 Y1833.400 I 648.508 J   0.071
G2 X2346.100 Y1871.540 I 596.885 J -36.166
G2 X2351.870 Y1907.330 I 502.921 J -62.720
G2 X2359.700 Y1939.680 I 384.762 J -76.005
G2 X2369.360 Y1967.600 I 263.746 J -75.622
G2 X2380.550 Y1990.260 I 158.951 J -64.400
G2 X2392.920 Y2006.950 I  82.392 J -48.137
G2 X2406.120 Y2017.170 I  36.429 J -33.416
G2 X2419.720 Y2020.610 I  13.801 J -25.958
G2 X2433.330 Y2017.170 I  -0.191 J -29.398
G2 X2446.520 Y2006.950 I -23.248 J -43.626
G2 X2458.890 Y1990.260 I -70.022 J -64.827
G2 X2470.080 Y1967.600 I-147.761 J -87.060
G2 X2479.740 Y1939.680 I-254.086 J-103.542
G2 X2487.570 Y1907.330 I-376.932 J-108.355
G2 X2493.340 Y1871.540 I-497.151 J -98.510
G2 X2496.880 Y1833.400 I-593.345 J -74.306
G2 X2498.070 Y1794.060 I-647.318 J -39.269
G2 X2496.880 Y1754.720 I-648.508 J  -0.071
G2 X2493.340 Y1716.580 I-596.885 J  36.166
G2 X2487.570 Y1680.790 I-502.921 J  62.720
G2 X2479.740 Y1648.440 I-384.762 J  76.005
G2 X2470.080 Y1620.510 I-263.762 J  75.590
G2 X2458.890 Y1597.860 I-158.937 J  64.432
G2 X2446.520 Y1581.180 I -82.376 J  48.164
G2 X2433.330 Y1570.950 I -36.456 J  33.386
G2 X2419.720 Y1567.510 I -13.801 J  25.958
G2 X2406.120 Y1570.950 I   0.201 J  29.398
G2 X2392.920 Y1581.180 I  23.247 J  43.627
G2 X2380.550 Y1597.860 I  70.006 J  64.844
F150
G1 Z   3.000
G0 Z  15.000 
M9 M5

(* SHAPE Nr: 12 *)
G0 X2590.730 Y1597.860
M3 M8
G0 Z   3.000 
G1 Z  -1.500
F400
G2 X2579.540 Y1620.510 I  79.202 J  53.218
G2 X2569.880 Y1648.440 I 156.647 J  69.814
G2 X2562.050 Y1680.790 I 376.932 J 108.355
G2 X2556.280 Y1716.580 I 497.151 J  98.510
G2 X2552.740 Y1754.720 I 593.345 J  74.306
G2 X2551.550 Y1794.060 I 647.318 J  39.269
G2 X2552.740 Y1833.400 I 648.508 J   0.071
G2 X2556.280 Y1871.540 I 596.885 J -36.166
G2 X2562.050 Y1907.330 I 502.921 J -62.720
G2 X2569.880 Y1939.680 I 384.762 J -76.005
G2 X2579.540 Y1967.600 I 263.746 J -75.622
G2 X2590.730 Y1990.260 I 158.947 J -64.398
G2 X2603.100 Y2006.950 I  82.392 J -48.137
G2 X2616.300 Y2017.170 I  36.429 J -33.416
G2 X2629.900 Y2020.610 I  13.801 J -25.958
G2 X2643.510 Y2017.170 I  -0.191 J -29.398
G2 X2656.700 Y2006.950 I -23.248 J -43.626
G2 X2669.070 Y1990.260 I -70.022 J -64.827
G2 X2680.260 Y1967.600 I-147.761 J -87.060
G2 X2689.920 Y1939.680 I-254.086 J-103.542
G2 X2697.750 Y1907.330 I-376.932 J-108.355
G2 X2703.520 Y1871.540 I-497.151 J -98.510
G2 X2707.060 Y1833.400 I-593.345 J -74.306
G2 X2708.250 Y1794.060 I-647.318 J -39.269
G2 X2707.060 Y1754.720 I-648.508 J  -0.071
G2 X2703.520 Y1716.580 I-596.885 J  36.166
G2 X2697.750 Y1680.790 I-502.921 J  62.720
G2 X2689.920 Y1648.440 I-384.762 J  76.005
G2 X2680.260 Y1620.510 I-263.762 J  75.590
G2 X2669.070 Y1597.860 I-158.937 J  64.432
G2 X2656.700 Y1581.180 I -82.376 J  48.164
G2 X2643.510 Y1570.950 I -36.456 J  33.386
G2 X2629.900 Y1567.510 I -13.801 J  25.958
G2 X2616.300 Y1570.950 I   0.201 J  29.398
G2 X2603.100 Y1581.180 I  23.247 J  43.627
G2 X2590.730 Y1597.860 I  70.006 J  64.844
F150
G1 Z  -3.000
F400
G2 X2579.540 Y1620.510 I  79.202 J  53.218
G2 X2569.880 Y1648.440 I 156.647 J  69.814
G2 X2562.050 Y1680.790 I 376.932 J 108.355
G2 X2556.280 Y1716.580 I 497.151 J  98.510
G2 X2552.740 Y1754.720 I 593.345 J  74.306
G2 X2551.550 Y1794.060 I 647.318 J  39.269
G2 X2552.740 Y1833.400 I 648.508 J   0.071
G2 X2556.280 Y1871.540 I 596.885 J -36.166
G2 X2562.050 Y1907.330 I 502.921 J -62.720
G2 X2569.880 Y1939.680 I 384.762 J -76.005
G2 X2579.540 Y1967.600 I 263.746 J -75.622
G2 X2590.730 Y1990.260 I 158.947 J -64.398
G2 X2603.100 Y2006.950 I  82.392 J -48.137
G2 X2616.300 Y2017.170 I  36.429 J -33.416
G2 X2629.900 Y2020.610 I  13.801 J -25.958
G2 X2643.510 Y2017.170 I  -0.191 J -29.398
G2 X2656.700 Y2006.950 I -23.248 J -43.626
G2 X2669.070 Y1990.260 I -70.022 J -64.827
G2 X2680.260 Y1967.600 I-147.761 J -87.060
G2 X2689.920 Y1939.680 I-254.086 J-103.542
G2 X2697.750 Y1907.330 I-376.932 J-108.355
G2 X2703.520 Y1871.540 I-497.151 J -98.510
G2 X2707.060 Y1833.400 I-593.345 J -74.306
G2 X2708.250 Y1794.060 I-647.318 J -39.269
G2 X2707.060 Y1754.720 I-648.508 J  -0.071
G2 X2703.520 Y1716.580 I-596.885 J  36.166
G2 X2697.750 Y1680.790 I-502.921 J  62.720
G2 X2689.920 Y1648.440 I-384.762 J  76.005
G2 X2680.260 Y1620.510 I-263.762 J  75.590
G2 X2669.070 Y1597.860 I-158.937 J  64.432
G2 X2656.700 Y1581.180 I -82.376 J  48.164
G2 X2643.510 Y1570.950 I -36.456 J  33.386
G2 X2629.900 Y1567.510 I -13.801 J  25.958
G2 X2616.300 Y1570.950 I   0.201 J  29.398
G2 X2603.100 Y1581.180 I  23.247 J  43.627
G2 X2590.730 Y1597.860 I  70.006 J  64.844
F150
G1 Z   3.000
G0 Z  15.000 
M9 M5

(* SHAPE Nr: 13 *)
G0 X2579.540 Y1113.930
M3 M8
G0 Z   3.000 
G1 Z  -1.500
F400
G2 X2569.880 Y1141.860 I 156.647 J  69.814
G2 X2562.050 Y1174.210 I 376.932 J 108.355
G2 X2556.280 Y1210.000 I 497.151 J  98.510
G2 X2552.740 Y1248.140 I 593.345 J  74.306
G2 X2551.550 Y1287.480 I 647.318 J  39.269
G2 X2552.740 Y1326.820 I 648.508 J   0.071
G2 X2556.280 Y1364.960 I 596.885 J -36.166
G2 X2562.050 Y1400.750 I 502.921 J -62.720
G2 X2569.880 Y1433.100 I 384.762 J -76.005
G2 X2579.540 Y1461.020 I 263.746 J -75.622
G2 X2590.730 Y1483.680 I 158.951 J -64.400
G2 X2603.100 Y1500.370 I  82.392 J -48.137
G2 X2616.300 Y1510.590 I  36.429 J -33.416
G2 X2629.900 Y1514.030 I  13.801 J -25.958
G2 X2643.510 Y1510.590 I  -0.191 J -29.398
G2 X2656.700 Y1500.370 I -23.248 J -43.626
G2 X2669.070 Y1483.680 I -70.022 J -64.827
G2 X2680.260 Y1461.020 I-147.761 J -87.060
G2 X2689.920 Y1433.100 I-254.086 J-103.542
G2 X2697.750 Y1400.750 I-376.932 J-108.355
G2 X2703.520 Y1364.960 I-497.151 J -98.510
G2 X2707.060 Y1326.820 I-593.345 J -74.306
G2 X2708.250 Y1287.480 I-647.318 J -39.269
G2 X2707.060 Y1248.140 I-648.508 J  -0.071
G2 X2703.520 Y1210.000 I-596.885 J  36.166
G2 X2697.750 Y1174.210 I-502.921 J  62.720
G2 X2689.920 Y1141.860 I-384.762 J  76.005
G2 X2680.260 Y1113.930 I-263.762 J  75.590
G2 X2669.070 Y1091.280 I-158.937 J  64.432
G2 X2656.700 Y1074.600 I -82.376 J  48.164
G2 X2643.510 Y1064.370 I -36.456 J  33.386
G2 X2629.900 Y1060.930 I -13.801 J  25.958
G2 X2616.300 Y1064.370 I   0.201 J  29.398
G2 X2603.100 Y1074.600 I  23.247 J  43.627
G2 X2590.730 Y1091.280 I  70.006 J  64.844
G2 X2579.540 Y1113.930 I  79.202 J  53.218
F150
G1 Z  -3.000
F400
G2 X2569.880 Y1141.860 I 156.647 J  69.814
G2 X2562.050 Y1174.210 I 376.932 J 108.355
G2 X2556.280 Y1210.000 I 497.151 J  98.510
G2 X2552.740 Y1248.140 I 593.345 J  74.306
G2 X2551.550 Y1287.480 I 647.318 J  39.269
G2 X2552.740 Y1326.820 I 648.508 J   0.071
G2 X2556.280 Y1364.960 I 596.885 J -36.166
G2 X2562.050 Y1400.750 I 502.921 J -62.720
G2 X2569.880 Y1433.100 I 384.762 J -76.005
G2 X2579.540 Y1461.020 I 263.746 J -75.622
G2 X2590.730 Y1483.680 I 158.951 J -64.400
G2 X2603.100 Y1500.370 I  82.392 J -48.137
G2 X2616.300 Y1510.590 I  36.429 J -33.416
G2 X2629.900 Y1514.030 I  13.801 J -25.958
G2 X2643.510 Y1510.590 I  -0.191 J -29.398
G2 X2656.700 Y1500.370 I -23.248 J -43.626
G2 X2669.070 Y1483.680 I -70.022 J -64.827
G2 X2680.260 Y1461.020 I-147.761 J -87.060
G2 X2689.920 Y1433.100 I-254.086 J-103.542
G2 X2697.750 Y1400.750 I-376.932 J-108.355
G2 X2703.520 Y1364.960 I-497.151 J -98.510
G2 X2707.060 Y1326.820 I-593.345 J -74.306
G2 X2708.250 Y1287.480 I-647.318 J -39.269
G2 X2707.060 Y1248.140 I-648.508 J  -0.071
G2 X2703.520 Y1210.000 I-596.885 J  36.166
G2 X2697.750 Y1174.210 I-502.921 J  62.720
G2 X2689.920 Y1141.860 I-384.762 J  76.005
G2 X2680.260 Y1113.930 I-263.762 J  75.590
G2 X2669.070 Y1091.280 I-158.937 J  64.432
G2 X2656.700 Y1074.600 I -82.376 J  48.164
G2 X2643.510 Y1064.370 I -36.456 J  33.386
G2 X2629.900 Y1060.930 I -13.801 J  25.958
G2 X2616.300 Y1064.370 I   0.201 J  29.398
G2 X2603.100 Y1074.600 I  23.247 J  43.627
G2 X2590.730 Y1091.280 I  70.006 J  64.844
G2 X2579.540 Y1113.930 I  79.202 J  53.218
F150
G1 Z   3.000
G0 Z  15.000 
M9 M5

(* SHAPE Nr: 14 *)
G0 X2369.360 Y1113.930
M3 M8
G0 Z   3.000 
G1 Z  -1.500
F400
G2 X2359.700 Y1141.860 I 156.647 J  69.814
G2 X2351.870 Y1174.210 I 376.932 J 108.355
G2 X2346.100 Y1210.000 I 497.151 J  98.510
G2 X2342.560 Y1248.140 I 593.345 J  74.306
G2 X2341.370 Y1287.480 I 647.318 J  39.269
G2 X2342.560 Y1326.820 I 648.508 J   0.071
G2 X2346.100 Y1364.960 I 596.885 J -36.166
G2 X2351.870 Y1400.750 I 502.921 J -62.720
G2 X2359.700 Y1433.100 I 384.762 J -76.005
G2 X2369.360 Y1461.020 I 263.746 J -75.622
G2 X2380.550 Y1483.680 I 158.951 J -64.400
G2 X2392.920 Y1500.370 I  82.392 J -48.137
G2 X2406.120 Y1510.590 I  36.429 J -33.416
G2 X2419.720 Y1514.030 I  13.801 J -25.958
G2 X2433.330 Y1510.590 I  -0.191 J -29.398
G2 X2446.520 Y1500.370 I -23.248 J -43.626
G2 X2458.890 Y1483.680 I -70.022 J -64.827
G2 X2470.080 Y1461.020 I-147.761 J -87.060
G2 X2479.740 Y1433.100 I-254.086 J-103.542
G2 X2487.570 Y1400.750 I-376.932 J-108.355
G2 X2493.340 Y1364.960 I-497.151 J -98.510
G2 X2496.880 Y1326.820 I-593.345 J -74.306
G2 X2498.070 Y1287.480 I-647.318 J -39.269
G2 X2496.880 Y1248.140 I-648.508 J  -0.071
G2 X2493.340 Y1210.000 I-596.885 J  36.166
G2 X2487.570 Y1174.210 I-502.921 J  62.720
G2 X2479.740 Y1141.860 I-384.762 J  76.005
G2 X2470.080 Y1113.930 I-263.762 J  75.590
G2 X2458.890 Y1091.280 I-158.937 J  64.432
G2 X2446.520 Y1074.600 I -82.376 J  48.164
G2 X2433.330 Y1064.370 I -36.456 J  33.386
G2 X2419.720 Y1060.930 I -13.801 J  25.958
G2 X2406.120 Y1064.370 I   0.201 J  29.398
G2 X2392.920 Y1074.600 I  23.247 J  43.627
G2 X2380.550 Y1091.280 I  70.006 J  64.844
G2 X2369.360 Y1113.930 I  79.203 J  53.219
F150
G1 Z  -3.000
F400
G2 X2359.700 Y1141.860 I 156.647 J  69.814
G2 X2351.870 Y1174.210 I 376.932 J 108.355
G2 X2346.100 Y1210.000 I 497.151 J  98.510
G2 X2342.560 Y1248.140 I 593.345 J  74.306
G2 X2341.370 Y1287.480 I 647.318 J  39.269
G2 X2342.560 Y1326.820 I 648.508 J   0.071
G2 X2346.100 Y1364.960 I 596.885 J -36.166
G2 X2351.870 Y1400.750 I 502.921 J -62.720
G2 X2359.700 Y1433.100 I 384.762 J -76.005
G2 X2369.360 Y1461.020 I 263.746 J -75.622
G2 X2380.550 Y1483.680 I 158.951 J -64.400
G2 X2392.920 Y1500.370 I  82.392 J -48.137
G2 X2406.120 Y1510.590 I  36.429 J -33.416
G2 X2419.720 Y1514.030 I  13.801 J -25.958
G2 X2433.330 Y1510.590 I  -0.191 J -29.398
G2 X2446.520 Y1500.370 I -23.248 J -43.626
G2 X2458.890 Y1483.680 I -70.022 J -64.827
G2 X2470.080 Y1461.020 I-147.761 J -87.060
G2 X2479.740 Y1433.100 I-254.086 J-103.542
G2 X2487.570 Y1400.750 I-376.932 J-108.355
G2 X2493.340 Y1364.960 I-497.151 J -98.510
G2 X2496.880 Y1326.820 I-593.345 J -74.306
G2 X2498.070 Y1287.480 I-647.318 J -39.269
G2 X2496.880 Y1248.140 I-648.508 J  -0.071
G2 X2493.340 Y1210.000 I-596.885 J  36.166
G2 X2487.570 Y1174.210 I-502.921 J  62.720
G2 X2479.740 Y1141.860 I-384.762 J  76.005
G2 X2470.080 Y1113.930 I-263.762 J  75.590
G2 X2458.890 Y1091.280 I-158.937 J  64.432
G2 X2446.520 Y1074.600 I -82.376 J  48.164
G2 X2433.330 Y1064.370 I -36.456 J  33.386
G2 X2419.720 Y1060.930 I -13.801 J  25.958
G2 X2406.120 Y1064.370 I   0.201 J  29.398
G2 X2392.920 Y1074.600 I  23.247 J  43.627
G2 X2380.550 Y1091.280 I  70.006 J  64.844
G2 X2369.360 Y1113.930 I  79.203 J  53.219
F150
G1 Z   3.000
G0 Z  15.000 
M9 M5

(* SHAPE Nr: 15 *)
G0 X2170.370 Y1091.280
M3 M8
G0 Z   3.000 
G1 Z  -1.500
F400
G2 X2159.180 Y1113.930 I  79.202 J  53.218
G2 X2149.520 Y1141.860 I 156.647 J  69.814
G2 X2141.690 Y1174.210 I 376.932 J 108.355
G2 X2135.920 Y1210.000 I 497.151 J  98.510
G2 X2132.380 Y1248.140 I 593.345 J  74.306
G2 X2131.190 Y1287.480 I 647.318 J  39.269
G2 X2132.380 Y1326.820 I 648.508 J   0.071
G2 X2135.920 Y1364.960 I 596.885 J -36.166
G2 X2141.690 Y1400.750 I 502.921 J -62.720
G2 X2149.520 Y1433.100 I 384.762 J -76.005
G2 X2159.180 Y1461.020 I 263.746 J -75.622
G2 X2170.370 Y1483.680 I 158.951 J -64.400
G2 X2182.740 Y1500.370 I  82.392 J -48.137
G2 X2195.940 Y1510.590 I  36.429 J -33.416
G2 X2209.540 Y1514.030 I  13.801 J -25.958
G2 X2223.150 Y1510.590 I  -0.191 J -29.398
G2 X2236.340 Y1500.370 I -23.248 J -43.626
G2 X2248.710 Y1483.680 I -70.022 J -64.827
G2 X2259.900 Y1461.020 I-147.761 J -87.060
G2 X2269.560 Y1433.100 I-254.086 J-103.542
G2 X2277.390 Y1400.750 I-376.932 J-108.355
G2 X2283.160 Y1364.960 I-497.151 J -98.510
G2 X2286.700 Y1326.820 I-593.345 J -74.306
G2 X2287.890 Y1287.480 I-647.318 J -39.269
G2 X2286.700 Y1248.140 I-648.508 J  -0.071
G2 X2283.160 Y1210.000 I-596.885 J  36.166
G2 X2277.390 Y1174.210 I-502.921 J  62.720
G2 X2269.560 Y1141.860 I-384.762 J  76.005
G2 X2259.900 Y1113.930 I-263.762 J  75.590
G2 X2248.710 Y1091.280 I-158.937 J  64.432
G2 X2236.340 Y1074.600 I -82.376 J  48.164
G2 X2223.150 Y1064.370 I -36.456 J  33.386
G2 X2209.540 Y1060.930 I -13.801 J  25.958
G2 X2195.940 Y1064.370 I   0.201 J  29.398
G2 X2182.740 Y1074.600 I  23.247 J  43.627
G2 X2170.370 Y1091.280 I  70.006 J  64.844
F150
G1 Z  -3.000
F400
G2 X2159.180 Y1113.930 I  79.202 J  53.218
G2 X2149.520 Y1141.860 I 156.647 J  69.814
G2 X2141.690 Y1174.210 I 376.932 J 108.355
G2 X2135.920 Y1210.000 I 497.151 J  98.510
G2 X2132.380 Y1248.140 I 593.345 J  74.306
G2 X2131.190 Y1287.480 I 647.318 J  39.269
G2 X2132.380 Y1326.820 I 648.508 J   0.071
G2 X2135.920 Y1364.960 I 596.885 J -36.166
G2 X2141.690 Y1400.750 I 502.921 J -62.720
G2 X2149.520 Y1433.100 I 384.762 J -76.005
G2 X2159.180 Y1461.020 I 263.746 J -75.622
G2 X2170.370 Y1483.680 I 158.951 J -64.400
G2 X2182.740 Y1500.370 I  82.392 J -48.137
G2 X2195.940 Y1510.590 I  36.429 J -33.416
G2 X2209.540 Y1514.030 I  13.801 J -25.958
G2 X2223.150 Y1510.590 I  -0.191 J -29.398
G2 X2236.340 Y1500.370 I -23.248 J -43.626
G2 X2248.710 Y1483.680 I -70.022 J -64.827
G2 X2259.900 Y1461.020 I-147.761 J -87.060
G2 X2269.560 Y1433.100 I-254.086 J-103.542
G2 X2277.390 Y1400.750 I-376.932 J-108.355
G2 X2283.160 Y1364.960 I-497.151 J -98.510
G2 X2286.700 Y1326.820 I-593.345 J -74.306
G2 X2287.890 Y1287.480 I-647.318 J -39.269
G2 X2286.700 Y1248.140 I-648.508 J  -0.071
G2 X2283.160 Y1210.000 I-596.885 J  36.166
G2 X2277.390 Y1174.210 I-502.921 J  62.720
G2 X2269.560 Y1141.860 I-384.762 J  76.005
G2 X2259.900 Y1113.930 I-263.762 J  75.590
G2 X2248.710 Y1091.280 I-158.937 J  64.432
G2 X2236.340 Y1074.600 I -82.376 J  48.164
G2 X2223.150 Y1064.370 I -36.456 J  33.386
G2 X2209.540 Y1060.930 I -13.801 J  25.958
G2 X2195.940 Y1064.370 I   0.201 J  29.398
G2 X2182.740 Y1074.600 I  23.247 J  43.627
G2 X2170.370 Y1091.280 I  70.006 J  64.844
F150
G1 Z   3.000
G0 Z  15.000 
M9 M5

(* SHAPE Nr: 16 *)
G0 X1960.190 Y1091.280
M3 M8
G0 Z   3.000 
G1 Z  -1.500
F400
G2 X1949.000 Y1113.930 I  79.203 J  53.219
G2 X1939.340 Y1141.860 I 156.647 J  69.814
G2 X1931.510 Y1174.210 I 376.932 J 108.355
G2 X1925.740 Y1210.000 I 497.151 J  98.510
G2 X1922.200 Y1248.140 I 593.345 J  74.306
G2 X1921.010 Y1287.480 I 647.318 J  39.269
G2 X1922.200 Y1326.820 I 648.508 J   0.071
G2 X1925.740 Y1364.960 I 596.885 J -36.166
G2 X1931.510 Y1400.750 I 502.921 J -62.720
G2 X1939.340 Y1433.100 I 384.762 J -76.005
G2 X1949.000 Y1461.020 I 263.746 J -75.622
G2 X1960.190 Y1483.680 I 158.951 J -64.400
G2 X1972.560 Y1500.370 I  82.391 J -48.136
G2 X1985.760 Y1510.590 I  36.429 J -33.416
G2 X1999.360 Y1514.030 I  13.801 J -25.958
G2 X2012.970 Y1510.590 I  -0.191 J -29.398
G2 X2026.160 Y1500.370 I -23.248 J -43.626
G2 X2038.530 Y1483.680 I -70.021 J -64.826
G2 X2049.720 Y1461.020 I-147.761 J -87.060
G2 X2059.380 Y1433.100 I-254.086 J-103.542
G2 X2067.210 Y1400.750 I-376.932 J-108.355
G2 X2072.980 Y1364.960 I-497.151 J -98.510
G2 X2076.520 Y1326.820 I-593.345 J -74.306
G2 X2077.710 Y1287.480 I-647.318 J -39.269
G2 X2076.520 Y1248.140 I-648.508 J  -0.071
G2 X2072.980 Y1210.000 I-596.885 J  36.166
G2 X2067.210 Y1174.210 I-502.921 J  62.720
G2 X2059.380 Y1141.860 I-384.762 J  76.005
G2 X2049.720 Y1113.930 I-263.762 J  75.590
G2 X2038.530 Y1091.280 I-158.937 J  64.432
G2 X2026.160 Y1074.600 I -82.376 J  48.164
G2 X2012.970 Y1064.370 I -36.456 J  33.386
G2 X1999.360 Y1060.930 I -13.801 J  25.958
G2 X1985.760 Y1064.370 I   0.201 J  29.398
G2 X1972.560 Y1074.600 I  23.247 J  43.627
G2 X1960.190 Y1091.280 I  70.004 J  64.843
F150
G1 Z  -3.000
F400
G2 X1949.000 Y1113.930 I  79.203 J  53.219
G2 X1939.340 Y1141.860 I 156.647 J  69.814
G2 X1931.510 Y1174.210 I 376.932 J 108.355
G2 X1925.740 Y1210.000 I 497.151 J  98.510
G2 X1922.200 Y1248.140 I 593.345 J  74.306
G2 X1921.010 Y1287.480 I 647.318 J  39.269
G2 X1922.200 Y1326.820 I 648.508 J   0.071
G2 X1925.740 Y1364.960 I 596.885 J -36.166
G2 X1931.510 Y1400.750 I 502.921 J -62.720
G2 X1939.340 Y1433.100 I 384.762 J -76.005
G2 X1949.000 Y1461.020 I 263.746 J -75.622
G2 X1960.190 Y1483.680 I 158.951 J -64.400
G2 X1972.560 Y1500.370 I  82.391 J -48.136
G2 X1985.760 Y1510.590 I  36.429 J -33.416
G2 X1999.360 Y1514.030 I  13.801 J -25.958
G2 X2012.970 Y1510.590 I  -0.191 J -29.398
G2 X2026.160 Y1500.370 I -23.248 J -43.626
G2 X2038.530 Y1483.680 I -70.021 J -64.826
G2 X2049.720 Y1461.020 I-147.761 J -87.060
G2 X2059.380 Y1433.100 I-254.086 J-103.542
G2 X2067.210 Y1400.750 I-376.932 J-108.355
G2 X2072.980 Y1364.960 I-497.151 J -98.510
G2 X2076.520 Y1326.820 I-593.345 J -74.306
G2 X2077.710 Y1287.480 I-647.318 J -39.269
G2 X2076.520 Y1248.140 I-648.508 J  -0.071
G2 X2072.980 Y1210.000 I-596.885 J  36.166
G2 X2067.210 Y1174.210 I-502.921 J  62.720
G2 X2059.380 Y1141.860 I-384.762 J  76.005
G2 X2049.720 Y1113.930 I-263.762 J  75.590
G2 X2038.530 Y1091.280 I-158.937 J  64.432
G2 X2026.160 Y1074.600 I -82.376 J  48.164
G2 X2012.970 Y1064.370 I -36.456 J  33.386
G2 X1999.360 Y1060.930 I -13.801 J  25.958
G2 X1985.760 Y1064.370 I   0.201 J  29.398
G2 X1972.560 Y1074.600 I  23.247 J  43.627
G2 X1960.190 Y1091.280 I  70.004 J  64.843
F150
G1 Z   3.000
G0 Z  15.000 
M9 M5

(* SHAPE Nr: 17 *)
G0 X1750.010 Y1091.280
M3 M8
G0 Z   3.000 
G1 Z  -1.500
F400
G2 X1738.820 Y1113.930 I  79.203 J  53.219
G2 X1729.160 Y1141.860 I 156.647 J  69.814
G2 X1721.330 Y1174.210 I 376.932 J 108.355
G2 X1715.560 Y1210.000 I 497.151 J  98.510
G2 X1712.020 Y1248.140 I 593.345 J  74.306
G2 X1710.830 Y1287.480 I 647.318 J  39.269
G2 X1712.020 Y1326.820 I 648.508 J   0.071
G2 X1715.560 Y1364.960 I 596.885 J -36.166
G2 X1721.330 Y1400.750 I 502.921 J -62.720
G2 X1729.160 Y1433.100 I 384.762 J -76.005
G2 X1738.820 Y1461.020 I 263.746 J -75.622
G2 X1750.010 Y1483.680 I 158.951 J -64.400
G2 X1762.380 Y1500.370 I  82.391 J -48.136
G2 X1775.580 Y1510.590 I  36.428 J -33.416
G2 X1789.180 Y1514.030 I  13.801 J -25.958
G2 X1802.790 Y1510.590 I  -0.191 J -29.398
G2 X1815.980 Y1500.370 I -23.248 J -43.626
G2 X1828.350 Y1483.680 I -70.021 J -64.826
G2 X1839.540 Y1461.020 I-147.761 J -87.060
G2 X1849.200 Y1433.100 I-254.086 J-103.542
G2 X1857.030 Y1400.750 I-376.932 J-108.355
G2 X1862.800 Y1364.960 I-497.151 J -98.510
G2 X1866.340 Y1326.820 I-593.345 J -74.306
G2 X1867.530 Y1287.480 I-647.318 J -39.269
G2 X1866.340 Y1248.140 I-648.508 J  -0.071
G2 X1862.800 Y1210.000 I-596.885 J  36.166
G2 X1857.030 Y1174.210 I-502.921 J  62.720
G2 X1849.200 Y1141.860 I-384.762 J  76.005
G2 X1839.540 Y1113.930 I-263.762 J  75.590
G2 X1828.350 Y1091.280 I-158.937 J  64.432
G2 X1815.980 Y1074.600 I -82.376 J  48.164
G2 X1802.790 Y1064.370 I -36.456 J  33.386
G2 X1789.180 Y1060.930 I -13.801 J  25.958
G2 X1775.580 Y1064.370 I   0.201 J  29.398
G2 X1762.380 Y1074.600 I  23.247 J  43.627
G2 X1750.010 Y1091.280 I  70.006 J  64.844
F150
G1 Z  -3.000
F400
G2 X1738.820 Y1113.930 I  79.203 J  53.219
G2 X1729.160 Y1141.860 I 156.647 J  69.814
G2 X1721.330 Y1174.210 I 376.932 J 108.355
G2 X1715.560 Y1210.000 I 497.151 J  98.510
G2 X1712.020 Y1248.140 I 593.345 J  74.306
G2 X1710.830 Y1287.480 I 647.318 J  39.269
G2 X1712.020 Y1326.820 I 648.508 J   0.071
G2 X1715.560 Y1364.960 I 596.885 J -36.166
G2 X1721.330 Y1400.750 I 502.921 J -62.720
G2 X1729.160 Y1433.100 I 384.762 J -76.005
G2 X1738.820 Y1461.020 I 263.746 J -75.622
G2 X1750.010 Y1483.680 I 158.951 J -64.400
G2 X1762.380 Y1500.370 I  82.391 J -48.136
G2 X1775.580 Y1510.590 I  36.428 J -33.416
G2 X1789.180 Y1514.030 I  13.801 J -25.958
G2 X1802.790 Y1510.590 I  -0.191 J -29.398
G2 X1815.980 Y1500.370 I -23.248 J -43.626
G2 X1828.350 Y1483.680 I -70.021 J -64.826
G2 X1839.540 Y1461.020 I-147.761 J -87.060
G2 X1849.200 Y1433.100 I-254.086 J-103.542
G2 X1857.030 Y1400.750 I-376.932 J-108.355
G2 X1862.800 Y1364.960 I-497.151 J -98.510
G2 X1866.340 Y1326.820 I-593.345 J -74.306
G2 X1867.530 Y1287.480 I-647.318 J -39.269
G2 X1866.340 Y1248.140 I-648.508 J  -0.071
G2 X1862.800 Y1210.000 I-596.885 J  36.166
G2 X1857.030 Y1174.210 I-502.921 J  62.720
G2 X1849.200 Y1141.860 I-384.762 J  76.005
G2 X1839.540 Y1113.930 I-263.762 J  75.590
G2 X1828.350 Y1091.280 I-158.937 J  64.432
G2 X1815.980 Y1074.600 I -82.376 J  48.164
G2 X1802.790 Y1064.370 I -36.456 J  33.386
G2 X1789.180 Y1060.930 I -13.801 J  25.958
G2 X1775.580 Y1064.370 I   0.201 J  29.398
G2 X1762.380 Y1074.600 I  23.247 J  43.627
G2 X1750.010 Y1091.280 I  70.006 J  64.844
F150
G1 Z   3.000
G0 Z  15.000 
M9 M5

(* SHAPE Nr: 18 *)
G0 X1539.830 Y1091.280
M3 M8
G0 Z   3.000 
G1 Z  -1.500
F400
G2 X1528.640 Y1113.930 I  79.203 J  53.219
G2 X1518.980 Y1141.860 I 156.647 J  69.814
G2 X1511.150 Y1174.210 I 376.932 J 108.355
G2 X1505.380 Y1210.000 I 497.151 J  98.510
G2 X1501.840 Y1248.140 I 593.345 J  74.306
G2 X1500.650 Y1287.480 I 647.318 J  39.269
G2 X1501.840 Y1326.820 I 648.508 J   0.071
G2 X1505.380 Y1364.960 I 596.885 J -36.166
G2 X1511.150 Y1400.750 I 502.921 J -62.720
G2 X1518.980 Y1433.100 I 384.762 J -76.005
G2 X1528.640 Y1461.020 I 263.746 J -75.622
G2 X1539.830 Y1483.680 I 158.951 J -64.400
G2 X1552.200 Y1500.370 I  82.391 J -48.136
G2 X1565.400 Y1510.590 I  36.428 J -33.416
G2 X1579.000 Y1514.030 I  13.801 J -25.958
G2 X1592.610 Y1510.590 I  -0.191 J -29.398
G2 X1605.800 Y1500.370 I -23.248 J -43.626
G2 X1618.170 Y1483.680 I -70.021 J -64.826
G2 X1629.360 Y1461.020 I-147.761 J -87.060
G2 X1639.020 Y1433.100 I-254.086 J-103.542
G2 X1646.850 Y1400.750 I-376.932 J-108.355
G2 X1652.620 Y1364.960 I-497.151 J -98.510
G2 X1656.160 Y1326.820 I-593.345 J -74.306
G2 X1657.350 Y1287.480 I-647.318 J -39.269
G2 X1656.160 Y1248.140 I-648.508 J  -0.071
G2 X1652.620 Y1210.000 I-596.885 J  36.166
G2 X1646.850 Y1174.210 I-502.921 J  62.720
G2 X1639.020 Y1141.860 I-384.762 J  76.005
G2 X1629.360 Y1113.930 I-263.762 J  75.590
G2 X1618.170 Y1091.280 I-158.937 J  64.432
G2 X1605.800 Y1074.600 I -82.376 J  48.164
G2 X1592.610 Y1064.370 I -36.456 J  33.386
G2 X1579.000 Y1060.930 I -13.801 J  25.958
G2 X1565.400 Y1064.370 I   0.201 J  29.398
G2 X1552.200 Y1074.600 I  23.247 J  43.627
G2 X1539.830 Y1091.280 I  70.006 J  64.844
F150
G1 Z  -3.000
F400
G2 X1528.640 Y1113.930 I  79.203 J  53.219
G2 X1518.980 Y1141.860 I 156.647 J  69.814
G2 X1511.150 Y1174.210 I 376.932 J 108.355
G2 X1505.380 Y1210.000 I 497.151 J  98.510
G2 X1501.840 Y1248.140 I 593.345 J  74.306
G2 X1500.650 Y1287.480 I 647.318 J  39.269
G2 X1501.840 Y1326.820 I 648.508 J   0.071
G2 X1505.380 Y1364.960 I 596.885 J -36.166
G2 X1511.150 Y1400.750 I 502.921 J -62.720
G2 X1518.980 Y1433.100 I 384.762 J -76.005
G2 X1528.640 Y1461.020 I 263.746 J -75.622
G2 X1539.830 Y1483.680 I 158.951 J -64.400
G2 X1552.200 Y1500.370 I  82.391 J -48.136
G2 X1565.400 Y1510.590 I  36.428 J -33.416
G2 X1579.000 Y1514.030 I  13.801 J -25.958
G2 X1592.610 Y1510.590 I  -0.191 J -29.398
G2 X1605.800 Y1500.370 I -23.248 J -43.626
G2 X1618.170 Y1483.680 I -70.021 J -64.826
G2 X1629.360 Y1461.020 I-147.761 J -87.060
G2 X1639.020 Y1433.100 I-254.086 J-103.542
G2 X1646.850 Y1400.750 I-376.932 J-108.355
G2 X1652.620 Y1364.960 I-497.151 J -98.510
G2 X1656.160 Y1326.820 I-593.345 J -74.306
G2 X1657.350 Y1287.480 I-647.318 J -39.269
G2 X1656.160 Y1248.140 I-648.508 J  -0.071
G2 X1652.620 Y1210.000 I-596.885 J  36.166
G2 X1646.850 Y1174.210 I-502.921 J  62.720
G2 X1639.020 Y1141.860 I-384.762 J  76.005
G2 X1629.360 Y1113.930 I-263.762 J  75.590
G2 X1618.170 Y1091.280 I-158.937 J  64.432
G2 X1605.800 Y1074.600 I -82.376 J  48.164
G2 X1592.610 Y1064.370 I -36.456 J  33.386
G2 X1579.000 Y1060.930 I -13.801 J  25.958
G2 X1565.400 Y1064.370 I   0.201 J  29.398
G2 X1552.200 Y1074.600 I  23.247 J  43.627
G2 X1539.830 Y1091.280 I  70.006 J  64.844
F150
G1 Z   3.000
G0 Z  15.000 
M9 M5

(* SHAPE Nr: 19 *)
G0 X1342.020 Y1074.600
M3 M8
G0 Z   3.000 
G1 Z  -1.500
F400
G2 X1329.650 Y1091.280 I  70.004 J  64.843
G2 X1318.460 Y1113.930 I  79.203 J  53.219
G2 X1308.800 Y1141.860 I 156.647 J  69.814
G2 X1300.970 Y1174.210 I 376.932 J 108.355
G2 X1295.200 Y1210.000 I 497.151 J  98.510
G2 X1291.660 Y1248.140 I 593.345 J  74.306
G2 X1290.470 Y1287.480 I 647.318 J  39.269
G2 X1291.660 Y1326.820 I 648.508 J   0.071
G2 X1295.200 Y1364.960 I 596.885 J -36.166
G2 X1300.970 Y1400.750 I 502.921 J -62.720
G2 X1308.800 Y1433.100 I 384.762 J -76.005
G2 X1318.460 Y1461.020 I 263.746 J -75.622
G2 X1329.650 Y1483.680 I 158.951 J -64.400
G2 X1342.020 Y1500.370 I  82.391 J -48.136
G2 X1355.220 Y1510.590 I  36.429 J -33.416
G2 X1368.820 Y1514.030 I  13.801 J -25.958
G2 X1382.430 Y1510.590 I  -0.191 J -29.398
G2 X1395.620 Y1500.370 I -23.248 J -43.626
G2 X1407.990 Y1483.680 I -70.021 J -64.826
G2 X1419.180 Y1461.020 I-147.761 J -87.060
G2 X1428.840 Y1433.100 I-254.086 J-103.542
G2 X1436.670 Y1400.750 I-376.932 J-108.355
G2 X1442.440 Y1364.960 I-497.151 J -98.510
G2 X1445.980 Y1326.820 I-593.345 J -74.306
G2 X1447.170 Y1287.480 I-647.318 J -39.269
G2 X1445.980 Y1248.140 I-648.508 J  -0.071
G2 X1442.440 Y1210.000 I-596.885 J  36.166
G2 X1436.670 Y1174.210 I-502.921 J  62.720
G2 X1428.840 Y1141.860 I-384.762 J  76.005
G2 X1419.180 Y1113.930 I-263.752 J  75.587
G2 X1407.990 Y1091.280 I-158.937 J  64.432
G2 X1395.620 Y1074.600 I -82.376 J  48.164
G2 X1382.430 Y1064.370 I -36.456 J  33.386
G2 X1368.820 Y1060.930 I -13.801 J  25.958
G2 X1355.220 Y1064.370 I   0.201 J  29.398
G2 X1342.020 Y1074.600 I  23.247 J  43.627
F150
G1 Z  -3.000
F400
G2 X1329.650 Y1091.280 I  70.004 J  64.843
G2 X1318.460 Y1113.930 I  79.203 J  53.219
G2 X1308.800 Y1141.860 I 156.647 J  69.814
G2 X1300.970 Y1174.210 I 376.932 J 108.355
G2 X1295.200 Y1210.000 I 497.151 J  98.510
G2 X1291.660 Y1248.140 I 593.345 J  74.306
G2 X1290.470 Y1287.480 I 647.318 J  39.269
G2 X1291.660 Y1326.820 I 648.508 J   0.071
G2 X1295.200 Y1364.960 I 596.885 J -36.166
G2 X1300.970 Y1400.750 I 502.921 J -62.720
G2 X1308.800 Y1433.100 I 384.762 J -76.005
G2 X1318.460 Y1461.020 I 263.746 J -75.622
G2 X1329.650 Y1483.680 I 158.951 J -64.400
G2 X1342.020 Y1500.370 I  82.391 J -48.136
G2 X1355.220 Y1510.590 I  36.429 J -33.416
G2 X1368.820 Y1514.030 I  13.801 J -25.958
G2 X1382.430 Y1510.590 I  -0.191 J -29.398
G2 X1395.620 Y1500.370 I -23.248 J -43.626
G2 X1407.990 Y1483.680 I -70.021 J -64.826
G2 X1419.180 Y1461.020 I-147.761 J -87.060
G2 X1428.840 Y1433.100 I-254.086 J-103.542
G2 X1436.670 Y1400.750 I-376.932 J-108.355
G2 X1442.440 Y1364.960 I-497.151 J -98.510
G2 X1445.980 Y1326.820 I-593.345 J -74.306
G2 X1447.170 Y1287.480 I-647.318 J -39.269
G2 X1445.980 Y1248.140 I-648.508 J  -0.071
G2 X1442.440 Y1210.000 I-596.885 J  36.166
G2 X1436.670 Y1174.210 I-502.921 J  62.720
G2 X1428.840 Y1141.860 I-384.762 J  76.005
G2 X1419.180 Y1113.930 I-263.752 J  75.587
G2 X1407.990 Y1091.280 I-158.937 J  64.432
G2 X1395.620 Y1074.600 I -82.376 J  48.164
G2 X1382.430 Y1064.370 I -36.456 J  33.386
G2 X1368.820 Y1060.930 I -13.801 J  25.958
G2 X1355.220 Y1064.370 I   0.201 J  29.398
G2 X1342.020 Y1074.600 I  23.247 J  43.627
F150
G1 Z   3.000
G0 Z  15.000 
M9 M5

(* SHAPE Nr: 20 *)
G0 X1131.840 Y1074.600
M3 M8
G0 Z   3.000 
G1 Z  -1.500
F400
G2 X1119.470 Y1091.280 I  70.004 J  64.843
G2 X1108.280 Y1113.930 I  79.203 J  53.219
G2 X1098.620 Y1141.860 I 156.647 J  69.814
G2 X1090.790 Y1174.210 I 376.932 J 108.355
G2 X1085.020 Y1210.000 I 497.151 J  98.510
G2 X1081.480 Y1248.140 I 593.345 J  74.306
G2 X1080.290 Y1287.480 I 647.318 J  39.269
G2 X1081.480 Y1326.820 I 648.508 J   0.071
G2 X1085.020 Y1364.960 I 596.885 J -36.166
G2 X1090.790 Y1400.750 I 502.921 J -62.720
G2 X1098.620 Y1433.100 I 384.762 J -76.005
G2 X1108.280 Y1461.020 I 263.746 J -75.622
G2 X1119.470 Y1483.680 I 158.951 J -64.400
G2 X1131.840 Y1500.370 I  82.391 J -48.136
G2 X1145.040 Y1510.590 I  36.429 J -33.416
G2 X1158.640 Y1514.030 I  13.801 J -25.958
G2 X1172.250 Y1510.590 I  -0.191 J -29.398
G2 X1185.440 Y1500.370 I -23.248 J -43.626
G2 X1197.810 Y1483.680 I -70.021 J -64.826
G2 X1209.000 Y1461.020 I-147.761 J -87.060
G2 X1218.660 Y1433.100 I-254.086 J-103.542
G2 X1226.490 Y1400.750 I-376.932 J-108.355
G2 X1232.260 Y1364.960 I-497.151 J -98.510
G2 X1235.800 Y1326.820 I-593.345 J -74.306
G2 X1236.990 Y1287.480 I-647.318 J -39.269
G2 X1235.800 Y1248.140 I-648.508 J  -0.071
G2 X1232.260 Y1210.000 I-596.885 J  36.166
G2 X1226.490 Y1174.210 I-502.921 J  62.720
G2 X1218.660 Y1141.860 I-384.762 J  76.005
G2 X1209.000 Y1113.930 I-263.752 J  75.587
G2 X1197.810 Y1091.280 I-158.937 J  64.432
G2 X1185.440 Y1074.600 I -82.376 J  48.164
G2 X1172.250 Y1064.370 I -36.456 J  33.386
G2 X1158.640 Y1060.930 I -13.801 J  25.958
G2 X1145.040 Y1064.370 I   0.201 J  29.398
G2 X1131.840 Y1074.600 I  23.247 J  43.627
F150
G1 Z  -3.000
F400
G2 X1119.470 Y1091.280 I  70.004 J  64.843
G2 X1108.280 Y1113.930 I  79.203 J  53.219
G2 X1098.620 Y1141.860 I 156.647 J  69.814
G2 X1090.790 Y1174.210 I 376.932 J 108.355
G2 X1085.020 Y1210.000 I 497.151 J  98.510
G2 X1081.480 Y1248.140 I 593.345 J  74.306
G2 X1080.290 Y1287.480 I 647.318 J  39.269
G2 X1081.480 Y1326.820 I 648.508 J   0.071
G2 X1085.020 Y1364.960 I 596.885 J -36.166
G2 X1090.790 Y1400.750 I 502.921 J -62.720
G2 X1098.620 Y1433.100 I 384.762 J -76.005
G2 X1108.280 Y1461.020 I 263.746 J -75.622
G2 X1119.470 Y1483.680 I 158.951 J -64.400
G2 X1131.840 Y1500.370 I  82.391 J -48.136
G2 X1145.040 Y1510.590 I  36.429 J -33.416
G2 X1158.640 Y1514.030 I  13.801 J -25.958
G2 X1172.250 Y1510.590 I  -0.191 J -29.398
G2 X1185.440 Y1500.370 I -23.248 J -43.626
G2 X1197.810 Y1483.680 I -70.021 J -64.826
G2 X1209.000 Y1461.020 I-147.761 J -87.060
G2 X1218.660 Y1433.100 I-254.086 J-103.542
G2 X1226.490 Y1400.750 I-376.932 J-108.355
G2 X1232.260 Y1364.960 I-497.151 J -98.510
G2 X1235.800 Y1326.820 I-593.345 J -74.306
G2 X1236.990 Y1287.480 I-647.318 J -39.269
G2 X1235.800 Y1248.140 I-648.508 J  -0.071
G2 X1232.260 Y1210.000 I-596.885 J  36.166
G2 X1226.490 Y1174.210 I-502.921 J  62.720
G2 X1218.660 Y1141.860 I-384.762 J  76.005
G2 X1209.000 Y1113.930 I-263.752 J  75.587
G2 X1197.810 Y1091.280 I-158.937 J  64.432
G2 X1185.440 Y1074.600 I -82.376 J  48.164
G2 X1172.250 Y1064.370 I -36.456 J  33.386
G2 X1158.640 Y1060.930 I -13.801 J  25.958
G2 X1145.040 Y1064.370 I   0.201 J  29.398
G2 X1131.840 Y1074.600 I  23.247 J  43.627
F150
G1 Z   3.000
G0 Z  15.000 
M9 M5

(* SHAPE Nr: 21 *)
G0 X 921.660 Y1074.600
M3 M8
G0 Z   3.000 
G1 Z  -1.500
F400
G2 X 909.290 Y1091.280 I  70.006 J  64.844
G2 X 898.100 Y1113.930 I  79.203 J  53.219
G2 X 888.440 Y1141.860 I 156.647 J  69.814
G2 X 880.610 Y1174.210 I 376.932 J 108.355
G2 X 874.840 Y1210.000 I 497.151 J  98.510
G2 X 871.300 Y1248.140 I 593.345 J  74.306
G2 X 870.110 Y1287.480 I 647.318 J  39.269
G2 X 871.300 Y1326.820 I 648.508 J   0.071
G2 X 874.840 Y1364.960 I 596.885 J -36.166
G2 X 880.610 Y1400.750 I 502.921 J -62.720
G2 X 888.440 Y1433.100 I 384.762 J -76.005
G2 X 898.100 Y1461.020 I 263.746 J -75.622
G2 X 909.290 Y1483.680 I 158.951 J -64.400
G2 X 921.660 Y1500.370 I  82.391 J -48.136
G2 X 934.860 Y1510.590 I  36.429 J -33.416
G2 X 948.460 Y1514.030 I  13.801 J -25.958
G2 X 962.070 Y1510.590 I  -0.191 J -29.398
G2 X 975.260 Y1500.370 I -23.248 J -43.626
G2 X 987.630 Y1483.680 I -70.021 J -64.826
G2 X 998.820 Y1461.020 I-147.761 J -87.060
G2 X1008.480 Y1433.100 I-254.086 J-103.542
G2 X1016.310 Y1400.750 I-376.932 J-108.355
G2 X1022.080 Y1364.960 I-497.151 J -98.510
G2 X1025.620 Y1326.820 I-593.345 J -74.306
G2 X1026.810 Y1287.480 I-647.318 J -39.269
G2 X1025.620 Y1248.140 I-648.508 J  -0.071
G2 X1022.080 Y1210.000 I-596.885 J  36.166
G2 X1016.310 Y1174.210 I-502.921 J  62.720
G2 X1008.480 Y1141.860 I-384.762 J  76.005
G2 X 998.820 Y1113.930 I-263.762 J  75.590
G2 X 987.630 Y1091.280 I-158.937 J  64.432
G2 X 975.260 Y1074.600 I -82.376 J  48.164
G2 X 962.070 Y1064.370 I -36.456 J  33.386
G2 X 948.460 Y1060.930 I -13.801 J  25.958
G2 X 934.860 Y1064.370 I   0.201 J  29.398
G2 X 921.660 Y1074.600 I  23.247 J  43.627
F150
G1 Z  -3.000
F400
G2 X 909.290 Y1091.280 I  70.006 J  64.844
G2 X 898.100 Y1113.930 I  79.203 J  53.219
G2 X 888.440 Y1141.860 I 156.647 J  69.814
G2 X 880.610 Y1174.210 I 376.932 J 108.355
G2 X 874.840 Y1210.000 I 497.151 J  98.510
G2 X 871.300 Y1248.140 I 593.345 J  74.306
G2 X 870.110 Y1287.480 I 647.318 J  39.269
G2 X 871.300 Y1326.820 I 648.508 J   0.071
G2 X 874.840 Y1364.960 I 596.885 J -36.166
G2 X 880.610 Y1400.750 I 502.921 J -62.720
G2 X 888.440 Y1433.100 I 384.762 J -76.005
G2 X 898.100 Y1461.020 I 263.746 J -75.622
G2 X 909.290 Y1483.680 I 158.951 J -64.400
G2 X 921.660 Y1500.370 I  82.391 J -48.136
G2 X 934.860 Y1510.590 I  36.429 J -33.416
G2 X 948.460 Y1514.030 I  13.801 J -25.958
G2 X 962.070 Y1510.590 I  -0.191 J -29.398
G2 X 975.260 Y1500.370 I -23.248 J -43.626
G2 X 987.630 Y1483.680 I -70.021 J -64.826
G2 X 998.820 Y1461.020 I-147.761 J -87.060
G2 X1008.480 Y1433.100 I-254.086 J-103.542
G2 X1016.310 Y1400.750 I-376.932 J-108.355
G2 X1022.080 Y1364.960 I-497.151 J -98.510
G2 X1025.620 Y1326.820 I-593.345 J -74.306
G2 X1026.810 Y1287.480 I-647.318 J -39.269
G2 X1025.620 Y1248.140 I-648.508 J  -0.071
G2 X1022.080 Y1210.000 I-596.885 J  36.166
G2 X1016.310 Y1174.210 I-502.921 J  62.720
G2 X1008.480 Y1141.860 I-384.762 J  76.005
G2 X 998.820 Y1113.930 I-263.762 J  75.590
G2 X 987.630 Y1091.280 I-158.937 J  64.432
G2 X 975.260 Y1074.600 I -82.376 J  48.164
G2 X 962.070 Y1064.370 I -36.456 J  33.386
G2 X 948.460 Y1060.930 I -13.801 J  25.958
G2 X 934.860 Y1064.370 I   0.201 J  29.398
G2 X 921.660 Y1074.600 I  23.247 J  43.627
F150
G1 Z   3.000
G0 Z  15.000 
M9 M5

(* SHAPE Nr: 22 *)
G0 X 724.680 Y1064.370
M3 M8
G0 Z   3.000 
G1 Z  -1.500
F400
G2 X 711.480 Y1074.600 I  23.247 J  43.627
G2 X 699.110 Y1091.280 I  70.006 J  64.844
G2 X 687.920 Y1113.930 I  79.203 J  53.219
G2 X 678.260 Y1141.860 I 156.647 J  69.814
G2 X 670.430 Y1174.210 I 376.932 J 108.355
G2 X 664.660 Y1210.000 I 497.151 J  98.510
G2 X 661.120 Y1248.140 I 593.345 J  74.306
G2 X 659.930 Y1287.480 I 647.318 J  39.269
G2 X 661.120 Y1326.820 I 648.508 J   0.071
G2 X 664.660 Y1364.960 I 596.885 J -36.166
G2 X 670.430 Y1400.750 I 502.921 J -62.720
G2 X 678.260 Y1433.100 I 384.762 J -76.005
G2 X 687.920 Y1461.020 I 263.746 J -75.622
G2 X 699.110 Y1483.680 I 158.951 J -64.400
G2 X 711.480 Y1500.370 I  82.391 J -48.136
G2 X 724.680 Y1510.590 I  36.429 J -33.416
G2 X 738.280 Y1514.030 I  13.801 J -25.958
G2 X 751.890 Y1510.590 I  -0.191 J -29.398
G2 X 765.080 Y1500.370 I -23.248 J -43.626
G2 X 777.450 Y1483.680 I -70.021 J -64.826
G2 X 788.640 Y1461.020 I-147.761 J -87.060
G2 X 798.300 Y1433.100 I-254.086 J-103.542
G2 X 806.130 Y1400.750 I-376.932 J-108.355
G2 X 811.900 Y1364.960 I-497.151 J -98.510
G2 X 815.440 Y1326.820 I-593.345 J -74.306
G2 X 816.630 Y1287.480 I-647.318 J -39.269
G2 X 815.440 Y1248.140 I-648.508 J  -0.071
G2 X 811.900 Y1210.000 I-596.885 J  36.166
G2 X 806.130 Y1174.210 I-502.921 J  62.720
G2 X 798.300 Y1141.860 I-384.762 J  76.005
G2 X 788.640 Y1113.930 I-263.762 J  75.590
G2 X 777.450 Y1091.280 I-158.937 J  64.432
G2 X 765.080 Y1074.600 I -82.376 J  48.164
G2 X 751.890 Y1064.370 I -36.456 J  33.386
G2 X 738.280 Y1060.930 I -13.801 J  25.958
G2 X 724.680 Y1064.370 I   0.201 J  29.398
F150
G1 Z  -3.000
F400
G2 X 711.480 Y1074.600 I  23.247 J  43.627
G2 X 699.110 Y1091.280 I  70.006 J  64.844
G2 X 687.920 Y1113.930 I  79.203 J  53.219
G2 X 678.260 Y1141.860 I 156.647 J  69.814
G2 X 670.430 Y1174.210 I 376.932 J 108.355
G2 X 664.660 Y1210.000 I 497.151 J  98.510
G2 X 661.120 Y1248.140 I 593.345 J  74.306
G2 X 659.930 Y1287.480 I 647.318 J  39.269
G2 X 661.120 Y1326.820 I 648.508 J   0.071
G2 X 664.660 Y1364.960 I 596.885 J -36.166
G2 X 670.430 Y1400.750 I 502.921 J -62.720
G2 X 678.260 Y1433.100 I 384.762 J -76.005
G2 X 687.920 Y1461.020 I 263.746 J -75.622
G2 X 699.110 Y1483.680 I 158.951 J -64.400
G2 X 711.480 Y1500.370 I  82.391 J -48.136
G2 X 724.680 Y1510.590 I  36.429 J -33.416
G2 X 738.280 Y1514.030 I  13.801 J -25.958
G2 X 751.890 Y1510.590 I  -0.191 J -29.398
G2 X 765.080 Y1500.370 I -23.248 J -43.626
G2 X 777.450 Y1483.680 I -70.021 J -64.826
G2 X 788.640 Y1461.020 I-147.761 J -87.060
G2 X 798.300 Y1433.100 I-254.086 J-103.542
G2 X 806.130 Y1400.750 I-376.932 J-108.355
G2 X 811.900 Y1364.960 I-497.151 J -98.510
G2 X 815.440 Y1326.820 I-593.345 J -74.306
G2 X 816.630 Y1287.480 I-647.318 J -39.269
G2 X 815.440 Y1248.140 I-648.508 J  -0.071
G2 X 811.900 Y1210.000 I-596.885 J  36.166
G2 X 806.130 Y1174.210 I-502.921 J  62.720
G2 X 798.300 Y1141.860 I-384.762 J  76.005
G2 X 788.640 Y1113.930 I-263.762 J  75.590
G2 X 777.450 Y1091.280 I-158.937 J  64.432
G2 X 765.080 Y1074.600 I -82.376 J  48.164
G2 X 751.890 Y1064.370 I -36.456 J  33.386
G2 X 738.280 Y1060.930 I -13.801 J  25.958
G2 X 724.680 Y1064.370 I   0.201 J  29.398
F150
G1 Z   3.000
G0 Z  15.000 
M9 M5

(* SHAPE Nr: 23 *)
G0 X 514.500 Y1064.370
M3 M8
G0 Z   3.000 
G1 Z  -1.500
F400
G2 X 501.300 Y1074.600 I  23.247 J  43.627
G2 X 488.930 Y1091.280 I  70.006 J  64.844
G2 X 477.740 Y1113.930 I  79.203 J  53.219
G2 X 468.080 Y1141.860 I 156.647 J  69.814
G2 X 460.250 Y1174.210 I 376.932 J 108.355
G2 X 454.480 Y1210.000 I 497.151 J  98.510
G2 X 450.940 Y1248.140 I 593.345 J  74.306
G2 X 449.750 Y1287.480 I 647.318 J  39.269
G2 X 450.940 Y1326.820 I 648.508 J   0.071
G2 X 454.480 Y1364.960 I 596.885 J -36.166
G2 X 460.250 Y1400.750 I 502.921 J -62.720
G2 X 468.080 Y1433.100 I 384.762 J -76.005
G2 X 477.740 Y1461.020 I 263.746 J -75.622
G2 X 488.930 Y1483.680 I 158.951 J -64.400
G2 X 501.300 Y1500.370 I  82.391 J -48.136
G2 X 514.500 Y1510.590 I  36.429 J -33.416
G2 X 528.100 Y1514.030 I  13.801 J -25.958
G2 X 541.710 Y1510.590 I  -0.191 J -29.398
G2 X 554.900 Y1500.370 I -23.248 J -43.626
G2 X 567.270 Y1483.680 I -70.021 J -64.826
G2 X 578.460 Y1461.020 I-147.761 J -87.060
G2 X 588.120 Y1433.100 I-254.086 J-103.542
G2 X 595.950 Y1400.750 I-376.932 J-108.355
G2 X 601.720 Y1364.960 I-497.151 J -98.510
G2 X 605.260 Y1326.820 I-593.345 J -74.306
G2 X 606.450 Y1287.480 I-647.318 J -39.269
G2 X 605.260 Y1248.140 I-648.508 J  -0.071
G2 X 601.720 Y1210.000 I-596.885 J  36.166
G2 X 595.950 Y1174.210 I-502.921 J  62.720
G2 X 588.120 Y1141.860 I-384.762 J  76.005
G2 X 578.460 Y1113.930 I-263.762 J  75.590
G2 X 567.270 Y1091.280 I-158.937 J  64.432
G2 X 554.900 Y1074.600 I -82.376 J  48.164
G2 X 541.710 Y1064.370 I -36.456 J  33.386
G2 X 528.100 Y1060.930 I -13.801 J  25.958
G2 X 514.500 Y1064.370 I   0.201 J  29.398
F150
G1 Z  -3.000
F400
G2 X 501.300 Y1074.600 I  23.247 J  43.627
G2 X 488.930 Y1091.280 I  70.006 J  64.844
G2 X 477.740 Y1113.930 I  79.203 J  53.219
G2 X 468.080 Y1141.860 I 156.647 J  69.814
G2 X 460.250 Y1174.210 I 376.932 J 108.355
G2 X 454.480 Y1210.000 I 497.151 J  98.510
G2 X 450.940 Y1248.140 I 593.345 J  74.306
G2 X 449.750 Y1287.480 I 647.318 J  39.269
G2 X 450.940 Y1326.820 I 648.508 J   0.071
G2 X 454.480 Y1364.960 I 596.885 J -36.166
G2 X 460.250 Y1400.750 I 502.921 J -62.720
G2 X 468.080 Y1433.100 I 384.762 J -76.005
G2 X 477.740 Y1461.020 I 263.746 J -75.622
G2 X 488.930 Y1483.680 I 158.951 J -64.400
G2 X 501.300 Y1500.370 I  82.391 J -48.136
G2 X 514.500 Y1510.590 I  36.429 J -33.416
G2 X 528.100 Y1514.030 I  13.801 J -25.958
G2 X 541.710 Y1510.590 I  -0.191 J -29.398
G2 X 554.900 Y1500.370 I -23.248 J -43.626
G2 X 567.270 Y1483.680 I -70.021 J -64.826
G2 X 578.460 Y1461.020 I-147.761 J -87.060
G2 X 588.120 Y1433.100 I-254.086 J-103.542
G2 X 595.950 Y1400.750 I-376.932 J-108.355
G2 X 601.720 Y1364.960 I-497.151 J -98.510
G2 X 605.260 Y1326.820 I-593.345 J -74.306
G2 X 606.450 Y1287.480 I-647.318 J -39.269
G2 X 605.260 Y1248.140 I-648.508 J  -0.071
G2 X 601.720 Y1210.000 I-596.885 J  36.166
G2 X 595.950 Y1174.210 I-502.921 J  62.720
G2 X 588.120 Y1141.860 I-384.762 J  76.005
G2 X 578.460 Y1113.930 I-263.762 J  75.590
G2 X 567.270 Y1091.280 I-158.937 J  64.432
G2 X 554.900 Y1074.600 I -82.376 J  48.164
G2 X 541.710 Y1064.370 I -36.456 J  33.386
G2 X 528.100 Y1060.930 I -13.801 J  25.958
G2 X 514.500 Y1064.370 I   0.201 J  29.398
F150
G1 Z   3.000
G0 Z  15.000 
M9 M5

(* SHAPE Nr: 24 *)
G0 X 304.320 Y1064.370
M3 M8
G0 Z   3.000 
G1 Z  -1.500
F400
G2 X 291.120 Y1074.600 I  23.247 J  43.627
G2 X 278.750 Y1091.280 I  70.006 J  64.844
G2 X 267.560 Y1113.930 I  79.203 J  53.219
G2 X 257.900 Y1141.860 I 156.647 J  69.814
G2 X 250.070 Y1174.210 I 376.932 J 108.355
G2 X 244.300 Y1210.000 I 497.151 J  98.510
G2 X 240.760 Y1248.140 I 593.345 J  74.306
G2 X 239.570 Y1287.480 I 647.318 J  39.269
G2 X 240.760 Y1326.820 I 648.508 J   0.071
G2 X 244.300 Y1364.960 I 596.885 J -36.166
G2 X 250.070 Y1400.750 I 502.921 J -62.720
G2 X 257.900 Y1433.100 I 384.762 J -76.005
G2 X 267.560 Y1461.020 I 263.746 J -75.622
G2 X 278.750 Y1483.680 I 158.951 J -64.400
G2 X 291.120 Y1500.370 I  82.391 J -48.136
G2 X 304.320 Y1510.590 I  36.429 J -33.416
G2 X 317.920 Y1514.030 I  13.801 J -25.958
G2 X 331.530 Y1510.590 I  -0.191 J -29.398
G2 X 344.720 Y1500.370 I -23.248 J -43.626
G2 X 357.090 Y1483.680 I -70.021 J -64.826
G2 X 368.280 Y1461.020 I-147.761 J -87.060
G2 X 377.940 Y1433.100 I-254.086 J-103.542
G2 X 385.770 Y1400.750 I-376.932 J-108.355
G2 X 391.540 Y1364.960 I-497.151 J -98.510
G2 X 395.080 Y1326.820 I-593.345 J -74.306
G2 X 396.270 Y1287.480 I-647.318 J -39.269
G2 X 395.080 Y1248.140 I-648.508 J  -0.071
G2 X 391.540 Y1210.000 I-596.885 J  36.166
G2 X 385.770 Y1174.210 I-502.921 J  62.720
G2 X 377.940 Y1141.860 I-384.762 J  76.005
G2 X 368.280 Y1113.930 I-263.752 J  75.587
G2 X 357.090 Y1091.280 I-158.937 J  64.432
G2 X 344.720 Y1074.600 I -82.376 J  48.164
G2 X 331.530 Y1064.370 I -36.456 J  33.386
G2 X 317.920 Y1060.930 I -13.801 J  25.958
G2 X 304.320 Y1064.370 I   0.201 J  29.398
F150
G1 Z  -3.000
F400
G2 X 291.120 Y1074.600 I  23.247 J  43.627
G2 X 278.750 Y1091.280 I  70.006 J  64.844
G2 X 267.560 Y1113.930 I  79.203 J  53.219
G2 X 257.900 Y1141.860 I 156.647 J  69.814
G2 X 250.070 Y1174.210 I 376.932 J 108.355
G2 X 244.300 Y1210.000 I 497.151 J  98.510
G2 X 240.760 Y1248.140 I 593.345 J  74.306
G2 X 239.570 Y1287.480 I 647.318 J  39.269
G2 X 240.760 Y1326.820 I 648.508 J   0.071
G2 X 244.300 Y1364.960 I 596.885 J -36.166
G2 X 250.070 Y1400.750 I 502.921 J -62.720
G2 X 257.900 Y1433.100 I 384.762 J -76.005
G2 X 267.560 Y1461.020 I 263.746 J -75.622
G2 X 278.750 Y1483.680 I 158.951 J -64.400
G2 X 291.120 Y1500.370 I  82.391 J -48.136
G2 X 304.320 Y1510.590 I  36.429 J -33.416
G2 X 317.920 Y1514.030 I  13.801 J -25.958
G2 X 331.530 Y1510.590 I  -0.191 J -29.398
G2 X 344.720 Y1500.370 I -23.248 J -43.626
G2 X 357.090 Y1483.680 I -70.021 J -64.826
G2 X 368.280 Y1461.020 I-147.761 J -87.060
G2 X 377.940 Y1433.100 I-254.086 J-103.542
G2 X 385.770 Y1400.750 I-376.932 J-108.355
G2 X 391.540 Y1364.960 I-497.151 J -98.510
G2 X 395.080 Y1326.820 I-593.345 J -74.306
G2 X 396.270 Y1287.480 I-647.318 J -39.269
G2 X 395.080 Y1248.140 I-648.508 J  -0.071
G2 X 391.540 Y1210.000 I-596.885 J  36.166
G2 X 385.770 Y1174.210 I-502.921 J  62.720
G2 X 377.940 Y1141.860 I-384.762 J  76.005
G2 X 368.280 Y1113.930 I-263.752 J  75.587
G2 X 357.090 Y1091.280 I-158.937 J  64.432
G2 X 344.720 Y1074.600 I -82.376 J  48.164
G2 X 331.530 Y1064.370 I -36.456 J  33.386
G2 X 317.920 Y1060.930 I -13.801 J  25.958
G2 X 304.320 Y1064.370 I   0.201 J  29.398
F150
G1 Z   3.000
G0 Z  15.000 
M9 M5

(* SHAPE Nr: 25 *)
G0 X 107.740 Y1060.930
M3 M8
G0 Z   3.000 
G1 Z  -1.500
F400
G2 X  94.140 Y1064.370 I   0.201 J  29.398
G2 X  80.940 Y1074.600 I  23.247 J  43.627
G2 X  68.570 Y1091.280 I  70.006 J  64.844
G2 X  57.380 Y1113.930 I  79.203 J  53.219
G2 X  47.720 Y1141.860 I 156.647 J  69.814
G2 X  39.890 Y1174.210 I 376.932 J 108.355
G2 X  34.120 Y1210.000 I 497.151 J  98.510
G2 X  30.580 Y1248.140 I 593.345 J  74.306
G2 X  29.390 Y1287.480 I 647.318 J  39.269
G2 X  30.580 Y1326.820 I 648.508 J   0.071
G2 X  34.120 Y1364.960 I 596.885 J -36.166
G2 X  39.890 Y1400.750 I 502.921 J -62.720
G2 X  47.720 Y1433.100 I 384.762 J -76.005
G2 X  57.380 Y1461.020 I 263.746 J -75.622
G2 X  68.570 Y1483.680 I 158.951 J -64.400
G2 X  80.940 Y1500.370 I  82.391 J -48.136
G2 X  94.140 Y1510.590 I  36.429 J -33.416
G2 X 107.740 Y1514.030 I  13.801 J -25.958
G2 X 121.350 Y1510.590 I  -0.191 J -29.398
G2 X 134.540 Y1500.370 I -23.248 J -43.626
G2 X 146.910 Y1483.680 I -70.021 J -64.826
G2 X 158.100 Y1461.020 I-147.761 J -87.060
G2 X 167.760 Y1433.100 I-254.086 J-103.542
G2 X 175.590 Y1400.750 I-376.932 J-108.355
G2 X 181.360 Y1364.960 I-497.151 J -98.510
G2 X 184.900 Y1326.820 I-593.345 J -74.306
G2 X 186.090 Y1287.480 I-647.318 J -39.269
G2 X 184.900 Y1248.140 I-648.508 J  -0.071
G2 X 181.360 Y1210.000 I-596.885 J  36.166
G2 X 175.590 Y1174.210 I-502.921 J  62.720
G2 X 167.760 Y1141.860 I-384.762 J  76.005
G2 X 158.100 Y1113.930 I-263.762 J  75.590
G2 X 146.910 Y1091.280 I-158.937 J  64.432
G2 X 134.540 Y1074.600 I -82.376 J  48.164
G2 X 121.350 Y1064.370 I -36.456 J  33.386
G2 X 107.740 Y1060.930 I -13.801 J  25.958
F150
G1 Z  -3.000
F400
G2 X  94.140 Y1064.370 I   0.201 J  29.398
G2 X  80.940 Y1074.600 I  23.247 J  43.627
G2 X  68.570 Y1091.280 I  70.006 J  64.844
G2 X  57.380 Y1113.930 I  79.203 J  53.219
G2 X  47.720 Y1141.860 I 156.647 J  69.814
G2 X  39.890 Y1174.210 I 376.932 J 108.355
G2 X  34.120 Y1210.000 I 497.151 J  98.510
G2 X  30.580 Y1248.140 I 593.345 J  74.306
G2 X  29.390 Y1287.480 I 647.318 J  39.269
G2 X  30.580 Y1326.820 I 648.508 J   0.071
G2 X  34.120 Y1364.960 I 596.885 J -36.166
G2 X  39.890 Y1400.750 I 502.921 J -62.720
G2 X  47.720 Y1433.100 I 384.762 J -76.005
G2 X  57.380 Y1461.020 I 263.746 J -75.622
G2 X  68.570 Y1483.680 I 158.951 J -64.400
G2 X  80.940 Y1500.370 I  82.391 J -48.136
G2 X  94.140 Y1510.590 I  36.429 J -33.416
G2 X 107.740 Y1514.030 I  13.801 J -25.958
G2 X 121.350 Y1510.590 I  -0.191 J -29.398
G2 X 134.540 Y1500.370 I -23.248 J -43.626
G2 X 146.910 Y1483.680 I -70.021 J -64.826
G2 X 158.100 Y1461.020 I-147.761 J -87.060
G2 X 167.760 Y1433.100 I-254.086 J-103.542
G2 X 175.590 Y1400.750 I-376.932 J-108.355
G2 X 181.360 Y1364.960 I-497.151 J -98.510
G2 X 184.900 Y1326.820 I-593.345 J -74.306
G2 X 186.090 Y1287.480 I-647.318 J -39.269
G2 X 184.900 Y1248.140 I-648.508 J  -0.071
G2 X 181.360 Y1210.000 I-596.885 J  36.166
G2 X 175.590 Y1174.210 I-502.921 J  62.720
G2 X 167.760 Y1141.860 I-384.762 J  76.005
G2 X 158.100 Y1113.930 I-263.762 J  75.590
G2 X 146.910 Y1091.280 I-158.937 J  64.432
G2 X 134.540 Y1074.600 I -82.376 J  48.164
G2 X 121.350 Y1064.370 I -36.456 J  33.386
G2 X 107.740 Y1060.930 I -13.801 J  25.958
F150
G1 Z   3.000
G0 Z  15.000 
M9 M5

(* SHAPE Nr: 26 *)
G0 X 107.740 Y 554.350
M3 M8
G0 Z   3.000 
G1 Z  -1.500
F400
G2 X  94.140 Y 557.790 I   0.201 J  29.398
G2 X  80.940 Y 568.020 I  23.247 J  43.627
G2 X  68.570 Y 584.700 I  70.006 J  64.844
G2 X  57.380 Y 607.350 I  79.203 J  53.219
G2 X  47.720 Y 635.280 I 156.647 J  69.814
G2 X  39.890 Y 667.630 I 376.932 J 108.355
G2 X  34.120 Y 703.420 I 497.151 J  98.510
G2 X  30.580 Y 741.560 I 593.345 J  74.306
G2 X  29.390 Y 780.900 I 647.318 J  39.269
G2 X  30.580 Y 820.240 I 648.508 J   0.071
G2 X  34.120 Y 858.380 I 596.885 J -36.166
G2 X  39.890 Y 894.170 I 502.921 J -62.720
G2 X  47.720 Y 926.520 I 384.762 J -76.005
G2 X  57.380 Y 954.440 I 263.746 J -75.622
G2 X  68.570 Y 977.100 I 158.951 J -64.400
G2 X  80.940 Y 993.790 I  82.391 J -48.136
G2 X  94.140 Y1004.010 I  36.429 J -33.416
G2 X 107.740 Y1007.450 I  13.801 J -25.958
G2 X 121.350 Y1004.010 I  -0.191 J -29.398
G2 X 134.540 Y 993.790 I -23.248 J -43.626
G2 X 146.910 Y 977.100 I -70.021 J -64.826
G2 X 158.100 Y 954.440 I-147.761 J -87.060
G2 X 167.760 Y 926.520 I-254.086 J-103.542
G2 X 175.590 Y 894.170 I-376.932 J-108.355
G2 X 181.360 Y 858.380 I-497.151 J -98.510
G2 X 184.900 Y 820.240 I-593.345 J -74.306
G2 X 186.090 Y 780.900 I-647.318 J -39.269
G2 X 184.900 Y 741.560 I-648.508 J  -0.071
G2 X 181.360 Y 703.420 I-596.885 J  36.166
G2 X 175.590 Y 667.630 I-502.921 J  62.720
G2 X 167.760 Y 635.280 I-384.762 J  76.005
G2 X 158.100 Y 607.350 I-263.752 J  75.587
G2 X 146.910 Y 584.700 I-158.937 J  64.432
G2 X 134.540 Y 568.020 I -82.376 J  48.164
G2 X 121.350 Y 557.790 I -36.456 J  33.386
G2 X 107.740 Y 554.350 I -13.801 J  25.958
F150
G1 Z  -3.000
F400
G2 X  94.140 Y 557.790 I   0.201 J  29.398
G2 X  80.940 Y 568.020 I  23.247 J  43.627
G2 X  68.570 Y 584.700 I  70.006 J  64.844
G2 X  57.380 Y 607.350 I  79.203 J  53.219
G2 X  47.720 Y 635.280 I 156.647 J  69.814
G2 X  39.890 Y 667.630 I 376.932 J 108.355
G2 X  34.120 Y 703.420 I 497.151 J  98.510
G2 X  30.580 Y 741.560 I 593.345 J  74.306
G2 X  29.390 Y 780.900 I 647.318 J  39.269
G2 X  30.580 Y 820.240 I 648.508 J   0.071
G2 X  34.120 Y 858.380 I 596.885 J -36.166
G2 X  39.890 Y 894.170 I 502.921 J -62.720
G2 X  47.720 Y 926.520 I 384.762 J -76.005
G2 X  57.380 Y 954.440 I 263.746 J -75.622
G2 X  68.570 Y 977.100 I 158.951 J -64.400
G2 X  80.940 Y 993.790 I  82.391 J -48.136
G2 X  94.140 Y1004.010 I  36.429 J -33.416
G2 X 107.740 Y1007.450 I  13.801 J -25.958
G2 X 121.350 Y1004.010 I  -0.191 J -29.398
G2 X 134.540 Y 993.790 I -23.248 J -43.626
G2 X 146.910 Y 977.100 I -70.021 J -64.826
G2 X 158.100 Y 954.440 I-147.761 J -87.060
G2 X 167.760 Y 926.520 I-254.086 J-103.542
G2 X 175.590 Y 894.170 I-376.932 J-108.355
G2 X 181.360 Y 858.380 I-497.151 J -98.510
G2 X 184.900 Y 820.240 I-593.345 J -74.306
G2 X 186.090 Y 780.900 I-647.318 J -39.269
G2 X 184.900 Y 741.560 I-648.508 J  -0.071
G2 X 181.360 Y 703.420 I-596.885 J  36.166
G2 X 175.590 Y 667.630 I-502.921 J  62.720
G2 X 167.760 Y 635.280 I-384.762 J  76.005
G2 X 158.100 Y 607.350 I-263.752 J  75.587
G2 X 146.910 Y 584.700 I-158.937 J  64.432
G2 X 134.540 Y 568.020 I -82.376 J  48.164
G2 X 121.350 Y 557.790 I -36.456 J  33.386
G2 X 107.740 Y 554.350 I -13.801 J  25.958
F150
G1 Z   3.000
G0 Z  15.000 
M9 M5

(* SHAPE Nr: 27 *)
G0 X 304.320 Y 557.790
M3 M8
G0 Z   3.000 
G1 Z  -1.500
F400
G2 X 291.120 Y 568.020 I  23.247 J  43.627
G2 X 278.750 Y 584.700 I  70.004 J  64.843
G2 X 267.560 Y 607.350 I  79.203 J  53.219
G2 X 257.900 Y 635.280 I 156.647 J  69.814
G2 X 250.070 Y 667.630 I 376.932 J 108.355
G2 X 244.300 Y 703.420 I 497.151 J  98.510
G2 X 240.760 Y 741.560 I 593.345 J  74.306
G2 X 239.570 Y 780.900 I 647.318 J  39.269
G2 X 240.760 Y 820.240 I 648.508 J   0.071
G2 X 244.300 Y 858.380 I 596.885 J -36.166
G2 X 250.070 Y 894.170 I 502.921 J -62.720
G2 X 257.900 Y 926.520 I 384.762 J -76.005
G2 X 267.560 Y 954.440 I 263.746 J -75.622
G2 X 278.750 Y 977.100 I 158.951 J -64.400
G2 X 291.120 Y 993.790 I  82.391 J -48.136
G2 X 304.320 Y1004.010 I  36.429 J -33.416
G2 X 317.920 Y1007.450 I  13.801 J -25.958
G2 X 331.530 Y1004.010 I  -0.191 J -29.398
G2 X 344.720 Y 993.790 I -23.248 J -43.626
G2 X 357.090 Y 977.100 I -70.021 J -64.826
G2 X 368.280 Y 954.440 I-147.761 J -87.060
G2 X 377.940 Y 926.520 I-254.086 J-103.542
G2 X 385.770 Y 894.170 I-376.932 J-108.355
G2 X 391.540 Y 858.380 I-497.151 J -98.510
G2 X 395.080 Y 820.240 I-593.345 J -74.306
G2 X 396.270 Y 780.900 I-647.318 J -39.269
G2 X 395.080 Y 741.560 I-648.508 J  -0.071
G2 X 391.540 Y 703.420 I-596.885 J  36.166
G2 X 385.770 Y 667.630 I-502.921 J  62.720
G2 X 377.940 Y 635.280 I-384.762 J  76.005
G2 X 368.280 Y 607.350 I-263.752 J  75.587
G2 X 357.090 Y 584.700 I-158.937 J  64.432
G2 X 344.720 Y 568.020 I -82.376 J  48.164
G2 X 331.530 Y 557.790 I -36.456 J  33.386
G2 X 317.920 Y 554.350 I -13.801 J  25.958
G2 X 304.320 Y 557.790 I   0.201 J  29.398
F150
G1 Z  -3.000
F400
G2 X 291.120 Y 568.020 I  23.247 J  43.627
G2 X 278.750 Y 584.700 I  70.004 J  64.843
G2 X 267.560 Y 607.350 I  79.203 J  53.219
G2 X 257.900 Y 635.280 I 156.647 J  69.814
G2 X 250.070 Y 667.630 I 376.932 J 108.355
G2 X 244.300 Y 703.420 I 497.151 J  98.510
G2 X 240.760 Y 741.560 I 593.345 J  74.306
G2 X 239.570 Y 780.900 I 647.318 J  39.269
G2 X 240.760 Y 820.240 I 648.508 J   0.071
G2 X 244.300 Y 858.380 I 596.885 J -36.166
G2 X 250.070 Y 894.170 I 502.921 J -62.720
G2 X 257.900 Y 926.520 I 384.762 J -76.005
G2 X 267.560 Y 954.440 I 263.746 J -75.622
G2 X 278.750 Y 977.100 I 158.951 J -64.400
G2 X 291.120 Y 993.790 I  82.391 J -48.136
G2 X 304.320 Y1004.010 I  36.429 J -33.416
G2 X 317.920 Y1007.450 I  13.801 J -25.958
G2 X 331.530 Y1004.010 I  -0.191 J -29.398
G2 X 344.720 Y 993.790 I -23.248 J -43.626
G2 X 357.090 Y 977.100 I -70.021 J -64.826
G2 X 368.280 Y 954.440 I-147.761 J -87.060
G2 X 377.940 Y 926.520 I-254.086 J-103.542
G2 X 385.770 Y 894.170 I-376.932 J-108.355
G2 X 391.540 Y 858.380 I-497.151 J -98.510
G2 X 395.080 Y 820.240 I-593.345 J -74.306
G2 X 396.270 Y 780.900 I-647.318 J -39.269
G2 X 395.080 Y 741.560 I-648.508 J  -0.071
G2 X 391.540 Y 703.420 I-596.885 J  36.166
G2 X 385.770 Y 667.630 I-502.921 J  62.720
G2 X 377.940 Y 635.280 I-384.762 J  76.005
G2 X 368.280 Y 607.350 I-263.752 J  75.587
G2 X 357.090 Y 584.700 I-158.937 J  64.432
G2 X 344.720 Y 568.020 I -82.376 J  48.164
G2 X 331.530 Y 557.790 I -36.456 J  33.386
G2 X 317.920 Y 554.350 I -13.801 J  25.958
G2 X 304.320 Y 557.790 I   0.201 J  29.398
F150
G1 Z   3.000
G0 Z  15.000 
M9 M5

(* SHAPE Nr: 28 *)
G0 X 501.300 Y 568.020
M3 M8
G0 Z   3.000 
G1 Z  -1.500
F400
G2 X 488.930 Y 584.700 I  70.004 J  64.843
G2 X 477.740 Y 607.350 I  79.203 J  53.219
G2 X 468.080 Y 635.280 I 156.647 J  69.814
G2 X 460.250 Y 667.630 I 376.932 J 108.355
G2 X 454.480 Y 703.420 I 497.151 J  98.510
G2 X 450.940 Y 741.560 I 593.345 J  74.306
G2 X 449.750 Y 780.900 I 647.318 J  39.269
G2 X 450.940 Y 820.240 I 648.508 J   0.071
G2 X 454.480 Y 858.380 I 596.885 J -36.166
G2 X 460.250 Y 894.170 I 502.921 J -62.720
G2 X 468.080 Y 926.520 I 384.762 J -76.005
G2 X 477.740 Y 954.440 I 263.746 J -75.622
G2 X 488.930 Y 977.100 I 158.951 J -64.400
G2 X 501.300 Y 993.790 I  82.391 J -48.136
G2 X 514.500 Y1004.010 I  36.429 J -33.416
G2 X 528.100 Y1007.450 I  13.801 J -25.958
G2 X 541.710 Y1004.010 I  -0.191 J -29.398
G2 X 554.900 Y 993.790 I -23.248 J -43.626
G2 X 567.270 Y 977.100 I -70.021 J -64.826
G2 X 578.460 Y 954.440 I-147.761 J -87.060
G2 X 588.120 Y 926.520 I-254.086 J-103.542
G2 X 595.950 Y 894.170 I-376.932 J-108.355
G2 X 601.720 Y 858.380 I-497.151 J -98.510
G2 X 605.260 Y 820.240 I-593.345 J -74.306
G2 X 606.450 Y 780.900 I-647.318 J -39.269
G2 X 605.260 Y 741.560 I-648.508 J  -0.071
G2 X 601.720 Y 703.420 I-596.885 J  36.166
G2 X 595.950 Y 667.630 I-502.921 J  62.720
G2 X 588.120 Y 635.280 I-384.762 J  76.005
G2 X 578.460 Y 607.350 I-263.752 J  75.587
G2 X 567.270 Y 584.700 I-158.937 J  64.432
G2 X 554.900 Y 568.020 I -82.374 J  48.163
G2 X 541.710 Y 557.790 I -36.456 J  33.386
G2 X 528.100 Y 554.350 I -13.801 J  25.958
G2 X 514.500 Y 557.790 I   0.201 J  29.398
G2 X 501.300 Y 568.020 I  23.247 J  43.627
F150
G1 Z  -3.000
F400
G2 X 488.930 Y 584.700 I  70.004 J  64.843
G2 X 477.740 Y 607.350 I  79.203 J  53.219
G2 X 468.080 Y 635.280 I 156.647 J  69.814
G2 X 460.250 Y 667.630 I 376.932 J 108.355
G2 X 454.480 Y 703.420 I 497.151 J  98.510
G2 X 450.940 Y 741.560 I 593.345 J  74.306
G2 X 449.750 Y 780.900 I 647.318 J  39.269
G2 X 450.940 Y 820.240 I 648.508 J   0.071
G2 X 454.480 Y 858.380 I 596.885 J -36.166
G2 X 460.250 Y 894.170 I 502.921 J -62.720
G2 X 468.080 Y 926.520 I 384.762 J -76.005
G2 X 477.740 Y 954.440 I 263.746 J -75.622
G2 X 488.930 Y 977.100 I 158.951 J -64.400
G2 X 501.300 Y 993.790 I  82.391 J -48.136
G2 X 514.500 Y1004.010 I  36.429 J -33.416
G2 X 528.100 Y1007.450 I  13.801 J -25.958
G2 X 541.710 Y1004.010 I  -0.191 J -29.398
G2 X 554.900 Y 993.790 I -23.248 J -43.626
G2 X 567.270 Y 977.100 I -70.021 J -64.826
G2 X 578.460 Y 954.440 I-147.761 J -87.060
G2 X 588.120 Y 926.520 I-254.086 J-103.542
G2 X 595.950 Y 894.170 I-376.932 J-108.355
G2 X 601.720 Y 858.380 I-497.151 J -98.510
G2 X 605.260 Y 820.240 I-593.345 J -74.306
G2 X 606.450 Y 780.900 I-647.318 J -39.269
G2 X 605.260 Y 741.560 I-648.508 J  -0.071
G2 X 601.720 Y 703.420 I-596.885 J  36.166
G2 X 595.950 Y 667.630 I-502.921 J  62.720
G2 X 588.120 Y 635.280 I-384.762 J  76.005
G2 X 578.460 Y 607.350 I-263.752 J  75.587
G2 X 567.270 Y 584.700 I-158.937 J  64.432
G2 X 554.900 Y 568.020 I -82.374 J  48.163
G2 X 541.710 Y 557.790 I -36.456 J  33.386
G2 X 528.100 Y 554.350 I -13.801 J  25.958
G2 X 514.500 Y 557.790 I   0.201 J  29.398
G2 X 501.300 Y 568.020 I  23.247 J  43.627
F150
G1 Z   3.000
G0 Z  15.000 
M9 M5

(* SHAPE Nr: 29 *)
G0 X 711.480 Y 568.020
M3 M8
G0 Z   3.000 
G1 Z  -1.500
F400
G2 X 699.110 Y 584.700 I  70.004 J  64.843
G2 X 687.920 Y 607.350 I  79.203 J  53.219
G2 X 678.260 Y 635.280 I 156.647 J  69.814
G2 X 670.430 Y 667.630 I 376.932 J 108.355
G2 X 664.660 Y 703.420 I 497.151 J  98.510
G2 X 661.120 Y 741.560 I 593.345 J  74.306
G2 X 659.930 Y 780.900 I 647.318 J  39.269
G2 X 661.120 Y 820.240 I 648.508 J   0.071
G2 X 664.660 Y 858.380 I 596.885 J -36.166
G2 X 670.430 Y 894.170 I 502.921 J -62.720
G2 X 678.260 Y 926.520 I 384.762 J -76.005
G2 X 687.920 Y 954.440 I 263.746 J -75.622
G2 X 699.110 Y 977.100 I 158.951 J -64.400
G2 X 711.480 Y 993.790 I  82.391 J -48.136
G2 X 724.680 Y1004.010 I  36.429 J -33.416
G2 X 738.280 Y1007.450 I  13.801 J -25.958
G2 X 751.890 Y1004.010 I  -0.191 J -29.398
G2 X 765.080 Y 993.790 I -23.248 J -43.626
G2 X 777.450 Y 977.100 I -70.021 J -64.826
G2 X 788.640 Y 954.440 I-147.761 J -87.060
G2 X 798.300 Y 926.520 I-254.086 J-103.542
G2 X 806.130 Y 894.170 I-376.932 J-108.355
G2 X 811.900 Y 858.380 I-497.151 J -98.510
G2 X 815.440 Y 820.240 I-593.345 J -74.306
G2 X 816.630 Y 780.900 I-647.318 J -39.269
G2 X 815.440 Y 741.560 I-648.508 J  -0.071
G2 X 811.900 Y 703.420 I-596.885 J  36.166
G2 X 806.130 Y 667.630 I-502.921 J  62.720
G2 X 798.300 Y 635.280 I-384.762 J  76.005
G2 X 788.640 Y 607.350 I-263.752 J  75.587
G2 X 777.450 Y 584.700 I-158.937 J  64.432
G2 X 765.080 Y 568.020 I -82.376 J  48.164
G2 X 751.890 Y 557.790 I -36.456 J  33.386
G2 X 738.280 Y 554.350 I -13.801 J  25.958
G2 X 724.680 Y 557.790 I   0.201 J  29.398
G2 X 711.480 Y 568.020 I  23.247 J  43.627
F150
G1 Z  -3.000
F400
G2 X 699.110 Y 584.700 I  70.004 J  64.843
G2 X 687.920 Y 607.350 I  79.203 J  53.219
G2 X 678.260 Y 635.280 I 156.647 J  69.814
G2 X 670.430 Y 667.630 I 376.932 J 108.355
G2 X 664.660 Y 703.420 I 497.151 J  98.510
G2 X 661.120 Y 741.560 I 593.345 J  74.306
G2 X 659.930 Y 780.900 I 647.318 J  39.269
G2 X 661.120 Y 820.240 I 648.508 J   0.071
G2 X 664.660 Y 858.380 I 596.885 J -36.166
G2 X 670.430 Y 894.170 I 502.921 J -62.720
G2 X 678.260 Y 926.520 I 384.762 J -76.005
G2 X 687.920 Y 954.440 I 263.746 J -75.622
G2 X 699.110 Y 977.100 I 158.951 J -64.400
G2 X 711.480 Y 993.790 I  82.391 J -48.136
G2 X 724.680 Y1004.010 I  36.429 J -33.416
G2 X 738.280 Y1007.450 I  13.801 J -25.958
G2 X 751.890 Y1004.010 I  -0.191 J -29.398
G2 X 765.080 Y 993.790 I -23.248 J -43.626
G2 X 777.450 Y 977.100 I -70.021 J -64.826
G2 X 788.640 Y 954.440 I-147.761 J -87.060
G2 X 798.300 Y 926.520 I-254.086 J-103.542
G2 X 806.130 Y 894.170 I-376.932 J-108.355
G2 X 811.900 Y 858.380 I-497.151 J -98.510
G2 X 815.440 Y 820.240 I-593.345 J -74.306
G2 X 816.630 Y 780.900 I-647.318 J -39.269
G2 X 815.440 Y 741.560 I-648.508 J  -0.071
G2 X 811.900 Y 703.420 I-596.885 J  36.166
G2 X 806.130 Y 667.630 I-502.921 J  62.720
G2 X 798.300 Y 635.280 I-384.762 J  76.005
G2 X 788.640 Y 607.350 I-263.752 J  75.587
G2 X 777.450 Y 584.700 I-158.937 J  64.432
G2 X 765.080 Y 568.020 I -82.376 J  48.164
G2 X 751.890 Y 557.790 I -36.456 J  33.386
G2 X 738.280 Y 554.350 I -13.801 J  25.958
G2 X 724.680 Y 557.790 I   0.201 J  29.398
G2 X 711.480 Y 568.020 I  23.247 J  43.627
F150
G1 Z   3.000
G0 Z  15.000 
M9 M5

(* SHAPE Nr: 30 *)
G0 X 909.290 Y 584.700
M3 M8
G0 Z   3.000 
G1 Z  -1.500
F400
G2 X 898.100 Y 607.350 I  79.203 J  53.219
G2 X 888.440 Y 635.280 I 156.647 J  69.814
G2 X 880.610 Y 667.630 I 376.932 J 108.355
G2 X 874.840 Y 703.420 I 497.151 J  98.510
G2 X 871.300 Y 741.560 I 593.345 J  74.306
G2 X 870.110 Y 780.900 I 647.318 J  39.269
G2 X 871.300 Y 820.240 I 648.508 J   0.071
G2 X 874.840 Y 858.380 I 596.885 J -36.166
G2 X 880.610 Y 894.170 I 502.921 J -62.720
G2 X 888.440 Y 926.520 I 384.762 J -76.005
G2 X 898.100 Y 954.440 I 263.746 J -75.622
G2 X 909.290 Y 977.100 I 158.951 J -64.400
G2 X 921.660 Y 993.790 I  82.391 J -48.136
G2 X 934.860 Y1004.010 I  36.429 J -33.416
G2 X 948.460 Y1007.450 I  13.801 J -25.958
G2 X 962.070 Y1004.010 I  -0.191 J -29.398
G2 X 975.260 Y 993.790 I -23.248 J -43.626
G2 X 987.630 Y 977.100 I -70.021 J -64.826
G2 X 998.820 Y 954.440 I-147.761 J -87.060
G2 X1008.480 Y 926.520 I-254.086 J-103.542
G2 X1016.310 Y 894.170 I-376.932 J-108.355
G2 X1022.080 Y 858.380 I-497.151 J -98.510
G2 X1025.620 Y 820.240 I-593.345 J -74.306
G2 X1026.810 Y 780.900 I-647.318 J -39.269
G2 X1025.620 Y 741.560 I-648.508 J  -0.071
G2 X1022.080 Y 703.420 I-596.885 J  36.166
G2 X1016.310 Y 667.630 I-502.921 J  62.720
G2 X1008.480 Y 635.280 I-384.762 J  76.005
G2 X 998.820 Y 607.350 I-263.752 J  75.587
G2 X 987.630 Y 584.700 I-158.937 J  64.432
G2 X 975.260 Y 568.020 I -82.374 J  48.163
G2 X 962.070 Y 557.790 I -36.456 J  33.386
G2 X 948.460 Y 554.350 I -13.801 J  25.958
G2 X 934.860 Y 557.790 I   0.201 J  29.398
G2 X 921.660 Y 568.020 I  23.247 J  43.627
G2 X 909.290 Y 584.700 I  70.004 J  64.843
F150
G1 Z  -3.000
F400
G2 X 898.100 Y 607.350 I  79.203 J  53.219
G2 X 888.440 Y 635.280 I 156.647 J  69.814
G2 X 880.610 Y 667.630 I 376.932 J 108.355
G2 X 874.840 Y 703.420 I 497.151 J  98.510
G2 X 871.300 Y 741.560 I 593.345 J  74.306
G2 X 870.110 Y 780.900 I 647.318 J  39.269
G2 X 871.300 Y 820.240 I 648.508 J   0.071
G2 X 874.840 Y 858.380 I 596.885 J -36.166
G2 X 880.610 Y 894.170 I 502.921 J -62.720
G2 X 888.440 Y 926.520 I 384.762 J -76.005
G2 X 898.100 Y 954.440 I 263.746 J -75.622
