(Generated with: DXF2GCODE, Version: REMOVED, Date: $Date$)
(Created from file: )
(Output format description: G-CODE for LinuxCNC)
(Time: Thu Sep 13 16:00:44 2018)
G21 (Units in millimeters)
G90 (Absolute programming)
G64 (Default cutting) G17 (XY plane) G40 (Cancel radius comp.) G49 (Cancel length comp.)
G0 Z  15.000 

(*** LAYER: FRAME_Z18 ***)
T1 M6
S6000

(* SHAPE Nr: 47 *)
G0 X   0.000 Y   0.000
M3 M8
G0 Z   3.000 
F150
G1 Z  -1.500
F400
G1 X   0.000 Y2050.000
G1 X2800.000 Y2050.000
G1 X2800.000 Y   0.000
G1 X   0.000 Y   0.000
F150
G1 Z  -3.000
F400
G1 X   0.000 Y2050.000
G1 X2800.000 Y2050.000
G1 X2800.000 Y   0.000
G1 X   0.000 Y   0.000
F150
G1 Z   3.000
G0 Z  15.000 
M9 M5

(*** LAYER: BORDER_D0_T132_RK1_A0_W0_EM1_RI1_ID0018 ***)

(* SHAPE Nr: 0 *)
G0 X  90.770 Y 144.220
M3 M8
G0 Z   3.000 
G1 Z  -1.500
F400
G2 X  74.310 Y 155.310 I  25.634 J  55.807
G2 X  58.870 Y 173.430 I  72.417 J  77.344
G2 X  44.910 Y 198.020 I 146.917 J  99.664
G2 X  32.870 Y 228.330 I 246.893 J 115.619
G2 X  23.100 Y 263.450 I 361.196 J 119.400
G2 X  15.890 Y 302.300 I 472.487 J 107.781
G2 X  11.490 Y 343.710 I 561.472 J  80.598
G2 X  10.000 Y 386.420 I 611.451 J  42.712
G2 X  11.490 Y 429.130 I 612.906 J  -0.001
G2 X  15.890 Y 470.540 I 565.872 J -39.188
G2 X  23.100 Y 509.390 I 479.697 J -68.931
G2 X  32.870 Y 544.510 I 370.966 J -84.280
G2 X  44.910 Y 574.820 I 258.933 J -85.309
G2 X  58.870 Y 599.410 I 160.877 J -75.074
G2 X  74.310 Y 617.530 I  87.857 J -59.224
G2 X  90.770 Y 628.620 I  42.094 J -44.717
G2 X 107.740 Y 632.360 I  17.159 J -37.487
G2 X 124.710 Y 628.620 I  -0.189 J -41.227
G2 X 141.170 Y 617.530 I -25.634 J -55.807
G2 X 156.610 Y 599.410 I -72.417 J -77.344
G2 X 170.570 Y 574.820 I-146.917 J -99.664
G2 X 182.610 Y 544.510 I-246.893 J-115.619
G2 X 192.380 Y 509.390 I-361.196 J-119.400
G2 X 199.590 Y 470.540 I-472.487 J-107.781
G2 X 203.990 Y 429.130 I-561.472 J -80.598
G2 X 205.480 Y 386.420 I-611.416 J -42.711
G2 X 203.990 Y 343.710 I-612.906 J   0.001
G2 X 199.590 Y 302.300 I-565.872 J  39.188
G2 X 192.380 Y 263.450 I-479.697 J  68.931
G2 X 182.610 Y 228.330 I-370.966 J  84.280
G2 X 170.570 Y 198.020 I-258.933 J  85.309
G2 X 156.610 Y 173.430 I-160.877 J  75.074
G2 X 141.170 Y 155.310 I -87.858 J  59.225
G2 X 124.710 Y 144.220 I -42.094 J  44.717
G2 X 107.740 Y 140.480 I -17.159 J  37.487
G2 X  90.770 Y 144.220 I   0.189 J  41.227
F150
G1 Z  -3.000
F400
G2 X  74.310 Y 155.310 I  25.634 J  55.807
G2 X  58.870 Y 173.430 I  72.417 J  77.344
G2 X  44.910 Y 198.020 I 146.917 J  99.664
G2 X  32.870 Y 228.330 I 246.893 J 115.619
G2 X  23.100 Y 263.450 I 361.196 J 119.400
G2 X  15.890 Y 302.300 I 472.487 J 107.781
G2 X  11.490 Y 343.710 I 561.472 J  80.598
G2 X  10.000 Y 386.420 I 611.451 J  42.712
G2 X  11.490 Y 429.130 I 612.906 J  -0.001
G2 X  15.890 Y 470.540 I 565.872 J -39.188
G2 X  23.100 Y 509.390 I 479.697 J -68.931
G2 X  32.870 Y 544.510 I 370.966 J -84.280
G2 X  44.910 Y 574.820 I 258.933 J -85.309
G2 X  58.870 Y 599.410 I 160.877 J -75.074
G2 X  74.310 Y 617.530 I  87.857 J -59.224
G2 X  90.770 Y 628.620 I  42.094 J -44.717
G2 X 107.740 Y 632.360 I  17.159 J -37.487
G2 X 124.710 Y 628.620 I  -0.189 J -41.227
G2 X 141.170 Y 617.530 I -25.634 J -55.807
G2 X 156.610 Y 599.410 I -72.417 J -77.344
G2 X 170.570 Y 574.820 I-146.917 J -99.664
G2 X 182.610 Y 544.510 I-246.893 J-115.619
G2 X 192.380 Y 509.390 I-361.196 J-119.400
G2 X 199.590 Y 470.540 I-472.487 J-107.781
G2 X 203.990 Y 429.130 I-561.472 J -80.598
G2 X 205.480 Y 386.420 I-611.416 J -42.711
G2 X 203.990 Y 343.710 I-612.906 J   0.001
G2 X 199.590 Y 302.300 I-565.872 J  39.188
G2 X 192.380 Y 263.450 I-479.697 J  68.931
G2 X 182.610 Y 228.330 I-370.966 J  84.280
G2 X 170.570 Y 198.020 I-258.933 J  85.309
G2 X 156.610 Y 173.430 I-160.877 J  75.074
G2 X 141.170 Y 155.310 I -87.858 J  59.225
G2 X 124.710 Y 144.220 I -42.094 J  44.717
G2 X 107.740 Y 140.480 I -17.159 J  37.487
G2 X  90.770 Y 144.220 I   0.189 J  41.227
F150
G1 Z   3.000
G0 Z  15.000 
M9 M5

(* SHAPE Nr: 27 *)
G0 X2325.880 Y1581.070
M3 M8
G0 Z   3.000 
G1 Z  -1.500
F400
G2 X2311.920 Y1605.660 I 146.913 J  99.662
G2 X2299.880 Y1635.970 I 246.893 J 115.619
G2 X2290.110 Y1671.090 I 361.196 J 119.400
G2 X2282.900 Y1709.940 I 472.487 J 107.781
G2 X2278.500 Y1751.350 I 561.472 J  80.598
G2 X2277.010 Y1794.060 I 611.416 J  42.711
G2 X2278.500 Y1836.770 I 612.941 J  -0.002
G2 X2282.900 Y1878.180 I 565.872 J -39.188
G2 X2290.110 Y1917.030 I 479.697 J -68.931
G2 X2299.880 Y1952.150 I 370.966 J -84.280
G2 X2311.920 Y1982.460 I 258.933 J -85.309
G2 X2325.880 Y2007.050 I 160.873 J -75.072
G2 X2341.320 Y2025.170 I  87.858 J -59.225
G2 X2357.780 Y2036.260 I  42.094 J -44.717
G2 X2374.750 Y2040.000 I  17.159 J -37.487
G2 X2391.720 Y2036.260 I  -0.189 J -41.227
G2 X2408.180 Y2025.170 I -25.634 J -55.807
G2 X2423.620 Y2007.050 I -72.418 J -77.345
G2 X2437.580 Y1982.460 I-146.917 J -99.664
G2 X2449.620 Y1952.150 I-246.893 J-115.619
G2 X2459.390 Y1917.030 I-361.196 J-119.400
G2 X2466.600 Y1878.180 I-472.487 J-107.781
G2 X2471.000 Y1836.770 I-561.472 J -80.598
G2 X2472.490 Y1794.060 I-611.416 J -42.711
G2 X2471.000 Y1751.350 I-612.906 J   0.001
G2 X2466.600 Y1709.940 I-565.872 J  39.188
G2 X2459.390 Y1671.090 I-479.697 J  68.931
G2 X2449.620 Y1635.970 I-370.966 J  84.280
G2 X2437.580 Y1605.660 I-258.933 J  85.309
G2 X2423.620 Y1581.070 I-160.877 J  75.074
G2 X2408.180 Y1562.950 I -87.857 J  59.224
G2 X2391.720 Y1551.860 I -42.094 J  44.717
G2 X2374.750 Y1548.120 I -17.159 J  37.487
G2 X2357.780 Y1551.860 I   0.189 J  41.227
G2 X2341.320 Y1562.950 I  25.634 J  55.807
G2 X2325.880 Y1581.070 I  72.418 J  77.345
F150
G1 Z  -3.000
F400
G2 X2311.920 Y1605.660 I 146.913 J  99.662
G2 X2299.880 Y1635.970 I 246.893 J 115.619
G2 X2290.110 Y1671.090 I 361.196 J 119.400
G2 X2282.900 Y1709.940 I 472.487 J 107.781
G2 X2278.500 Y1751.350 I 561.472 J  80.598
G2 X2277.010 Y1794.060 I 611.416 J  42.711
G2 X2278.500 Y1836.770 I 612.941 J  -0.002
G2 X2282.900 Y1878.180 I 565.872 J -39.188
G2 X2290.110 Y1917.030 I 479.697 J -68.931
G2 X2299.880 Y1952.150 I 370.966 J -84.280
G2 X2311.920 Y1982.460 I 258.933 J -85.309
G2 X2325.880 Y2007.050 I 160.873 J -75.072
G2 X2341.320 Y2025.170 I  87.858 J -59.225
G2 X2357.780 Y2036.260 I  42.094 J -44.717
G2 X2374.750 Y2040.000 I  17.159 J -37.487
G2 X2391.720 Y2036.260 I  -0.189 J -41.227
G2 X2408.180 Y2025.170 I -25.634 J -55.807
G2 X2423.620 Y2007.050 I -72.418 J -77.345
G2 X2437.580 Y1982.460 I-146.917 J -99.664
G2 X2449.620 Y1952.150 I-246.893 J-115.619
G2 X2459.390 Y1917.030 I-361.196 J-119.400
G2 X2466.600 Y1878.180 I-472.487 J-107.781
G2 X2471.000 Y1836.770 I-561.472 J -80.598
G2 X2472.490 Y1794.060 I-611.416 J -42.711
G2 X2471.000 Y1751.350 I-612.906 J   0.001
G2 X2466.600 Y1709.940 I-565.872 J  39.188
G2 X2459.390 Y1671.090 I-479.697 J  68.931
G2 X2449.620 Y1635.970 I-370.966 J  84.280
G2 X2437.580 Y1605.660 I-258.933 J  85.309
G2 X2423.620 Y1581.070 I-160.877 J  75.074
G2 X2408.180 Y1562.950 I -87.857 J  59.224
G2 X2391.720 Y1551.860 I -42.094 J  44.717
G2 X2374.750 Y1548.120 I -17.159 J  37.487
G2 X2357.780 Y1551.860 I   0.189 J  41.227
G2 X2341.320 Y1562.950 I  25.634 J  55.807
G2 X2325.880 Y1581.070 I  72.418 J  77.345
F150
G1 Z   3.000
G0 Z  15.000 
M9 M5

(* SHAPE Nr: 28 *)
G0 X2554.700 Y1581.070
M3 M8
G0 Z   3.000 
G1 Z  -1.500
F400
G2 X2540.740 Y1605.660 I 146.913 J  99.662
G2 X2528.700 Y1635.970 I 246.893 J 115.619
G2 X2518.930 Y1671.090 I 361.196 J 119.400
G2 X2511.720 Y1709.940 I 472.487 J 107.781
G2 X2507.320 Y1751.350 I 561.472 J  80.598
G2 X2505.830 Y1794.060 I 611.416 J  42.711
G2 X2507.320 Y1836.770 I 612.941 J  -0.002
G2 X2511.720 Y1878.180 I 565.872 J -39.188
G2 X2518.930 Y1917.030 I 479.697 J -68.931
G2 X2528.700 Y1952.150 I 370.966 J -84.280
G2 X2540.740 Y1982.460 I 258.933 J -85.309
G2 X2554.700 Y2007.050 I 160.873 J -75.072
G2 X2570.140 Y2025.170 I  87.858 J -59.225
G2 X2586.600 Y2036.260 I  42.094 J -44.717
G2 X2603.570 Y2040.000 I  17.159 J -37.487
G2 X2620.540 Y2036.260 I  -0.189 J -41.227
G2 X2637.000 Y2025.170 I -25.634 J -55.807
G2 X2652.440 Y2007.050 I -72.417 J -77.344
G2 X2666.400 Y1982.460 I-146.917 J -99.664
G2 X2678.440 Y1952.150 I-246.893 J-115.619
G2 X2688.210 Y1917.030 I-361.196 J-119.400
G2 X2695.420 Y1878.180 I-472.487 J-107.781
G2 X2699.820 Y1836.770 I-561.472 J -80.598
G2 X2701.310 Y1794.060 I-611.416 J -42.711
G2 X2699.820 Y1751.350 I-612.906 J   0.001
G2 X2695.420 Y1709.940 I-565.872 J  39.188
G2 X2688.210 Y1671.090 I-479.697 J  68.931
G2 X2678.440 Y1635.970 I-370.966 J  84.280
G2 X2666.400 Y1605.660 I-258.933 J  85.309
G2 X2652.440 Y1581.070 I-160.877 J  75.074
G2 X2637.000 Y1562.950 I -87.857 J  59.224
G2 X2620.540 Y1551.860 I -42.094 J  44.717
G2 X2603.570 Y1548.120 I -17.159 J  37.487
G2 X2586.600 Y1551.860 I   0.189 J  41.227
G2 X2570.140 Y1562.950 I  25.634 J  55.807
G2 X2554.700 Y1581.070 I  72.418 J  77.345
F150
G1 Z  -3.000
F400
G2 X2540.740 Y1605.660 I 146.913 J  99.662
G2 X2528.700 Y1635.970 I 246.893 J 115.619
G2 X2518.930 Y1671.090 I 361.196 J 119.400
G2 X2511.720 Y1709.940 I 472.487 J 107.781
G2 X2507.320 Y1751.350 I 561.472 J  80.598
G2 X2505.830 Y1794.060 I 611.416 J  42.711
G2 X2507.320 Y1836.770 I 612.941 J  -0.002
G2 X2511.720 Y1878.180 I 565.872 J -39.188
G2 X2518.930 Y1917.030 I 479.697 J -68.931
G2 X2528.700 Y1952.150 I 370.966 J -84.280
G2 X2540.740 Y1982.460 I 258.933 J -85.309
G2 X2554.700 Y2007.050 I 160.873 J -75.072
G2 X2570.140 Y2025.170 I  87.858 J -59.225
G2 X2586.600 Y2036.260 I  42.094 J -44.717
G2 X2603.570 Y2040.000 I  17.159 J -37.487
G2 X2620.540 Y2036.260 I  -0.189 J -41.227
G2 X2637.000 Y2025.170 I -25.634 J -55.807
G2 X2652.440 Y2007.050 I -72.417 J -77.344
G2 X2666.400 Y1982.460 I-146.917 J -99.664
G2 X2678.440 Y1952.150 I-246.893 J-115.619
G2 X2688.210 Y1917.030 I-361.196 J-119.400
G2 X2695.420 Y1878.180 I-472.487 J-107.781
G2 X2699.820 Y1836.770 I-561.472 J -80.598
G2 X2701.310 Y1794.060 I-611.416 J -42.711
G2 X2699.820 Y1751.350 I-612.906 J   0.001
G2 X2695.420 Y1709.940 I-565.872 J  39.188
G2 X2688.210 Y1671.090 I-479.697 J  68.931
G2 X2678.440 Y1635.970 I-370.966 J  84.280
G2 X2666.400 Y1605.660 I-258.933 J  85.309
G2 X2652.440 Y1581.070 I-160.877 J  75.074
G2 X2637.000 Y1562.950 I -87.857 J  59.224
G2 X2620.540 Y1551.860 I -42.094 J  44.717
G2 X2603.570 Y1548.120 I -17.159 J  37.487
G2 X2586.600 Y1551.860 I   0.189 J  41.227
G2 X2570.140 Y1562.950 I  25.634 J  55.807
G2 X2554.700 Y1581.070 I  72.418 J  77.345
F150
G1 Z   3.000
G0 Z  15.000 
M9 M5

(* SHAPE Nr: 29 *)
G0 X 740.280 Y1857.950
M3 M8
G0 Z   3.000 
G1 Z  -1.500
F400
G2 X 715.690 Y1871.910 I  75.074 J 160.877
G2 X 697.570 Y1887.350 I  59.224 J  87.857
G2 X 686.480 Y1903.810 I  44.717 J  42.094
G2 X 682.740 Y1920.780 I  37.486 J  17.159
G2 X 686.480 Y1937.750 I  41.227 J  -0.189
G2 X 697.570 Y1954.210 I  55.807 J -25.634
G2 X 715.690 Y1969.650 I  77.345 J -72.418
G2 X 740.280 Y1983.610 I  99.664 J-146.917
G2 X 770.590 Y1995.650 I 115.619 J-246.893
G2 X 805.710 Y2005.420 I 119.400 J-361.196
G2 X 844.560 Y2012.630 I 107.781 J-472.487
G2 X 885.970 Y2017.030 I  80.598 J-561.472
G2 X 928.680 Y2018.520 I  42.711 J-611.416
G2 X 971.390 Y2017.030 I  -0.001 J-612.906
G2 X1012.800 Y2012.630 I -39.188 J-565.872
G2 X1051.650 Y2005.420 I -68.931 J-479.697
G2 X1086.770 Y1995.650 I -84.280 J-370.966
G2 X1117.080 Y1983.610 I -85.309 J-258.933
G2 X1141.670 Y1969.650 I -75.074 J-160.877
G2 X1159.790 Y1954.210 I -59.225 J -87.858
G2 X1170.880 Y1937.750 I -44.717 J -42.094
G2 X1174.620 Y1920.780 I -37.487 J -17.159
G2 X1170.880 Y1903.810 I -41.226 J   0.189
G2 X1159.790 Y1887.350 I -55.807 J  25.634
G2 X1141.670 Y1871.910 I -77.344 J  72.417
G2 X1117.080 Y1857.950 I -99.664 J 146.917
G2 X1086.770 Y1845.910 I-115.619 J 246.893
G2 X1051.650 Y1836.140 I-119.400 J 361.196
G2 X1012.800 Y1828.930 I-107.781 J 472.487
G2 X 971.390 Y1824.530 I -80.598 J 561.472
G2 X 928.680 Y1823.040 I -42.711 J 611.416
G2 X 885.970 Y1824.530 I   0.001 J 612.906
G2 X 844.560 Y1828.930 I  39.188 J 565.872
G2 X 805.710 Y1836.140 I  68.931 J 479.697
G2 X 770.590 Y1845.910 I  84.280 J 370.966
G2 X 740.280 Y1857.950 I  85.309 J 258.933
F150
G1 Z  -3.000
F400
G2 X 715.690 Y1871.910 I  75.074 J 160.877
G2 X 697.570 Y1887.350 I  59.224 J  87.857
G2 X 686.480 Y1903.810 I  44.717 J  42.094
G2 X 682.740 Y1920.780 I  37.486 J  17.159
G2 X 686.480 Y1937.750 I  41.227 J  -0.189
G2 X 697.570 Y1954.210 I  55.807 J -25.634
G2 X 715.690 Y1969.650 I  77.345 J -72.418
G2 X 740.280 Y1983.610 I  99.664 J-146.917
G2 X 770.590 Y1995.650 I 115.619 J-246.893
G2 X 805.710 Y2005.420 I 119.400 J-361.196
G2 X 844.560 Y2012.630 I 107.781 J-472.487
G2 X 885.970 Y2017.030 I  80.598 J-561.472
G2 X 928.680 Y2018.520 I  42.711 J-611.416
G2 X 971.390 Y2017.030 I  -0.001 J-612.906
G2 X1012.800 Y2012.630 I -39.188 J-565.872
G2 X1051.650 Y2005.420 I -68.931 J-479.697
G2 X1086.770 Y1995.650 I -84.280 J-370.966
G2 X1117.080 Y1983.610 I -85.309 J-258.933
G2 X1141.670 Y1969.650 I -75.074 J-160.877
G2 X1159.790 Y1954.210 I -59.225 J -87.858
G2 X1170.880 Y1937.750 I -44.717 J -42.094
G2 X1174.620 Y1920.780 I -37.487 J -17.159
G2 X1170.880 Y1903.810 I -41.226 J   0.189
G2 X1159.790 Y1887.350 I -55.807 J  25.634
G2 X1141.670 Y1871.910 I -77.344 J  72.417
G2 X1117.080 Y1857.950 I -99.664 J 146.917
G2 X1086.770 Y1845.910 I-115.619 J 246.893
G2 X1051.650 Y1836.140 I-119.400 J 361.196
G2 X1012.800 Y1828.930 I-107.781 J 472.487
G2 X 971.390 Y1824.530 I -80.598 J 561.472
G2 X 928.680 Y1823.040 I -42.711 J 611.416
G2 X 885.970 Y1824.530 I   0.001 J 612.906
G2 X 844.560 Y1828.930 I  39.188 J 565.872
G2 X 805.710 Y1836.140 I  68.931 J 479.697
G2 X 770.590 Y1845.910 I  84.280 J 370.966
G2 X 740.280 Y1857.950 I  85.309 J 258.933
F150
G1 Z   3.000
G0 Z  15.000 
M9 M5

(* SHAPE Nr: 32 *)
G0 X2154.900 Y 913.030
M3 M8
G0 Z   3.000 
G1 Z  -1.500
F400
G2 X2151.160 Y 930.000 I  37.487 J  17.159
G2 X2154.900 Y 946.970 I  41.227 J  -0.189
G2 X2165.990 Y 963.430 I  55.807 J -25.634
G2 X2184.110 Y 978.870 I  77.345 J -72.418
G2 X2208.700 Y 992.830 I  99.664 J-146.917
G2 X2239.010 Y1004.870 I 115.619 J-246.893
G2 X2274.130 Y1014.640 I 119.400 J-361.196
G2 X2312.980 Y1021.850 I 107.781 J-472.487
G2 X2354.390 Y1026.250 I  80.598 J-561.472
G2 X2397.100 Y1027.740 I  42.711 J-611.416
G2 X2439.810 Y1026.250 I  -0.001 J-612.906
G2 X2481.220 Y1021.850 I -39.188 J-565.872
G2 X2520.070 Y1014.640 I -68.931 J-479.697
G2 X2555.190 Y1004.870 I -84.280 J-370.966
G2 X2585.500 Y 992.830 I -85.309 J-258.933
G2 X2610.090 Y 978.870 I -75.074 J-160.877
G2 X2628.210 Y 963.430 I -59.224 J -87.857
G2 X2639.300 Y 946.970 I -44.717 J -42.094
G2 X2643.040 Y 930.000 I -37.487 J -17.159
G2 X2639.300 Y 913.030 I -41.227 J   0.189
G2 X2628.210 Y 896.570 I -55.807 J  25.634
G2 X2610.090 Y 881.130 I -77.344 J  72.417
G2 X2585.500 Y 867.170 I -99.664 J 146.917
G2 X2555.190 Y 855.130 I-115.619 J 246.893
G2 X2520.070 Y 845.360 I-119.400 J 361.196
G2 X2481.220 Y 838.150 I-107.781 J 472.487
G2 X2439.810 Y 833.750 I -80.598 J 561.472
G2 X2397.100 Y 832.260 I -42.711 J 611.416
G2 X2354.390 Y 833.750 I   0.001 J 612.906
G2 X2312.980 Y 838.150 I  39.188 J 565.872
G2 X2274.130 Y 845.360 I  68.931 J 479.697
G2 X2239.010 Y 855.130 I  84.280 J 370.966
G2 X2208.700 Y 867.170 I  85.309 J 258.933
G2 X2184.110 Y 881.130 I  75.074 J 160.877
G2 X2165.990 Y 896.570 I  59.225 J  87.858
G2 X2154.900 Y 913.030 I  44.717 J  42.094
F150
G1 Z  -3.000
F400
G2 X2151.160 Y 930.000 I  37.487 J  17.159
G2 X2154.900 Y 946.970 I  41.227 J  -0.189
G2 X2165.990 Y 963.430 I  55.807 J -25.634
G2 X2184.110 Y 978.870 I  77.345 J -72.418
G2 X2208.700 Y 992.830 I  99.664 J-146.917
G2 X2239.010 Y1004.870 I 115.619 J-246.893
G2 X2274.130 Y1014.640 I 119.400 J-361.196
G2 X2312.980 Y1021.850 I 107.781 J-472.487
G2 X2354.390 Y1026.250 I  80.598 J-561.472
G2 X2397.100 Y1027.740 I  42.711 J-611.416
G2 X2439.810 Y1026.250 I  -0.001 J-612.906
G2 X2481.220 Y1021.850 I -39.188 J-565.872
G2 X2520.070 Y1014.640 I -68.931 J-479.697
G2 X2555.190 Y1004.870 I -84.280 J-370.966
G2 X2585.500 Y 992.830 I -85.309 J-258.933
G2 X2610.090 Y 978.870 I -75.074 J-160.877
G2 X2628.210 Y 963.430 I -59.224 J -87.857
G2 X2639.300 Y 946.970 I -44.717 J -42.094
G2 X2643.040 Y 930.000 I -37.487 J -17.159
G2 X2639.300 Y 913.030 I -41.227 J   0.189
G2 X2628.210 Y 896.570 I -55.807 J  25.634
G2 X2610.090 Y 881.130 I -77.344 J  72.417
G2 X2585.500 Y 867.170 I -99.664 J 146.917
G2 X2555.190 Y 855.130 I-115.619 J 246.893
G2 X2520.070 Y 845.360 I-119.400 J 361.196
G2 X2481.220 Y 838.150 I-107.781 J 472.487
G2 X2439.810 Y 833.750 I -80.598 J 561.472
G2 X2397.100 Y 832.260 I -42.711 J 611.416
G2 X2354.390 Y 833.750 I   0.001 J 612.906
G2 X2312.980 Y 838.150 I  39.188 J 565.872
G2 X2274.130 Y 845.360 I  68.931 J 479.697
G2 X2239.010 Y 855.130 I  84.280 J 370.966
G2 X2208.700 Y 867.170 I  85.309 J 258.933
G2 X2184.110 Y 881.130 I  75.074 J 160.877
G2 X2165.990 Y 896.570 I  59.225 J  87.858
G2 X2154.900 Y 913.030 I  44.717 J  42.094
F150
G1 Z   3.000
G0 Z  15.000 
M9 M5

(*** LAYER: BORDER_D0_T132_RK1_A0_W0_EM1_RI1_ID0002 ***)

(* SHAPE Nr: 1 *)
G0 X 422.850 Y1171.800
M3 M8
G0 Z   3.000 
G1 Z  -1.500
F400
G1 X 359.990 Y1412.440
G1 X 167.690 Y1254.710
G1 X 258.280 Y1486.340
G1 X   9.990 Y1471.760
G1 X 219.430 Y1605.900
G1 X   9.990 Y1740.030
G1 X 258.280 Y1725.460
G1 X 167.690 Y1957.090
G1 X 359.990 Y1799.360
G1 X 422.850 Y2040.000
G1 X 485.700 Y1799.360
G1 X 678.010 Y1957.090
G1 X 587.410 Y1725.460
G1 X 835.710 Y1740.030
G1 X 626.270 Y1605.900
G1 X 835.710 Y1471.760
G1 X 587.410 Y1486.340
G1 X 678.010 Y1254.710
G1 X 485.700 Y1412.440
G1 X 422.850 Y1171.800
F150
G1 Z  -3.000
F400
G1 X 359.990 Y1412.440
G1 X 167.690 Y1254.710
G1 X 258.280 Y1486.340
G1 X   9.990 Y1471.760
G1 X 219.430 Y1605.900
G1 X   9.990 Y1740.030
G1 X 258.280 Y1725.460
G1 X 167.690 Y1957.090
G1 X 359.990 Y1799.360
G1 X 422.850 Y2040.000
G1 X 485.700 Y1799.360
G1 X 678.010 Y1957.090
G1 X 587.410 Y1725.460
G1 X 835.710 Y1740.030
G1 X 626.270 Y1605.900
G1 X 835.710 Y1471.760
G1 X 587.410 Y1486.340
G1 X 678.010 Y1254.710
G1 X 485.700 Y1412.440
G1 X 422.850 Y1171.800
F150
G1 Z   3.000
G0 Z  15.000 
M9 M5

(* SHAPE Nr: 2 *)
G0 X 842.790 Y 980.500
M3 M8
G0 Z   3.000 
G1 Z  -1.500
F400
G1 X 933.380 Y1212.130
G1 X 685.090 Y1197.550
G1 X 894.530 Y1331.690
G1 X 685.090 Y1465.820
G1 X 933.380 Y1451.250
G1 X 842.790 Y1682.880
G1 X1035.090 Y1525.150
G1 X1097.950 Y1765.790
G1 X1160.800 Y1525.150
G1 X1353.110 Y1682.880
G1 X1262.510 Y1451.250
G1 X1510.810 Y1465.820
G1 X1301.370 Y1331.690
G1 X1510.810 Y1197.550
G1 X1262.510 Y1212.130
G1 X1353.110 Y 980.500
G1 X1160.800 Y1138.230
G1 X1097.950 Y 897.590
G1 X1035.090 Y1138.230
G1 X 842.790 Y 980.500
F150
G1 Z  -3.000
F400
G1 X 933.380 Y1212.130
G1 X 685.090 Y1197.550
G1 X 894.530 Y1331.690
G1 X 685.090 Y1465.820
G1 X 933.380 Y1451.250
G1 X 842.790 Y1682.880
G1 X1035.090 Y1525.150
G1 X1097.950 Y1765.790
G1 X1160.800 Y1525.150
G1 X1353.110 Y1682.880
G1 X1262.510 Y1451.250
G1 X1510.810 Y1465.820
G1 X1301.370 Y1331.690
G1 X1510.810 Y1197.550
G1 X1262.510 Y1212.130
G1 X1353.110 Y 980.500
G1 X1160.800 Y1138.230
G1 X1097.950 Y 897.590
G1 X1035.090 Y1138.230
G1 X 842.790 Y 980.500
F150
G1 Z   3.000
G0 Z  15.000 
M9 M5

(* SHAPE Nr: 6 *)
G0 X1499.020 Y1371.990
M3 M8
G0 Z   3.000 
G1 Z  -1.500
F400
G1 X1656.750 Y1564.290
G1 X1416.110 Y1627.140
G1 X1656.750 Y1690.000
G1 X1499.020 Y1882.300
G1 X1730.650 Y1791.710
G1 X1716.070 Y2040.000
G1 X1850.210 Y1830.560
G1 X1984.350 Y2040.000
G1 X1969.770 Y1791.710
G1 X2201.400 Y1882.300
G1 X2043.670 Y1690.000
G1 X2284.310 Y1627.140
G1 X2043.670 Y1564.290
G1 X2201.400 Y1371.990
G1 X1969.770 Y1462.580
G1 X1984.350 Y1214.290
G1 X1850.210 Y1423.730
G1 X1716.070 Y1214.290
G1 X1730.650 Y1462.580
G1 X1499.020 Y1371.990
F150
G1 Z  -3.000
F400
G1 X1656.750 Y1564.290
G1 X1416.110 Y1627.140
G1 X1656.750 Y1690.000
G1 X1499.020 Y1882.300
G1 X1730.650 Y1791.710
G1 X1716.070 Y2040.000
G1 X1850.210 Y1830.560
G1 X1984.350 Y2040.000
G1 X1969.770 Y1791.710
G1 X2201.400 Y1882.300
G1 X2043.670 Y1690.000
G1 X2284.310 Y1627.140
G1 X2043.670 Y1564.290
G1 X2201.400 Y1371.990
G1 X1969.770 Y1462.580
G1 X1984.350 Y1214.290
G1 X1850.210 Y1423.730
G1 X1716.070 Y1214.290
G1 X1730.650 Y1462.580
G1 X1499.020 Y1371.990
F150
G1 Z   3.000
G0 Z  15.000 
M9 M5

(* SHAPE Nr: 11 *)
G0 X1455.390 Y 790.340
M3 M8
G0 Z   3.000 
G1 Z  -1.500
F400
G1 X1664.830 Y 924.490
G1 X1455.390 Y1058.620
G1 X1703.690 Y1044.040
G1 X1613.100 Y1275.670
G1 X1805.400 Y1117.950
G1 X1868.260 Y1358.590
G1 X1931.110 Y1117.950
G1 X2123.410 Y1275.670
G1 X2032.820 Y1044.040
G1 X2281.110 Y1058.620
G1 X2071.670 Y 924.490
G1 X2281.110 Y 790.340
G1 X2032.820 Y 804.930
G1 X2123.410 Y 573.300
G1 X1931.110 Y 731.030
G1 X1868.260 Y 490.390
G1 X1805.400 Y 731.030
G1 X1613.100 Y 573.300
G1 X1703.690 Y 804.930
G1 X1455.390 Y 790.340
F150
G1 Z  -3.000
F400
G1 X1664.830 Y 924.490
G1 X1455.390 Y1058.620
G1 X1703.690 Y1044.040
G1 X1613.100 Y1275.670
G1 X1805.400 Y1117.950
G1 X1868.260 Y1358.590
G1 X1931.110 Y1117.950
G1 X2123.410 Y1275.670
G1 X2032.820 Y1044.040
G1 X2281.110 Y1058.620
G1 X2071.670 Y 924.490
G1 X2281.110 Y 790.340
G1 X2032.820 Y 804.930
G1 X2123.410 Y 573.300
G1 X1931.110 Y 731.030
G1 X1868.260 Y 490.390
G1 X1805.400 Y 731.030
G1 X1613.100 Y 573.300
G1 X1703.690 Y 804.930
G1 X1455.390 Y 790.340
F150
G1 Z   3.000
G0 Z  15.000 
M9 M5

(* SHAPE Nr: 13 *)
G0 X 785.060 Y 346.750
M3 M8
G0 Z   3.000 
G1 Z  -1.500
F400
G1 X 942.790 Y 539.050
G1 X 702.150 Y 601.910
G1 X 942.790 Y 664.760
G1 X 785.060 Y 857.060
G1 X1016.690 Y 766.470
G1 X1002.110 Y1014.760
G1 X1136.250 Y 805.320
G1 X1270.390 Y1014.760
G1 X1255.810 Y 766.470
G1 X1487.440 Y 857.060
G1 X1329.710 Y 664.760
G1 X1570.350 Y 601.910
G1 X1329.710 Y 539.050
G1 X1487.440 Y 346.750
G1 X1255.810 Y 437.340
G1 X1270.390 Y 189.050
G1 X1136.250 Y 398.490
G1 X1002.110 Y 189.050
G1 X1016.690 Y 437.340
G1 X 785.060 Y 346.750
F150
G1 Z  -3.000
F400
G1 X 942.790 Y 539.050
G1 X 702.150 Y 601.910
G1 X 942.790 Y 664.760
G1 X 785.060 Y 857.060
G1 X1016.690 Y 766.470
G1 X1002.110 Y1014.760
G1 X1136.250 Y 805.320
G1 X1270.390 Y1014.760
G1 X1255.810 Y 766.470
G1 X1487.440 Y 857.060
G1 X1329.710 Y 664.760
G1 X1570.350 Y 601.910
G1 X1329.710 Y 539.050
G1 X1487.440 Y 346.750
G1 X1255.810 Y 437.340
G1 X1270.390 Y 189.050
G1 X1136.250 Y 398.490
G1 X1002.110 Y 189.050
G1 X1016.690 Y 437.340
G1 X 785.060 Y 346.750
F150
G1 Z   3.000
G0 Z  15.000 
M9 M5

(* SHAPE Nr: 18 *)
G0 X 309.960 Y 487.740
M3 M8
G0 Z   3.000 
G1 Z  -1.500
F400
G1 X 324.540 Y 736.030
G1 X  92.910 Y 645.440
G1 X 250.640 Y 837.740
G1 X  10.000 Y 900.590
G1 X 250.640 Y 963.450
G1 X  92.910 Y1155.750
G1 X 324.540 Y1065.160
G1 X 309.960 Y1313.450
G1 X 444.100 Y1104.010
G1 X 578.240 Y1313.450
G1 X 563.660 Y1065.160
G1 X 795.290 Y1155.750
G1 X 637.560 Y 963.450
G1 X 878.200 Y 900.590
G1 X 637.560 Y 837.740
G1 X 795.290 Y 645.440
G1 X 563.660 Y 736.030
G1 X 578.240 Y 487.740
G1 X 444.100 Y 697.180
G1 X 309.960 Y 487.740
F150
G1 Z  -3.000
F400
G1 X 324.540 Y 736.030
G1 X  92.910 Y 645.440
G1 X 250.640 Y 837.740
G1 X  10.000 Y 900.590
G1 X 250.640 Y 963.450
G1 X  92.910 Y1155.750
G1 X 324.540 Y1065.160
G1 X 309.960 Y1313.450
G1 X 444.100 Y1104.010
G1 X 578.240 Y1313.450
G1 X 563.660 Y1065.160
G1 X 795.290 Y1155.750
G1 X 637.560 Y 963.450
G1 X 878.200 Y 900.590
G1 X 637.560 Y 837.740
G1 X 795.290 Y 645.440
G1 X 563.660 Y 736.030
G1 X 578.240 Y 487.740
G1 X 444.100 Y 697.180
G1 X 309.960 Y 487.740
F150
G1 Z   3.000
G0 Z  15.000 
M9 M5

(*** LAYER: BORDER_D0_T132_RK1_A0_W0_EM1_RI1_ID0007 ***)

(* SHAPE Nr: 3 *)
G0 X1357.690 Y1717.550
M3 M8
G0 Z   3.000 
G1 Z  -1.500
F400
G1 X1399.430 Y1775.000
G1 X1357.690 Y1832.450
G1 X1425.230 Y1810.500
G1 X1466.970 Y1867.950
G1 X1466.970 Y1796.940
G1 X1534.500 Y1775.000
G1 X1466.970 Y1753.050
G1 X1466.970 Y1682.040
G1 X1425.230 Y1739.490
G1 X1357.690 Y1717.550
F150
G1 Z  -3.000
F400
G1 X1399.430 Y1775.000
G1 X1357.690 Y1832.450
G1 X1425.230 Y1810.500
G1 X1466.970 Y1867.950
G1 X1466.970 Y1796.940
G1 X1534.500 Y1775.000
G1 X1466.970 Y1753.050
G1 X1466.970 Y1682.040
G1 X1425.230 Y1739.490
G1 X1357.690 Y1717.550
F150
G1 Z   3.000
G0 Z  15.000 
M9 M5

(*** LAYER: BORDER_D0_T132_RK1_A0_W0_EM1_RI1_ID0023 ***)

(* SHAPE Nr: 4 *)
G0 X1352.060 Y1870.710
M3 M8
G0 Z   3.000 
G1 Z  -1.500
F400
G1 X1303.190 Y1955.350
G1 X1352.060 Y2040.000
G1 X1449.800 Y2040.000
G1 X1498.670 Y1955.350
G1 X1449.800 Y1870.710
G1 X1352.060 Y1870.710
F150
G1 Z  -3.000
F400
G1 X1303.190 Y1955.350
G1 X1352.060 Y2040.000
G1 X1449.800 Y2040.000
G1 X1498.670 Y1955.350
G1 X1449.800 Y1870.710
G1 X1352.060 Y1870.710
F150
G1 Z   3.000
G0 Z  15.000 
M9 M5

(* SHAPE Nr: 14 *)
G0 X 596.760 Y 231.120
M3 M8
G0 Z   3.000 
G1 Z  -1.500
F400
G1 X 596.760 Y 328.860
G1 X 681.400 Y 377.730
G1 X 766.040 Y 328.860
G1 X 766.040 Y 231.120
G1 X 681.400 Y 182.250
G1 X 596.760 Y 231.120
F150
G1 Z  -3.000
F400
G1 X 596.760 Y 328.860
G1 X 681.400 Y 377.730
G1 X 766.040 Y 328.860
G1 X 766.040 Y 231.120
G1 X 681.400 Y 182.250
G1 X 596.760 Y 231.120
F150
G1 Z   3.000
G0 Z  15.000 
M9 M5

(* SHAPE Nr: 20 *)
G0 X 810.310 Y 226.120
M3 M8
G0 Z   3.000 
G1 Z  -1.500
F400
G1 X 810.310 Y 323.860
G1 X 894.950 Y 372.730
G1 X 979.590 Y 323.860
G1 X 979.590 Y 226.120
G1 X 894.950 Y 177.250
G1 X 810.310 Y 226.120
F150
G1 Z  -3.000
F400
G1 X 810.310 Y 323.860
G1 X 894.950 Y 372.730
G1 X 979.590 Y 323.860
G1 X 979.590 Y 226.120
G1 X 894.950 Y 177.250
G1 X 810.310 Y 226.120
F150
G1 Z   3.000
G0 Z  15.000 
M9 M5

(* SHAPE Nr: 22 *)
G0 X1928.200 Y 200.470
M3 M8
G0 Z   3.000 
G1 Z  -1.500
F400
G1 X1928.200 Y 298.210
G1 X2012.840 Y 347.080
G1 X2097.480 Y 298.210
G1 X2097.480 Y 200.470
G1 X2012.840 Y 151.600
G1 X1928.200 Y 200.470
F150
G1 Z  -3.000
F400
G1 X1928.200 Y 298.210
G1 X2012.840 Y 347.080
G1 X2097.480 Y 298.210
G1 X2097.480 Y 200.470
G1 X2012.840 Y 151.600
G1 X1928.200 Y 200.470
F150
G1 Z   3.000
G0 Z  15.000 
M9 M5

(* SHAPE Nr: 26 *)
G0 X2523.510 Y1104.930
M3 M8
G0 Z   3.000 
G1 Z  -1.500
F400
G1 X2523.510 Y1202.670
G1 X2608.150 Y1251.540
G1 X2692.790 Y1202.670
G1 X2692.790 Y1104.930
G1 X2608.150 Y1056.060
G1 X2523.510 Y1104.930
F150
G1 Z  -3.000
F400
G1 X2523.510 Y1202.670
G1 X2608.150 Y1251.540
G1 X2692.790 Y1202.670
G1 X2692.790 Y1104.930
G1 X2608.150 Y1056.060
G1 X2523.510 Y1104.930
F150
G1 Z   3.000
G0 Z  15.000 
M9 M5

(*** LAYER: BORDER_D0_T132_RK1_A0_W0_EM1_RI1_ID0006 ***)

(* SHAPE Nr: 5 *)
G0 X1189.170 Y1751.110
M3 M8
G0 Z   3.000 
G1 Z  -1.500
F400
G1 X1189.170 Y1788.440
G1 X1153.660 Y1799.970
G1 X1175.600 Y1830.180
G1 X1153.660 Y1860.370
G1 X1189.170 Y1871.920
G1 X1189.170 Y1909.240
G1 X1224.670 Y1897.710
G1 X1246.620 Y1927.920
G1 X1268.560 Y1897.710
G1 X1304.080 Y1909.240
G1 X1304.080 Y1871.920
G1 X1339.580 Y1860.370
G1 X1317.640 Y1830.180
G1 X1339.580 Y1799.970
G1 X1304.080 Y1788.440
G1 X1304.080 Y1751.110
G1 X1268.560 Y1762.640
G1 X1246.620 Y1732.440
G1 X1224.670 Y1762.640
G1 X1189.170 Y1751.110
F150
G1 Z  -3.000
F400
G1 X1189.170 Y1788.440
G1 X1153.660 Y1799.970
G1 X1175.600 Y1830.180
G1 X1153.660 Y1860.370
G1 X1189.170 Y1871.920
G1 X1189.170 Y1909.240
G1 X1224.670 Y1897.710
G1 X1246.620 Y1927.920
G1 X1268.560 Y1897.710
G1 X1304.080 Y1909.240
G1 X1304.080 Y1871.920
G1 X1339.580 Y1860.370
G1 X1317.640 Y1830.180
G1 X1339.580 Y1799.970
G1 X1304.080 Y1788.440
G1 X1304.080 Y1751.110
G1 X1268.560 Y1762.640
G1 X1246.620 Y1732.440
G1 X1224.670 Y1762.640
G1 X1189.170 Y1751.110
F150
G1 Z   3.000
G0 Z  15.000 
M9 M5

(* SHAPE Nr: 7 *)
G0 X2182.160 Y1260.080
M3 M8
G0 Z   3.000 
G1 Z  -1.500
F400
G1 X2204.100 Y1290.290
G1 X2182.160 Y1320.480
G1 X2217.670 Y1332.030
G1 X2217.670 Y1369.350
G1 X2253.170 Y1357.820
G1 X2275.120 Y1388.030
G1 X2297.060 Y1357.820
G1 X2332.580 Y1369.350
G1 X2332.580 Y1332.030
G1 X2368.080 Y1320.480
G1 X2346.140 Y1290.290
G1 X2368.080 Y1260.080
G1 X2332.580 Y1248.550
G1 X2332.580 Y1211.220
G1 X2297.060 Y1222.750
G1 X2275.120 Y1192.550
G1 X2253.170 Y1222.750
G1 X2217.670 Y1211.220
G1 X2217.670 Y1248.550
G1 X2182.160 Y1260.080
F150
G1 Z  -3.000
F400
G1 X2204.100 Y1290.290
G1 X2182.160 Y1320.480
G1 X2217.670 Y1332.030
G1 X2217.670 Y1369.350
G1 X2253.170 Y1357.820
G1 X2275.120 Y1388.030
G1 X2297.060 Y1357.820
G1 X2332.580 Y1369.350
G1 X2332.580 Y1332.030
G1 X2368.080 Y1320.480
G1 X2346.140 Y1290.290
G1 X2368.080 Y1260.080
G1 X2332.580 Y1248.550
G1 X2332.580 Y1211.220
G1 X2297.060 Y1222.750
G1 X2275.120 Y1192.550
G1 X2253.170 Y1222.750
G1 X2217.670 Y1211.220
G1 X2217.670 Y1248.550
G1 X2182.160 Y1260.080
F150
G1 Z   3.000
G0 Z  15.000 
M9 M5

(* SHAPE Nr: 8 *)
G0 X2164.860 Y1442.690
M3 M8
G0 Z   3.000 
G1 Z  -1.500
F400
G1 X2176.390 Y1478.190
G1 X2146.190 Y1500.140
G1 X2176.390 Y1522.080
G1 X2164.860 Y1557.590
G1 X2202.190 Y1557.590
G1 X2213.730 Y1593.090
G1 X2243.930 Y1571.150
G1 X2274.130 Y1593.090
G1 X2285.670 Y1557.590
G1 X2323.000 Y1557.590
G1 X2311.470 Y1522.080
G1 X2341.670 Y1500.140
G1 X2311.470 Y1478.190
G1 X2323.000 Y1442.690
G1 X2285.670 Y1442.690
G1 X2274.130 Y1407.180
G1 X2243.930 Y1429.120
G1 X2213.730 Y1407.180
G1 X2202.190 Y1442.690
G1 X2164.860 Y1442.690
F150
G1 Z  -3.000
F400
G1 X2176.390 Y1478.190
G1 X2146.190 Y1500.140
G1 X2176.390 Y1522.080
G1 X2164.860 Y1557.590
G1 X2202.190 Y1557.590
G1 X2213.730 Y1593.090
G1 X2243.930 Y1571.150
G1 X2274.130 Y1593.090
G1 X2285.670 Y1557.590
G1 X2323.000 Y1557.590
G1 X2311.470 Y1522.080
G1 X2341.670 Y1500.140
G1 X2311.470 Y1478.190
G1 X2323.000 Y1442.690
G1 X2285.670 Y1442.690
G1 X2274.130 Y1407.180
G1 X2243.930 Y1429.120
G1 X2213.730 Y1407.180
G1 X2202.190 Y1442.690
G1 X2164.860 Y1442.690
F150
G1 Z   3.000
G0 Z  15.000 
M9 M5

(* SHAPE Nr: 15 *)
G0 X 394.330 Y 180.070
M3 M8
G0 Z   3.000 
G1 Z  -1.500
F400
G1 X 416.270 Y 210.270
G1 X 394.330 Y 240.470
G1 X 429.830 Y 252.010
G1 X 429.830 Y 289.330
G1 X 465.340 Y 277.800
G1 X 487.290 Y 308.010
G1 X 509.230 Y 277.800
G1 X 544.730 Y 289.330
G1 X 544.730 Y 252.010
G1 X 580.250 Y 240.470
G1 X 558.310 Y 210.270
G1 X 580.250 Y 180.070
G1 X 544.730 Y 168.530
G1 X 544.730 Y 131.200
G1 X 509.230 Y 142.730
G1 X 487.290 Y 112.530
G1 X 465.340 Y 142.730
G1 X 429.830 Y 131.200
G1 X 429.830 Y 168.530
G1 X 394.330 Y 180.070
F150
G1 Z  -3.000
F400
G1 X 416.270 Y 210.270
G1 X 394.330 Y 240.470
G1 X 429.830 Y 252.010
G1 X 429.830 Y 289.330
G1 X 465.340 Y 277.800
G1 X 487.290 Y 308.010
G1 X 509.230 Y 277.800
G1 X 544.730 Y 289.330
G1 X 544.730 Y 252.010
G1 X 580.250 Y 240.470
G1 X 558.310 Y 210.270
G1 X 580.250 Y 180.070
G1 X 544.730 Y 168.530
G1 X 544.730 Y 131.200
G1 X 509.230 Y 142.730
G1 X 487.290 Y 112.530
G1 X 465.340 Y 142.730
G1 X 429.830 Y 131.200
G1 X 429.830 Y 168.530
G1 X 394.330 Y 180.070
F150
G1 Z   3.000
G0 Z  15.000 
M9 M5

(* SHAPE Nr: 16 *)
G0 X 228.460 Y 211.140
M3 M8
G0 Z   3.000 
G1 Z  -1.500
F400
G1 X 239.990 Y 246.640
G1 X 209.790 Y 268.590
G1 X 239.990 Y 290.530
G1 X 228.460 Y 326.040
G1 X 265.790 Y 326.040
G1 X 277.330 Y 361.540
G1 X 307.530 Y 339.600
G1 X 337.730 Y 361.540
G1 X 349.270 Y 326.040
G1 X 386.600 Y 326.040
G1 X 375.070 Y 290.530
G1 X 405.270 Y 268.590
G1 X 375.070 Y 246.640
G1 X 386.600 Y 211.140
G1 X 349.270 Y 211.140
G1 X 337.730 Y 175.630
G1 X 307.530 Y 197.570
G1 X 277.330 Y 175.630
G1 X 265.790 Y 211.140
G1 X 228.460 Y 211.140
F150
G1 Z  -3.000
F400
G1 X 239.990 Y 246.640
G1 X 209.790 Y 268.590
G1 X 239.990 Y 290.530
G1 X 228.460 Y 326.040
G1 X 265.790 Y 326.040
G1 X 277.330 Y 361.540
G1 X 307.530 Y 339.600
G1 X 337.730 Y 361.540
G1 X 349.270 Y 326.040
G1 X 386.600 Y 326.040
G1 X 375.070 Y 290.530
G1 X 405.270 Y 268.590
G1 X 375.070 Y 246.640
G1 X 386.600 Y 211.140
G1 X 349.270 Y 211.140
G1 X 337.730 Y 175.630
G1 X 307.530 Y 197.570
G1 X 277.330 Y 175.630
G1 X 265.790 Y 211.140
G1 X 228.460 Y 211.140
F150
G1 Z   3.000
G0 Z  15.000 
M9 M5

(* SHAPE Nr: 17 *)
G0 X 362.970 Y 427.560
M3 M8
G0 Z   3.000 
G1 Z  -1.500
F400
G1 X 374.500 Y 463.060
G1 X 344.300 Y 485.010
G1 X 374.500 Y 506.950
G1 X 362.970 Y 542.460
G1 X 400.300 Y 542.460
G1 X 411.840 Y 577.960
G1 X 442.040 Y 556.020
G1 X 472.240 Y 577.960
G1 X 483.780 Y 542.460
G1 X 521.110 Y 542.460
G1 X 509.580 Y 506.950
G1 X 539.780 Y 485.010
G1 X 509.580 Y 463.060
G1 X 521.110 Y 427.560
G1 X 483.780 Y 427.560
G1 X 472.240 Y 392.050
G1 X 442.040 Y 413.990
G1 X 411.840 Y 392.050
G1 X 400.300 Y 427.560
G1 X 362.970 Y 427.560
F150
G1 Z  -3.000
F400
G1 X 374.500 Y 463.060
G1 X 344.300 Y 485.010
G1 X 374.500 Y 506.950
G1 X 362.970 Y 542.460
G1 X 400.300 Y 542.460
G1 X 411.840 Y 577.960
G1 X 442.040 Y 556.020
G1 X 472.240 Y 577.960
G1 X 483.780 Y 542.460
G1 X 521.110 Y 542.460
G1 X 509.580 Y 506.950
G1 X 539.780 Y 485.010
G1 X 509.580 Y 463.060
G1 X 521.110 Y 427.560
G1 X 483.780 Y 427.560
G1 X 472.240 Y 392.050
G1 X 442.040 Y 413.990
G1 X 411.840 Y 392.050
G1 X 400.300 Y 427.560
G1 X 362.970 Y 427.560
F150
G1 Z   3.000
G0 Z  15.000 
M9 M5

(* SHAPE Nr: 19 *)
G0 X 609.150 Y 417.560
M3 M8
G0 Z   3.000 
G1 Z  -1.500
F400
G1 X 620.680 Y 453.060
G1 X 590.480 Y 475.010
G1 X 620.680 Y 496.950
G1 X 609.150 Y 532.460
G1 X 646.480 Y 532.460
G1 X 658.020 Y 567.960
G1 X 688.220 Y 546.020
G1 X 718.420 Y 567.960
G1 X 729.960 Y 532.460
G1 X 767.290 Y 532.460
G1 X 755.760 Y 496.950
G1 X 785.960 Y 475.010
G1 X 755.760 Y 453.060
G1 X 767.290 Y 417.560
G1 X 729.960 Y 417.560
G1 X 718.420 Y 382.050
G1 X 688.220 Y 403.990
G1 X 658.020 Y 382.050
G1 X 646.480 Y 417.560
G1 X 609.150 Y 417.560
F150
G1 Z  -3.000
F400
G1 X 620.680 Y 453.060
G1 X 590.480 Y 475.010
G1 X 620.680 Y 496.950
G1 X 609.150 Y 532.460
G1 X 646.480 Y 532.460
G1 X 658.020 Y 567.960
G1 X 688.220 Y 546.020
G1 X 718.420 Y 567.960
G1 X 729.960 Y 532.460
G1 X 767.290 Y 532.460
G1 X 755.760 Y 496.950
G1 X 785.960 Y 475.010
G1 X 755.760 Y 453.060
G1 X 767.290 Y 417.560
G1 X 729.960 Y 417.560
G1 X 718.420 Y 382.050
G1 X 688.220 Y 403.990
G1 X 658.020 Y 382.050
G1 X 646.480 Y 417.560
G1 X 609.150 Y 417.560
F150
G1 Z   3.000
G0 Z  15.000 
M9 M5

(* SHAPE Nr: 24 *)
G0 X2531.320 Y 250.240
M3 M8
G0 Z   3.000 
G1 Z  -1.500
F400
G1 X2561.520 Y 272.180
G1 X2549.990 Y 307.690
G1 X2587.320 Y 307.690
G1 X2598.860 Y 343.190
G1 X2629.060 Y 321.250
G1 X2659.260 Y 343.190
G1 X2670.800 Y 307.690
G1 X2708.130 Y 307.690
G1 X2696.600 Y 272.180
G1 X2726.800 Y 250.240
G1 X2696.600 Y 228.290
G1 X2708.130 Y 192.790
G1 X2670.800 Y 192.790
G1 X2659.260 Y 157.280
G1 X2629.060 Y 179.220
G1 X2598.860 Y 157.280
G1 X2587.320 Y 192.790
G1 X2549.990 Y 192.790
G1 X2561.520 Y 228.290
G1 X2531.320 Y 250.240
F150
G1 Z  -3.000
F400
G1 X2561.520 Y 272.180
G1 X2549.990 Y 307.690
G1 X2587.320 Y 307.690
G1 X2598.860 Y 343.190
G1 X2629.060 Y 321.250
G1 X2659.260 Y 343.190
G1 X2670.800 Y 307.690
G1 X2708.130 Y 307.690
G1 X2696.600 Y 272.180
G1 X2726.800 Y 250.240
G1 X2696.600 Y 228.290
G1 X2708.130 Y 192.790
G1 X2670.800 Y 192.790
G1 X2659.260 Y 157.280
G1 X2629.060 Y 179.220
G1 X2598.860 Y 157.280
G1 X2587.320 Y 192.790
G1 X2549.990 Y 192.790
G1 X2561.520 Y 228.290
G1 X2531.320 Y 250.240
F150
G1 Z   3.000
G0 Z  15.000 
M9 M5

(* SHAPE Nr: 25 *)
G0 X2526.630 Y 685.010
M3 M8
G0 Z   3.000 
G1 Z  -1.500
F400
G1 X2556.830 Y 706.950
G1 X2545.300 Y 742.460
G1 X2582.630 Y 742.460
G1 X2594.170 Y 777.960
G1 X2624.370 Y 756.020
G1 X2654.570 Y 777.960
G1 X2666.110 Y 742.460
G1 X2703.440 Y 742.460
G1 X2691.910 Y 706.950
G1 X2722.110 Y 685.010
G1 X2691.910 Y 663.060
G1 X2703.440 Y 627.560
G1 X2666.110 Y 627.560
G1 X2654.570 Y 592.050
G1 X2624.370 Y 613.990
G1 X2594.170 Y 592.050
G1 X2582.630 Y 627.560
G1 X2545.300 Y 627.560
G1 X2556.830 Y 663.060
G1 X2526.630 Y 685.010
F150
G1 Z  -3.000
F400
G1 X2556.830 Y 706.950
G1 X2545.300 Y 742.460
G1 X2582.630 Y 742.460
G1 X2594.170 Y 777.960
G1 X2624.370 Y 756.020
G1 X2654.570 Y 777.960
G1 X2666.110 Y 742.460
G1 X2703.440 Y 742.460
G1 X2691.910 Y 706.950
G1 X2722.110 Y 685.010
G1 X2691.910 Y 663.060
G1 X2703.440 Y 627.560
G1 X2666.110 Y 627.560
G1 X2654.570 Y 592.050
G1 X2624.370 Y 613.990
G1 X2594.170 Y 592.050
G1 X2582.630 Y 627.560
G1 X2545.300 Y 627.560
G1 X2556.830 Y 663.060
G1 X2526.630 Y 685.010
F150
G1 Z   3.000
G0 Z  15.000 
M9 M5

(*** LAYER: BORDER_D0_T132_RK1_A0_W0_EM1_RI1_ID0025 ***)

(* SHAPE Nr: 9 *)
G0 X1994.810 Y1929.130
M3 M8
G0 Z   3.000 
G1 Z  -1.500
F400
G1 X2030.320 Y2038.410
G1 X2145.220 Y2038.410
G1 X2180.720 Y1929.130
G1 X2087.770 Y1861.600
G1 X1994.810 Y1929.130
F150
G1 Z  -3.000
F400
G1 X2030.320 Y2038.410
G1 X2145.220 Y2038.410
G1 X2180.720 Y1929.130
G1 X2087.770 Y1861.600
G1 X1994.810 Y1929.130
F150
G1 Z   3.000
G0 Z  15.000 
M9 M5

(* SHAPE Nr: 10 *)
G0 X1507.720 Y1930.720
M3 M8
G0 Z   3.000 
G1 Z  -1.500
F400
G1 X1543.230 Y2040.000
G1 X1658.130 Y2040.000
G1 X1693.630 Y1930.720
G1 X1600.680 Y1863.190
G1 X1507.720 Y1930.720
F150
G1 Z  -3.000
F400
G1 X1543.230 Y2040.000
G1 X1658.130 Y2040.000
G1 X1693.630 Y1930.720
G1 X1600.680 Y1863.190
G1 X1507.720 Y1930.720
F150
G1 Z   3.000
G0 Z  15.000 
M9 M5

(*** LAYER: BORDER_D0_T132_RK1_A0_W0_EM1_RI1_ID0009 ***)

(* SHAPE Nr: 12 *)
G0 X1521.020 Y 499.990
M3 M8
G0 Z   3.000 
G1 Z  -1.500
F400
G1 X1583.660 Y 520.260
G1 X1569.890 Y 584.640
G1 X1618.760 Y 540.530
G1 X1667.630 Y 584.640
G1 X1653.860 Y 520.260
G1 X1716.500 Y 499.990
G1 X1653.860 Y 479.730
G1 X1667.630 Y 415.350
G1 X1618.760 Y 459.460
G1 X1569.890 Y 415.350
G1 X1583.660 Y 479.730
G1 X1521.020 Y 499.990
F150
G1 Z  -3.000
F400
G1 X1583.660 Y 520.260
G1 X1569.890 Y 584.640
G1 X1618.760 Y 540.530
G1 X1667.630 Y 584.640
G1 X1653.860 Y 520.260
G1 X1716.500 Y 499.990
G1 X1653.860 Y 479.730
G1 X1667.630 Y 415.350
G1 X1618.760 Y 459.460
G1 X1569.890 Y 415.350
G1 X1583.660 Y 479.730
G1 X1521.020 Y 499.990
F150
G1 Z   3.000
G0 Z  15.000 
M9 M5

(*** LAYER: BORDER_D0_T132_RK1_A0_W0_EM1_RI1_ID0015 ***)

(* SHAPE Nr: 21 *)
G0 X1421.560 Y 221.760
M3 M8
G0 Z   3.000 
G1 Z  -1.500
F400
G1 X1483.050 Y 241.310
G1 X1483.050 Y 299.950
G1 X1421.560 Y 319.500
G1 X1790.470 Y 368.370
G1 X1913.440 Y 335.790
G1 X1913.440 Y 270.630
G1 X1913.440 Y 205.470
G1 X1790.470 Y 172.890
G1 X1421.560 Y 221.760
F150
G1 Z  -3.000
F400
G1 X1483.050 Y 241.310
G1 X1483.050 Y 299.950
G1 X1421.560 Y 319.500
G1 X1790.470 Y 368.370
G1 X1913.440 Y 335.790
G1 X1913.440 Y 270.630
G1 X1913.440 Y 205.470
G1 X1790.470 Y 172.890
G1 X1421.560 Y 221.760
F150
G1 Z   3.000
G0 Z  15.000 
M9 M5

(*** LAYER: BORDER_D0_T132_RK1_A0_W0_EM1_RI1_ID0010 ***)

(* SHAPE Nr: 23 *)
G0 X1880.100 Y 407.010
M3 M8
G0 Z   3.000 
G1 Z  -1.500
F400
G1 X2158.300 Y 497.020
G1 X2097.150 Y 782.950
G1 X2314.200 Y 587.030
G1 X2531.250 Y 782.950
G1 X2470.100 Y 497.020
G1 X2748.300 Y 407.010
G1 X2470.100 Y 317.000
G1 X2531.250 Y  31.070
G1 X2314.200 Y 227.000
G1 X2097.150 Y  31.070
G1 X2158.300 Y 317.000
G1 X1880.100 Y 407.010
F150
G1 Z  -3.000
F400
G1 X2158.300 Y 497.020
G1 X2097.150 Y 782.950
G1 X2314.200 Y 587.030
G1 X2531.250 Y 782.950
G1 X2470.100 Y 497.020
G1 X2748.300 Y 407.010
G1 X2470.100 Y 317.000
G1 X2531.250 Y  31.070
G1 X2314.200 Y 227.000
G1 X2097.150 Y  31.070
G1 X2158.300 Y 317.000
G1 X1880.100 Y 407.010
F150
G1 Z   3.000
G0 Z  15.000 
M9 M5

(*** LAYER: BORDER_D0_T132_RK1_A0_W0_EM1_RI1_ID0020 ***)

(* SHAPE Nr: 30 *)
G0 X 487.840 Y  51.130
M3 M8
G0 Z   3.000 
G1 Z  -1.500
F400
G2 X 491.580 Y  68.100 I  41.227 J  -0.189
G2 X 502.670 Y  84.560 I  55.807 J -25.634
G2 X 520.790 Y 100.000 I  77.345 J -72.418
G2 X 545.380 Y 113.960 I  99.664 J-146.917
G2 X 575.690 Y 126.000 I 115.619 J-246.893
G2 X 610.810 Y 135.770 I 119.400 J-361.196
G2 X 649.660 Y 142.980 I 107.781 J-472.487
G2 X 691.070 Y 147.380 I  80.598 J-561.472
G2 X 733.780 Y 148.870 I  42.711 J-611.416
G2 X 776.490 Y 147.380 I  -0.001 J-612.906
G2 X 817.900 Y 142.980 I -39.188 J-565.872
G2 X 856.750 Y 135.770 I -68.931 J-479.697
G2 X 891.870 Y 126.000 I -84.280 J-370.966
G2 X 922.180 Y 113.960 I -85.309 J-258.933
G2 X 946.770 Y 100.000 I -75.074 J-160.877
G2 X 964.890 Y  84.560 I -59.224 J -87.857
G2 X 975.980 Y  68.100 I -44.717 J -42.094
G2 X 979.720 Y  51.130 I -37.487 J -17.159
G1 X 733.780 Y  51.130
G1 X 487.840 Y  51.130
F150
G1 Z  -3.000
F400
G2 X 491.580 Y  68.100 I  41.227 J  -0.189
G2 X 502.670 Y  84.560 I  55.807 J -25.634
G2 X 520.790 Y 100.000 I  77.345 J -72.418
G2 X 545.380 Y 113.960 I  99.664 J-146.917
G2 X 575.690 Y 126.000 I 115.619 J-246.893
G2 X 610.810 Y 135.770 I 119.400 J-361.196
G2 X 649.660 Y 142.980 I 107.781 J-472.487
G2 X 691.070 Y 147.380 I  80.598 J-561.472
G2 X 733.780 Y 148.870 I  42.711 J-611.416
G2 X 776.490 Y 147.380 I  -0.001 J-612.906
G2 X 817.900 Y 142.980 I -39.188 J-565.872
G2 X 856.750 Y 135.770 I -68.931 J-479.697
G2 X 891.870 Y 126.000 I -84.280 J-370.966
G2 X 922.180 Y 113.960 I -85.309 J-258.933
G2 X 946.770 Y 100.000 I -75.074 J-160.877
G2 X 964.890 Y  84.560 I -59.224 J -87.857
G2 X 975.980 Y  68.100 I -44.717 J -42.094
G2 X 979.720 Y  51.130 I -37.487 J -17.159
G1 X 733.780 Y  51.130
G1 X 487.840 Y  51.130
F150
G1 Z   3.000
G0 Z  15.000 
M9 M5

(* SHAPE Nr: 31 *)
G0 X 912.010 Y 168.870
M3 M8
G0 Z   3.000 
G1 Z  -1.500
F400
G1 X1157.950 Y 168.870
G1 X1403.890 Y 168.870
G2 X1400.150 Y 151.900 I -41.227 J   0.189
G2 X1389.060 Y 135.440 I -55.807 J  25.634
G2 X1370.940 Y 120.000 I -77.344 J  72.417
G2 X1346.350 Y 106.040 I -99.664 J 146.917
G2 X1316.040 Y  94.000 I-115.619 J 246.893
G2 X1280.920 Y  84.230 I-119.400 J 361.196
G2 X1242.070 Y  77.020 I-107.781 J 472.487
G2 X1200.660 Y  72.620 I -80.598 J 561.472
G2 X1157.950 Y  71.130 I -42.711 J 611.416
G2 X1115.240 Y  72.620 I   0.001 J 612.906
G2 X1073.830 Y  77.020 I  39.188 J 565.872
G2 X1034.980 Y  84.230 I  68.931 J 479.697
G2 X 999.860 Y  94.000 I  84.280 J 370.966
G2 X 969.550 Y 106.040 I  85.309 J 258.933
G2 X 944.960 Y 120.000 I  75.074 J 160.877
G2 X 926.840 Y 135.440 I  59.224 J  87.857
G2 X 915.750 Y 151.900 I  44.717 J  42.094
G2 X 912.010 Y 168.870 I  37.487 J  17.159
F150
G1 Z  -3.000
F400
G1 X1157.950 Y 168.870
G1 X1403.890 Y 168.870
G2 X1400.150 Y 151.900 I -41.227 J   0.189
G2 X1389.060 Y 135.440 I -55.807 J  25.634
G2 X1370.940 Y 120.000 I -77.344 J  72.417
G2 X1346.350 Y 106.040 I -99.664 J 146.917
G2 X1316.040 Y  94.000 I-115.619 J 246.893
G2 X1280.920 Y  84.230 I-119.400 J 361.196
G2 X1242.070 Y  77.020 I-107.781 J 472.487
G2 X1200.660 Y  72.620 I -80.598 J 561.472
G2 X1157.950 Y  71.130 I -42.711 J 611.416
G2 X1115.240 Y  72.620 I   0.001 J 612.906
G2 X1073.830 Y  77.020 I  39.188 J 565.872
G2 X1034.980 Y  84.230 I  68.931 J 479.697
G2 X 999.860 Y  94.000 I  84.280 J 370.966
G2 X 969.550 Y 106.040 I  85.309 J 258.933
G2 X 944.960 Y 120.000 I  75.074 J 160.877
G2 X 926.840 Y 135.440 I  59.224 J  87.857
G2 X 915.750 Y 151.900 I  44.717 J  42.094
G2 X 912.010 Y 168.870 I  37.487 J  17.159
F150
G1 Z   3.000
G0 Z  15.000 
M9 M5

(* SHAPE Nr: 33 *)
G0 X2445.980 Y1212.280
M3 M8
G0 Z   3.000 
G1 Z  -1.500
F400
G2 X2433.940 Y1242.590 I 246.893 J 115.619
G2 X2424.170 Y1277.710 I 361.196 J 119.400
G2 X2416.960 Y1316.560 I 472.487 J 107.781
G2 X2412.560 Y1357.970 I 561.472 J  80.598
G2 X2411.070 Y1400.680 I 611.451 J  42.712
G2 X2412.560 Y1443.390 I 612.906 J  -0.001
G2 X2416.960 Y1484.800 I 565.872 J -39.188
G2 X2424.170 Y1523.650 I 479.697 J -68.931
G2 X2433.940 Y1558.770 I 370.966 J -84.280
G2 X2445.980 Y1589.080 I 258.933 J -85.309
G2 X2459.940 Y1613.670 I 160.873 J -75.072
G2 X2475.380 Y1631.790 I  87.857 J -59.224
G2 X2491.840 Y1642.880 I  42.094 J -44.717
G2 X2508.810 Y1646.620 I  17.159 J -37.487
G1 X2508.810 Y1400.680
G1 X2508.810 Y1154.740
G2 X2491.840 Y1158.480 I   0.189 J  41.227
G2 X2475.380 Y1169.570 I  25.634 J  55.807
G2 X2459.940 Y1187.690 I  72.418 J  77.345
G2 X2445.980 Y1212.280 I 146.913 J  99.662
F150
G1 Z  -3.000
F400
G2 X2433.940 Y1242.590 I 246.893 J 115.619
G2 X2424.170 Y1277.710 I 361.196 J 119.400
G2 X2416.960 Y1316.560 I 472.487 J 107.781
G2 X2412.560 Y1357.970 I 561.472 J  80.598
G2 X2411.070 Y1400.680 I 611.451 J  42.712
G2 X2412.560 Y1443.390 I 612.906 J  -0.001
G2 X2416.960 Y1484.800 I 565.872 J -39.188
G2 X2424.170 Y1523.650 I 479.697 J -68.931
G2 X2433.940 Y1558.770 I 370.966 J -84.280
G2 X2445.980 Y1589.080 I 258.933 J -85.309
G2 X2459.940 Y1613.670 I 160.873 J -75.072
G2 X2475.380 Y1631.790 I  87.857 J -59.224
G2 X2491.840 Y1642.880 I  42.094 J -44.717
G2 X2508.810 Y1646.620 I  17.159 J -37.487
G1 X2508.810 Y1400.680
G1 X2508.810 Y1154.740
G2 X2491.840 Y1158.480 I   0.189 J  41.227
G2 X2475.380 Y1169.570 I  25.634 J  55.807
G2 X2459.940 Y1187.690 I  72.418 J  77.345
G2 X2445.980 Y1212.280 I 146.913 J  99.662
F150
G1 Z   3.000
G0 Z  15.000 
M9 M5

(* SHAPE Nr: 34 *)
G0 X2688.570 Y1242.530
M3 M8
G0 Z   3.000 
G1 Z  -1.500
F400
G2 X2676.530 Y1272.840 I 246.893 J 115.619
G2 X2666.760 Y1307.960 I 361.196 J 119.400
G2 X2659.550 Y1346.810 I 472.487 J 107.781
G2 X2655.150 Y1388.220 I 561.472 J  80.598
G2 X2653.660 Y1430.930 I 611.451 J  42.712
G2 X2655.150 Y1473.640 I 612.906 J  -0.001
G2 X2659.550 Y1515.050 I 565.872 J -39.188
G2 X2666.760 Y1553.900 I 479.697 J -68.931
G2 X2676.530 Y1589.020 I 370.966 J -84.280
G2 X2688.570 Y1619.330 I 258.933 J -85.309
G2 X2702.530 Y1643.920 I 160.873 J -75.072
G2 X2717.970 Y1662.040 I  87.857 J -59.224
G2 X2734.430 Y1673.130 I  42.094 J -44.717
G2 X2751.400 Y1676.870 I  17.159 J -37.487
G1 X2751.400 Y1430.930
G1 X2751.400 Y1184.990
G2 X2734.430 Y1188.730 I   0.189 J  41.227
G2 X2717.970 Y1199.820 I  25.634 J  55.807
G2 X2702.530 Y1217.940 I  72.418 J  77.345
G2 X2688.570 Y1242.530 I 146.913 J  99.662
F150
G1 Z  -3.000
F400
G2 X2676.530 Y1272.840 I 246.893 J 115.619
G2 X2666.760 Y1307.960 I 361.196 J 119.400
G2 X2659.550 Y1346.810 I 472.487 J 107.781
G2 X2655.150 Y1388.220 I 561.472 J  80.598
G2 X2653.660 Y1430.930 I 611.451 J  42.712
G2 X2655.150 Y1473.640 I 612.906 J  -0.001
G2 X2659.550 Y1515.050 I 565.872 J -39.188
G2 X2666.760 Y1553.900 I 479.697 J -68.931
G2 X2676.530 Y1589.020 I 370.966 J -84.280
G2 X2688.570 Y1619.330 I 258.933 J -85.309
G2 X2702.530 Y1643.920 I 160.873 J -75.072
G2 X2717.970 Y1662.040 I  87.857 J -59.224
G2 X2734.430 Y1673.130 I  42.094 J -44.717
G2 X2751.400 Y1676.870 I  17.159 J -37.487
G1 X2751.400 Y1430.930
G1 X2751.400 Y1184.990
G2 X2734.430 Y1188.730 I   0.189 J  41.227
G2 X2717.970 Y1199.820 I  25.634 J  55.807
G2 X2702.530 Y1217.940 I  72.418 J  77.345
G2 X2688.570 Y1242.530 I 146.913 J  99.662
F150
G1 Z   3.000
G0 Z  15.000 
M9 M5

(* SHAPE Nr: 35 *)
G0 X1334.280 Y  51.130
M3 M8
G0 Z   3.000 
G1 Z  -1.500
F400
G2 X1338.020 Y  68.100 I  41.227 J  -0.189
G2 X1349.110 Y  84.560 I  55.807 J -25.634
G2 X1367.230 Y 100.000 I  77.345 J -72.418
G2 X1391.820 Y 113.960 I  99.664 J-146.917
G2 X1422.130 Y 126.000 I 115.619 J-246.893
G2 X1457.250 Y 135.770 I 119.400 J-361.196
G2 X1496.100 Y 142.980 I 107.781 J-472.487
G2 X1537.510 Y 147.380 I  80.598 J-561.472
G2 X1580.220 Y 148.870 I  42.711 J-611.416
G2 X1622.930 Y 147.380 I  -0.001 J-612.906
G2 X1664.340 Y 142.980 I -39.188 J-565.872
G2 X1703.190 Y 135.770 I -68.931 J-479.697
G2 X1738.310 Y 126.000 I -84.280 J-370.966
G2 X1768.620 Y 113.960 I -85.309 J-258.933
G2 X1793.210 Y 100.000 I -75.074 J-160.877
G2 X1811.330 Y  84.560 I -59.224 J -87.857
G2 X1822.420 Y  68.100 I -44.717 J -42.094
G2 X1826.160 Y  51.130 I -37.487 J -17.159
G1 X1580.220 Y  51.130
G1 X1334.280 Y  51.130
F150
G1 Z  -3.000
F400
G2 X1338.020 Y  68.100 I  41.227 J  -0.189
G2 X1349.110 Y  84.560 I  55.807 J -25.634
G2 X1367.230 Y 100.000 I  77.345 J -72.418
G2 X1391.820 Y 113.960 I  99.664 J-146.917
G2 X1422.130 Y 126.000 I 115.619 J-246.893
G2 X1457.250 Y 135.770 I 119.400 J-361.196
G2 X1496.100 Y 142.980 I 107.781 J-472.487
G2 X1537.510 Y 147.380 I  80.598 J-561.472
G2 X1580.220 Y 148.870 I  42.711 J-611.416
G2 X1622.930 Y 147.380 I  -0.001 J-612.906
G2 X1664.340 Y 142.980 I -39.188 J-565.872
G2 X1703.190 Y 135.770 I -68.931 J-479.697
G2 X1738.310 Y 126.000 I -84.280 J-370.966
G2 X1768.620 Y 113.960 I -85.309 J-258.933
G2 X1793.210 Y 100.000 I -75.074 J-160.877
G2 X1811.330 Y  84.560 I -59.224 J -87.857
G2 X1822.420 Y  68.100 I -44.717 J -42.094
G2 X1826.160 Y  51.130 I -37.487 J -17.159
G1 X1580.220 Y  51.130
G1 X1334.280 Y  51.130
F150
G1 Z   3.000
G0 Z  15.000 
M9 M5

(*** LAYER: BORDER_D0_T132.1_RK1_A0_W0_EM1 ***)

(* SHAPE Nr: 36 *)
G0 X 309.960 Y 487.740
M3 M8
G0 Z   3.000 
G1 Z  -1.500
F400
G1 X 324.540 Y 736.030
G1 X  92.910 Y 645.430
G1 X 250.640 Y 837.730
G1 X  10.000 Y 900.590
G1 X 250.640 Y 963.450
G1 X  92.910 Y1155.750
G1 X 324.540 Y1065.160
G1 X 309.960 Y1313.440
G1 X 444.100 Y1104.000
G1 X 578.240 Y1313.440
G1 X 563.660 Y1065.160
G1 X 795.290 Y1155.750
G1 X 637.560 Y 963.450
G1 X 878.200 Y 900.590
G1 X 637.560 Y 837.730
G1 X 795.290 Y 645.430
G1 X 563.660 Y 736.030
G1 X 578.240 Y 487.740
G1 X 444.100 Y 697.180
G1 X 309.960 Y 487.740
F150
G1 Z  -3.000
F400
G1 X 324.540 Y 736.030
G1 X  92.910 Y 645.430
G1 X 250.640 Y 837.730
G1 X  10.000 Y 900.590
G1 X 250.640 Y 963.450
G1 X  92.910 Y1155.750
G1 X 324.540 Y1065.160
G1 X 309.960 Y1313.440
G1 X 444.100 Y1104.000
G1 X 578.240 Y1313.440
G1 X 563.660 Y1065.160
G1 X 795.290 Y1155.750
G1 X 637.560 Y 963.450
G1 X 878.200 Y 900.590
G1 X 637.560 Y 837.730
G1 X 795.290 Y 645.430
G1 X 563.660 Y 736.030
G1 X 578.240 Y 487.740
G1 X 444.100 Y 697.180
G1 X 309.960 Y 487.740
F150
G1 Z   3.000
G0 Z  15.000 
M9 M5

(* SHAPE Nr: 37 *)
G0 X2554.700 Y1581.070
M3 M8
G0 Z   3.000 
G1 Z  -1.500
F400
G2 X2540.750 Y1605.660 I 146.938 J  99.610
G2 X2528.700 Y1635.970 I 246.838 J 115.683
G2 X2518.930 Y1671.090 I 361.226 J 119.408
G2 X2511.730 Y1709.940 I 472.468 J 107.654
G2 X2507.320 Y1751.350 I 561.467 J  80.734
G2 X2505.830 Y1794.060 I 611.486 J  42.714
G2 X2507.320 Y1836.770 I 612.976 J  -0.004
G2 X2511.730 Y1878.180 I 565.877 J -39.324
G2 X2518.930 Y1917.030 I 479.668 J -68.804
G2 X2528.700 Y1952.150 I 370.996 J -84.288
G2 X2540.750 Y1982.460 I 258.888 J -85.373
G2 X2554.700 Y2007.050 I 160.888 J -75.020
G2 X2570.140 Y2025.170 I  87.859 J -59.227
G2 X2586.600 Y2036.260 I  42.093 J -44.715
G2 X2603.570 Y2040.000 I  17.158 J -37.484
G2 X2620.540 Y2036.260 I  -0.188 J -41.224
G2 X2637.000 Y2025.170 I -25.633 J -55.805
G2 X2652.440 Y2007.050 I -72.421 J -77.348
G2 X2666.400 Y1982.460 I-146.933 J -99.673
G2 X2678.450 Y1952.150 I-246.838 J-115.683
G2 X2688.220 Y1917.030 I-361.226 J-119.408
G2 X2695.420 Y1878.180 I-472.468 J-107.654
G2 X2699.830 Y1836.770 I-561.467 J -80.734
G2 X2701.310 Y1794.060 I-611.491 J -42.570
G2 X2699.830 Y1751.350 I-612.971 J  -0.140
G2 X2695.420 Y1709.940 I-565.877 J  39.324
G2 X2688.220 Y1671.090 I-479.668 J  68.804
G2 X2678.450 Y1635.970 I-370.996 J  84.288
G2 X2666.400 Y1605.660 I-258.888 J  85.373
G2 X2652.440 Y1581.070 I-160.889 J  75.081
G2 X2637.000 Y1562.950 I -87.861 J  59.228
G2 X2620.540 Y1551.860 I -42.093 J  44.715
G2 X2603.570 Y1548.120 I -17.158 J  37.484
G2 X2586.600 Y1551.860 I   0.188 J  41.224
G2 X2570.140 Y1562.950 I  25.633 J  55.805
G2 X2554.700 Y1581.070 I  72.419 J  77.347
F150
G1 Z  -3.000
F400
G2 X2540.750 Y1605.660 I 146.938 J  99.610
G2 X2528.700 Y1635.970 I 246.838 J 115.683
G2 X2518.930 Y1671.090 I 361.226 J 119.408
G2 X2511.730 Y1709.940 I 472.468 J 107.654
G2 X2507.320 Y1751.350 I 561.467 J  80.734
G2 X2505.830 Y1794.060 I 611.486 J  42.714
G2 X2507.320 Y1836.770 I 612.976 J  -0.004
G2 X2511.730 Y1878.180 I 565.877 J -39.324
G2 X2518.930 Y1917.030 I 479.668 J -68.804
G2 X2528.700 Y1952.150 I 370.996 J -84.288
G2 X2540.750 Y1982.460 I 258.888 J -85.373
G2 X2554.700 Y2007.050 I 160.888 J -75.020
G2 X2570.140 Y2025.170 I  87.859 J -59.227
G2 X2586.600 Y2036.260 I  42.093 J -44.715
G2 X2603.570 Y2040.000 I  17.158 J -37.484
G2 X2620.540 Y2036.260 I  -0.188 J -41.224
G2 X2637.000 Y2025.170 I -25.633 J -55.805
G2 X2652.440 Y2007.050 I -72.421 J -77.348
G2 X2666.400 Y1982.460 I-146.933 J -99.673
G2 X2678.450 Y1952.150 I-246.838 J-115.683
G2 X2688.220 Y1917.030 I-361.226 J-119.408
G2 X2695.420 Y1878.180 I-472.468 J-107.654
G2 X2699.830 Y1836.770 I-561.467 J -80.734
G2 X2701.310 Y1794.060 I-611.491 J -42.570
G2 X2699.830 Y1751.350 I-612.971 J  -0.140
G2 X2695.420 Y1709.940 I-565.877 J  39.324
G2 X2688.220 Y1671.090 I-479.668 J  68.804
G2 X2678.450 Y1635.970 I-370.996 J  84.288
G2 X2666.400 Y1605.660 I-258.888 J  85.373
G2 X2652.440 Y1581.070 I-160.889 J  75.081
G2 X2637.000 Y1562.950 I -87.861 J  59.228
G2 X2620.540 Y1551.860 I -42.093 J  44.715
G2 X2603.570 Y1548.120 I -17.158 J  37.484
G2 X2586.600 Y1551.860 I   0.188 J  41.224
G2 X2570.140 Y1562.950 I  25.633 J  55.805
G2 X2554.700 Y1581.070 I  72.419 J  77.347
F150
G1 Z   3.000
G0 Z  15.000 
M9 M5

(* SHAPE Nr: 38 *)
G0 X 487.840 Y  51.130
M3 M8
G0 Z   3.000 
G1 Z  -1.500
F400
G2 X 491.570 Y  68.100 I  41.219 J  -0.165
G2 X 502.670 Y  84.560 I  55.810 J -25.663
G2 X 520.790 Y 100.000 I  77.348 J -72.421
G2 X 545.380 Y 113.960 I  99.673 J-146.933
G2 X 575.690 Y 126.000 I 115.599 J-246.843
G2 X 610.810 Y 135.770 I 119.408 J-361.226
G2 X 649.660 Y 142.980 I 107.776 J-472.463
G2 X 691.070 Y 147.380 I  80.598 J-561.472
G2 X 733.780 Y 148.870 I  42.714 J-611.486
G2 X 776.480 Y 147.380 I  -0.009 J-612.833
G2 X 817.890 Y 142.980 I -39.188 J-565.872
G2 X 856.750 Y 135.770 I -68.921 J-479.796
G2 X 891.860 Y 126.000 I -84.293 J-370.892
G2 X 922.180 Y 113.960 I -85.284 J-258.966
G2 X 946.770 Y 100.000 I -75.083 J-160.893
G2 X 964.880 Y  84.560 I -59.233 J -87.817
G2 X 975.980 Y  68.100 I -44.710 J -42.123
G2 X 979.720 Y  51.130 I -37.484 J -17.158
G1 X 487.840 Y  51.130
F150
G1 Z  -3.000
F400
G2 X 491.570 Y  68.100 I  41.219 J  -0.165
G2 X 502.670 Y  84.560 I  55.810 J -25.663
G2 X 520.790 Y 100.000 I  77.348 J -72.421
G2 X 545.380 Y 113.960 I  99.673 J-146.933
G2 X 575.690 Y 126.000 I 115.599 J-246.843
G2 X 610.810 Y 135.770 I 119.408 J-361.226
G2 X 649.660 Y 142.980 I 107.776 J-472.463
G2 X 691.070 Y 147.380 I  80.598 J-561.472
G2 X 733.780 Y 148.870 I  42.714 J-611.486
G2 X 776.480 Y 147.380 I  -0.009 J-612.833
G2 X 817.890 Y 142.980 I -39.188 J-565.872
G2 X 856.750 Y 135.770 I -68.921 J-479.796
G2 X 891.860 Y 126.000 I -84.293 J-370.892
G2 X 922.180 Y 113.960 I -85.284 J-258.966
G2 X 946.770 Y 100.000 I -75.083 J-160.893
G2 X 964.880 Y  84.560 I -59.233 J -87.817
G2 X 975.980 Y  68.100 I -44.710 J -42.123
G2 X 979.720 Y  51.130 I -37.484 J -17.158
G1 X 487.840 Y  51.130
F150
G1 Z   3.000
G0 Z  15.000 
M9 M5

(* SHAPE Nr: 39 *)
G0 X2154.900 Y 913.030
M3 M8
G0 Z   3.000 
G1 Z  -1.500
F400
G2 X2151.170 Y 930.000 I  37.489 J  17.135
G2 X2154.900 Y 946.970 I  41.219 J  -0.165
G2 X2166.000 Y 963.430 I  55.810 J -25.663
G2 X2184.110 Y 978.870 I  77.343 J -72.377
G2 X2208.700 Y 992.830 I  99.671 J-146.929
G2 X2239.020 Y1004.870 I 115.604 J-246.926
G2 X2274.140 Y1014.650 I 119.512 J-361.221
G2 X2312.990 Y1021.850 I 107.654 J-472.468
G2 X2354.400 Y1026.260 I  80.734 J-561.467
G2 X2397.100 Y1027.740 I  42.565 J-611.348
G2 X2439.810 Y1026.260 I   0.140 J-612.971
G2 X2481.220 Y1021.850 I -39.324 J-565.877
G2 X2520.070 Y1014.650 I -68.804 J-479.668
G2 X2555.190 Y1004.870 I -84.392 J-371.001
G2 X2585.510 Y 992.830 I -85.284 J-258.966
G2 X2610.090 Y 978.870 I -75.088 J-160.830
G2 X2628.210 Y 963.430 I -59.228 J -87.861
G2 X2639.310 Y 946.970 I -44.710 J -42.123
G2 X2643.040 Y 930.000 I -37.489 J -17.135
G2 X2639.310 Y 913.030 I -41.219 J   0.165
G2 X2628.210 Y 896.570 I -55.810 J  25.663
G2 X2610.090 Y 881.130 I -77.348 J  72.421
G2 X2585.510 Y 867.170 I -99.668 J 146.870
G2 X2555.190 Y 855.130 I-115.604 J 246.926
G2 X2520.070 Y 845.350 I-119.512 J 361.221
G2 X2481.220 Y 838.150 I-107.654 J 472.468
G2 X2439.810 Y 833.740 I -80.734 J 561.467
G2 X2397.100 Y 832.260 I -42.570 J 611.491
G2 X2354.400 Y 833.740 I  -0.135 J 612.828
G2 X2312.990 Y 838.150 I  39.324 J 565.877
G2 X2274.140 Y 845.350 I  68.804 J 479.668
G2 X2239.020 Y 855.130 I  84.392 J 371.001
G2 X2208.700 Y 867.170 I  85.284 J 258.966
G2 X2184.110 Y 881.130 I  75.081 J 160.889
G2 X2166.000 Y 896.570 I  59.233 J  87.817
G2 X2154.900 Y 913.030 I  44.710 J  42.123
F150
G1 Z  -3.000
F400
G2 X2151.170 Y 930.000 I  37.489 J  17.135
G2 X2154.900 Y 946.970 I  41.219 J  -0.165
G2 X2166.000 Y 963.430 I  55.810 J -25.663
G2 X2184.110 Y 978.870 I  77.343 J -72.377
G2 X2208.700 Y 992.830 I  99.671 J-146.929
G2 X2239.020 Y1004.870 I 115.604 J-246.926
G2 X2274.140 Y1014.650 I 119.512 J-361.221
G2 X2312.990 Y1021.850 I 107.654 J-472.468
G2 X2354.400 Y1026.260 I  80.734 J-561.467
G2 X2397.100 Y1027.740 I  42.565 J-611.348
G2 X2439.810 Y1026.260 I   0.140 J-612.971
G2 X2481.220 Y1021.850 I -39.324 J-565.877
G2 X2520.070 Y1014.650 I -68.804 J-479.668
G2 X2555.190 Y1004.870 I -84.392 J-371.001
G2 X2585.510 Y 992.830 I -85.284 J-258.966
G2 X2610.090 Y 978.870 I -75.088 J-160.830
G2 X2628.210 Y 963.430 I -59.228 J -87.861
G2 X2639.310 Y 946.970 I -44.710 J -42.123
G2 X2643.040 Y 930.000 I -37.489 J -17.135
G2 X2639.310 Y 913.030 I -41.219 J   0.165
G2 X2628.210 Y 896.570 I -55.810 J  25.663
G2 X2610.090 Y 881.130 I -77.348 J  72.421
G2 X2585.510 Y 867.170 I -99.668 J 146.870
G2 X2555.190 Y 855.130 I-115.604 J 246.926
G2 X2520.070 Y 845.350 I-119.512 J 361.221
G2 X2481.220 Y 838.150 I-107.654 J 472.468
G2 X2439.810 Y 833.740 I -80.734 J 561.467
G2 X2397.100 Y 832.260 I -42.570 J 611.491
G2 X2354.400 Y 833.740 I  -0.135 J 612.828
G2 X2312.990 Y 838.150 I  39.324 J 565.877
G2 X2274.140 Y 845.350 I  68.804 J 479.668
G2 X2239.020 Y 855.130 I  84.392 J 371.001
G2 X2208.700 Y 867.170 I  85.284 J 258.966
G2 X2184.110 Y 881.130 I  75.081 J 160.889
G2 X2166.000 Y 896.570 I  59.233 J  87.817
G2 X2154.900 Y 913.030 I  44.710 J  42.123
F150
G1 Z   3.000
G0 Z  15.000 
M9 M5

(* SHAPE Nr: 40 *)
G0 X2688.570 Y1242.530
M3 M8
G0 Z   3.000 
G1 Z  -1.500
F400
G2 X2676.530 Y1272.840 I 246.843 J 115.599
G2 X2666.750 Y1307.960 I 361.221 J 119.512
G2 X2659.550 Y1346.810 I 472.468 J 107.654
G2 X2655.140 Y1388.220 I 561.467 J  80.734
G2 X2653.660 Y1430.930 I 611.491 J  42.570
G2 X2655.140 Y1473.630 I 612.828 J   0.135
G2 X2659.550 Y1515.040 I 565.877 J -39.324
G2 X2666.750 Y1553.900 I 479.791 J -68.799
G2 X2676.530 Y1589.010 I 370.897 J -84.397
G2 X2688.570 Y1619.330 I 258.966 J -85.284
G2 X2702.530 Y1643.920 I 160.893 J -75.083
G2 X2717.970 Y1662.040 I  87.861 J -59.228
G2 X2734.430 Y1673.130 I  42.093 J -44.715
G2 X2751.400 Y1676.870 I  17.158 J -37.484
G1 X2751.400 Y1184.990
G2 X2734.430 Y1188.720 I   0.165 J  41.219
G2 X2717.970 Y1199.820 I  25.663 J  55.810
G2 X2702.530 Y1217.940 I  72.421 J  77.348
G2 X2688.570 Y1242.530 I 146.933 J  99.673
F150
G1 Z  -3.000
F400
G2 X2676.530 Y1272.840 I 246.843 J 115.599
G2 X2666.750 Y1307.960 I 361.221 J 119.512
G2 X2659.550 Y1346.810 I 472.468 J 107.654
G2 X2655.140 Y1388.220 I 561.467 J  80.734
G2 X2653.660 Y1430.930 I 611.491 J  42.570
G2 X2655.140 Y1473.630 I 612.828 J   0.135
G2 X2659.550 Y1515.040 I 565.877 J -39.324
G2 X2666.750 Y1553.900 I 479.791 J -68.799
G2 X2676.530 Y1589.010 I 370.897 J -84.397
G2 X2688.570 Y1619.330 I 258.966 J -85.284
G2 X2702.530 Y1643.920 I 160.893 J -75.083
G2 X2717.970 Y1662.040 I  87.861 J -59.228
G2 X2734.430 Y1673.130 I  42.093 J -44.715
G2 X2751.400 Y1676.870 I  17.158 J -37.484
G1 X2751.400 Y1184.990
G2 X2734.430 Y1188.720 I   0.165 J  41.219
G2 X2717.970 Y1199.820 I  25.663 J  55.810
G2 X2702.530 Y1217.940 I  72.421 J  77.348
G2 X2688.570 Y1242.530 I 146.933 J  99.673
F150
G1 Z   3.000
G0 Z  15.000 
M9 M5

(* SHAPE Nr: 41 *)
G0 X1334.280 Y  51.130
M3 M8
G0 Z   3.000 
G1 Z  -1.500
F400
G2 X1338.010 Y  68.100 I  41.219 J  -0.165
G2 X1349.110 Y  84.560 I  55.810 J -25.663
G2 X1367.230 Y 100.000 I  77.347 J -72.419
G2 X1391.820 Y 113.960 I  99.673 J-146.933
G2 X1422.130 Y 126.000 I 115.599 J-246.843
G2 X1457.250 Y 135.770 I 119.408 J-361.226
G2 X1496.100 Y 142.980 I 107.776 J-472.463
G2 X1537.510 Y 147.380 I  80.598 J-561.472
G2 X1580.220 Y 148.870 I  42.714 J-611.486
G2 X1622.920 Y 147.380 I  -0.009 J-612.833
G2 X1664.330 Y 142.980 I -39.188 J-565.872
G2 X1703.190 Y 135.770 I -68.921 J-479.796
G2 X1738.300 Y 126.000 I -84.293 J-370.892
G2 X1768.620 Y 113.960 I -85.284 J-258.966
G2 X1793.210 Y 100.000 I -75.083 J-160.893
G2 X1811.320 Y  84.560 I -59.233 J -87.817
G2 X1822.420 Y  68.100 I -44.710 J -42.123
G2 X1826.160 Y  51.130 I -37.484 J -17.158
G1 X1334.280 Y  51.130
F150
G1 Z  -3.000
F400
G2 X1338.010 Y  68.100 I  41.219 J  -0.165
G2 X1349.110 Y  84.560 I  55.810 J -25.663
G2 X1367.230 Y 100.000 I  77.347 J -72.419
G2 X1391.820 Y 113.960 I  99.673 J-146.933
G2 X1422.130 Y 126.000 I 115.599 J-246.843
G2 X1457.250 Y 135.770 I 119.408 J-361.226
G2 X1496.100 Y 142.980 I 107.776 J-472.463
G2 X1537.510 Y 147.380 I  80.598 J-561.472
G2 X1580.220 Y 148.870 I  42.714 J-611.486
G2 X1622.920 Y 147.380 I  -0.009 J-612.833
G2 X1664.330 Y 142.980 I -39.188 J-565.872
G2 X1703.190 Y 135.770 I -68.921 J-479.796
G2 X1738.300 Y 126.000 I -84.293 J-370.892
G2 X1768.620 Y 113.960 I -85.284 J-258.966
G2 X1793.210 Y 100.000 I -75.083 J-160.893
G2 X1811.320 Y  84.560 I -59.233 J -87.817
G2 X1822.420 Y  68.100 I -44.710 J -42.123
G2 X1826.160 Y  51.130 I -37.484 J -17.158
G1 X1334.280 Y  51.130
F150
G1 Z   3.000
G0 Z  15.000 
M9 M5

(* SHAPE Nr: 42 *)
G0 X2445.980 Y1212.280
M3 M8
G0 Z   3.000 
G1 Z  -1.500
F400
G2 X2433.940 Y1242.590 I 246.843 J 115.599
G2 X2424.160 Y1277.710 I 361.221 J 119.512
G2 X2416.960 Y1316.560 I 472.468 J 107.654
G2 X2412.550 Y1357.970 I 561.467 J  80.734
G2 X2411.070 Y1400.680 I 611.491 J  42.570
G2 X2412.550 Y1443.390 I 612.971 J   0.140
G2 X2416.960 Y1484.790 I 565.740 J -39.329
G2 X2424.160 Y1523.650 I 479.791 J -68.799
G2 X2433.940 Y1558.770 I 371.001 J -84.392
G2 X2445.980 Y1589.080 I 258.883 J -85.289
G2 X2459.940 Y1613.670 I 160.893 J -75.083
G2 X2475.380 Y1631.790 I  87.861 J -59.228
G2 X2491.840 Y1642.880 I  42.093 J -44.715
G2 X2508.810 Y1646.620 I  17.158 J -37.484
G1 X2508.810 Y1154.740
G2 X2491.840 Y1158.470 I   0.165 J  41.219
G2 X2475.380 Y1169.570 I  25.663 J  55.810
G2 X2459.940 Y1187.690 I  72.421 J  77.348
G2 X2445.980 Y1212.280 I 146.933 J  99.673
F150
G1 Z  -3.000
F400
G2 X2433.940 Y1242.590 I 246.843 J 115.599
G2 X2424.160 Y1277.710 I 361.221 J 119.512
G2 X2416.960 Y1316.560 I 472.468 J 107.654
G2 X2412.550 Y1357.970 I 561.467 J  80.734
G2 X2411.070 Y1400.680 I 611.491 J  42.570
G2 X2412.550 Y1443.390 I 612.971 J   0.140
G2 X2416.960 Y1484.790 I 565.740 J -39.329
G2 X2424.160 Y1523.650 I 479.791 J -68.799
G2 X2433.940 Y1558.770 I 371.001 J -84.392
G2 X2445.980 Y1589.080 I 258.883 J -85.289
G2 X2459.940 Y1613.670 I 160.893 J -75.083
G2 X2475.380 Y1631.790 I  87.861 J -59.228
G2 X2491.840 Y1642.880 I  42.093 J -44.715
G2 X2508.810 Y1646.620 I  17.158 J -37.484
G1 X2508.810 Y1154.740
G2 X2491.840 Y1158.470 I   0.165 J  41.219
G2 X2475.380 Y1169.570 I  25.663 J  55.810
G2 X2459.940 Y1187.690 I  72.421 J  77.348
G2 X2445.980 Y1212.280 I 146.933 J  99.673
F150
G1 Z   3.000
G0 Z  15.000 
M9 M5

(* SHAPE Nr: 43 *)
G0 X 912.010 Y 168.870
M3 M8
G0 Z   3.000 
G1 Z  -1.500
F400
G1 X1403.890 Y 168.870
G2 X1400.160 Y 151.900 I -41.219 J   0.165
G2 X1389.060 Y 135.440 I -55.810 J  25.663
G2 X1370.940 Y 120.000 I -77.348 J  72.421
G2 X1346.350 Y 106.040 I -99.673 J 146.933
G2 X1316.040 Y  94.000 I-115.599 J 246.843
G2 X1280.920 Y  84.220 I-119.512 J 361.221
G2 X1242.070 Y  77.020 I-107.654 J 472.468
G2 X1200.660 Y  72.610 I -80.734 J 561.467
G2 X1157.950 Y  71.130 I -42.570 J 611.491
G2 X1115.240 Y  72.610 I  -0.140 J 612.971
G2 X1073.840 Y  77.020 I  39.329 J 565.740
G2 X1034.980 Y  84.220 I  68.799 J 479.791
G2 X 999.860 Y  94.000 I  84.392 J 371.001
G2 X 969.550 Y 106.040 I  85.289 J 258.883
G2 X 944.960 Y 120.000 I  75.083 J 160.893
G2 X 926.840 Y 135.440 I  59.228 J  87.861
G2 X 915.750 Y 151.900 I  44.715 J  42.093
G2 X 912.010 Y 168.870 I  37.484 J  17.158
F150
G1 Z  -3.000
F400
G1 X1403.890 Y 168.870
G2 X1400.160 Y 151.900 I -41.219 J   0.165
G2 X1389.060 Y 135.440 I -55.810 J  25.663
G2 X1370.940 Y 120.000 I -77.348 J  72.421
G2 X1346.350 Y 106.040 I -99.673 J 146.933
G2 X1316.040 Y  94.000 I-115.599 J 246.843
G2 X1280.920 Y  84.220 I-119.512 J 361.221
G2 X1242.070 Y  77.020 I-107.654 J 472.468
G2 X1200.660 Y  72.610 I -80.734 J 561.467
G2 X1157.950 Y  71.130 I -42.570 J 611.491
G2 X1115.240 Y  72.610 I  -0.140 J 612.971
G2 X1073.840 Y  77.020 I  39.329 J 565.740
G2 X1034.980 Y  84.220 I  68.799 J 479.791
G2 X 999.860 Y  94.000 I  84.392 J 371.001
G2 X 969.550 Y 106.040 I  85.289 J 258.883
G2 X 944.960 Y 120.000 I  75.083 J 160.893
G2 X 926.840 Y 135.440 I  59.228 J  87.861
G2 X 915.750 Y 151.900 I  44.715 J  42.093
G2 X 912.010 Y 168.870 I  37.484 J  17.158
F150
G1 Z   3.000
G0 Z  15.000 
M9 M5

(* SHAPE Nr: 44 *)
G0 X 740.280 Y1857.950
M3 M8
G0 Z   3.000 
G1 Z  -1.500
F400
G2 X 715.690 Y1871.910 I  75.083 J 160.893
G2 X 697.580 Y1887.350 I  59.233 J  87.817
G2 X 686.480 Y1903.810 I  44.710 J  42.123
G2 X 682.740 Y1920.780 I  37.484 J  17.158
G2 X 686.480 Y1937.750 I  41.224 J  -0.188
G2 X 697.580 Y1954.210 I  55.810 J -25.663
G2 X 715.690 Y1969.650 I  77.343 J -72.377
G2 X 740.280 Y1983.610 I  99.673 J-146.933
G2 X 770.600 Y1995.650 I 115.604 J-246.926
G2 X 805.710 Y2005.430 I 119.507 J-361.117
G2 X 844.570 Y2012.630 I 107.659 J-472.591
G2 X 885.980 Y2017.040 I  80.734 J-561.467
G2 X 928.680 Y2018.520 I  42.565 J-611.348
G2 X 971.390 Y2017.040 I   0.140 J-612.971
G2 X1012.800 Y2012.630 I -39.324 J-565.877
G2 X1051.650 Y2005.430 I -68.804 J-479.668
G2 X1086.770 Y1995.650 I -84.392 J-371.001
G2 X1117.080 Y1983.610 I -85.289 J-258.883
G2 X1141.670 Y1969.650 I -75.083 J-160.893
G2 X1159.790 Y1954.210 I -59.227 J -87.859
G2 X1170.890 Y1937.750 I -44.710 J -42.124
G2 X1174.620 Y1920.780 I -37.489 J -17.135
G2 X1170.890 Y1903.810 I -41.219 J   0.165
G2 X1159.790 Y1887.350 I -55.810 J  25.664
G2 X1141.670 Y1871.910 I -77.348 J  72.421
G2 X1117.080 Y1857.950 I -99.673 J 146.933
G2 X1086.770 Y1845.910 I-115.599 J 246.843
G2 X1051.650 Y1836.140 I-119.408 J 361.226
G2 X1012.800 Y1828.940 I-107.654 J 472.468
G2 X 971.390 Y1824.530 I -80.734 J 561.467
G2 X 928.680 Y1823.040 I -42.714 J 611.486
G2 X 885.980 Y1824.530 I   0.009 J 612.833
G2 X 844.570 Y1828.940 I  39.324 J 565.877
G2 X 805.710 Y1836.140 I  68.799 J 479.791
G2 X 770.600 Y1845.910 I  84.293 J 370.892
G2 X 740.280 Y1857.950 I  85.284 J 258.966
F150
G1 Z  -3.000
F400
G2 X 715.690 Y1871.910 I  75.083 J 160.893
G2 X 697.580 Y1887.350 I  59.233 J  87.817
G2 X 686.480 Y1903.810 I  44.710 J  42.123
G2 X 682.740 Y1920.780 I  37.484 J  17.158
G2 X 686.480 Y1937.750 I  41.224 J  -0.188
G2 X 697.580 Y1954.210 I  55.810 J -25.663
G2 X 715.690 Y1969.650 I  77.343 J -72.377
G2 X 740.280 Y1983.610 I  99.673 J-146.933
G2 X 770.600 Y1995.650 I 115.604 J-246.926
G2 X 805.710 Y2005.430 I 119.507 J-361.117
G2 X 844.570 Y2012.630 I 107.659 J-472.591
G2 X 885.980 Y2017.040 I  80.734 J-561.467
G2 X 928.680 Y2018.520 I  42.565 J-611.348
G2 X 971.390 Y2017.040 I   0.140 J-612.971
G2 X1012.800 Y2012.630 I -39.324 J-565.877
G2 X1051.650 Y2005.430 I -68.804 J-479.668
G2 X1086.770 Y1995.650 I -84.392 J-371.001
G2 X1117.080 Y1983.610 I -85.289 J-258.883
G2 X1141.670 Y1969.650 I -75.083 J-160.893
G2 X1159.790 Y1954.210 I -59.227 J -87.859
G2 X1170.890 Y1937.750 I -44.710 J -42.124
G2 X1174.620 Y1920.780 I -37.489 J -17.135
G2 X1170.890 Y1903.810 I -41.219 J   0.165
G2 X1159.790 Y1887.350 I -55.810 J  25.664
G2 X1141.670 Y1871.910 I -77.348 J  72.421
G2 X1117.080 Y1857.950 I -99.673 J 146.933
G2 X1086.770 Y1845.910 I-115.599 J 246.843
G2 X1051.650 Y1836.140 I-119.408 J 361.226
G2 X1012.800 Y1828.940 I-107.654 J 472.468
G2 X 971.390 Y1824.530 I -80.734 J 561.467
G2 X 928.680 Y1823.040 I -42.714 J 611.486
G2 X 885.980 Y1824.530 I   0.009 J 612.833
G2 X 844.570 Y1828.940 I  39.324 J 565.877
G2 X 805.710 Y1836.140 I  68.799 J 479.791
G2 X 770.600 Y1845.910 I  84.293 J 370.892
G2 X 740.280 Y1857.950 I  85.284 J 258.966
F150
G1 Z   3.000
G0 Z  15.000 
M9 M5

(* SHAPE Nr: 45 *)
G0 X2325.890 Y1581.070
M3 M8
G0 Z   3.000 
G1 Z  -1.500
F400
G2 X2311.930 Y1605.660 I 146.929 J  99.671
G2 X2299.880 Y1635.970 I 246.838 J 115.683
G2 X2290.110 Y1671.090 I 361.226 J 119.408
G2 X2282.910 Y1709.940 I 472.468 J 107.654
G2 X2278.500 Y1751.350 I 561.467 J  80.734
G2 X2277.010 Y1794.060 I 611.486 J  42.714
G2 X2278.500 Y1836.770 I 612.976 J  -0.004
G2 X2282.910 Y1878.180 I 565.877 J -39.324
G2 X2290.110 Y1917.030 I 479.668 J -68.804
G2 X2299.880 Y1952.150 I 370.996 J -84.288
G2 X2311.930 Y1982.460 I 258.888 J -85.373
G2 X2325.890 Y2007.050 I 160.893 J -75.083
G2 X2341.330 Y2025.170 I  87.861 J -59.228
G2 X2357.780 Y2036.260 I  42.088 J -44.684
G2 X2374.750 Y2040.000 I  17.158 J -37.484
G2 X2391.730 Y2036.260 I  -0.183 J -41.247
G2 X2408.180 Y2025.170 I -25.638 J -55.774
G2 X2423.630 Y2007.050 I -72.416 J -77.392
G2 X2437.580 Y1982.460 I-146.938 J -99.610
G2 X2449.630 Y1952.150 I-246.838 J-115.683
G2 X2459.400 Y1917.030 I-361.226 J-119.408
G2 X2466.600 Y1878.180 I-472.468 J-107.654
G2 X2471.010 Y1836.770 I-561.467 J -80.734
G2 X2472.500 Y1794.060 I-611.486 J -42.714
G2 X2471.010 Y1751.350 I-612.976 J   0.004
G2 X2466.600 Y1709.940 I-565.877 J  39.324
G2 X2459.400 Y1671.090 I-479.668 J  68.804
G2 X2449.630 Y1635.970 I-370.996 J  84.288
G2 X2437.580 Y1605.660 I-258.896 J  85.376
G2 X2423.630 Y1581.070 I-160.884 J  75.018
G2 X2408.180 Y1562.950 I -87.866 J  59.272
G2 X2391.730 Y1551.860 I -42.088 J  44.684
G2 X2374.750 Y1548.120 I -17.163 J  37.507
G2 X2357.780 Y1551.860 I   0.188 J  41.224
G2 X2341.330 Y1562.950 I  25.638 J  55.774
G2 X2325.890 Y1581.070 I  72.421 J  77.348
F150
G1 Z  -3.000
F400
G2 X2311.930 Y1605.660 I 146.929 J  99.671
G2 X2299.880 Y1635.970 I 246.838 J 115.683
G2 X2290.110 Y1671.090 I 361.226 J 119.408
G2 X2282.910 Y1709.940 I 472.468 J 107.654
G2 X2278.500 Y1751.350 I 561.467 J  80.734
G2 X2277.010 Y1794.060 I 611.486 J  42.714
G2 X2278.500 Y1836.770 I 612.976 J  -0.004
G2 X2282.910 Y1878.180 I 565.877 J -39.324
G2 X2290.110 Y1917.030 I 479.668 J -68.804
G2 X2299.880 Y1952.150 I 370.996 J -84.288
G2 X2311.930 Y1982.460 I 258.888 J -85.373
G2 X2325.890 Y2007.050 I 160.893 J -75.083
G2 X2341.330 Y2025.170 I  87.861 J -59.228
G2 X2357.780 Y2036.260 I  42.088 J -44.684
G2 X2374.750 Y2040.000 I  17.158 J -37.484
G2 X2391.730 Y2036.260 I  -0.183 J -41.247
G2 X2408.180 Y2025.170 I -25.638 J -55.774
G2 X2423.630 Y2007.050 I -72.416 J -77.392
G2 X2437.580 Y1982.460 I-146.938 J -99.610
G2 X2449.630 Y1952.150 I-246.838 J-115.683
G2 X2459.400 Y1917.030 I-361.226 J-119.408
G2 X2466.600 Y1878.180 I-472.468 J-107.654
G2 X2471.010 Y1836.770 I-561.467 J -80.734
G2 X2472.500 Y1794.060 I-611.486 J -42.714
G2 X2471.010 Y1751.350 I-612.976 J   0.004
G2 X2466.600 Y1709.940 I-565.877 J  39.324
G2 X2459.400 Y1671.090 I-479.668 J  68.804
G2 X2449.630 Y1635.970 I-370.996 J  84.288
G2 X2437.580 Y1605.660 I-258.896 J  85.376
G2 X2423.630 Y1581.070 I-160.884 J  75.018
G2 X2408.180 Y1562.950 I -87.866 J  59.272
G2 X2391.730 Y1551.860 I -42.088 J  44.684
G2 X2374.750 Y1548.120 I -17.163 J  37.507
G2 X2357.780 Y1551.860 I   0.188 J  41.224
G2 X2341.330 Y1562.950 I  25.638 J  55.774
G2 X2325.890 Y1581.070 I  72.421 J  77.348
F150
G1 Z   3.000
G0 Z  15.000 
M9 M5

(* SHAPE Nr: 46 *)
G0 X 422.850 Y1171.800
M3 M8
G0 Z   3.000 
G1 Z  -1.500
F400
G1 X 360.000 Y1412.440
G1 X 167.700 Y1254.710
G1 X 258.290 Y1486.340
G1 X  10.000 Y1471.760
G1 X 219.440 Y1605.900
G1 X  10.000 Y1740.040
G1 X 258.290 Y1725.460
G1 X 167.700 Y1957.090
G1 X 360.000 Y1799.360
G1 X 422.850 Y2040.000
G1 X 485.710 Y1799.360
G1 X 678.010 Y1957.090
G1 X 587.420 Y1725.460
G1 X 835.710 Y1740.040
G1 X 626.270 Y1605.900
G1 X 835.710 Y1471.760
G1 X 587.420 Y1486.340
G1 X 678.010 Y1254.710
G1 X 485.710 Y1412.440
G1 X 422.850 Y1171.800
F150
G1 Z  -3.000
F400
G1 X 360.000 Y1412.440
G1 X 167.700 Y1254.710
G1 X 258.290 Y1486.340
G1 X  10.000 Y1471.760
G1 X 219.440 Y1605.900
G1 X  10.000 Y1740.040
G1 X 258.290 Y1725.460
G1 X 167.700 Y1957.090
G1 X 360.000 Y1799.360
G1 X 422.850 Y2040.000
G1 X 485.710 Y1799.360
G1 X 678.010 Y1957.090
G1 X 587.420 Y1725.460
G1 X 835.710 Y1740.040
G1 X 626.270 Y1605.900
G1 X 835.710 Y1471.760
G1 X 587.420 Y1486.340
G1 X 678.010 Y1254.710
G1 X 485.710 Y1412.440
G1 X 422.850 Y1171.800
F150
G1 Z   3.000
G0 Z  15.000 
M9 M5

(* SHAPE Nr: 48 *)
G0 X -14.700 Y 386.420
M3 M8
G0 Z   3.000 
G1 Z  -1.500
F400
G1 X  10.000 Y 386.420
G2 X  11.480 Y 429.120 I 612.828 J   0.135
G2 X  15.890 Y 470.530 I 565.877 J -39.324
G2 X  23.090 Y 509.390 I 479.791 J -68.799
G2 X  32.870 Y 544.500 I 370.897 J -84.397
G2 X  44.910 Y 574.820 I 258.966 J -85.284
G2 X  58.870 Y 599.410 I 160.893 J -75.083
G2 X  74.310 Y 617.530 I  87.859 J -59.227
G2 X  90.770 Y 628.620 I  42.093 J -44.715
G2 X 107.740 Y 632.360 I  17.158 J -37.484
G2 X 124.710 Y 628.620 I  -0.188 J -41.224
G2 X 141.170 Y 617.530 I -25.633 J -55.805
G2 X 156.610 Y 599.410 I -72.419 J -77.347
G2 X 170.570 Y 574.820 I-146.933 J -99.673
G2 X 182.610 Y 544.500 I-246.926 J-115.604
G2 X 192.380 Y 509.390 I-361.122 J-119.403
G2 X 199.590 Y 470.530 I-472.586 J-107.781
G2 X 203.990 Y 429.120 I-561.472 J -80.598
G2 X 205.480 Y 386.420 I-611.343 J -42.709
G2 X 203.990 Y 343.710 I-612.976 J   0.004
G2 X 199.590 Y 302.300 I-565.872 J  39.188
G2 X 192.380 Y 263.450 I-479.673 J  68.926
G2 X 182.610 Y 228.330 I-370.996 J  84.288
G2 X 170.570 Y 198.020 I-258.883 J  85.289
G2 X 156.610 Y 173.430 I-160.893 J  75.083
G2 X 141.170 Y 155.310 I -87.861 J  59.228
G2 X 124.710 Y 144.210 I -42.123 J  44.710
G2 X 107.740 Y 140.480 I -17.135 J  37.489
G2 X  90.770 Y 144.210 I   0.165 J  41.219
G2 X  74.310 Y 155.310 I  25.663 J  55.810
G2 X  58.870 Y 173.430 I  72.421 J  77.348
G2 X  44.910 Y 198.020 I 146.933 J  99.673
G2 X  32.870 Y 228.330 I 246.843 J 115.599
G2 X  23.090 Y 263.450 I 361.221 J 119.512
G2 X  15.890 Y 302.300 I 472.468 J 107.654
G2 X  11.480 Y 343.710 I 561.467 J  80.734
G2 X  10.000 Y 386.420 I 611.491 J  42.570
F150
G1 Z  -3.000
F400
G3 X  11.480 Y 343.710 I 612.971 J  -0.140
G3 X  15.890 Y 302.300 I 565.877 J  39.324
G3 X  23.090 Y 263.450 I 479.668 J  68.804
G3 X  32.870 Y 228.330 I 371.001 J  84.392
G3 X  44.910 Y 198.020 I 258.883 J  85.289
G3 X  58.870 Y 173.430 I 160.893 J  75.083
G3 X  74.310 Y 155.310 I  87.861 J  59.228
G3 X  90.770 Y 144.210 I  42.123 J  44.710
G3 X 107.740 Y 140.480 I  17.135 J  37.489
G3 X 124.710 Y 144.210 I  -0.165 J  41.219
G3 X 141.170 Y 155.310 I -25.663 J  55.810
G3 X 156.610 Y 173.430 I -72.421 J  77.348
G3 X 170.570 Y 198.020 I-146.933 J  99.673
G3 X 182.610 Y 228.330 I-246.843 J 115.599
G3 X 192.380 Y 263.450 I-361.226 J 119.408
G3 X 199.590 Y 302.300 I-472.463 J 107.776
G3 X 203.990 Y 343.710 I-561.472 J  80.598
G3 X 205.480 Y 386.420 I-611.486 J  42.714
G3 X 203.990 Y 429.120 I-612.833 J  -0.009
G3 X 199.590 Y 470.530 I-565.872 J -39.188
G3 X 192.380 Y 509.390 I-479.796 J -68.921
G3 X 182.610 Y 544.500 I-370.892 J -84.293
G3 X 170.570 Y 574.820 I-258.966 J -85.284
G3 X 156.610 Y 599.410 I-160.893 J -75.083
G3 X 141.170 Y 617.530 I -87.859 J -59.227
G3 X 124.710 Y 628.620 I -42.093 J -44.715
G3 X 107.740 Y 632.360 I -17.158 J -37.484
G3 X  90.770 Y 628.620 I   0.188 J -41.224
G3 X  74.310 Y 617.530 I  25.633 J -55.805
G3 X  58.870 Y 599.410 I  72.419 J -77.347
G3 X  44.910 Y 574.820 I 146.933 J -99.673
G3 X  32.870 Y 544.500 I 246.926 J-115.604
G3 X  23.090 Y 509.390 I 361.117 J-119.507
G3 X  15.890 Y 470.530 I 472.591 J-107.659
G3 X  11.480 Y 429.120 I 561.467 J -80.734
G3 X  10.000 Y 386.420 I 611.348 J -42.565
G1 X -14.700 Y 386.420
F150
G1 Z   3.000
G0 Z  15.000 
M9 M5

(* SHAPE Nr: 49 *)
G0 X1466.960 Y1867.960
M3 M8
G0 Z   3.000 
G1 Z  -1.500
F400
G1 X1466.960 Y1796.940
G1 X1534.500 Y1775.000
G1 X1466.960 Y1753.060
G1 X1466.960 Y1682.040
G1 X1357.930 Y1695.200
G1 X1353.110 Y1682.880
G1 X1262.510 Y1451.250
G1 X1510.800 Y1465.830
G1 X1301.360 Y1331.690
G1 X1510.800 Y1197.550
G1 X1262.510 Y1212.130
G1 X1353.110 Y 980.500
G1 X1160.810 Y1138.230
G1 X1097.950 Y 897.590
G1 X1035.090 Y1138.230
G1 X 842.790 Y 980.500
G1 X 933.390 Y1212.130
G1 X 685.090 Y1197.550
G1 X 894.540 Y1331.690
G1 X 685.090 Y1465.830
G1 X 933.390 Y1451.250
G1 X 842.790 Y1682.880
G1 X1035.090 Y1525.150
G1 X1097.950 Y1765.790
G1 X1160.810 Y1525.150
G1 X1353.110 Y1682.880
G1 X1462.850 Y1662.700
G1 X1474.740 Y1671.340
G1 X1466.960 Y1682.040
G1 X1425.220 Y1739.490
G1 X1357.690 Y1717.550
G1 X1399.430 Y1775.000
G1 X1357.690 Y1832.450
G1 X1425.220 Y1810.510
G1 X1466.960 Y1867.960
G1 X1474.740 Y1878.660
G1 X1462.850 Y1887.300
G1 X1449.800 Y1870.710
G1 X1352.060 Y1870.710
F150
G1 Z  -3.000
F400
G1 X1449.800 Y1870.710
G1 X1462.850 Y1887.300
G1 X1474.740 Y1878.660
G1 X1466.960 Y1867.960
G1 X1425.220 Y1810.510
G1 X1357.690 Y1832.450
G1 X1399.430 Y1775.000
G1 X1357.690 Y1717.550
G1 X1425.220 Y1739.490
G1 X1466.960 Y1682.040
G1 X1474.740 Y1671.340
G1 X1462.850 Y1662.700
G1 X1353.110 Y1682.880
G1 X1160.810 Y1525.150
G1 X1097.950 Y1765.790
G1 X1035.090 Y1525.150
G1 X 842.790 Y1682.880
G1 X 933.390 Y1451.250
G1 X 685.090 Y1465.830
G1 X 894.540 Y1331.690
G1 X 685.090 Y1197.550
G1 X 933.390 Y1212.130
G1 X 842.790 Y 980.500
G1 X1035.090 Y1138.230
G1 X1097.950 Y 897.590
G1 X1160.810 Y1138.230
G1 X1353.110 Y 980.500
G1 X1262.510 Y1212.130
G1 X1510.800 Y1197.550
G1 X1301.360 Y1331.690
G1 X1510.800 Y1465.830
G1 X1262.510 Y1451.250
G1 X1353.110 Y1682.880
G1 X1357.930 Y1695.200
G1 X1466.960 Y1682.040
G1 X1466.960 Y1753.060
G1 X1534.500 Y1775.000
G1 X1466.960 Y1796.940
G1 X1466.960 Y1867.960
F150
G1 Z   3.000
G0 Z  15.000 
M9 M5

(* SHAPE Nr: 50 *)
G0 X1339.570 Y1860.380
M3 M8
G0 Z   3.000 
G1 Z  -1.500
F400
G1 X1317.630 Y1830.180
G1 X1339.570 Y1799.970
G1 X1304.070 Y1788.440
G1 X1304.070 Y1751.100
G1 X1268.560 Y1762.640
G1 X1246.620 Y1732.440
G1 X1224.670 Y1762.640
G1 X1189.170 Y1751.100
G1 X1189.170 Y1788.440
G1 X1153.660 Y1799.970
G1 X1175.600 Y1830.180
G1 X1153.660 Y1860.380
G1 X1189.170 Y1871.920
G1 X1189.170 Y1909.250
G1 X1224.670 Y1897.710
G1 X1246.620 Y1927.920
G1 X1268.560 Y1897.710
G1 X1304.070 Y1909.250
G1 X1304.070 Y1871.920
G1 X1339.570 Y1860.380
G1 X1345.940 Y1851.900
G1 X1358.670 Y1859.250
G1 X1352.060 Y1870.710
G1 X1303.190 Y1955.350
G1 X1352.060 Y2040.000
G1 X1449.800 Y2040.000
G1 X1498.670 Y1955.350
G1 X1449.800 Y1870.710
F150
G1 Z  -3.000
F400
G1 X1498.670 Y1955.350
G1 X1449.800 Y2040.000
G1 X1352.060 Y2040.000
G1 X1303.190 Y1955.350
G1 X1352.060 Y1870.710
G1 X1358.670 Y1859.250
G1 X1345.940 Y1851.900
G1 X1339.570 Y1860.380
G1 X1304.070 Y1871.920
G1 X1304.070 Y1909.250
G1 X1268.560 Y1897.710
G1 X1246.620 Y1927.920
G1 X1224.670 Y1897.710
G1 X1189.170 Y1909.250
G1 X1189.170 Y1871.920
G1 X1153.660 Y1860.380
G1 X1175.600 Y1830.180
G1 X1153.660 Y1799.970
G1 X1189.170 Y1788.440
G1 X1189.170 Y1751.100
G1 X1224.670 Y1762.640
G1 X1246.620 Y1732.440
G1 X1268.560 Y1762.640
G1 X1304.070 Y1751.100
G1 X1304.070 Y1788.440
G1 X1339.570 Y1799.970
G1 X1317.630 Y1830.180
G1 X1339.570 Y1860.380
F150
G1 Z   3.000
G0 Z  15.000 
M9 M5

(* SHAPE Nr: 51 *)
G0 X1499.020 Y1371.990
M3 M8
G0 Z   3.000 
G1 Z  -1.500
F400
G1 X1656.750 Y1564.290
G1 X1416.110 Y1627.150
G1 X1656.750 Y1690.000
G1 X1499.020 Y1882.300
G1 X1730.650 Y1791.710
G1 X1716.060 Y2040.000
G1 X1850.210 Y1830.560
G1 X1984.350 Y2040.000
G1 X1969.770 Y1791.710
G1 X2201.400 Y1882.300
G1 X2043.670 Y1690.000
G1 X2284.310 Y1627.150
G1 X2043.670 Y1564.290
G1 X2201.400 Y1371.990
G1 X1969.770 Y1462.580
G1 X1984.350 Y1214.290
G1 X1850.210 Y1423.730
G1 X1716.060 Y1214.290
G1 X1730.650 Y1462.580
G1 X1499.020 Y1371.990
F150
G1 Z  -3.000
F400
G1 X1656.750 Y1564.290
G1 X1416.110 Y1627.150
G1 X1656.750 Y1690.000
G1 X1499.020 Y1882.300
G1 X1730.650 Y1791.710
G1 X1716.060 Y2040.000
G1 X1850.210 Y1830.560
G1 X1984.350 Y2040.000
G1 X1969.770 Y1791.710
G1 X2201.400 Y1882.300
G1 X2043.670 Y1690.000
G1 X2284.310 Y1627.150
G1 X2043.670 Y1564.290
G1 X2201.400 Y1371.990
G1 X1969.770 Y1462.580
G1 X1984.350 Y1214.290
G1 X1850.210 Y1423.730
G1 X1716.060 Y1214.290
G1 X1730.650 Y1462.580
G1 X1499.020 Y1371.990
F150
G1 Z   3.000
G0 Z  15.000 
M9 M5

(* SHAPE Nr: 52 *)
G0 X2182.160 Y1260.090
M3 M8
G0 Z   3.000 
G1 Z  -1.500
F400
G1 X2204.110 Y1290.290
G1 X2182.160 Y1320.490
G1 X2217.670 Y1332.030
G1 X2217.670 Y1369.360
G1 X2253.180 Y1357.830
G1 X2275.120 Y1388.030
G1 X2282.900 Y1398.730
G1 X2274.130 Y1407.180
G1 X2243.930 Y1429.120
G1 X2213.730 Y1407.180
G1 X2202.190 Y1442.680
G1 X2164.860 Y1442.680
G1 X2176.390 Y1478.190
G1 X2146.190 Y1500.130
G1 X2176.390 Y1522.080
G1 X2164.860 Y1557.580
G1 X2202.190 Y1557.580
G1 X2213.730 Y1593.090
G1 X2243.930 Y1571.140
G1 X2274.130 Y1593.090
G1 X2285.670 Y1557.580
G1 X2323.000 Y1557.580
G1 X2311.470 Y1522.080
G1 X2341.670 Y1500.130
G1 X2311.470 Y1478.190
G1 X2323.000 Y1442.680
G1 X2285.670 Y1442.680
G1 X2270.040 Y1394.590
G1 X2275.120 Y1388.030
G1 X2297.060 Y1357.830
G1 X2332.570 Y1369.360
G1 X2332.570 Y1332.030
G1 X2368.070 Y1320.490
G1 X2346.130 Y1290.290
G1 X2368.070 Y1260.090
G1 X2332.570 Y1248.550
G1 X2332.570 Y1211.220
G1 X2297.060 Y1222.750
G1 X2275.120 Y1192.550
G1 X2253.180 Y1222.750
G1 X2217.670 Y1211.220
G1 X2217.670 Y1248.550
G1 X2182.160 Y1260.090
F150
G1 Z  -3.000
F400
G1 X2204.110 Y1290.290
G1 X2182.160 Y1320.490
G1 X2217.670 Y1332.030
G1 X2217.670 Y1369.360
G1 X2253.180 Y1357.830
G1 X2275.120 Y1388.030
G1 X2282.900 Y1398.730
G1 X2274.130 Y1407.180
G1 X2243.930 Y1429.120
G1 X2213.730 Y1407.180
G1 X2202.190 Y1442.680
G1 X2164.860 Y1442.680
G1 X2176.390 Y1478.190
G1 X2146.190 Y1500.130
G1 X2176.390 Y1522.080
G1 X2164.860 Y1557.580
G1 X2202.190 Y1557.580
G1 X2213.730 Y1593.090
G1 X2243.930 Y1571.140
G1 X2274.130 Y1593.090
G1 X2285.670 Y1557.580
G1 X2323.000 Y1557.580
G1 X2311.470 Y1522.080
G1 X2341.670 Y1500.130
G1 X2311.470 Y1478.190
G1 X2323.000 Y1442.680
G1 X2285.670 Y1442.680
G1 X2270.040 Y1394.590
G1 X2275.120 Y1388.030
G1 X2297.060 Y1357.830
G1 X2332.570 Y1369.360
G1 X2332.570 Y1332.030
G1 X2368.070 Y1320.490
G1 X2346.130 Y1290.290
G1 X2368.070 Y1260.090
G1 X2332.570 Y1248.550
G1 X2332.570 Y1211.220
G1 X2297.060 Y1222.750
G1 X2275.120 Y1192.550
G1 X2253.180 Y1222.750
G1 X2217.670 Y1211.220
G1 X2217.670 Y1248.550
G1 X2182.160 Y1260.090
F150
G1 Z   3.000
G0 Z  15.000 
M9 M5

(* SHAPE Nr: 53 *)
G0 X1658.130 Y2040.000
M3 M8
G0 Z   3.000 
G1 Z  -1.500
F400
G1 X1693.630 Y1930.720
G1 X1600.680 Y1863.190
G1 X1507.720 Y1930.720
G1 X1543.220 Y2040.000
G1 X1671.350 Y2040.000
G1 X2017.080 Y2053.110
G1 X2017.080 Y2038.410
G1 X2145.220 Y2038.410
G1 X2180.720 Y1929.130
G1 X2087.760 Y1861.590
G1 X1994.810 Y1929.130
G1 X2030.310 Y2038.410
F150
G1 Z  -3.000
F400
G1 X1994.810 Y1929.130
G1 X2087.760 Y1861.590
G1 X2180.720 Y1929.130
G1 X2145.220 Y2038.410
G1 X2017.080 Y2038.410
G1 X2017.080 Y2053.110
G1 X1671.350 Y2040.000
G1 X1543.220 Y2040.000
G1 X1507.720 Y1930.720
G1 X1600.680 Y1863.190
G1 X1693.630 Y1930.720
G1 X1658.130 Y2040.000
F150
G1 Z   3.000
G0 Z  15.000 
M9 M5

(* SHAPE Nr: 54 *)
G0 X 580.240 Y 240.470
M3 M8
G0 Z   3.000 
G1 Z  -1.500
F400
G1 X 558.300 Y 210.260
G1 X 580.240 Y 180.060
G1 X 544.740 Y 168.520
G1 X 544.740 Y 131.190
G1 X 509.230 Y 142.730
G1 X 487.290 Y 112.520
G1 X 465.340 Y 142.730
G1 X 429.840 Y 131.190
G1 X 429.840 Y 168.520
G1 X 394.330 Y 180.060
G1 X 381.750 Y 184.150
G1 X 337.730 Y 175.630
G1 X 307.530 Y 197.570
G1 X 277.330 Y 175.630
G1 X 265.790 Y 211.130
G1 X 228.460 Y 211.130
G1 X 239.990 Y 246.640
G1 X 209.790 Y 268.580
G1 X 239.990 Y 290.530
G1 X 228.460 Y 326.040
G1 X 265.790 Y 326.040
G1 X 277.330 Y 361.540
G1 X 307.530 Y 339.600
G1 X 337.730 Y 361.540
G1 X 349.270 Y 326.040
G1 X 399.830 Y 326.040
G1 X 507.920 Y 366.120
G1 X 472.240 Y 392.040
G1 X 442.040 Y 413.990
G1 X 411.830 Y 392.040
G1 X 400.300 Y 427.550
G1 X 362.960 Y 427.550
G1 X 374.500 Y 463.060
G1 X 344.300 Y 485.000
G1 X 374.500 Y 506.940
G1 X 362.960 Y 542.450
G1 X 400.300 Y 542.450
G1 X 411.830 Y 577.960
G1 X 442.040 Y 556.010
G1 X 472.240 Y 577.960
G1 X 483.780 Y 542.450
G1 X 521.110 Y 542.450
G1 X 509.580 Y 506.940
G1 X 539.780 Y 485.000
G1 X 509.580 Y 463.060
G1 X 521.110 Y 427.550
G1 X 483.780 Y 427.550
G1 X 472.240 Y 392.040
G1 X 390.690 Y 338.620
G1 X 386.600 Y 326.040
G1 X 375.070 Y 290.530
G1 X 405.270 Y 268.580
G1 X 375.070 Y 246.640
G1 X 386.600 Y 211.130
G1 X 349.270 Y 211.130
G1 X 333.650 Y 163.050
G1 X 347.630 Y 158.500
G1 X 386.560 Y 169.360
G1 X 394.330 Y 180.060
G1 X 416.280 Y 210.260
G1 X 394.330 Y 240.470
G1 X 429.840 Y 252.000
G1 X 429.840 Y 289.340
G1 X 465.340 Y 277.800
G1 X 487.290 Y 308.000
G1 X 509.230 Y 277.800
G1 X 544.740 Y 289.340
G1 X 544.740 Y 252.000
G1 X 580.240 Y 240.470
G1 X 582.050 Y 217.900
G1 X 596.750 Y 217.900
G1 X 596.750 Y 328.870
G1 X 681.400 Y 377.740
G1 X 777.500 Y 322.260
G1 X 784.850 Y 334.990
G1 X 785.050 Y 346.740
G1 X 942.790 Y 539.040
G1 X 702.150 Y 601.900
G1 X 942.790 Y 664.760
G1 X 785.050 Y 857.060
G1 X1016.680 Y 766.470
G1 X1002.100 Y1014.760
G1 X1136.240 Y 805.320
G1 X1270.390 Y1014.760
G1 X1255.810 Y 766.470
G1 X1487.440 Y 857.060
G1 X1329.700 Y 664.760
G1 X1570.340 Y 601.900
G1 X1329.700 Y 539.040
G1 X1495.830 Y 336.520
G1 X1560.670 Y 372.230
G1 X1569.890 Y 415.360
G1 X1583.660 Y 479.730
G1 X1521.020 Y 500.000
G1 X1583.660 Y 520.270
G1 X1569.890 Y 584.650
G1 X1618.760 Y 540.530
G1 X1667.630 Y 584.650
G1 X1653.860 Y 520.270
G1 X1824.110 Y 465.180
G1 X1871.590 Y 477.590
G1 X1868.250 Y 490.390
G1 X1805.390 Y 731.030
G1 X1613.090 Y 573.290
G1 X1703.680 Y 804.920
G1 X1455.390 Y 790.340
G1 X1664.830 Y 924.490
G1 X1455.390 Y1058.630
G1 X1703.680 Y1044.050
G1 X1613.090 Y1275.680
G1 X1805.390 Y1117.940
G1 X1868.250 Y1358.590
G1 X1931.100 Y1117.940
G1 X2123.400 Y1275.680
G1 X2032.810 Y1044.050
G1 X2281.100 Y1058.630
G1 X2071.660 Y 924.490
G1 X2281.100 Y 790.340
G1 X2032.810 Y 804.920
G1 X2123.400 Y 573.290
G1 X1931.100 Y 731.030
G1 X1868.250 Y 490.390
G1 X1729.090 Y 504.070
G1 X1716.500 Y 500.000
G1 X1653.860 Y 479.730
G1 X1667.630 Y 415.360
G1 X1618.760 Y 459.470
G1 X1569.890 Y 415.360
G1 X1487.440 Y 346.740
G1 X1255.810 Y 437.340
G1 X1270.390 Y 189.050
G1 X1136.240 Y 398.490
G1 X1002.100 Y 189.050
G1 X1016.680 Y 437.340
G1 X 785.050 Y 346.740
G1 X 766.040 Y 342.100
G1 X 766.040 Y 231.130
G1 X 681.400 Y 182.260
G1 X 596.750 Y 231.130
F150
G1 Z  -3.000
F400
G1 X 681.400 Y 182.260
G1 X 766.040 Y 231.130
G1 X 766.040 Y 342.100
G1 X 785.050 Y 346.740
G1 X1016.680 Y 437.340
G1 X1002.100 Y 189.050
G1 X1136.240 Y 398.490
G1 X1270.390 Y 189.050
G1 X1255.810 Y 437.340
G1 X1487.440 Y 346.740
G1 X1569.890 Y 415.360
G1 X1618.760 Y 459.470
G1 X1667.630 Y 415.360
G1 X1653.860 Y 479.730
G1 X1716.500 Y 500.000
G1 X1729.090 Y 504.070
G1 X1868.250 Y 490.390
G1 X1931.100 Y 731.030
G1 X2123.400 Y 573.290
G1 X2032.810 Y 804.920
G1 X2281.100 Y 790.340
G1 X2071.660 Y 924.490
G1 X2281.100 Y1058.630
G1 X2032.810 Y1044.050
G1 X2123.400 Y1275.680
G1 X1931.100 Y1117.940
G1 X1868.250 Y1358.590
G1 X1805.390 Y1117.940
G1 X1613.090 Y1275.680
G1 X1703.680 Y1044.050
G1 X1455.390 Y1058.630
G1 X1664.830 Y 924.490
G1 X1455.390 Y 790.340
G1 X1703.680 Y 804.920
G1 X1613.090 Y 573.290
G1 X1805.390 Y 731.030
G1 X1868.250 Y 490.390
G1 X1871.590 Y 477.590
G1 X1824.110 Y 465.180
G1 X1653.860 Y 520.270
G1 X1667.630 Y 584.650
G1 X1618.760 Y 540.530
G1 X1569.890 Y 584.650
G1 X1583.660 Y 520.270
G1 X1521.020 Y 500.000
G1 X1583.660 Y 479.730
G1 X1569.890 Y 415.360
G1 X1560.670 Y 372.230
G1 X1495.830 Y 336.520
G1 X1329.700 Y 539.040
G1 X1570.340 Y 601.900
G1 X1329.700 Y 664.760
G1 X1487.440 Y 857.060
G1 X1255.810 Y 766.470
G1 X1270.390 Y1014.760
G1 X1136.240 Y 805.320
G1 X1002.100 Y1014.760
G1 X1016.680 Y 766.470
G1 X 785.050 Y 857.060
G1 X 942.790 Y 664.760
G1 X 702.150 Y 601.900
G1 X 942.790 Y 539.040
G1 X 785.050 Y 346.740
G1 X 784.850 Y 334.990
G1 X 777.500 Y 322.260
G1 X 681.400 Y 377.740
G1 X 596.750 Y 328.870
G1 X 596.750 Y 217.900
G1 X 582.050 Y 217.900
G1 X 580.240 Y 240.470
G1 X 544.740 Y 252.000
G1 X 544.740 Y 289.340
G1 X 509.230 Y 277.800
G1 X 487.290 Y 308.000
G1 X 465.340 Y 277.800
G1 X 429.840 Y 289.340
G1 X 429.840 Y 252.000
G1 X 394.330 Y 240.470
G1 X 416.280 Y 210.260
G1 X 394.330 Y 180.060
G1 X 386.560 Y 169.360
G1 X 347.630 Y 158.500
G1 X 333.650 Y 163.050
G1 X 349.270 Y 211.130
G1 X 386.600 Y 211.130
G1 X 375.070 Y 246.640
G1 X 405.270 Y 268.580
G1 X 375.070 Y 290.530
G1 X 386.600 Y 326.040
G1 X 390.690 Y 338.620
G1 X 472.240 Y 392.040
G1 X 483.780 Y 427.550
G1 X 521.110 Y 427.550
G1 X 509.580 Y 463.060
G1 X 539.780 Y 485.000
G1 X 509.580 Y 506.940
G1 X 521.110 Y 542.450
G1 X 483.780 Y 542.450
G1 X 472.240 Y 577.960
G1 X 442.040 Y 556.010
G1 X 411.830 Y 577.960
G1 X 400.300 Y 542.450
G1 X 362.960 Y 542.450
G1 X 374.500 Y 506.940
G1 X 344.300 Y 485.000
G1 X 374.500 Y 463.060
G1 X 362.960 Y 427.550
G1 X 400.300 Y 427.550
G1 X 411.830 Y 392.040
G1 X 442.040 Y 413.990
G1 X 472.240 Y 392.040
G1 X 507.920 Y 366.120
G1 X 399.830 Y 326.040
G1 X 349.270 Y 326.040
G1 X 337.730 Y 361.540
G1 X 307.530 Y 339.600
G1 X 277.330 Y 361.540
G1 X 265.790 Y 326.040
G1 X 228.460 Y 326.040
G1 X 239.990 Y 290.530
G1 X 209.790 Y 268.580
G1 X 239.990 Y 246.640
G1 X 228.460 Y 211.130
G1 X 265.790 Y 211.130
G1 X 277.330 Y 175.630
G1 X 307.530 Y 197.570
G1 X 337.730 Y 175.630
G1 X 381.750 Y 184.150
G1 X 394.330 Y 180.060
G1 X 429.840 Y 168.520
G1 X 429.840 Y 131.190
G1 X 465.340 Y 142.730
G1 X 487.290 Y 112.520
G1 X 509.230 Y 142.730
G1 X 544.740 Y 131.190
G1 X 544.740 Y 168.520
G1 X 580.240 Y 180.060
G1 X 558.300 Y 210.260
G1 X 580.240 Y 240.470
F150
G1 Z   3.000
G0 Z  15.000 
M9 M5

(* SHAPE Nr: 55 *)
G0 X 609.150 Y 417.550
M3 M8
G0 Z   3.000 
G1 Z  -1.500
F400
G1 X 620.690 Y 453.060
G1 X 590.480 Y 475.000
G1 X 620.690 Y 496.940
G1 X 609.150 Y 532.450
G1 X 646.480 Y 532.450
G1 X 658.020 Y 567.960
G1 X 688.220 Y 546.010
G1 X 718.430 Y 567.960
G1 X 729.960 Y 532.450
G1 X 767.300 Y 532.450
G1 X 755.760 Y 496.940
G1 X 785.960 Y 475.000
G1 X 755.760 Y 453.060
G1 X 767.300 Y 417.550
G1 X 729.960 Y 417.550
G1 X 718.430 Y 382.040
G1 X 714.340 Y 369.460
G1 X 798.850 Y 317.260
G1 X 810.310 Y 323.870
G1 X 894.950 Y 372.740
G1 X 979.600 Y 323.870
G1 X 979.600 Y 226.130
G1 X 894.950 Y 177.260
G1 X 810.310 Y 226.130
G1 X 810.310 Y 337.100
G1 X 754.100 Y 356.120
G1 X 718.430 Y 382.040
G1 X 688.220 Y 403.990
G1 X 658.020 Y 382.040
G1 X 646.480 Y 417.550
G1 X 609.150 Y 417.550
F150
G1 Z  -3.000
F400
G1 X 620.690 Y 453.060
G1 X 590.480 Y 475.000
G1 X 620.690 Y 496.940
G1 X 609.150 Y 532.450
G1 X 646.480 Y 532.450
G1 X 658.020 Y 567.960
G1 X 688.220 Y 546.010
G1 X 718.430 Y 567.960
G1 X 729.960 Y 532.450
G1 X 767.300 Y 532.450
G1 X 755.760 Y 496.940
G1 X 785.960 Y 475.000
G1 X 755.760 Y 453.060
G1 X 767.300 Y 417.550
G1 X 729.960 Y 417.550
G1 X 718.430 Y 382.040
G1 X 714.340 Y 369.460
G1 X 798.850 Y 317.260
G1 X 810.310 Y 323.870
G1 X 894.950 Y 372.740
G1 X 979.600 Y 323.870
G1 X 979.600 Y 226.130
G1 X 894.950 Y 177.260
G1 X 810.310 Y 226.130
G1 X 810.310 Y 337.100
G1 X 754.100 Y 356.120
G1 X 718.430 Y 382.040
G1 X 688.220 Y 403.990
G1 X 658.020 Y 382.040
G1 X 646.480 Y 417.550
G1 X 609.150 Y 417.550
F150
G1 Z   3.000
G0 Z  15.000 
M9 M5

(* SHAPE Nr: 56 *)
G0 X1421.560 Y 221.760
M3 M8
G0 Z   3.000 
G1 Z  -1.500
F400
G1 X1483.040 Y 241.300
G1 X1483.040 Y 299.950
G1 X1421.560 Y 319.500
G1 X1790.470 Y 368.370
G1 X1913.440 Y 335.790
G1 X1913.440 Y 192.240
G1 X1928.140 Y 192.240
G1 X1928.190 Y 298.220
G1 X2012.840 Y 347.090
G1 X2097.480 Y 298.220
G1 X2097.480 Y 200.480
G1 X2012.840 Y 151.610
G1 X1928.190 Y 200.480
G1 X1928.190 Y 311.450
G1 X1913.490 Y 311.450
G1 X1913.440 Y 205.470
G1 X1790.470 Y 172.890
G1 X1421.560 Y 221.760
F150
G1 Z  -3.000
F400
G1 X1483.040 Y 241.300
G1 X1483.040 Y 299.950
G1 X1421.560 Y 319.500
G1 X1790.470 Y 368.370
G1 X1913.440 Y 335.790
G1 X1913.440 Y 192.240
G1 X1928.140 Y 192.240
G1 X1928.190 Y 298.220
G1 X2012.840 Y 347.090
G1 X2097.480 Y 298.220
G1 X2097.480 Y 200.480
G1 X2012.840 Y 151.610
G1 X1928.190 Y 200.480
G1 X1928.190 Y 311.450
G1 X1913.490 Y 311.450
G1 X1913.440 Y 205.470
G1 X1790.470 Y 172.890
G1 X1421.560 Y 221.760
F150
G1 Z   3.000
G0 Z  15.000 
M9 M5

(* SHAPE Nr: 57 *)
G0 X2708.140 Y 192.790
M3 M8
G0 Z   3.000 
G1 Z  -1.500
F400
G1 X2670.800 Y 192.790
G1 X2659.270 Y 157.280
G1 X2629.060 Y 179.230
G1 X2598.860 Y 157.280
G1 X2587.320 Y 192.790
G1 X2549.990 Y 192.790
G1 X2561.530 Y 228.290
G1 X2531.320 Y 250.240
G1 X2561.530 Y 272.180
G1 X2549.990 Y 307.690
G1 X2587.320 Y 307.690
G1 X2598.860 Y 343.190
G1 X2629.060 Y 321.250
G1 X2659.270 Y 343.190
G1 X2670.800 Y 307.690
G1 X2708.140 Y 307.690
G1 X2696.600 Y 272.180
G1 X2726.800 Y 250.240
F150
G1 Z  -3.000
F400
G1 X2696.600 Y 272.180
G1 X2708.140 Y 307.690
G1 X2670.800 Y 307.690
G1 X2659.270 Y 343.190
G1 X2629.060 Y 321.250
G1 X2598.860 Y 343.190
G1 X2587.320 Y 307.690
G1 X2549.990 Y 307.690
G1 X2561.530 Y 272.180
G1 X2531.320 Y 250.240
G1 X2561.530 Y 228.290
G1 X2549.990 Y 192.790
G1 X2587.320 Y 192.790
G1 X2598.860 Y 157.280
G1 X2629.060 Y 179.230
G1 X2659.270 Y 157.280
G1 X2670.800 Y 192.790
G1 X2708.140 Y 192.790
F150
G1 Z   3.000
G0 Z  15.000 
M9 M5

(* SHAPE Nr: 58 *)
G0 X2722.110 Y 685.000
M3 M8
G0 Z   3.000 
G1 Z  -1.500
F400
G1 X2691.910 Y 663.060
G1 X2703.440 Y 627.550
G1 X2666.110 Y 627.550
G1 X2654.570 Y 592.040
G1 X2624.370 Y 613.990
G1 X2594.170 Y 592.040
G1 X2582.630 Y 627.550
G1 X2545.290 Y 627.550
G1 X2556.830 Y 663.060
G1 X2526.630 Y 685.000
G1 X2556.830 Y 706.940
G1 X2545.290 Y 742.450
G1 X2582.630 Y 742.450
G1 X2594.170 Y 777.960
G1 X2624.370 Y 756.010
G1 X2654.570 Y 777.960
G1 X2665.270 Y 785.730
G1 X2711.600 Y1098.820
G1 X2704.260 Y1111.550
G1 X2692.800 Y1104.930
G1 X2608.150 Y1056.060
G1 X2523.510 Y1104.930
G1 X2523.510 Y1202.670
G1 X2608.150 Y1251.540
G1 X2692.800 Y1202.670
G1 X2692.800 Y1104.930
G1 X2650.480 Y 790.540
G1 X2654.570 Y 777.960
G1 X2666.110 Y 742.450
G1 X2703.440 Y 742.450
G1 X2691.910 Y 706.940
G1 X2732.810 Y 677.220
G1 X2762.480 Y 276.160
G1 X2726.800 Y 250.240
G1 X2696.600 Y 228.290
G1 X2708.140 Y 192.790
G1 X2531.250 Y  31.070
G1 X2314.200 Y 226.990
G1 X2097.150 Y  31.070
G1 X2158.300 Y 317.000
G1 X1880.100 Y 407.010
G1 X2158.300 Y 497.020
G1 X2097.150 Y 782.950
G1 X2314.200 Y 587.030
G1 X2531.250 Y 782.950
G1 X2470.090 Y 497.020
G1 X2748.300 Y 407.010
G1 X2470.090 Y 317.000
G1 X2531.250 Y  31.070
F150
G1 Z  -3.000
F400
G1 X2470.090 Y 317.000
G1 X2748.300 Y 407.010
G1 X2470.090 Y 497.020
G1 X2531.250 Y 782.950
G1 X2314.200 Y 587.030
G1 X2097.150 Y 782.950
G1 X2158.300 Y 497.020
G1 X1880.100 Y 407.010
G1 X2158.300 Y 317.000
G1 X2097.150 Y  31.070
G1 X2314.200 Y 226.990
G1 X2531.250 Y  31.070
G1 X2708.140 Y 192.790
G1 X2696.600 Y 228.290
G1 X2726.800 Y 250.240
G1 X2762.480 Y 276.160
G1 X2732.810 Y 677.220
G1 X2691.910 Y 706.940
G1 X2703.440 Y 742.450
G1 X2666.110 Y 742.450
G1 X2654.570 Y 777.960
G1 X2650.480 Y 790.540
G1 X2692.800 Y1104.930
G1 X2692.800 Y1202.670
G1 X2608.150 Y1251.540
G1 X2523.510 Y1202.670
G1 X2523.510 Y1104.930
G1 X2608.150 Y1056.060
G1 X2692.800 Y1104.930
G1 X2704.260 Y1111.550
G1 X2711.600 Y1098.820
G1 X2665.270 Y 785.730
G1 X2654.570 Y 777.960
G1 X2624.370 Y 756.010
G1 X2594.170 Y 777.960
G1 X2582.630 Y 742.450
G1 X2545.290 Y 742.450
G1 X2556.830 Y 706.940
G1 X2526.630 Y 685.000
G1 X2556.830 Y 663.060
G1 X2545.290 Y 627.550
G1 X2582.630 Y 627.550
G1 X2594.170 Y 592.040
G1 X2624.370 Y 613.990
G1 X2654.570 Y 592.040
G1 X2666.110 Y 627.550
G1 X2703.440 Y 627.550
G1 X2691.910 Y 663.060
G1 X2722.110 Y 685.000
F150
G1 Z   3.000
G0 Z  15.000 
M9 M5
G0 X   0.000 Y   0.000
M2 (Program end)