(Generated with: DXF2GCODE, Version: REMOVED, Date: $Date$)
(Created from file: )
(Output format description: G-CODE for LinuxCNC)
(Time: Thu Sep 13 16:01:13 2018)
G21 (Units in millimeters)
G90 (Absolute programming)
G64 (Default cutting) G17 (XY plane) G40 (Cancel radius comp.) G49 (Cancel length comp.)
G0 Z  15.000 

(*** LAYER: FRAME_Z18 ***)
T1 M6
S6000

(* SHAPE Nr: 54 *)
G0 X   0.000 Y   0.000
M3 M8
G0 Z   3.000 
F150
G1 Z  -1.500
F400
G1 X   0.000 Y2050.000
G1 X2800.000 Y2050.000
G1 X2800.000 Y   0.000
G1 X   0.000 Y   0.000
F150
G1 Z  -3.000
F400
G1 X   0.000 Y2050.000
G1 X2800.000 Y2050.000
G1 X2800.000 Y   0.000
G1 X   0.000 Y   0.000
F150
G1 Z   3.000
G0 Z  15.000 
M9 M5

(*** LAYER: CONTOUR_D0 ***)

(* SHAPE Nr: 0 *)
G0 X1140.120 Y1570.950
M3 M8
G0 Z   3.000 
G1 Z  -1.500
F400
G2 X1126.920 Y1581.180 I  23.247 J  43.627
G2 X1114.550 Y1597.860 I  70.006 J  64.844
G2 X1103.360 Y1620.510 I  79.203 J  53.219
G2 X1093.700 Y1648.440 I 156.647 J  69.814
G2 X1085.870 Y1680.790 I 376.932 J 108.355
G2 X1080.100 Y1716.580 I 497.151 J  98.510
G2 X1076.560 Y1754.720 I 593.345 J  74.306
G2 X1075.370 Y1794.060 I 647.318 J  39.269
G2 X1076.560 Y1833.400 I 648.508 J   0.071
G2 X1080.100 Y1871.540 I 596.885 J -36.166
G2 X1085.870 Y1907.330 I 502.921 J -62.720
G2 X1093.700 Y1939.680 I 384.762 J -76.005
G2 X1103.360 Y1967.600 I 263.746 J -75.622
G2 X1114.550 Y1990.260 I 158.951 J -64.400
G2 X1126.920 Y2006.950 I  82.391 J -48.136
G2 X1140.120 Y2017.170 I  36.429 J -33.416
G2 X1153.720 Y2020.610 I  13.801 J -25.958
G2 X1167.330 Y2017.170 I  -0.191 J -29.398
G2 X1180.520 Y2006.950 I -23.248 J -43.626
G2 X1192.890 Y1990.260 I -70.021 J -64.826
G2 X1204.080 Y1967.600 I-147.761 J -87.060
G2 X1213.740 Y1939.680 I-254.086 J-103.542
G2 X1221.570 Y1907.330 I-376.932 J-108.355
G2 X1227.340 Y1871.540 I-497.151 J -98.510
G2 X1230.880 Y1833.400 I-593.345 J -74.306
G2 X1232.070 Y1794.060 I-647.318 J -39.269
G2 X1230.880 Y1754.720 I-648.508 J  -0.071
G2 X1227.340 Y1716.580 I-596.885 J  36.166
G2 X1221.570 Y1680.790 I-502.921 J  62.720
G2 X1213.740 Y1648.440 I-384.762 J  76.005
G2 X1204.080 Y1620.510 I-263.762 J  75.590
G2 X1192.890 Y1597.860 I-158.937 J  64.432
G2 X1180.520 Y1581.180 I -82.376 J  48.164
G2 X1167.330 Y1570.950 I -36.456 J  33.386
G2 X1153.720 Y1567.510 I -13.801 J  25.958
G2 X1140.120 Y1570.950 I   0.201 J  29.398
F150
G1 Z  -3.000
F400
G2 X1126.920 Y1581.180 I  23.247 J  43.627
G2 X1114.550 Y1597.860 I  70.006 J  64.844
G2 X1103.360 Y1620.510 I  79.203 J  53.219
G2 X1093.700 Y1648.440 I 156.647 J  69.814
G2 X1085.870 Y1680.790 I 376.932 J 108.355
G2 X1080.100 Y1716.580 I 497.151 J  98.510
G2 X1076.560 Y1754.720 I 593.345 J  74.306
G2 X1075.370 Y1794.060 I 647.318 J  39.269
G2 X1076.560 Y1833.400 I 648.508 J   0.071
G2 X1080.100 Y1871.540 I 596.885 J -36.166
G2 X1085.870 Y1907.330 I 502.921 J -62.720
G2 X1093.700 Y1939.680 I 384.762 J -76.005
G2 X1103.360 Y1967.600 I 263.746 J -75.622
G2 X1114.550 Y1990.260 I 158.951 J -64.400
G2 X1126.920 Y2006.950 I  82.391 J -48.136
G2 X1140.120 Y2017.170 I  36.429 J -33.416
G2 X1153.720 Y2020.610 I  13.801 J -25.958
G2 X1167.330 Y2017.170 I  -0.191 J -29.398
G2 X1180.520 Y2006.950 I -23.248 J -43.626
G2 X1192.890 Y1990.260 I -70.021 J -64.826
G2 X1204.080 Y1967.600 I-147.761 J -87.060
G2 X1213.740 Y1939.680 I-254.086 J-103.542
G2 X1221.570 Y1907.330 I-376.932 J-108.355
G2 X1227.340 Y1871.540 I-497.151 J -98.510
G2 X1230.880 Y1833.400 I-593.345 J -74.306
G2 X1232.070 Y1794.060 I-647.318 J -39.269
G2 X1230.880 Y1754.720 I-648.508 J  -0.071
G2 X1227.340 Y1716.580 I-596.885 J  36.166
G2 X1221.570 Y1680.790 I-502.921 J  62.720
G2 X1213.740 Y1648.440 I-384.762 J  76.005
G2 X1204.080 Y1620.510 I-263.762 J  75.590
G2 X1192.890 Y1597.860 I-158.937 J  64.432
G2 X1180.520 Y1581.180 I -82.376 J  48.164
G2 X1167.330 Y1570.950 I -36.456 J  33.386
G2 X1153.720 Y1567.510 I -13.801 J  25.958
G2 X1140.120 Y1570.950 I   0.201 J  29.398
F150
G1 Z   3.000
G0 Z  15.000 
M9 M5

(* SHAPE Nr: 1 *)
G0 X1069.980 Y 429.280
M3 M8
G0 Z   3.000 
G1 Z  -1.500
F400
G2 X1060.320 Y 457.210 I 156.647 J  69.814
G2 X1052.490 Y 489.560 I 376.932 J 108.355
G2 X1046.720 Y 525.350 I 497.151 J  98.510
G2 X1043.180 Y 563.490 I 593.345 J  74.306
G2 X1041.990 Y 602.830 I 647.318 J  39.269
G2 X1043.180 Y 642.170 I 648.508 J   0.071
G2 X1046.720 Y 680.310 I 596.885 J -36.166
G2 X1052.490 Y 716.100 I 502.921 J -62.720
G2 X1060.320 Y 748.450 I 384.762 J -76.005
G2 X1069.980 Y 776.370 I 263.746 J -75.622
G2 X1081.170 Y 799.030 I 158.951 J -64.400
G2 X1093.540 Y 815.720 I  82.391 J -48.136
G2 X1106.740 Y 825.940 I  36.429 J -33.416
G2 X1120.340 Y 829.380 I  13.801 J -25.958
G2 X1133.950 Y 825.940 I  -0.191 J -29.398
G2 X1147.140 Y 815.720 I -23.248 J -43.626
G2 X1159.510 Y 799.030 I -70.021 J -64.826
G2 X1170.700 Y 776.370 I-147.761 J -87.060
G2 X1180.360 Y 748.450 I-254.086 J-103.542
G2 X1188.190 Y 716.100 I-376.932 J-108.355
G2 X1193.960 Y 680.310 I-497.151 J -98.510
G2 X1197.500 Y 642.170 I-593.345 J -74.306
G2 X1198.690 Y 602.830 I-647.318 J -39.269
G2 X1197.500 Y 563.490 I-648.508 J  -0.071
G2 X1193.960 Y 525.350 I-596.885 J  36.166
G2 X1188.190 Y 489.560 I-502.921 J  62.720
G2 X1180.360 Y 457.210 I-384.762 J  76.005
G2 X1170.700 Y 429.280 I-263.752 J  75.587
G2 X1159.510 Y 406.630 I-158.937 J  64.432
G2 X1147.140 Y 389.950 I -82.376 J  48.164
G2 X1133.950 Y 379.720 I -36.456 J  33.386
G2 X1120.340 Y 376.280 I -13.801 J  25.958
G2 X1106.740 Y 379.720 I   0.201 J  29.398
G2 X1093.540 Y 389.950 I  23.247 J  43.627
G2 X1081.170 Y 406.630 I  70.004 J  64.843
G2 X1069.980 Y 429.280 I  79.203 J  53.219
F150
G1 Z  -3.000
F400
G2 X1060.320 Y 457.210 I 156.647 J  69.814
G2 X1052.490 Y 489.560 I 376.932 J 108.355
G2 X1046.720 Y 525.350 I 497.151 J  98.510
G2 X1043.180 Y 563.490 I 593.345 J  74.306
G2 X1041.990 Y 602.830 I 647.318 J  39.269
G2 X1043.180 Y 642.170 I 648.508 J   0.071
G2 X1046.720 Y 680.310 I 596.885 J -36.166
G2 X1052.490 Y 716.100 I 502.921 J -62.720
G2 X1060.320 Y 748.450 I 384.762 J -76.005
G2 X1069.980 Y 776.370 I 263.746 J -75.622
G2 X1081.170 Y 799.030 I 158.951 J -64.400
G2 X1093.540 Y 815.720 I  82.391 J -48.136
G2 X1106.740 Y 825.940 I  36.429 J -33.416
G2 X1120.340 Y 829.380 I  13.801 J -25.958
G2 X1133.950 Y 825.940 I  -0.191 J -29.398
G2 X1147.140 Y 815.720 I -23.248 J -43.626
G2 X1159.510 Y 799.030 I -70.021 J -64.826
G2 X1170.700 Y 776.370 I-147.761 J -87.060
G2 X1180.360 Y 748.450 I-254.086 J-103.542
G2 X1188.190 Y 716.100 I-376.932 J-108.355
G2 X1193.960 Y 680.310 I-497.151 J -98.510
G2 X1197.500 Y 642.170 I-593.345 J -74.306
G2 X1198.690 Y 602.830 I-647.318 J -39.269
G2 X1197.500 Y 563.490 I-648.508 J  -0.071
G2 X1193.960 Y 525.350 I-596.885 J  36.166
G2 X1188.190 Y 489.560 I-502.921 J  62.720
G2 X1180.360 Y 457.210 I-384.762 J  76.005
G2 X1170.700 Y 429.280 I-263.752 J  75.587
G2 X1159.510 Y 406.630 I-158.937 J  64.432
G2 X1147.140 Y 389.950 I -82.376 J  48.164
G2 X1133.950 Y 379.720 I -36.456 J  33.386
G2 X1120.340 Y 376.280 I -13.801 J  25.958
G2 X1106.740 Y 379.720 I   0.201 J  29.398
G2 X1093.540 Y 389.950 I  23.247 J  43.627
G2 X1081.170 Y 406.630 I  70.004 J  64.843
G2 X1069.980 Y 429.280 I  79.203 J  53.219
F150
G1 Z   3.000
G0 Z  15.000 
M9 M5

(* SHAPE Nr: 2 *)
G0 X2534.700 Y 997.500
M3 M8
G0 Z   3.000 
G1 Z  -1.500
F400
G2 X2525.040 Y1025.430 I 156.647 J  69.814
G2 X2517.210 Y1057.780 I 376.932 J 108.355
G2 X2511.440 Y1093.570 I 497.151 J  98.510
G2 X2507.900 Y1131.710 I 593.345 J  74.306
G2 X2506.710 Y1171.050 I 647.318 J  39.269
G2 X2507.900 Y1210.390 I 648.508 J   0.071
G2 X2511.440 Y1248.530 I 596.885 J -36.166
G2 X2517.210 Y1284.320 I 502.921 J -62.720
G2 X2525.040 Y1316.670 I 384.762 J -76.005
G2 X2534.700 Y1344.590 I 263.746 J -75.622
G2 X2545.890 Y1367.250 I 158.947 J -64.398
G2 X2558.260 Y1383.940 I  82.392 J -48.137
G2 X2571.460 Y1394.160 I  36.429 J -33.416
G2 X2585.060 Y1397.600 I  13.801 J -25.958
G2 X2598.670 Y1394.160 I  -0.191 J -29.398
G2 X2611.860 Y1383.940 I -23.248 J -43.626
G2 X2624.230 Y1367.250 I -70.022 J -64.827
G2 X2635.420 Y1344.590 I-147.761 J -87.060
G2 X2645.080 Y1316.670 I-254.086 J-103.542
G2 X2652.910 Y1284.320 I-376.932 J-108.355
G2 X2658.680 Y1248.530 I-497.151 J -98.510
G2 X2662.220 Y1210.390 I-593.345 J -74.306
G2 X2663.410 Y1171.050 I-647.318 J -39.269
G2 X2662.220 Y1131.710 I-648.508 J  -0.071
G2 X2658.680 Y1093.570 I-596.885 J  36.166
G2 X2652.910 Y1057.780 I-502.921 J  62.720
G2 X2645.080 Y1025.430 I-384.762 J  76.005
G2 X2635.420 Y 997.500 I-263.762 J  75.590
G2 X2624.230 Y 974.850 I-158.937 J  64.432
G2 X2611.860 Y 958.170 I -82.376 J  48.164
G2 X2598.670 Y 947.940 I -36.457 J  33.387
G2 X2585.060 Y 944.500 I -13.801 J  25.958
G2 X2571.460 Y 947.940 I   0.201 J  29.398
G2 X2558.260 Y 958.170 I  23.247 J  43.627
G2 X2545.890 Y 974.850 I  70.006 J  64.844
G2 X2534.700 Y 997.500 I  79.202 J  53.218
F150
G1 Z  -3.000
F400
G2 X2525.040 Y1025.430 I 156.647 J  69.814
G2 X2517.210 Y1057.780 I 376.932 J 108.355
G2 X2511.440 Y1093.570 I 497.151 J  98.510
G2 X2507.900 Y1131.710 I 593.345 J  74.306
G2 X2506.710 Y1171.050 I 647.318 J  39.269
G2 X2507.900 Y1210.390 I 648.508 J   0.071
G2 X2511.440 Y1248.530 I 596.885 J -36.166
G2 X2517.210 Y1284.320 I 502.921 J -62.720
G2 X2525.040 Y1316.670 I 384.762 J -76.005
G2 X2534.700 Y1344.590 I 263.746 J -75.622
G2 X2545.890 Y1367.250 I 158.947 J -64.398
G2 X2558.260 Y1383.940 I  82.392 J -48.137
G2 X2571.460 Y1394.160 I  36.429 J -33.416
G2 X2585.060 Y1397.600 I  13.801 J -25.958
G2 X2598.670 Y1394.160 I  -0.191 J -29.398
G2 X2611.860 Y1383.940 I -23.248 J -43.626
G2 X2624.230 Y1367.250 I -70.022 J -64.827
G2 X2635.420 Y1344.590 I-147.761 J -87.060
G2 X2645.080 Y1316.670 I-254.086 J-103.542
G2 X2652.910 Y1284.320 I-376.932 J-108.355
G2 X2658.680 Y1248.530 I-497.151 J -98.510
G2 X2662.220 Y1210.390 I-593.345 J -74.306
G2 X2663.410 Y1171.050 I-647.318 J -39.269
G2 X2662.220 Y1131.710 I-648.508 J  -0.071
G2 X2658.680 Y1093.570 I-596.885 J  36.166
G2 X2652.910 Y1057.780 I-502.921 J  62.720
G2 X2645.080 Y1025.430 I-384.762 J  76.005
G2 X2635.420 Y 997.500 I-263.762 J  75.590
G2 X2624.230 Y 974.850 I-158.937 J  64.432
G2 X2611.860 Y 958.170 I -82.376 J  48.164
G2 X2598.670 Y 947.940 I -36.457 J  33.387
G2 X2585.060 Y 944.500 I -13.801 J  25.958
G2 X2571.460 Y 947.940 I   0.201 J  29.398
G2 X2558.260 Y 958.170 I  23.247 J  43.627
G2 X2545.890 Y 974.850 I  70.006 J  64.844
G2 X2534.700 Y 997.500 I  79.202 J  53.218
F150
G1 Z   3.000
G0 Z  15.000 
M9 M5

(*** LAYER: BORDER_D0_T132_RK1_A0_W0_EM1_RI1_ID0015 ***)

(* SHAPE Nr: 3 *)
G0 X  10.000 Y 159.100
M3 M8
G0 Z   3.000 
G1 Z  -1.500
F400
G1 X  71.490 Y 178.650
G1 X  71.490 Y 237.290
G1 X  10.000 Y 256.840
G1 X 378.910 Y 305.710
G1 X 501.880 Y 273.130
G1 X 501.880 Y 207.970
G1 X 501.880 Y 142.810
G1 X 378.910 Y 110.230
G1 X  10.000 Y 159.100
F150
G1 Z  -3.000
F400
G1 X  71.490 Y 178.650
G1 X  71.490 Y 237.290
G1 X  10.000 Y 256.840
G1 X 378.910 Y 305.710
G1 X 501.880 Y 273.130
G1 X 501.880 Y 207.970
G1 X 501.880 Y 142.810
G1 X 378.910 Y 110.230
G1 X  10.000 Y 159.100
F150
G1 Z   3.000
G0 Z  15.000 
M9 M5

(* SHAPE Nr: 4 *)
G0 X 516.580 Y 116.850
M3 M8
G0 Z   3.000 
G1 Z  -1.500
F400
G1 X 516.580 Y 182.010
G1 X 516.580 Y 247.170
G1 X 639.550 Y 279.750
G1 X1008.460 Y 230.880
G1 X 946.970 Y 211.330
G1 X 946.970 Y 152.690
G1 X1008.460 Y 133.140
G1 X 639.550 Y  84.270
G1 X 516.580 Y 116.850
F150
G1 Z  -3.000
F400
G1 X 516.580 Y 182.010
G1 X 516.580 Y 247.170
G1 X 639.550 Y 279.750
G1 X1008.460 Y 230.880
G1 X 946.970 Y 211.330
G1 X 946.970 Y 152.690
G1 X1008.460 Y 133.140
G1 X 639.550 Y  84.270
G1 X 516.580 Y 116.850
F150
G1 Z   3.000
G0 Z  15.000 
M9 M5

(* SHAPE Nr: 5 *)
G0 X 132.970 Y 287.990
M3 M8
G0 Z   3.000 
G1 Z  -1.500
F400
G1 X  10.000 Y 320.570
G1 X  10.000 Y 385.730
G1 X  10.000 Y 450.890
G1 X 132.970 Y 483.470
G1 X 501.880 Y 434.600
G1 X 440.390 Y 415.050
G1 X 440.390 Y 356.410
G1 X 501.880 Y 336.860
G1 X 132.970 Y 287.990
F150
G1 Z  -3.000
F400
G1 X  10.000 Y 320.570
G1 X  10.000 Y 385.730
G1 X  10.000 Y 450.890
G1 X 132.970 Y 483.470
G1 X 501.880 Y 434.600
G1 X 440.390 Y 415.050
G1 X 440.390 Y 356.410
G1 X 501.880 Y 336.860
G1 X 132.970 Y 287.990
F150
G1 Z   3.000
G0 Z  15.000 
M9 M5

(* SHAPE Nr: 6 *)
G0 X  10.000 Y 514.610
M3 M8
G0 Z   3.000 
G1 Z  -1.500
F400
G1 X  71.490 Y 534.160
G1 X  71.490 Y 592.800
G1 X  10.000 Y 612.350
G1 X 378.910 Y 661.220
G1 X 501.880 Y 628.640
G1 X 501.880 Y 563.480
G1 X 501.880 Y 498.320
G1 X 378.910 Y 465.740
G1 X  10.000 Y 514.610
F150
G1 Z  -3.000
F400
G1 X  71.490 Y 534.160
G1 X  71.490 Y 592.800
G1 X  10.000 Y 612.350
G1 X 378.910 Y 661.220
G1 X 501.880 Y 628.640
G1 X 501.880 Y 563.480
G1 X 501.880 Y 498.320
G1 X 378.910 Y 465.740
G1 X  10.000 Y 514.610
F150
G1 Z   3.000
G0 Z  15.000 
M9 M5

(* SHAPE Nr: 8 *)
G0 X 132.970 Y 643.510
M3 M8
G0 Z   3.000 
G1 Z  -1.500
F400
G1 X  10.000 Y 676.090
G1 X  10.000 Y 741.250
G1 X  10.000 Y 806.410
G1 X 132.970 Y 838.990
G1 X 501.880 Y 790.120
G1 X 440.390 Y 770.570
G1 X 440.390 Y 711.930
G1 X 501.880 Y 692.380
G1 X 132.970 Y 643.510
F150
G1 Z  -3.000
F400
G1 X  10.000 Y 676.090
G1 X  10.000 Y 741.250
G1 X  10.000 Y 806.410
G1 X 132.970 Y 838.990
G1 X 501.880 Y 790.120
G1 X 440.390 Y 770.570
G1 X 440.390 Y 711.930
G1 X 501.880 Y 692.380
G1 X 132.970 Y 643.510
F150
G1 Z   3.000
G0 Z  15.000 
M9 M5

(* SHAPE Nr: 9 *)
G0 X  10.000 Y 870.110
M3 M8
G0 Z   3.000 
G1 Z  -1.500
F400
G1 X  71.490 Y 889.660
G1 X  71.490 Y 948.300
G1 X  10.000 Y 967.850
G1 X 378.910 Y1016.720
G1 X 501.880 Y 984.140
G1 X 501.880 Y 918.980
G1 X 501.880 Y 853.820
G1 X 378.910 Y 821.240
G1 X  10.000 Y 870.110
F150
G1 Z  -3.000
F400
G1 X  71.490 Y 889.660
G1 X  71.490 Y 948.300
G1 X  10.000 Y 967.850
G1 X 378.910 Y1016.720
G1 X 501.880 Y 984.140
G1 X 501.880 Y 918.980
G1 X 501.880 Y 853.820
G1 X 378.910 Y 821.240
G1 X  10.000 Y 870.110
F150
G1 Z   3.000
G0 Z  15.000 
M9 M5

(* SHAPE Nr: 12 *)
G0 X 132.970 Y 999.020
M3 M8
G0 Z   3.000 
G1 Z  -1.500
F400
G1 X  10.000 Y1031.600
G1 X  10.000 Y1096.760
G1 X  10.000 Y1161.920
G1 X 132.970 Y1194.500
G1 X 501.880 Y1145.630
G1 X 440.390 Y1126.080
G1 X 440.390 Y1067.440
G1 X 501.880 Y1047.890
G1 X 132.970 Y 999.020
F150
G1 Z  -3.000
F400
G1 X  10.000 Y1031.600
G1 X  10.000 Y1096.760
G1 X  10.000 Y1161.920
G1 X 132.970 Y1194.500
G1 X 501.880 Y1145.630
G1 X 440.390 Y1126.080
G1 X 440.390 Y1067.440
G1 X 501.880 Y1047.890
G1 X 132.970 Y 999.020
F150
G1 Z   3.000
G0 Z  15.000 
M9 M5

(*** LAYER: BORDER_D0_T132_RK1_A0_W0_EM1_RI1_ID0011 ***)

(* SHAPE Nr: 7 *)
G0 X 518.860 Y 597.960
M3 M8
G0 Z   3.000 
G1 Z  -1.500
F400
G1 X 547.080 Y 646.830
G1 X 518.860 Y 695.700
G1 X 575.290 Y 695.700
G1 X 603.500 Y 744.570
G1 X 631.720 Y 695.700
G1 X 688.140 Y 695.700
G1 X 659.940 Y 646.830
G1 X 688.140 Y 597.960
G1 X 631.720 Y 597.960
G1 X 603.500 Y 549.090
G1 X 575.290 Y 597.960
G1 X 518.860 Y 597.960
F150
G1 Z  -3.000
F400
G1 X 547.080 Y 646.830
G1 X 518.860 Y 695.700
G1 X 575.290 Y 695.700
G1 X 603.500 Y 744.570
G1 X 631.720 Y 695.700
G1 X 688.140 Y 695.700
G1 X 659.940 Y 646.830
G1 X 688.140 Y 597.960
G1 X 631.720 Y 597.960
G1 X 603.500 Y 549.090
G1 X 575.290 Y 597.960
G1 X 518.860 Y 597.960
F150
G1 Z   3.000
G0 Z  15.000 
M9 M5

(* SHAPE Nr: 18 *)
G0 X1135.870 Y 876.120
M3 M8
G0 Z   3.000 
G1 Z  -1.500
F400
G1 X1164.090 Y 924.990
G1 X1135.870 Y 973.860
G1 X1192.300 Y 973.860
G1 X1220.510 Y1022.730
G1 X1248.730 Y 973.860
G1 X1305.150 Y 973.860
G1 X1276.950 Y 924.990
G1 X1305.150 Y 876.120
G1 X1248.730 Y 876.120
G1 X1220.510 Y 827.250
G1 X1192.300 Y 876.120
G1 X1135.870 Y 876.120
F150
G1 Z  -3.000
F400
G1 X1164.090 Y 924.990
G1 X1135.870 Y 973.860
G1 X1192.300 Y 973.860
G1 X1220.510 Y1022.730
G1 X1248.730 Y 973.860
G1 X1305.150 Y 973.860
G1 X1276.950 Y 924.990
G1 X1305.150 Y 876.120
G1 X1248.730 Y 876.120
G1 X1220.510 Y 827.250
G1 X1192.300 Y 876.120
G1 X1135.870 Y 876.120
F150
G1 Z   3.000
G0 Z  15.000 
M9 M5

(* SHAPE Nr: 21 *)
G0 X1876.840 Y1870.710
M3 M8
G0 Z   3.000 
G1 Z  -1.500
F400
G1 X1876.840 Y1927.140
G1 X1827.970 Y1955.350
G1 X1876.840 Y1983.570
G1 X1876.840 Y2040.000
G1 X1925.710 Y2011.790
G1 X1974.580 Y2040.000
G1 X1974.580 Y1983.570
G1 X2023.450 Y1955.350
G1 X1974.580 Y1927.140
G1 X1974.580 Y1870.710
G1 X1925.710 Y1898.930
G1 X1876.840 Y1870.710
F150
G1 Z  -3.000
F400
G1 X1876.840 Y1927.140
G1 X1827.970 Y1955.350
G1 X1876.840 Y1983.570
G1 X1876.840 Y2040.000
G1 X1925.710 Y2011.790
G1 X1974.580 Y2040.000
G1 X1974.580 Y1983.570
G1 X2023.450 Y1955.350
G1 X1974.580 Y1927.140
G1 X1974.580 Y1870.710
G1 X1925.710 Y1898.930
G1 X1876.840 Y1870.710
F150
G1 Z   3.000
G0 Z  15.000 
M9 M5

(* SHAPE Nr: 22 *)
G0 X2040.520 Y1835.350
M3 M8
G0 Z   3.000 
G1 Z  -1.500
F400
G1 X2040.520 Y1891.780
G1 X1991.650 Y1919.990
G1 X2040.520 Y1948.210
G1 X2040.520 Y2004.640
G1 X2089.390 Y1976.430
G1 X2138.260 Y2004.640
G1 X2138.260 Y1948.210
G1 X2187.130 Y1919.990
G1 X2138.260 Y1891.780
G1 X2138.260 Y1835.350
G1 X2089.390 Y1863.570
G1 X2040.520 Y1835.350
F150
G1 Z  -3.000
F400
G1 X2040.520 Y1891.780
G1 X1991.650 Y1919.990
G1 X2040.520 Y1948.210
G1 X2040.520 Y2004.640
G1 X2089.390 Y1976.430
G1 X2138.260 Y2004.640
G1 X2138.260 Y1948.210
G1 X2187.130 Y1919.990
G1 X2138.260 Y1891.780
G1 X2138.260 Y1835.350
G1 X2089.390 Y1863.570
G1 X2040.520 Y1835.350
F150
G1 Z   3.000
G0 Z  15.000 
M9 M5

(* SHAPE Nr: 28 *)
G0 X2489.600 Y 553.570
M3 M8
G0 Z   3.000 
G1 Z  -1.500
F400
G1 X2517.820 Y 602.440
G1 X2489.600 Y 651.310
G1 X2546.030 Y 651.310
G1 X2574.240 Y 700.180
G1 X2602.460 Y 651.310
G1 X2658.880 Y 651.310
G1 X2630.680 Y 602.440
G1 X2658.880 Y 553.570
G1 X2602.460 Y 553.570
G1 X2574.240 Y 504.700
G1 X2546.030 Y 553.570
G1 X2489.600 Y 553.570
F150
G1 Z  -3.000
F400
G1 X2517.820 Y 602.440
G1 X2489.600 Y 651.310
G1 X2546.030 Y 651.310
G1 X2574.240 Y 700.180
G1 X2602.460 Y 651.310
G1 X2658.880 Y 651.310
G1 X2630.680 Y 602.440
G1 X2658.880 Y 553.570
G1 X2602.460 Y 553.570
G1 X2574.240 Y 504.700
G1 X2546.030 Y 553.570
G1 X2489.600 Y 553.570
F150
G1 Z   3.000
G0 Z  15.000 
M9 M5

(* SHAPE Nr: 29 *)
G0 X2489.600 Y 763.800
M3 M8
G0 Z   3.000 
G1 Z  -1.500
F400
G1 X2517.820 Y 812.670
G1 X2489.600 Y 861.540
G1 X2546.030 Y 861.540
G1 X2574.240 Y 910.410
G1 X2602.460 Y 861.540
G1 X2658.880 Y 861.540
G1 X2630.680 Y 812.670
G1 X2658.880 Y 763.800
G1 X2602.460 Y 763.800
G1 X2574.240 Y 714.930
G1 X2546.030 Y 763.800
G1 X2489.600 Y 763.800
F150
G1 Z  -3.000
F400
G1 X2517.820 Y 812.670
G1 X2489.600 Y 861.540
G1 X2546.030 Y 861.540
G1 X2574.240 Y 910.410
G1 X2602.460 Y 861.540
G1 X2658.880 Y 861.540
G1 X2630.680 Y 812.670
G1 X2658.880 Y 763.800
G1 X2602.460 Y 763.800
G1 X2574.240 Y 714.930
G1 X2546.030 Y 763.800
G1 X2489.600 Y 763.800
F150
G1 Z   3.000
G0 Z  15.000 
M9 M5

(*** LAYER: BORDER_D0_T132_RK1_A0_W0_EM1_RI1_ID0003 ***)

(* SHAPE Nr: 10 *)
G0 X 584.370 Y 759.260
M3 M8
G0 Z   3.000 
G1 Z  -1.500
F400
G1 X 535.500 Y 794.770
G1 X 516.830 Y 852.220
G1 X 535.500 Y 909.670
G1 X 584.370 Y 945.170
G1 X 644.770 Y 945.170
G1 X 693.640 Y 909.670
G1 X 712.310 Y 852.220
G1 X 693.640 Y 794.770
G1 X 644.770 Y 759.260
G1 X 584.370 Y 759.260
F150
G1 Z  -3.000
F400
G1 X 535.500 Y 794.770
G1 X 516.830 Y 852.220
G1 X 535.500 Y 909.670
G1 X 584.370 Y 945.170
G1 X 644.770 Y 945.170
G1 X 693.640 Y 909.670
G1 X 712.310 Y 852.220
G1 X 693.640 Y 794.770
G1 X 644.770 Y 759.260
G1 X 584.370 Y 759.260
F150
G1 Z   3.000
G0 Z  15.000 
M9 M5

(* SHAPE Nr: 11 *)
G0 X 583.250 Y1063.670
M3 M8
G0 Z   3.000 
G1 Z  -1.500
F400
G1 X 534.380 Y1099.180
G1 X 515.710 Y1156.630
G1 X 534.380 Y1214.080
G1 X 583.250 Y1249.580
G1 X 643.650 Y1249.580
G1 X 692.520 Y1214.080
G1 X 711.190 Y1156.630
G1 X 692.520 Y1099.180
G1 X 643.650 Y1063.670
G1 X 583.250 Y1063.670
F150
G1 Z  -3.000
F400
G1 X 534.380 Y1099.180
G1 X 515.710 Y1156.630
G1 X 534.380 Y1214.080
G1 X 583.250 Y1249.580
G1 X 643.650 Y1249.580
G1 X 692.520 Y1214.080
G1 X 711.190 Y1156.630
G1 X 692.520 Y1099.180
G1 X 643.650 Y1063.670
G1 X 583.250 Y1063.670
F150
G1 Z   3.000
G0 Z  15.000 
M9 M5

(* SHAPE Nr: 16 *)
G0 X1091.500 Y1240.730
M3 M8
G0 Z   3.000 
G1 Z  -1.500
F400
G1 X1055.990 Y1289.600
G1 X1055.990 Y1350.000
G1 X1091.500 Y1398.870
G1 X1148.950 Y1417.540
G1 X1206.410 Y1398.870
G1 X1241.910 Y1350.000
G1 X1241.910 Y1289.600
G1 X1206.410 Y1240.730
G1 X1148.950 Y1222.060
G1 X1091.500 Y1240.730
F150
G1 Z  -3.000
F400
G1 X1055.990 Y1289.600
G1 X1055.990 Y1350.000
G1 X1091.500 Y1398.870
G1 X1148.950 Y1417.540
G1 X1206.410 Y1398.870
G1 X1241.910 Y1350.000
G1 X1241.910 Y1289.600
G1 X1206.410 Y1240.730
G1 X1148.950 Y1222.060
G1 X1091.500 Y1240.730
F150
G1 Z   3.000
G0 Z  15.000 
M9 M5

(* SHAPE Nr: 17 *)
G0 X1091.500 Y1029.730
M3 M8
G0 Z   3.000 
G1 Z  -1.500
F400
G1 X1055.990 Y1078.600
G1 X1055.990 Y1139.000
G1 X1091.500 Y1187.870
G1 X1148.950 Y1206.540
G1 X1206.410 Y1187.870
G1 X1241.910 Y1139.000
G1 X1241.910 Y1078.600
G1 X1206.410 Y1029.730
G1 X1148.950 Y1011.060
G1 X1091.500 Y1029.730
F150
G1 Z  -3.000
F400
G1 X1055.990 Y1078.600
G1 X1055.990 Y1139.000
G1 X1091.500 Y1187.870
G1 X1148.950 Y1206.540
G1 X1206.410 Y1187.870
G1 X1241.910 Y1139.000
G1 X1241.910 Y1078.600
G1 X1206.410 Y1029.730
G1 X1148.950 Y1011.060
G1 X1091.500 Y1029.730
F150
G1 Z   3.000
G0 Z  15.000 
M9 M5

(* SHAPE Nr: 23 *)
G0 X2501.370 Y1889.600
M3 M8
G0 Z   3.000 
G1 Z  -1.500
F400
G1 X2482.700 Y1947.050
G1 X2501.370 Y2004.500
G1 X2550.240 Y2040.000
G1 X2610.640 Y2040.000
G1 X2659.510 Y2004.500
G1 X2678.180 Y1947.050
G1 X2659.510 Y1889.600
G1 X2610.640 Y1854.090
G1 X2550.240 Y1854.090
G1 X2501.370 Y1889.600
F150
G1 Z  -3.000
F400
G1 X2482.700 Y1947.050
G1 X2501.370 Y2004.500
G1 X2550.240 Y2040.000
G1 X2610.640 Y2040.000
G1 X2659.510 Y2004.500
G1 X2678.180 Y1947.050
G1 X2659.510 Y1889.600
G1 X2610.640 Y1854.090
G1 X2550.240 Y1854.090
G1 X2501.370 Y1889.600
F150
G1 Z   3.000
G0 Z  15.000 
M9 M5

(* SHAPE Nr: 24 *)
G0 X2487.310 Y1710.690
M3 M8
G0 Z   3.000 
G1 Z  -1.500
F400
G1 X2487.310 Y1771.090
G1 X2522.820 Y1819.960
G1 X2580.270 Y1838.630
G1 X2637.730 Y1819.960
G1 X2673.230 Y1771.090
G1 X2673.230 Y1710.690
G1 X2637.730 Y1661.820
G1 X2580.270 Y1643.150
G1 X2522.820 Y1661.820
G1 X2487.310 Y1710.690
F150
G1 Z  -3.000
F400
G1 X2487.310 Y1771.090
G1 X2522.820 Y1819.960
G1 X2580.270 Y1838.630
G1 X2637.730 Y1819.960
G1 X2673.230 Y1771.090
G1 X2673.230 Y1710.690
G1 X2637.730 Y1661.820
G1 X2580.270 Y1643.150
G1 X2522.820 Y1661.820
G1 X2487.310 Y1710.690
F150
G1 Z   3.000
G0 Z  15.000 
M9 M5

(* SHAPE Nr: 25 *)
G0 X2487.310 Y1499.750
M3 M8
G0 Z   3.000 
G1 Z  -1.500
F400
G1 X2487.310 Y1560.150
G1 X2522.820 Y1609.020
G1 X2580.270 Y1627.690
G1 X2637.730 Y1609.020
G1 X2673.230 Y1560.150
G1 X2673.230 Y1499.750
G1 X2637.730 Y1450.880
G1 X2580.270 Y1432.210
G1 X2522.820 Y1450.880
G1 X2487.310 Y1499.750
F150
G1 Z  -3.000
F400
G1 X2487.310 Y1560.150
G1 X2522.820 Y1609.020
G1 X2580.270 Y1627.690
G1 X2637.730 Y1609.020
G1 X2673.230 Y1560.150
G1 X2673.230 Y1499.750
G1 X2637.730 Y1450.880
G1 X2580.270 Y1432.210
G1 X2522.820 Y1450.880
G1 X2487.310 Y1499.750
F150
G1 Z   3.000
G0 Z  15.000 
M9 M5

(* SHAPE Nr: 26 *)
G0 X2475.070 Y 336.680
M3 M8
G0 Z   3.000 
G1 Z  -1.500
F400
G1 X2493.740 Y 394.130
G1 X2542.610 Y 429.630
G1 X2603.010 Y 429.630
G1 X2651.880 Y 394.130
G1 X2670.550 Y 336.680
G1 X2651.880 Y 279.230
G1 X2603.010 Y 243.720
G1 X2542.610 Y 243.720
G1 X2493.740 Y 279.230
G1 X2475.070 Y 336.680
F150
G1 Z  -3.000
F400
G1 X2493.740 Y 394.130
G1 X2542.610 Y 429.630
G1 X2603.010 Y 429.630
G1 X2651.880 Y 394.130
G1 X2670.550 Y 336.680
G1 X2651.880 Y 279.230
G1 X2603.010 Y 243.720
G1 X2542.610 Y 243.720
G1 X2493.740 Y 279.230
G1 X2475.070 Y 336.680
F150
G1 Z   3.000
G0 Z  15.000 
M9 M5

(* SHAPE Nr: 27 *)
G0 X2429.180 Y 136.070
M3 M8
G0 Z   3.000 
G1 Z  -1.500
F400
G1 X2447.850 Y 193.520
G1 X2496.720 Y 229.020
G1 X2557.120 Y 229.020
G1 X2605.990 Y 193.520
G1 X2624.660 Y 136.070
G1 X2605.990 Y  78.620
G1 X2557.120 Y  43.110
G1 X2496.720 Y  43.110
G1 X2447.850 Y  78.620
G1 X2429.180 Y 136.070
F150
G1 Z  -3.000
F400
G1 X2447.850 Y 193.520
G1 X2496.720 Y 229.020
G1 X2557.120 Y 229.020
G1 X2605.990 Y 193.520
G1 X2624.660 Y 136.070
G1 X2605.990 Y  78.620
G1 X2557.120 Y  43.110
G1 X2496.720 Y  43.110
G1 X2447.850 Y  78.620
G1 X2429.180 Y 136.070
F150
G1 Z   3.000
G0 Z  15.000 
M9 M5

(*** LAYER: BORDER_D0_T132_RK1_A0_W0_EM1_RI1_ID0005 ***)

(* SHAPE Nr: 13 *)
G0 X 422.850 Y1171.800
M3 M8
G0 Z   3.000 
G1 Z  -1.500
F400
G1 X 325.390 Y1305.940
G1 X 167.690 Y1254.710
G1 X 167.690 Y1420.520
G1 X   9.990 Y1471.760
G1 X 107.450 Y1605.890
G1 X   9.990 Y1740.030
G1 X 167.690 Y1791.270
G1 X 167.690 Y1957.090
G1 X 325.390 Y1905.860
G1 X 422.850 Y2039.990
G1 X 520.320 Y1905.860
G1 X 678.010 Y1957.090
G1 X 678.010 Y1791.270
G1 X 835.710 Y1740.030
G1 X 738.240 Y1605.890
G1 X 835.710 Y1471.760
G1 X 678.010 Y1420.520
G1 X 678.010 Y1254.710
G1 X 520.320 Y1305.940
G1 X 422.850 Y1171.800
F150
G1 Z  -3.000
F400
G1 X 325.390 Y1305.940
G1 X 167.690 Y1254.710
G1 X 167.690 Y1420.520
G1 X   9.990 Y1471.760
G1 X 107.450 Y1605.890
G1 X   9.990 Y1740.030
G1 X 167.690 Y1791.270
G1 X 167.690 Y1957.090
G1 X 325.390 Y1905.860
G1 X 422.850 Y2039.990
G1 X 520.320 Y1905.860
G1 X 678.010 Y1957.090
G1 X 678.010 Y1791.270
G1 X 835.710 Y1740.030
G1 X 738.240 Y1605.890
G1 X 835.710 Y1471.760
G1 X 678.010 Y1420.520
G1 X 678.010 Y1254.710
G1 X 520.320 Y1305.940
G1 X 422.850 Y1171.800
F150
G1 Z   3.000
G0 Z  15.000 
M9 M5

(*** LAYER: BORDER_D0_T132_RK1_A0_W0_EM1_RI1_ID0029 ***)

(* SHAPE Nr: 14 *)
G0 X 597.760 Y 395.490
M3 M8
G0 Z   3.000 
G1 Z  -1.500
F400
G3 X 852.050 Y1009.400 I-613.911 J 613.911
G1 X 852.050 Y2040.000
G1 X 938.870 Y2040.000
G1 X 938.870 Y1009.400
G2 X 659.150 Y 334.100 I-867.444 J -36.273
G1 X 597.760 Y 395.490
F150
G1 Z  -3.000
F400
G3 X 852.050 Y1009.400 I-613.911 J 613.911
G1 X 852.050 Y2040.000
G1 X 938.870 Y2040.000
G1 X 938.870 Y1009.400
G2 X 659.150 Y 334.100 I-867.444 J -36.273
G1 X 597.760 Y 395.490
F150
G1 Z   3.000
G0 Z  15.000 
M9 M5

(* SHAPE Nr: 15 *)
G0 X 700.100 Y 340.380
M3 M8
G0 Z   3.000 
G1 Z  -1.500
F400
G3 X 954.390 Y 954.290 I-613.911 J 613.911
G1 X 954.390 Y1984.890
G1 X1041.210 Y1984.890
G1 X1041.210 Y 954.290
G2 X 761.490 Y 278.990 I-867.444 J -36.273
G1 X 700.100 Y 340.380
F150
G1 Z  -3.000
F400
G3 X 954.390 Y 954.290 I-613.911 J 613.911
G1 X 954.390 Y1984.890
G1 X1041.210 Y1984.890
G1 X1041.210 Y 954.290
G2 X 761.490 Y 278.990 I-867.444 J -36.273
G1 X 700.100 Y 340.380
F150
G1 Z   3.000
G0 Z  15.000 
M9 M5

(*** LAYER: BORDER_D0_T132_RK1_A0_W0_EM1_RI1_ID0002 ***)

(* SHAPE Nr: 19 *)
G0 X1230.480 Y 518.090
M3 M8
G0 Z   3.000 
G1 Z  -1.500
F400
G1 X1439.920 Y 652.230
G1 X1230.480 Y 786.360
G1 X1478.770 Y 771.790
G1 X1388.180 Y1003.420
G1 X1580.480 Y 845.690
G1 X1643.340 Y1086.330
G1 X1706.190 Y 845.690
G1 X1898.500 Y1003.420
G1 X1807.900 Y 771.790
G1 X2056.200 Y 786.360
G1 X1846.760 Y 652.230
G1 X2056.200 Y 518.090
G1 X1807.900 Y 532.670
G1 X1898.500 Y 301.040
G1 X1706.190 Y 458.770
G1 X1643.340 Y 218.130
G1 X1580.480 Y 458.770
G1 X1388.180 Y 301.040
G1 X1478.770 Y 532.670
G1 X1230.480 Y 518.090
F150
G1 Z  -3.000
F400
G1 X1439.920 Y 652.230
G1 X1230.480 Y 786.360
G1 X1478.770 Y 771.790
G1 X1388.180 Y1003.420
G1 X1580.480 Y 845.690
G1 X1643.340 Y1086.330
G1 X1706.190 Y 845.690
G1 X1898.500 Y1003.420
G1 X1807.900 Y 771.790
G1 X2056.200 Y 786.360
G1 X1846.760 Y 652.230
G1 X2056.200 Y 518.090
G1 X1807.900 Y 532.670
G1 X1898.500 Y 301.040
G1 X1706.190 Y 458.770
G1 X1643.340 Y 218.130
G1 X1580.480 Y 458.770
G1 X1388.180 Y 301.040
G1 X1478.770 Y 532.670
G1 X1230.480 Y 518.090
F150
G1 Z   3.000
G0 Z  15.000 
M9 M5

(*** LAYER: BORDER_D0_T132_RK1_A0_W0_EM1_RI1_ID0004 ***)

(* SHAPE Nr: 20 *)
G0 X1287.790 Y1258.860
M3 M8
G0 Z   3.000 
G1 Z  -1.500
F400
G1 X1204.880 Y1514.010
G1 X1287.790 Y1769.170
G1 X1504.840 Y1926.870
G1 X1773.120 Y1926.870
G1 X1990.170 Y1769.170
G1 X2073.080 Y1514.010
G1 X1990.170 Y1258.860
G1 X1773.120 Y1101.160
G1 X1504.840 Y1101.160
G1 X1287.790 Y1258.860
F150
G1 Z  -3.000
F400
G1 X1204.880 Y1514.010
G1 X1287.790 Y1769.170
G1 X1504.840 Y1926.870
G1 X1773.120 Y1926.870
G1 X1990.170 Y1769.170
G1 X2073.080 Y1514.010
G1 X1990.170 Y1258.860
G1 X1773.120 Y1101.160
G1 X1504.840 Y1101.160
G1 X1287.790 Y1258.860
F150
G1 Z   3.000
G0 Z  15.000 
M9 M5

(*** LAYER: BORDER_D0_T132_RK1_A0_W0_EM1_RI1_ID0021 ***)

(* SHAPE Nr: 30 *)
G0 X1120.290 Y1562.950
M3 M8
G0 Z   3.000 
G1 Z  -1.500
F400
G2 X1104.850 Y1581.070 I  72.417 J  77.344
G2 X1090.890 Y1605.660 I 146.917 J  99.664
G2 X1078.850 Y1635.970 I 246.893 J 115.619
G2 X1069.080 Y1671.090 I 361.196 J 119.400
G2 X1061.870 Y1709.940 I 472.487 J 107.781
G2 X1057.470 Y1751.350 I 561.472 J  80.598
G2 X1055.980 Y1794.060 I 611.416 J  42.711
G2 X1057.470 Y1836.770 I 612.941 J  -0.002
G2 X1061.870 Y1878.180 I 565.872 J -39.188
G2 X1069.080 Y1917.030 I 479.697 J -68.931
G2 X1078.850 Y1952.150 I 370.966 J -84.280
G2 X1090.890 Y1982.460 I 258.933 J -85.309
G2 X1104.850 Y2007.050 I 160.877 J -75.074
G2 X1120.290 Y2025.170 I  87.858 J -59.225
G2 X1136.750 Y2036.260 I  42.094 J -44.717
G2 X1153.720 Y2040.000 I  17.159 J -37.487
G2 X1170.690 Y2036.260 I  -0.189 J -41.227
G2 X1187.150 Y2025.170 I -25.634 J -55.807
G2 X1202.590 Y2007.050 I -72.418 J -77.345
G2 X1216.550 Y1982.460 I-146.913 J -99.662
G2 X1228.590 Y1952.150 I-246.893 J-115.619
G2 X1238.360 Y1917.030 I-361.196 J-119.400
G2 X1245.570 Y1878.180 I-472.487 J-107.781
G2 X1249.970 Y1836.770 I-561.472 J -80.598
G2 X1251.460 Y1794.060 I-611.416 J -42.711
G2 X1249.970 Y1751.350 I-612.906 J   0.001
G2 X1245.570 Y1709.940 I-565.872 J  39.188
G2 X1238.360 Y1671.090 I-479.697 J  68.931
G2 X1228.590 Y1635.970 I-370.966 J  84.280
G2 X1216.550 Y1605.660 I-258.933 J  85.309
G2 X1202.590 Y1581.070 I-160.873 J  75.072
G2 X1187.150 Y1562.950 I -87.858 J  59.225
G2 X1170.690 Y1551.860 I -42.094 J  44.717
G2 X1153.720 Y1548.120 I -17.159 J  37.487
G2 X1136.750 Y1551.860 I   0.189 J  41.227
G2 X1120.290 Y1562.950 I  25.634 J  55.807
F150
G1 Z  -3.000
F400
G2 X1104.850 Y1581.070 I  72.417 J  77.344
G2 X1090.890 Y1605.660 I 146.917 J  99.664
G2 X1078.850 Y1635.970 I 246.893 J 115.619
G2 X1069.080 Y1671.090 I 361.196 J 119.400
G2 X1061.870 Y1709.940 I 472.487 J 107.781
G2 X1057.470 Y1751.350 I 561.472 J  80.598
G2 X1055.980 Y1794.060 I 611.416 J  42.711
G2 X1057.470 Y1836.770 I 612.941 J  -0.002
G2 X1061.870 Y1878.180 I 565.872 J -39.188
G2 X1069.080 Y1917.030 I 479.697 J -68.931
G2 X1078.850 Y1952.150 I 370.966 J -84.280
G2 X1090.890 Y1982.460 I 258.933 J -85.309
G2 X1104.850 Y2007.050 I 160.877 J -75.074
G2 X1120.290 Y2025.170 I  87.858 J -59.225
G2 X1136.750 Y2036.260 I  42.094 J -44.717
G2 X1153.720 Y2040.000 I  17.159 J -37.487
G2 X1170.690 Y2036.260 I  -0.189 J -41.227
G2 X1187.150 Y2025.170 I -25.634 J -55.807
G2 X1202.590 Y2007.050 I -72.418 J -77.345
G2 X1216.550 Y1982.460 I-146.913 J -99.662
G2 X1228.590 Y1952.150 I-246.893 J-115.619
G2 X1238.360 Y1917.030 I-361.196 J-119.400
G2 X1245.570 Y1878.180 I-472.487 J-107.781
G2 X1249.970 Y1836.770 I-561.472 J -80.598
G2 X1251.460 Y1794.060 I-611.416 J -42.711
G2 X1249.970 Y1751.350 I-612.906 J   0.001
G2 X1245.570 Y1709.940 I-565.872 J  39.188
G2 X1238.360 Y1671.090 I-479.697 J  68.931
G2 X1228.590 Y1635.970 I-370.966 J  84.280
G2 X1216.550 Y1605.660 I-258.933 J  85.309
G2 X1202.590 Y1581.070 I-160.873 J  75.072
G2 X1187.150 Y1562.950 I -87.858 J  59.225
G2 X1170.690 Y1551.860 I -42.094 J  44.717
G2 X1153.720 Y1548.120 I -17.159 J  37.487
G2 X1136.750 Y1551.860 I   0.189 J  41.227
G2 X1120.290 Y1562.950 I  25.634 J  55.807
F150
G1 Z   3.000
G0 Z  15.000 
M9 M5

(* SHAPE Nr: 31 *)
G0 X1057.510 Y 414.430
M3 M8
G0 Z   3.000 
G1 Z  -1.500
F400
G2 X1045.470 Y 444.740 I 246.893 J 115.619
G2 X1035.700 Y 479.860 I 361.196 J 119.400
G2 X1028.490 Y 518.710 I 472.487 J 107.781
G2 X1024.090 Y 560.120 I 561.472 J  80.598
G2 X1022.600 Y 602.830 I 611.416 J  42.711
G2 X1024.090 Y 645.540 I 612.906 J  -0.001
G2 X1028.490 Y 686.950 I 565.872 J -39.188
G2 X1035.700 Y 725.800 I 479.697 J -68.931
G2 X1045.470 Y 760.920 I 370.966 J -84.280
G2 X1057.510 Y 791.230 I 258.933 J -85.309
G2 X1071.470 Y 815.820 I 160.877 J -75.074
G2 X1086.910 Y 833.940 I  87.858 J -59.225
G2 X1103.370 Y 845.030 I  42.094 J -44.717
G2 X1120.340 Y 848.770 I  17.159 J -37.487
G2 X1137.310 Y 845.030 I  -0.189 J -41.227
G2 X1153.770 Y 833.940 I -25.634 J -55.807
G2 X1169.210 Y 815.820 I -72.418 J -77.345
G2 X1183.170 Y 791.230 I-146.917 J -99.664
G2 X1195.210 Y 760.920 I-246.893 J-115.619
G2 X1204.980 Y 725.800 I-361.196 J-119.400
G2 X1212.190 Y 686.950 I-472.487 J-107.781
G2 X1216.590 Y 645.540 I-561.472 J -80.598
G2 X1218.080 Y 602.830 I-611.416 J -42.711
G2 X1216.590 Y 560.120 I-612.906 J   0.001
G2 X1212.190 Y 518.710 I-565.872 J  39.188
G2 X1204.980 Y 479.860 I-479.697 J  68.931
G2 X1195.210 Y 444.740 I-370.966 J  84.280
G2 X1183.170 Y 414.430 I-258.933 J  85.309
G2 X1169.210 Y 389.840 I-160.877 J  75.074
G2 X1153.770 Y 371.720 I -87.858 J  59.225
G2 X1137.310 Y 360.630 I -42.094 J  44.717
G2 X1120.340 Y 356.890 I -17.159 J  37.487
G2 X1103.370 Y 360.630 I   0.189 J  41.227
G2 X1086.910 Y 371.720 I  25.634 J  55.807
G2 X1071.470 Y 389.840 I  72.418 J  77.345
G2 X1057.510 Y 414.430 I 146.917 J  99.664
F150
G1 Z  -3.000
F400
G2 X1045.470 Y 444.740 I 246.893 J 115.619
G2 X1035.700 Y 479.860 I 361.196 J 119.400
G2 X1028.490 Y 518.710 I 472.487 J 107.781
G2 X1024.090 Y 560.120 I 561.472 J  80.598
G2 X1022.600 Y 602.830 I 611.416 J  42.711
G2 X1024.090 Y 645.540 I 612.906 J  -0.001
G2 X1028.490 Y 686.950 I 565.872 J -39.188
G2 X1035.700 Y 725.800 I 479.697 J -68.931
G2 X1045.470 Y 760.920 I 370.966 J -84.280
G2 X1057.510 Y 791.230 I 258.933 J -85.309
G2 X1071.470 Y 815.820 I 160.877 J -75.074
G2 X1086.910 Y 833.940 I  87.858 J -59.225
G2 X1103.370 Y 845.030 I  42.094 J -44.717
G2 X1120.340 Y 848.770 I  17.159 J -37.487
G2 X1137.310 Y 845.030 I  -0.189 J -41.227
G2 X1153.770 Y 833.940 I -25.634 J -55.807
G2 X1169.210 Y 815.820 I -72.418 J -77.345
G2 X1183.170 Y 791.230 I-146.917 J -99.664
G2 X1195.210 Y 760.920 I-246.893 J-115.619
G2 X1204.980 Y 725.800 I-361.196 J-119.400
G2 X1212.190 Y 686.950 I-472.487 J-107.781
G2 X1216.590 Y 645.540 I-561.472 J -80.598
G2 X1218.080 Y 602.830 I-611.416 J -42.711
G2 X1216.590 Y 560.120 I-612.906 J   0.001
G2 X1212.190 Y 518.710 I-565.872 J  39.188
G2 X1204.980 Y 479.860 I-479.697 J  68.931
G2 X1195.210 Y 444.740 I-370.966 J  84.280
G2 X1183.170 Y 414.430 I-258.933 J  85.309
G2 X1169.210 Y 389.840 I-160.877 J  75.074
G2 X1153.770 Y 371.720 I -87.858 J  59.225
G2 X1137.310 Y 360.630 I -42.094 J  44.717
G2 X1120.340 Y 356.890 I -17.159 J  37.487
G2 X1103.370 Y 360.630 I   0.189 J  41.227
G2 X1086.910 Y 371.720 I  25.634 J  55.807
G2 X1071.470 Y 389.840 I  72.418 J  77.345
G2 X1057.510 Y 414.430 I 146.917 J  99.664
F150
G1 Z   3.000
G0 Z  15.000 
M9 M5

(* SHAPE Nr: 40 *)
G0 X2510.190 Y1012.960
M3 M8
G0 Z   3.000 
G1 Z  -1.500
F400
G2 X2500.420 Y1048.080 I 361.196 J 119.400
G2 X2493.210 Y1086.930 I 472.487 J 107.781
G2 X2488.810 Y1128.340 I 561.472 J  80.598
G2 X2487.320 Y1171.050 I 611.416 J  42.711
G2 X2488.810 Y1213.760 I 612.941 J  -0.002
G2 X2493.210 Y1255.170 I 565.872 J -39.188
G2 X2500.420 Y1294.020 I 479.697 J -68.931
G2 X2510.190 Y1329.140 I 370.966 J -84.280
G2 X2522.230 Y1359.450 I 258.933 J -85.309
G2 X2536.190 Y1384.040 I 160.873 J -75.072
G2 X2551.630 Y1402.160 I  87.858 J -59.225
G2 X2568.090 Y1413.250 I  42.094 J -44.717
G2 X2585.060 Y1416.990 I  17.159 J -37.487
G2 X2602.030 Y1413.250 I  -0.189 J -41.227
G2 X2618.490 Y1402.160 I -25.634 J -55.807
G2 X2633.930 Y1384.040 I -72.418 J -77.345
G2 X2647.890 Y1359.450 I-146.917 J -99.664
G2 X2659.930 Y1329.140 I-246.893 J-115.619
G2 X2669.700 Y1294.020 I-361.196 J-119.400
G2 X2676.910 Y1255.170 I-472.487 J-107.781
G2 X2681.310 Y1213.760 I-561.472 J -80.598
G2 X2682.800 Y1171.050 I-611.416 J -42.711
G2 X2681.310 Y1128.340 I-612.906 J   0.001
G2 X2676.910 Y1086.930 I-565.872 J  39.188
G2 X2669.700 Y1048.080 I-479.697 J  68.931
G2 X2659.930 Y1012.960 I-370.966 J  84.280
G2 X2647.890 Y 982.650 I-258.933 J  85.309
G2 X2633.930 Y 958.060 I-160.877 J  75.074
G2 X2618.490 Y 939.940 I -87.857 J  59.224
G2 X2602.030 Y 928.850 I -42.094 J  44.717
G2 X2585.060 Y 925.110 I -17.159 J  37.487
G2 X2568.090 Y 928.850 I   0.189 J  41.227
G2 X2551.630 Y 939.940 I  25.634 J  55.807
G2 X2536.190 Y 958.060 I  72.418 J  77.345
G2 X2522.230 Y 982.650 I 146.913 J  99.662
G2 X2510.190 Y1012.960 I 246.893 J 115.619
F150
G1 Z  -3.000
F400
G2 X2500.420 Y1048.080 I 361.196 J 119.400
G2 X2493.210 Y1086.930 I 472.487 J 107.781
G2 X2488.810 Y1128.340 I 561.472 J  80.598
G2 X2487.320 Y1171.050 I 611.416 J  42.711
G2 X2488.810 Y1213.760 I 612.941 J  -0.002
G2 X2493.210 Y1255.170 I 565.872 J -39.188
G2 X2500.420 Y1294.020 I 479.697 J -68.931
G2 X2510.190 Y1329.140 I 370.966 J -84.280
G2 X2522.230 Y1359.450 I 258.933 J -85.309
G2 X2536.190 Y1384.040 I 160.873 J -75.072
G2 X2551.630 Y1402.160 I  87.858 J -59.225
G2 X2568.090 Y1413.250 I  42.094 J -44.717
G2 X2585.060 Y1416.990 I  17.159 J -37.487
G2 X2602.030 Y1413.250 I  -0.189 J -41.227
G2 X2618.490 Y1402.160 I -25.634 J -55.807
G2 X2633.930 Y1384.040 I -72.418 J -77.345
G2 X2647.890 Y1359.450 I-146.917 J -99.664
G2 X2659.930 Y1329.140 I-246.893 J-115.619
G2 X2669.700 Y1294.020 I-361.196 J-119.400
G2 X2676.910 Y1255.170 I-472.487 J-107.781
G2 X2681.310 Y1213.760 I-561.472 J -80.598
G2 X2682.800 Y1171.050 I-611.416 J -42.711
G2 X2681.310 Y1128.340 I-612.906 J   0.001
G2 X2676.910 Y1086.930 I-565.872 J  39.188
G2 X2669.700 Y1048.080 I-479.697 J  68.931
G2 X2659.930 Y1012.960 I-370.966 J  84.280
G2 X2647.890 Y 982.650 I-258.933 J  85.309
G2 X2633.930 Y 958.060 I-160.877 J  75.074
G2 X2618.490 Y 939.940 I -87.857 J  59.224
G2 X2602.030 Y 928.850 I -42.094 J  44.717
G2 X2585.060 Y 925.110 I -17.159 J  37.487
G2 X2568.090 Y 928.850 I   0.189 J  41.227
G2 X2551.630 Y 939.940 I  25.634 J  55.807
G2 X2536.190 Y 958.060 I  72.418 J  77.345
G2 X2522.230 Y 982.650 I 146.913 J  99.662
G2 X2510.190 Y1012.960 I 246.893 J 115.619
F150
G1 Z   3.000
G0 Z  15.000 
M9 M5

(*** LAYER: BORDER_D0_T132_RK1_A0_W0_EM1_RI1_ID0019 ***)

(* SHAPE Nr: 32 *)
G0 X2096.540 Y 767.100
M3 M8
G0 Z   3.000 
G1 Z  -1.500
F400
G2 X2064.560 Y 889.210 I1077.138 J 347.340
G2 X2044.970 Y1019.350 I1256.951 J 255.754
G2 X2038.380 Y1153.570 I1358.961 J 133.995
G2 X2044.970 Y1287.790 I1365.551 J   0.225
G2 X2064.560 Y1417.930 I1276.541 J-125.614
G2 X2096.540 Y1540.050 I1109.129 J-225.204
G2 X2139.940 Y1650.410 I 893.432 J-287.636
G2 X2193.450 Y1745.680 I 665.040 J-310.869
G2 X2255.430 Y1822.960 I 456.030 J-302.250
G2 X2324.010 Y1879.910 I 287.293 J-276.195
G2 X2397.100 Y1914.780 I 164.043 J-249.810
G2 X2472.480 Y1926.520 I  75.689 J-238.112
G1 X2472.480 Y1153.570
G1 X2472.480 Y 380.620
G2 X2397.100 Y 392.360 I   0.309 J 249.852
G2 X2324.010 Y 427.240 I  90.982 J 284.669
G2 X2255.430 Y 484.180 I 218.686 J 333.161
G2 X2193.450 Y 561.460 I 394.050 J 379.530
G2 X2139.940 Y 656.730 I 611.530 J 406.139
G2 X2096.540 Y 767.100 I 850.056 J 397.979
F150
G1 Z  -3.000
F400
G2 X2064.560 Y 889.210 I1077.138 J 347.340
G2 X2044.970 Y1019.350 I1256.951 J 255.754
G2 X2038.380 Y1153.570 I1358.961 J 133.995
G2 X2044.970 Y1287.790 I1365.551 J   0.225
G2 X2064.560 Y1417.930 I1276.541 J-125.614
G2 X2096.540 Y1540.050 I1109.129 J-225.204
G2 X2139.940 Y1650.410 I 893.432 J-287.636
G2 X2193.450 Y1745.680 I 665.040 J-310.869
G2 X2255.430 Y1822.960 I 456.030 J-302.250
G2 X2324.010 Y1879.910 I 287.293 J-276.195
G2 X2397.100 Y1914.780 I 164.043 J-249.810
G2 X2472.480 Y1926.520 I  75.689 J-238.112
G1 X2472.480 Y1153.570
G1 X2472.480 Y 380.620
G2 X2397.100 Y 392.360 I   0.309 J 249.852
G2 X2324.010 Y 427.240 I  90.982 J 284.669
G2 X2255.430 Y 484.180 I 218.686 J 333.161
G2 X2193.450 Y 561.460 I 394.050 J 379.530
G2 X2139.940 Y 656.730 I 611.530 J 406.139
G2 X2096.540 Y 767.100 I 850.056 J 397.979
F150
G1 Z   3.000
G0 Z  15.000 
M9 M5

(*** LAYER: BORDER_D0_T132_RK1_A0_W0_EM1_RI1_ID0020 ***)

(* SHAPE Nr: 33 *)
G0 X1885.760 Y 381.970
M3 M8
G0 Z   3.000 
G1 Z  -1.500
F400
G1 X2131.700 Y 381.970
G1 X2377.640 Y 381.970
G2 X2373.900 Y 365.000 I -41.227 J   0.189
G2 X2362.810 Y 348.540 I -55.807 J  25.634
G2 X2344.690 Y 333.100 I -77.344 J  72.417
G2 X2320.100 Y 319.140 I -99.664 J 146.917
G2 X2289.790 Y 307.100 I-115.619 J 246.893
G2 X2254.670 Y 297.330 I-119.400 J 361.196
G2 X2215.820 Y 290.120 I-107.781 J 472.487
G2 X2174.410 Y 285.720 I -80.598 J 561.472
G2 X2131.700 Y 284.230 I -42.711 J 611.416
G2 X2088.990 Y 285.720 I   0.001 J 612.906
G2 X2047.580 Y 290.120 I  39.188 J 565.872
G2 X2008.730 Y 297.330 I  68.931 J 479.697
G2 X1973.610 Y 307.100 I  84.280 J 370.966
G2 X1943.300 Y 319.140 I  85.309 J 258.933
G2 X1918.710 Y 333.100 I  75.074 J 160.877
G2 X1900.590 Y 348.540 I  59.224 J  87.857
G2 X1889.500 Y 365.000 I  44.717 J  42.094
G2 X1885.760 Y 381.970 I  37.487 J  17.159
F150
G1 Z  -3.000
F400
G1 X2131.700 Y 381.970
G1 X2377.640 Y 381.970
G2 X2373.900 Y 365.000 I -41.227 J   0.189
G2 X2362.810 Y 348.540 I -55.807 J  25.634
G2 X2344.690 Y 333.100 I -77.344 J  72.417
G2 X2320.100 Y 319.140 I -99.664 J 146.917
G2 X2289.790 Y 307.100 I-115.619 J 246.893
G2 X2254.670 Y 297.330 I-119.400 J 361.196
G2 X2215.820 Y 290.120 I-107.781 J 472.487
G2 X2174.410 Y 285.720 I -80.598 J 561.472
G2 X2131.700 Y 284.230 I -42.711 J 611.416
G2 X2088.990 Y 285.720 I   0.001 J 612.906
G2 X2047.580 Y 290.120 I  39.188 J 565.872
G2 X2008.730 Y 297.330 I  68.931 J 479.697
G2 X1973.610 Y 307.100 I  84.280 J 370.966
G2 X1943.300 Y 319.140 I  85.309 J 258.933
G2 X1918.710 Y 333.100 I  75.074 J 160.877
G2 X1900.590 Y 348.540 I  59.224 J  87.857
G2 X1889.500 Y 365.000 I  44.717 J  42.094
G2 X1885.760 Y 381.970 I  37.487 J  17.159
F150
G1 Z   3.000
G0 Z  15.000 
M9 M5

(* SHAPE Nr: 34 *)
G0 X 973.670 Y 203.170
M3 M8
G0 Z   3.000 
G1 Z  -1.500
F400
G1 X1219.610 Y 203.170
G1 X1465.550 Y 203.170
G2 X1461.810 Y 186.200 I -41.227 J   0.189
G2 X1450.720 Y 169.740 I -55.807 J  25.634
G2 X1432.600 Y 154.300 I -77.345 J  72.418
G2 X1408.010 Y 140.340 I -99.664 J 146.917
G2 X1377.700 Y 128.300 I-115.619 J 246.893
G2 X1342.580 Y 118.530 I-119.400 J 361.196
G2 X1303.730 Y 111.320 I-107.781 J 472.487
G2 X1262.320 Y 106.920 I -80.598 J 561.472
G2 X1219.610 Y 105.430 I -42.711 J 611.416
G2 X1176.900 Y 106.920 I   0.001 J 612.906
G2 X1135.490 Y 111.320 I  39.188 J 565.872
G2 X1096.640 Y 118.530 I  68.931 J 479.697
G2 X1061.520 Y 128.300 I  84.280 J 370.966
G2 X1031.210 Y 140.340 I  85.309 J 258.933
G2 X1006.620 Y 154.300 I  75.074 J 160.877
G2 X 988.500 Y 169.740 I  59.224 J  87.857
G2 X 977.410 Y 186.200 I  44.717 J  42.094
G2 X 973.670 Y 203.170 I  37.487 J  17.159
F150
G1 Z  -3.000
F400
G1 X1219.610 Y 203.170
G1 X1465.550 Y 203.170
G2 X1461.810 Y 186.200 I -41.227 J   0.189
G2 X1450.720 Y 169.740 I -55.807 J  25.634
G2 X1432.600 Y 154.300 I -77.345 J  72.418
G2 X1408.010 Y 140.340 I -99.664 J 146.917
G2 X1377.700 Y 128.300 I-115.619 J 246.893
G2 X1342.580 Y 118.530 I-119.400 J 361.196
G2 X1303.730 Y 111.320 I-107.781 J 472.487
G2 X1262.320 Y 106.920 I -80.598 J 561.472
G2 X1219.610 Y 105.430 I -42.711 J 611.416
G2 X1176.900 Y 106.920 I   0.001 J 612.906
G2 X1135.490 Y 111.320 I  39.188 J 565.872
G2 X1096.640 Y 118.530 I  68.931 J 479.697
G2 X1061.520 Y 128.300 I  84.280 J 370.966
G2 X1031.210 Y 140.340 I  85.309 J 258.933
G2 X1006.620 Y 154.300 I  75.074 J 160.877
G2 X 988.500 Y 169.740 I  59.224 J  87.857
G2 X 977.410 Y 186.200 I  44.717 J  42.094
G2 X 973.670 Y 203.170 I  37.487 J  17.159
F150
G1 Z   3.000
G0 Z  15.000 
M9 M5

(* SHAPE Nr: 35 *)
G0 X 722.960 Y  10.000
M3 M8
G0 Z   3.000 
G1 Z  -1.500
F400
G2 X 726.700 Y  26.970 I  41.227 J  -0.189
G2 X 737.790 Y  43.430 I  55.807 J -25.634
G2 X 755.910 Y  58.870 I  77.345 J -72.418
G2 X 780.500 Y  72.830 I  99.664 J-146.917
G2 X 810.810 Y  84.870 I 115.619 J-246.893
G2 X 845.930 Y  94.640 I 119.400 J-361.196
G2 X 884.780 Y 101.850 I 107.781 J-472.487
G2 X 926.190 Y 106.250 I  80.598 J-561.472
G2 X 968.900 Y 107.740 I  42.711 J-611.416
G2 X1011.610 Y 106.250 I  -0.001 J-612.906
G2 X1053.020 Y 101.850 I -39.188 J-565.872
G2 X1091.870 Y  94.640 I -68.931 J-479.697
G2 X1126.990 Y  84.870 I -84.280 J-370.966
G2 X1157.300 Y  72.830 I -85.309 J-258.933
G2 X1181.890 Y  58.870 I -75.074 J-160.877
G2 X1200.010 Y  43.430 I -59.224 J -87.857
G2 X1211.100 Y  26.970 I -44.717 J -42.094
G2 X1214.840 Y  10.000 I -37.487 J -17.159
G1 X 968.900 Y  10.000
G1 X 722.960 Y  10.000
F150
G1 Z  -3.000
F400
G2 X 726.700 Y  26.970 I  41.227 J  -0.189
G2 X 737.790 Y  43.430 I  55.807 J -25.634
G2 X 755.910 Y  58.870 I  77.345 J -72.418
G2 X 780.500 Y  72.830 I  99.664 J-146.917
G2 X 810.810 Y  84.870 I 115.619 J-246.893
G2 X 845.930 Y  94.640 I 119.400 J-361.196
G2 X 884.780 Y 101.850 I 107.781 J-472.487
G2 X 926.190 Y 106.250 I  80.598 J-561.472
G2 X 968.900 Y 107.740 I  42.711 J-611.416
G2 X1011.610 Y 106.250 I  -0.001 J-612.906
G2 X1053.020 Y 101.850 I -39.188 J-565.872
G2 X1091.870 Y  94.640 I -68.931 J-479.697
G2 X1126.990 Y  84.870 I -84.280 J-370.966
G2 X1157.300 Y  72.830 I -85.309 J-258.933
G2 X1181.890 Y  58.870 I -75.074 J-160.877
G2 X1200.010 Y  43.430 I -59.224 J -87.857
G2 X1211.100 Y  26.970 I -44.717 J -42.094
G2 X1214.840 Y  10.000 I -37.487 J -17.159
G1 X 968.900 Y  10.000
G1 X 722.960 Y  10.000
F150
G1 Z   3.000
G0 Z  15.000 
M9 M5

(* SHAPE Nr: 36 *)
G0 X1672.730 Y 268.160
M3 M8
G0 Z   3.000 
G1 Z  -1.500
F400
G1 X1918.670 Y 268.160
G1 X2164.610 Y 268.160
G2 X2160.870 Y 251.190 I -41.227 J   0.189
G2 X2149.780 Y 234.730 I -55.807 J  25.634
G2 X2131.660 Y 219.290 I -77.345 J  72.418
G2 X2107.070 Y 205.330 I -99.662 J 146.913
G2 X2076.760 Y 193.290 I-115.619 J 246.893
G2 X2041.640 Y 183.520 I-119.400 J 361.196
G2 X2002.790 Y 176.310 I-107.781 J 472.487
G2 X1961.380 Y 171.910 I -80.598 J 561.472
G2 X1918.670 Y 170.420 I -42.711 J 611.416
G2 X1875.960 Y 171.910 I   0.001 J 612.906
G2 X1834.550 Y 176.310 I  39.188 J 565.872
G2 X1795.700 Y 183.520 I  68.931 J 479.697
G2 X1760.580 Y 193.290 I  84.280 J 370.966
G2 X1730.270 Y 205.330 I  85.309 J 258.933
G2 X1705.680 Y 219.290 I  75.074 J 160.877
G2 X1687.560 Y 234.730 I  59.224 J  87.857
G2 X1676.470 Y 251.190 I  44.717 J  42.094
G2 X1672.730 Y 268.160 I  37.487 J  17.159
F150
G1 Z  -3.000
F400
G1 X1918.670 Y 268.160
G1 X2164.610 Y 268.160
G2 X2160.870 Y 251.190 I -41.227 J   0.189
G2 X2149.780 Y 234.730 I -55.807 J  25.634
G2 X2131.660 Y 219.290 I -77.345 J  72.418
G2 X2107.070 Y 205.330 I -99.662 J 146.913
G2 X2076.760 Y 193.290 I-115.619 J 246.893
G2 X2041.640 Y 183.520 I-119.400 J 361.196
G2 X2002.790 Y 176.310 I-107.781 J 472.487
G2 X1961.380 Y 171.910 I -80.598 J 561.472
G2 X1918.670 Y 170.420 I -42.711 J 611.416
G2 X1875.960 Y 171.910 I   0.001 J 612.906
G2 X1834.550 Y 176.310 I  39.188 J 565.872
G2 X1795.700 Y 183.520 I  68.931 J 479.697
G2 X1760.580 Y 193.290 I  84.280 J 370.966
G2 X1730.270 Y 205.330 I  85.309 J 258.933
G2 X1705.680 Y 219.290 I  75.074 J 160.877
G2 X1687.560 Y 234.730 I  59.224 J  87.857
G2 X1676.470 Y 251.190 I  44.717 J  42.094
G2 X1672.730 Y 268.160 I  37.487 J  17.159
F150
G1 Z   3.000
G0 Z  15.000 
M9 M5

(* SHAPE Nr: 37 *)
G0 X1230.090 Y  21.180
M3 M8
G0 Z   3.000 
G1 Z  -1.500
F400
G2 X1233.830 Y  38.150 I  41.227 J  -0.189
G2 X1244.920 Y  54.610 I  55.807 J -25.634
G2 X1263.040 Y  70.050 I  77.345 J -72.418
G2 X1287.630 Y  84.010 I  99.664 J-146.917
G2 X1317.940 Y  96.050 I 115.619 J-246.893
G2 X1353.060 Y 105.820 I 119.400 J-361.196
G2 X1391.910 Y 113.030 I 107.781 J-472.487
G2 X1433.320 Y 117.430 I  80.598 J-561.472
G2 X1476.030 Y 118.920 I  42.711 J-611.416
G2 X1518.740 Y 117.430 I  -0.001 J-612.906
G2 X1560.150 Y 113.030 I -39.188 J-565.872
G2 X1599.000 Y 105.820 I -68.931 J-479.697
G2 X1634.120 Y  96.050 I -84.280 J-370.966
G2 X1664.430 Y  84.010 I -85.309 J-258.933
G2 X1689.020 Y  70.050 I -75.074 J-160.877
G2 X1707.140 Y  54.610 I -59.224 J -87.857
G2 X1718.230 Y  38.150 I -44.717 J -42.094
G2 X1721.970 Y  21.180 I -37.487 J -17.159
G1 X1476.030 Y  21.180
G1 X1230.090 Y  21.180
F150
G1 Z  -3.000
F400
G2 X1233.830 Y  38.150 I  41.227 J  -0.189
G2 X1244.920 Y  54.610 I  55.807 J -25.634
G2 X1263.040 Y  70.050 I  77.345 J -72.418
G2 X1287.630 Y  84.010 I  99.664 J-146.917
G2 X1317.940 Y  96.050 I 115.619 J-246.893
G2 X1353.060 Y 105.820 I 119.400 J-361.196
G2 X1391.910 Y 113.030 I 107.781 J-472.487
G2 X1433.320 Y 117.430 I  80.598 J-561.472
G2 X1476.030 Y 118.920 I  42.711 J-611.416
G2 X1518.740 Y 117.430 I  -0.001 J-612.906
G2 X1560.150 Y 113.030 I -39.188 J-565.872
G2 X1599.000 Y 105.820 I -68.931 J-479.697
G2 X1634.120 Y  96.050 I -84.280 J-370.966
G2 X1664.430 Y  84.010 I -85.309 J-258.933
G2 X1689.020 Y  70.050 I -75.074 J-160.877
G2 X1707.140 Y  54.610 I -59.224 J -87.857
G2 X1718.230 Y  38.150 I -44.717 J -42.094
G2 X1721.970 Y  21.180 I -37.487 J -17.159
G1 X1476.030 Y  21.180
G1 X1230.090 Y  21.180
F150
G1 Z   3.000
G0 Z  15.000 
M9 M5

(* SHAPE Nr: 38 *)
G0 X1622.570 Y 155.720
M3 M8
G0 Z   3.000 
G1 Z  -1.500
F400
G1 X1868.510 Y 155.720
G1 X2114.450 Y 155.720
G2 X2110.710 Y 138.750 I -41.227 J   0.189
G2 X2099.620 Y 122.290 I -55.807 J  25.634
G2 X2081.500 Y 106.850 I -77.344 J  72.417
G2 X2056.910 Y  92.890 I -99.662 J 146.913
G2 X2026.600 Y  80.850 I-115.619 J 246.893
G2 X1991.480 Y  71.080 I-119.400 J 361.196
G2 X1952.630 Y  63.870 I-107.781 J 472.487
G2 X1911.220 Y  59.470 I -80.598 J 561.472
G2 X1868.510 Y  57.980 I -42.711 J 611.416
G2 X1825.800 Y  59.470 I   0.001 J 612.906
G2 X1784.390 Y  63.870 I  39.188 J 565.872
G2 X1745.540 Y  71.080 I  68.931 J 479.697
G2 X1710.420 Y  80.850 I  84.280 J 370.966
G2 X1680.110 Y  92.890 I  85.309 J 258.933
G2 X1655.520 Y 106.850 I  75.074 J 160.877
G2 X1637.400 Y 122.290 I  59.224 J  87.857
G2 X1626.310 Y 138.750 I  44.717 J  42.094
G2 X1622.570 Y 155.720 I  37.487 J  17.159
F150
G1 Z  -3.000
F400
G1 X1868.510 Y 155.720
G1 X2114.450 Y 155.720
G2 X2110.710 Y 138.750 I -41.227 J   0.189
G2 X2099.620 Y 122.290 I -55.807 J  25.634
G2 X2081.500 Y 106.850 I -77.344 J  72.417
G2 X2056.910 Y  92.890 I -99.662 J 146.913
G2 X2026.600 Y  80.850 I-115.619 J 246.893
G2 X1991.480 Y  71.080 I-119.400 J 361.196
G2 X1952.630 Y  63.870 I-107.781 J 472.487
G2 X1911.220 Y  59.470 I -80.598 J 561.472
G2 X1868.510 Y  57.980 I -42.711 J 611.416
G2 X1825.800 Y  59.470 I   0.001 J 612.906
G2 X1784.390 Y  63.870 I  39.188 J 565.872
G2 X1745.540 Y  71.080 I  68.931 J 479.697
G2 X1710.420 Y  80.850 I  84.280 J 370.966
G2 X1680.110 Y  92.890 I  85.309 J 258.933
G2 X1655.520 Y 106.850 I  75.074 J 160.877
G2 X1637.400 Y 122.290 I  59.224 J  87.857
G2 X1626.310 Y 138.750 I  44.717 J  42.094
G2 X1622.570 Y 155.720 I  37.487 J  17.159
F150
G1 Z   3.000
G0 Z  15.000 
M9 M5

(* SHAPE Nr: 39 *)
G0 X1990.770 Y  10.000
M3 M8
G0 Z   3.000 
G1 Z  -1.500
F400
G2 X1994.510 Y  26.970 I  41.227 J  -0.189
G2 X2005.600 Y  43.430 I  55.807 J -25.634
G2 X2023.720 Y  58.870 I  77.345 J -72.418
G2 X2048.310 Y  72.830 I  99.664 J-146.917
G2 X2078.620 Y  84.870 I 115.619 J-246.893
G2 X2113.740 Y  94.640 I 119.400 J-361.196
G2 X2152.590 Y 101.850 I 107.781 J-472.487
G2 X2194.000 Y 106.250 I  80.598 J-561.472
G2 X2236.710 Y 107.740 I  42.711 J-611.416
G2 X2279.420 Y 106.250 I  -0.001 J-612.906
G2 X2320.830 Y 101.850 I -39.188 J-565.872
G2 X2359.680 Y  94.640 I -68.931 J-479.697
G2 X2394.800 Y  84.870 I -84.280 J-370.966
G2 X2425.110 Y  72.830 I -85.309 J-258.933
G2 X2449.700 Y  58.870 I -75.072 J-160.873
G2 X2467.820 Y  43.430 I -59.225 J -87.858
G2 X2478.910 Y  26.970 I -44.717 J -42.094
G2 X2482.650 Y  10.000 I -37.487 J -17.159
G1 X2236.710 Y  10.000
G1 X1990.770 Y  10.000
F150
G1 Z  -3.000
F400
G2 X1994.510 Y  26.970 I  41.227 J  -0.189
G2 X2005.600 Y  43.430 I  55.807 J -25.634
G2 X2023.720 Y  58.870 I  77.345 J -72.418
G2 X2048.310 Y  72.830 I  99.664 J-146.917
G2 X2078.620 Y  84.870 I 115.619 J-246.893
G2 X2113.740 Y  94.640 I 119.400 J-361.196
G2 X2152.590 Y 101.850 I 107.781 J-472.487
G2 X2194.000 Y 106.250 I  80.598 J-561.472
G2 X2236.710 Y 107.740 I  42.711 J-611.416
G2 X2279.420 Y 106.250 I  -0.001 J-612.906
G2 X2320.830 Y 101.850 I -39.188 J-565.872
G2 X2359.680 Y  94.640 I -68.931 J-479.697
G2 X2394.800 Y  84.870 I -84.280 J-370.966
G2 X2425.110 Y  72.830 I -85.309 J-258.933
G2 X2449.700 Y  58.870 I -75.072 J-160.873
G2 X2467.820 Y  43.430 I -59.225 J -87.858
G2 X2478.910 Y  26.970 I -44.717 J -42.094
G2 X2482.650 Y  10.000 I -37.487 J -17.159
G1 X2236.710 Y  10.000
G1 X1990.770 Y  10.000
F150
G1 Z   3.000
G0 Z  15.000 
M9 M5

(*** LAYER: BORDER_D0_T132.1_RK1_A0_W0_EM1 ***)

(* SHAPE Nr: 41 *)
G0 X 700.100 Y 340.390
M3 M8
G0 Z   3.000 
G1 Z  -1.500
F400
G3 X 954.390 Y 954.290 I-613.899 J 613.906
G1 X 954.390 Y1984.900
G1 X1041.210 Y1984.900
G1 X1041.210 Y 954.290
G2 X 761.490 Y 278.990 I-867.440 J -36.275
G1 X 700.100 Y 340.390
F150
G1 Z  -3.000
F400
G3 X 954.390 Y 954.290 I-613.899 J 613.906
G1 X 954.390 Y1984.900
G1 X1041.210 Y1984.900
G1 X1041.210 Y 954.290
G2 X 761.490 Y 278.990 I-867.440 J -36.275
G1 X 700.100 Y 340.390
F150
G1 Z   3.000
G0 Z  15.000 
M9 M5

(* SHAPE Nr: 42 *)
G0 X1057.520 Y 414.430
M3 M8
G0 Z   3.000 
G1 Z  -1.500
F400
G2 X1045.470 Y 444.750 I 246.921 J 115.688
G2 X1035.700 Y 479.860 I 361.122 J 119.403
G2 X1028.500 Y 518.720 I 472.591 J 107.659
G2 X1024.090 Y 560.130 I 561.467 J  80.734
G2 X1022.600 Y 602.830 I 611.343 J  42.709
G2 X1024.090 Y 645.540 I 612.976 J  -0.004
G2 X1028.500 Y 686.950 I 565.877 J -39.324
G2 X1035.700 Y 725.800 I 479.668 J -68.804
G2 X1045.470 Y 760.920 I 370.996 J -84.288
G2 X1057.520 Y 791.230 I 258.888 J -85.373
G2 X1071.470 Y 815.820 I 160.888 J -75.020
G2 X1086.910 Y 833.940 I  87.861 J -59.228
G2 X1103.370 Y 845.040 I  42.123 J -44.710
G2 X1120.340 Y 848.770 I  17.135 J -37.489
G2 X1137.310 Y 845.040 I  -0.165 J -41.219
G2 X1153.770 Y 833.940 I -25.663 J -55.810
G2 X1169.210 Y 815.820 I -72.421 J -77.348
G2 X1183.170 Y 791.230 I-146.933 J -99.673
G2 X1195.210 Y 760.920 I-246.843 J-115.599
G2 X1204.990 Y 725.800 I-361.221 J-119.512
G2 X1212.190 Y 686.950 I-472.468 J-107.654
G2 X1216.600 Y 645.540 I-561.467 J -80.734
G2 X1218.080 Y 602.830 I-611.491 J -42.570
G2 X1216.600 Y 560.130 I-612.828 J  -0.135
G2 X1212.190 Y 518.720 I-565.877 J  39.324
G2 X1204.990 Y 479.860 I-479.791 J  68.799
G2 X1195.210 Y 444.750 I-370.897 J  84.397
G2 X1183.170 Y 414.430 I-258.966 J  85.284
G2 X1169.210 Y 389.840 I-160.893 J  75.083
G2 X1153.770 Y 371.730 I -87.817 J  59.233
G2 X1137.310 Y 360.630 I -42.123 J  44.710
G2 X1120.340 Y 356.890 I -17.158 J  37.484
G2 X1103.370 Y 360.630 I   0.188 J  41.224
G2 X1086.910 Y 371.730 I  25.663 J  55.810
G2 X1071.470 Y 389.840 I  72.377 J  77.343
G2 X1057.520 Y 414.430 I 146.938 J  99.610
F150
G1 Z  -3.000
F400
G2 X1045.470 Y 444.750 I 246.921 J 115.688
G2 X1035.700 Y 479.860 I 361.122 J 119.403
G2 X1028.500 Y 518.720 I 472.591 J 107.659
G2 X1024.090 Y 560.130 I 561.467 J  80.734
G2 X1022.600 Y 602.830 I 611.343 J  42.709
G2 X1024.090 Y 645.540 I 612.976 J  -0.004
G2 X1028.500 Y 686.950 I 565.877 J -39.324
G2 X1035.700 Y 725.800 I 479.668 J -68.804
G2 X1045.470 Y 760.920 I 370.996 J -84.288
G2 X1057.520 Y 791.230 I 258.888 J -85.373
G2 X1071.470 Y 815.820 I 160.888 J -75.020
G2 X1086.910 Y 833.940 I  87.861 J -59.228
G2 X1103.370 Y 845.040 I  42.123 J -44.710
G2 X1120.340 Y 848.770 I  17.135 J -37.489
G2 X1137.310 Y 845.040 I  -0.165 J -41.219
G2 X1153.770 Y 833.940 I -25.663 J -55.810
G2 X1169.210 Y 815.820 I -72.421 J -77.348
G2 X1183.170 Y 791.230 I-146.933 J -99.673
G2 X1195.210 Y 760.920 I-246.843 J-115.599
G2 X1204.990 Y 725.800 I-361.221 J-119.512
G2 X1212.190 Y 686.950 I-472.468 J-107.654
G2 X1216.600 Y 645.540 I-561.467 J -80.734
G2 X1218.080 Y 602.830 I-611.491 J -42.570
G2 X1216.600 Y 560.130 I-612.828 J  -0.135
G2 X1212.190 Y 518.720 I-565.877 J  39.324
G2 X1204.990 Y 479.860 I-479.791 J  68.799
G2 X1195.210 Y 444.750 I-370.897 J  84.397
G2 X1183.170 Y 414.430 I-258.966 J  85.284
G2 X1169.210 Y 389.840 I-160.893 J  75.083
G2 X1153.770 Y 371.730 I -87.817 J  59.233
G2 X1137.310 Y 360.630 I -42.123 J  44.710
G2 X1120.340 Y 356.890 I -17.158 J  37.484
G2 X1103.370 Y 360.630 I   0.188 J  41.224
G2 X1086.910 Y 371.730 I  25.663 J  55.810
G2 X1071.470 Y 389.840 I  72.377 J  77.343
G2 X1057.520 Y 414.430 I 146.938 J  99.610
F150
G1 Z   3.000
G0 Z  15.000 
M9 M5

(* SHAPE Nr: 43 *)
G0 X1885.760 Y 381.970
M3 M8
G0 Z   3.000 
G1 Z  -1.500
F400
G1 X2377.640 Y 381.970
G2 X2373.910 Y 365.000 I -41.219 J   0.165
G2 X2362.810 Y 348.540 I -55.810 J  25.663
G2 X2344.690 Y 333.100 I -77.348 J  72.421
G2 X2320.100 Y 319.140 I -99.671 J 146.929
G2 X2289.790 Y 307.100 I-115.599 J 246.843
G2 X2254.670 Y 297.320 I-119.512 J 361.221
G2 X2215.820 Y 290.120 I-107.654 J 472.468
G2 X2174.410 Y 285.710 I -80.734 J 561.467
G2 X2131.700 Y 284.230 I -42.570 J 611.491
G2 X2089.000 Y 285.710 I  -0.135 J 612.828
G2 X2047.590 Y 290.120 I  39.324 J 565.877
G2 X2008.730 Y 297.320 I  68.799 J 479.791
G2 X1973.620 Y 307.100 I  84.397 J 370.897
G2 X1943.300 Y 319.140 I  85.284 J 258.966
G2 X1918.710 Y 333.100 I  75.083 J 160.893
G2 X1900.590 Y 348.540 I  59.228 J  87.861
G2 X1889.500 Y 365.000 I  44.715 J  42.093
G2 X1885.760 Y 381.970 I  37.484 J  17.158
F150
G1 Z  -3.000
F400
G1 X2377.640 Y 381.970
G2 X2373.910 Y 365.000 I -41.219 J   0.165
G2 X2362.810 Y 348.540 I -55.810 J  25.663
G2 X2344.690 Y 333.100 I -77.348 J  72.421
G2 X2320.100 Y 319.140 I -99.671 J 146.929
G2 X2289.790 Y 307.100 I-115.599 J 246.843
G2 X2254.670 Y 297.320 I-119.512 J 361.221
G2 X2215.820 Y 290.120 I-107.654 J 472.468
G2 X2174.410 Y 285.710 I -80.734 J 561.467
G2 X2131.700 Y 284.230 I -42.570 J 611.491
G2 X2089.000 Y 285.710 I  -0.135 J 612.828
G2 X2047.590 Y 290.120 I  39.324 J 565.877
G2 X2008.730 Y 297.320 I  68.799 J 479.791
G2 X1973.620 Y 307.100 I  84.397 J 370.897
G2 X1943.300 Y 319.140 I  85.284 J 258.966
G2 X1918.710 Y 333.100 I  75.083 J 160.893
G2 X1900.590 Y 348.540 I  59.228 J  87.861
G2 X1889.500 Y 365.000 I  44.715 J  42.093
G2 X1885.760 Y 381.970 I  37.484 J  17.158
F150
G1 Z   3.000
G0 Z  15.000 
M9 M5

(* SHAPE Nr: 44 *)
G0 X 722.960 Y  10.000
M3 M8
G0 Z   3.000 
G1 Z  -1.500
F400
G2 X 726.690 Y  26.970 I  41.219 J  -0.165
G2 X 737.790 Y  43.430 I  55.810 J -25.663
G2 X 755.910 Y  58.870 I  77.347 J -72.419
G2 X 780.500 Y  72.830 I  99.673 J-146.933
G2 X 810.810 Y  84.870 I 115.599 J-246.843
G2 X 845.930 Y  94.640 I 119.408 J-361.226
G2 X 884.780 Y 101.850 I 107.776 J-472.463
G2 X 926.190 Y 106.250 I  80.598 J-561.472
G2 X 968.900 Y 107.740 I  42.714 J-611.486
G2 X1011.600 Y 106.250 I  -0.009 J-612.833
G2 X1053.010 Y 101.850 I -39.188 J-565.872
G2 X1091.870 Y  94.640 I -68.921 J-479.796
G2 X1126.980 Y  84.870 I -84.293 J-370.892
G2 X1157.300 Y  72.830 I -85.284 J-258.966
G2 X1181.890 Y  58.870 I -75.083 J-160.893
G2 X1200.010 Y  43.430 I -59.227 J -87.859
G2 X1211.100 Y  26.970 I -44.715 J -42.093
G2 X1214.840 Y  10.000 I -37.484 J -17.158
G1 X 722.960 Y  10.000
F150
G1 Z  -3.000
F400
G2 X 726.690 Y  26.970 I  41.219 J  -0.165
G2 X 737.790 Y  43.430 I  55.810 J -25.663
G2 X 755.910 Y  58.870 I  77.347 J -72.419
G2 X 780.500 Y  72.830 I  99.673 J-146.933
G2 X 810.810 Y  84.870 I 115.599 J-246.843
G2 X 845.930 Y  94.640 I 119.408 J-361.226
G2 X 884.780 Y 101.850 I 107.776 J-472.463
G2 X 926.190 Y 106.250 I  80.598 J-561.472
G2 X 968.900 Y 107.740 I  42.714 J-611.486
G2 X1011.600 Y 106.250 I  -0.009 J-612.833
G2 X1053.010 Y 101.850 I -39.188 J-565.872
G2 X1091.870 Y  94.640 I -68.921 J-479.796
G2 X1126.980 Y  84.870 I -84.293 J-370.892
G2 X1157.300 Y  72.830 I -85.284 J-258.966
G2 X1181.890 Y  58.870 I -75.083 J-160.893
G2 X1200.010 Y  43.430 I -59.227 J -87.859
G2 X1211.100 Y  26.970 I -44.715 J -42.093
G2 X1214.840 Y  10.000 I -37.484 J -17.158
G1 X 722.960 Y  10.000
F150
G1 Z   3.000
G0 Z  15.000 
M9 M5

(* SHAPE Nr: 45 *)
G0 X1230.090 Y  21.180
M3 M8
G0 Z   3.000 
G1 Z  -1.500
F400
G2 X1233.820 Y  38.160 I  41.242 J  -0.160
G2 X1244.920 Y  54.610 I  55.779 J -25.668
G2 X1263.040 Y  70.050 I  77.348 J -72.421
G2 X1287.630 Y  84.010 I  99.671 J-146.929
G2 X1317.940 Y  96.060 I 115.683 J-246.838
G2 X1353.060 Y 105.830 I 119.408 J-361.226
G2 X1391.910 Y 113.030 I 107.654 J-472.468
G2 X1433.320 Y 117.440 I  80.734 J-561.467
G2 X1476.030 Y 118.920 I  42.570 J-611.491
G2 X1518.740 Y 117.440 I   0.140 J-612.971
G2 X1560.150 Y 113.030 I -39.324 J-565.877
G2 X1599.000 Y 105.830 I -68.804 J-479.668
G2 X1634.120 Y  96.060 I -84.288 J-370.996
G2 X1664.430 Y  84.010 I -85.373 J-258.888
G2 X1689.020 Y  70.050 I -75.083 J-160.893
G2 X1707.140 Y  54.610 I -59.228 J -87.861
G2 X1718.230 Y  38.160 I -44.684 J -42.088
G2 X1721.970 Y  21.180 I -37.507 J -17.163
G1 X1230.090 Y  21.180
F150
G1 Z  -3.000
F400
G2 X1233.820 Y  38.160 I  41.242 J  -0.160
G2 X1244.920 Y  54.610 I  55.779 J -25.668
G2 X1263.040 Y  70.050 I  77.348 J -72.421
G2 X1287.630 Y  84.010 I  99.671 J-146.929
G2 X1317.940 Y  96.060 I 115.683 J-246.838
G2 X1353.060 Y 105.830 I 119.408 J-361.226
G2 X1391.910 Y 113.030 I 107.654 J-472.468
G2 X1433.320 Y 117.440 I  80.734 J-561.467
G2 X1476.030 Y 118.920 I  42.570 J-611.491
G2 X1518.740 Y 117.440 I   0.140 J-612.971
G2 X1560.150 Y 113.030 I -39.324 J-565.877
G2 X1599.000 Y 105.830 I -68.804 J-479.668
G2 X1634.120 Y  96.060 I -84.288 J-370.996
G2 X1664.430 Y  84.010 I -85.373 J-258.888
G2 X1689.020 Y  70.050 I -75.083 J-160.893
G2 X1707.140 Y  54.610 I -59.228 J -87.861
G2 X1718.230 Y  38.160 I -44.684 J -42.088
G2 X1721.970 Y  21.180 I -37.507 J -17.163
G1 X1230.090 Y  21.180
F150
G1 Z   3.000
G0 Z  15.000 
M9 M5

(* SHAPE Nr: 46 *)
G0 X1990.770 Y  10.000
M3 M8
G0 Z   3.000 
G1 Z  -1.500
F400
G2 X1994.510 Y  26.970 I  41.224 J  -0.188
G2 X2005.600 Y  43.430 I  55.805 J -25.633
G2 X2023.720 Y  58.870 I  77.347 J -72.419
G2 X2048.310 Y  72.830 I  99.673 J-146.933
G2 X2078.630 Y  84.870 I 115.604 J-246.926
G2 X2113.740 Y  94.640 I 119.403 J-361.122
G2 X2152.600 Y 101.850 I 107.781 J-472.586
G2 X2194.010 Y 106.250 I  80.598 J-561.472
G2 X2236.710 Y 107.740 I  42.709 J-611.343
G2 X2279.420 Y 106.250 I  -0.004 J-612.976
G2 X2320.830 Y 101.850 I -39.188 J-565.872
G2 X2359.680 Y  94.640 I -68.926 J-479.673
G2 X2394.800 Y  84.870 I -84.288 J-370.996
G2 X2425.110 Y  72.830 I -85.289 J-258.883
G2 X2449.700 Y  58.870 I -75.083 J-160.893
G2 X2467.820 Y  43.430 I -59.227 J -87.859
G2 X2478.920 Y  26.970 I -44.710 J -42.123
G2 X2482.650 Y  10.000 I -37.489 J -17.135
G1 X1990.770 Y  10.000
F150
G1 Z  -3.000
F400
G2 X1994.510 Y  26.970 I  41.224 J  -0.188
G2 X2005.600 Y  43.430 I  55.805 J -25.633
G2 X2023.720 Y  58.870 I  77.347 J -72.419
G2 X2048.310 Y  72.830 I  99.673 J-146.933
G2 X2078.630 Y  84.870 I 115.604 J-246.926
G2 X2113.740 Y  94.640 I 119.403 J-361.122
G2 X2152.600 Y 101.850 I 107.781 J-472.586
G2 X2194.010 Y 106.250 I  80.598 J-561.472
G2 X2236.710 Y 107.740 I  42.709 J-611.343
G2 X2279.420 Y 106.250 I  -0.004 J-612.976
G2 X2320.830 Y 101.850 I -39.188 J-565.872
G2 X2359.680 Y  94.640 I -68.926 J-479.673
G2 X2394.800 Y  84.870 I -84.288 J-370.996
G2 X2425.110 Y  72.830 I -85.289 J-258.883
G2 X2449.700 Y  58.870 I -75.083 J-160.893
G2 X2467.820 Y  43.430 I -59.227 J -87.859
G2 X2478.920 Y  26.970 I -44.710 J -42.123
G2 X2482.650 Y  10.000 I -37.489 J -17.135
G1 X1990.770 Y  10.000
F150
G1 Z   3.000
G0 Z  15.000 
M9 M5

(* SHAPE Nr: 47 *)
G0 X2510.190 Y1012.970
M3 M8
G0 Z   3.000 
G1 Z  -1.500
F400
G2 X2500.410 Y1048.080 I 361.117 J 119.507
G2 X2493.210 Y1086.940 I 472.591 J 107.659
G2 X2488.800 Y1128.350 I 561.467 J  80.734
G2 X2487.320 Y1171.050 I 611.348 J  42.565
G2 X2488.800 Y1213.760 I 612.971 J   0.140
G2 X2493.210 Y1255.170 I 565.877 J -39.324
G2 X2500.410 Y1294.020 I 479.668 J -68.804
G2 X2510.190 Y1329.140 I 371.001 J -84.392
G2 X2522.230 Y1359.450 I 258.883 J -85.289
G2 X2536.190 Y1384.040 I 160.893 J -75.083
G2 X2551.630 Y1402.160 I  87.861 J -59.228
G2 X2568.090 Y1413.260 I  42.123 J -44.710
G2 X2585.060 Y1416.990 I  17.135 J -37.489
G2 X2602.030 Y1413.260 I  -0.165 J -41.219
G2 X2618.490 Y1402.160 I -25.663 J -55.810
G2 X2633.930 Y1384.040 I -72.421 J -77.348
G2 X2647.890 Y1359.450 I-146.933 J -99.673
G2 X2659.930 Y1329.140 I-246.851 J-115.603
G2 X2669.700 Y1294.020 I-361.226 J-119.408
G2 X2676.910 Y1255.170 I-472.463 J-107.776
G2 X2681.310 Y1213.760 I-561.472 J -80.598
G2 X2682.800 Y1171.050 I-611.486 J -42.714
G2 X2681.310 Y1128.350 I-612.833 J   0.009
G2 X2676.910 Y1086.940 I-565.872 J  39.188
G2 X2669.700 Y1048.080 I-479.796 J  68.921
G2 X2659.930 Y1012.970 I-370.892 J  84.293
G2 X2647.890 Y 982.650 I-258.975 J  85.288
G2 X2633.930 Y 958.060 I-160.893 J  75.083
G2 X2618.490 Y 939.950 I -87.817 J  59.233
G2 X2602.030 Y 928.850 I -42.123 J  44.710
G2 X2585.060 Y 925.110 I -17.158 J  37.484
G2 X2568.090 Y 928.850 I   0.188 J  41.224
G2 X2551.630 Y 939.950 I  25.663 J  55.810
G2 X2536.190 Y 958.060 I  72.377 J  77.343
G2 X2522.230 Y 982.650 I 146.933 J  99.673
G2 X2510.190 Y1012.970 I 246.935 J 115.608
F150
G1 Z  -3.000
F400
G2 X2500.410 Y1048.080 I 361.117 J 119.507
G2 X2493.210 Y1086.940 I 472.591 J 107.659
G2 X2488.800 Y1128.350 I 561.467 J  80.734
G2 X2487.320 Y1171.050 I 611.348 J  42.565
G2 X2488.800 Y1213.760 I 612.971 J   0.140
G2 X2493.210 Y1255.170 I 565.877 J -39.324
G2 X2500.410 Y1294.020 I 479.668 J -68.804
G2 X2510.190 Y1329.140 I 371.001 J -84.392
G2 X2522.230 Y1359.450 I 258.883 J -85.289
G2 X2536.190 Y1384.040 I 160.893 J -75.083
G2 X2551.630 Y1402.160 I  87.861 J -59.228
G2 X2568.090 Y1413.260 I  42.123 J -44.710
G2 X2585.060 Y1416.990 I  17.135 J -37.489
G2 X2602.030 Y1413.260 I  -0.165 J -41.219
G2 X2618.490 Y1402.160 I -25.663 J -55.810
G2 X2633.930 Y1384.040 I -72.421 J -77.348
G2 X2647.890 Y1359.450 I-146.933 J -99.673
G2 X2659.930 Y1329.140 I-246.851 J-115.603
G2 X2669.700 Y1294.020 I-361.226 J-119.408
G2 X2676.910 Y1255.170 I-472.463 J-107.776
G2 X2681.310 Y1213.760 I-561.472 J -80.598
G2 X2682.800 Y1171.050 I-611.486 J -42.714
G2 X2681.310 Y1128.350 I-612.833 J   0.009
G2 X2676.910 Y1086.940 I-565.872 J  39.188
G2 X2669.700 Y1048.080 I-479.796 J  68.921
G2 X2659.930 Y1012.970 I-370.892 J  84.293
G2 X2647.890 Y 982.650 I-258.975 J  85.288
G2 X2633.930 Y 958.060 I-160.893 J  75.083
G2 X2618.490 Y 939.950 I -87.817 J  59.233
G2 X2602.030 Y 928.850 I -42.123 J  44.710
G2 X2585.060 Y 925.110 I -17.158 J  37.484
G2 X2568.090 Y 928.850 I   0.188 J  41.224
G2 X2551.630 Y 939.950 I  25.663 J  55.810
G2 X2536.190 Y 958.060 I  72.377 J  77.343
G2 X2522.230 Y 982.650 I 146.933 J  99.673
G2 X2510.190 Y1012.970 I 246.935 J 115.608
F150
G1 Z   3.000
G0 Z  15.000 
M9 M5

(* SHAPE Nr: 48 *)
G0 X1622.570 Y 155.720
M3 M8
G0 Z   3.000 
G1 Z  -1.500
F400
G1 X2114.450 Y 155.720
G2 X2110.710 Y 138.750 I -41.224 J   0.188
G2 X2099.620 Y 122.290 I -55.805 J  25.633
G2 X2081.500 Y 106.850 I -77.348 J  72.421
G2 X2056.910 Y  92.900 I -99.608 J 146.934
G2 X2026.600 Y  80.850 I-115.683 J 246.838
G2 X1991.480 Y  71.080 I-119.408 J 361.226
G2 X1952.630 Y  63.880 I-107.654 J 472.468
G2 X1911.220 Y  59.470 I -80.734 J 561.467
G2 X1868.510 Y  57.980 I -42.714 J 611.486
G2 X1825.800 Y  59.470 I   0.004 J 612.976
G2 X1784.390 Y  63.880 I  39.324 J 565.877
G2 X1745.540 Y  71.080 I  68.804 J 479.668
G2 X1710.420 Y  80.850 I  84.288 J 370.996
G2 X1680.110 Y  92.900 I  85.373 J 258.888
G2 X1655.520 Y 106.850 I  75.020 J 160.888
G2 X1637.400 Y 122.290 I  59.227 J  87.859
G2 X1626.310 Y 138.750 I  44.715 J  42.093
G2 X1622.570 Y 155.720 I  37.484 J  17.158
F150
G1 Z  -3.000
F400
G1 X2114.450 Y 155.720
G2 X2110.710 Y 138.750 I -41.224 J   0.188
G2 X2099.620 Y 122.290 I -55.805 J  25.633
G2 X2081.500 Y 106.850 I -77.348 J  72.421
G2 X2056.910 Y  92.900 I -99.608 J 146.934
G2 X2026.600 Y  80.850 I-115.683 J 246.838
G2 X1991.480 Y  71.080 I-119.408 J 361.226
G2 X1952.630 Y  63.880 I-107.654 J 472.468
G2 X1911.220 Y  59.470 I -80.734 J 561.467
G2 X1868.510 Y  57.980 I -42.714 J 611.486
G2 X1825.800 Y  59.470 I   0.004 J 612.976
G2 X1784.390 Y  63.880 I  39.324 J 565.877
G2 X1745.540 Y  71.080 I  68.804 J 479.668
G2 X1710.420 Y  80.850 I  84.288 J 370.996
G2 X1680.110 Y  92.900 I  85.373 J 258.888
G2 X1655.520 Y 106.850 I  75.020 J 160.888
G2 X1637.400 Y 122.290 I  59.227 J  87.859
G2 X1626.310 Y 138.750 I  44.715 J  42.093
G2 X1622.570 Y 155.720 I  37.484 J  17.158
F150
G1 Z   3.000
G0 Z  15.000 
M9 M5

(* SHAPE Nr: 49 *)
G0 X1672.730 Y 268.160
M3 M8
G0 Z   3.000 
G1 Z  -1.500
F400
G1 X2164.610 Y 268.160
G2 X2160.870 Y 251.190 I -41.224 J   0.188
G2 X2149.770 Y 234.730 I -55.810 J  25.663
G2 X2131.660 Y 219.290 I -77.343 J  72.377
G2 X2107.070 Y 205.340 I -99.608 J 146.934
G2 X2076.750 Y 193.290 I-115.688 J 246.921
G2 X2041.640 Y 183.520 I-119.403 J 361.122
G2 X2002.780 Y 176.320 I-107.659 J 472.591
G2 X1961.370 Y 171.910 I -80.734 J 561.467
G2 X1918.670 Y 170.420 I -42.709 J 611.343
G2 X1875.960 Y 171.910 I   0.004 J 612.976
G2 X1834.550 Y 176.320 I  39.324 J 565.877
G2 X1795.700 Y 183.520 I  68.804 J 479.668
G2 X1760.580 Y 193.290 I  84.288 J 370.996
G2 X1730.270 Y 205.340 I  85.373 J 258.888
G2 X1705.680 Y 219.290 I  75.020 J 160.888
G2 X1687.560 Y 234.730 I  59.227 J  87.859
G2 X1676.460 Y 251.190 I  44.710 J  42.123
G2 X1672.730 Y 268.160 I  37.489 J  17.135
F150
G1 Z  -3.000
F400
G1 X2164.610 Y 268.160
G2 X2160.870 Y 251.190 I -41.224 J   0.188
G2 X2149.770 Y 234.730 I -55.810 J  25.663
G2 X2131.660 Y 219.290 I -77.343 J  72.377
G2 X2107.070 Y 205.340 I -99.608 J 146.934
G2 X2076.750 Y 193.290 I-115.688 J 246.921
G2 X2041.640 Y 183.520 I-119.403 J 361.122
G2 X2002.780 Y 176.320 I-107.659 J 472.591
G2 X1961.370 Y 171.910 I -80.734 J 561.467
G2 X1918.670 Y 170.420 I -42.709 J 611.343
G2 X1875.960 Y 171.910 I   0.004 J 612.976
G2 X1834.550 Y 176.320 I  39.324 J 565.877
G2 X1795.700 Y 183.520 I  68.804 J 479.668
G2 X1760.580 Y 193.290 I  84.288 J 370.996
G2 X1730.270 Y 205.340 I  85.373 J 258.888
G2 X1705.680 Y 219.290 I  75.020 J 160.888
G2 X1687.560 Y 234.730 I  59.227 J  87.859
G2 X1676.460 Y 251.190 I  44.710 J  42.123
G2 X1672.730 Y 268.160 I  37.489 J  17.135
F150
G1 Z   3.000
G0 Z  15.000 
M9 M5

(* SHAPE Nr: 50 *)
G0 X 973.670 Y 203.170
M3 M8
G0 Z   3.000 
G1 Z  -1.500
F400
G1 X1465.550 Y 203.170
G2 X1461.820 Y 186.200 I -41.219 J   0.165
G2 X1450.720 Y 169.740 I -55.810 J  25.663
G2 X1432.600 Y 154.300 I -77.348 J  72.421
G2 X1408.010 Y 140.350 I -99.610 J 146.938
G2 X1377.700 Y 128.300 I-115.683 J 246.838
G2 X1342.580 Y 118.530 I-119.408 J 361.226
G2 X1303.730 Y 111.320 I-107.776 J 472.463
G2 X1262.320 Y 106.920 I -80.598 J 561.472
G2 X1219.610 Y 105.430 I -42.714 J 611.486
G2 X1176.910 Y 106.920 I   0.009 J 612.833
G2 X1135.500 Y 111.320 I  39.188 J 565.872
G2 X1096.640 Y 118.530 I  68.921 J 479.796
G2 X1061.530 Y 128.300 I  84.293 J 370.892
G2 X1031.210 Y 140.350 I  85.368 J 258.971
G2 X1006.620 Y 154.300 I  75.020 J 160.888
G2 X 988.510 Y 169.740 I  59.233 J  87.817
G2 X 977.410 Y 186.200 I  44.710 J  42.123
G2 X 973.670 Y 203.170 I  37.484 J  17.158
F150
G1 Z  -3.000
F400
G1 X1465.550 Y 203.170
G2 X1461.820 Y 186.200 I -41.219 J   0.165
G2 X1450.720 Y 169.740 I -55.810 J  25.663
G2 X1432.600 Y 154.300 I -77.348 J  72.421
G2 X1408.010 Y 140.350 I -99.610 J 146.938
G2 X1377.700 Y 128.300 I-115.683 J 246.838
G2 X1342.580 Y 118.530 I-119.408 J 361.226
G2 X1303.730 Y 111.320 I-107.776 J 472.463
G2 X1262.320 Y 106.920 I -80.598 J 561.472
G2 X1219.610 Y 105.430 I -42.714 J 611.486
G2 X1176.910 Y 106.920 I   0.009 J 612.833
G2 X1135.500 Y 111.320 I  39.188 J 565.872
G2 X1096.640 Y 118.530 I  68.921 J 479.796
G2 X1061.530 Y 128.300 I  84.293 J 370.892
G2 X1031.210 Y 140.350 I  85.368 J 258.971
G2 X1006.620 Y 154.300 I  75.020 J 160.888
G2 X 988.510 Y 169.740 I  59.233 J  87.817
G2 X 977.410 Y 186.200 I  44.710 J  42.123
G2 X 973.670 Y 203.170 I  37.484 J  17.158
F150
G1 Z   3.000
G0 Z  15.000 
M9 M5

(* SHAPE Nr: 51 *)
G0 X2096.690 Y 767.090
M3 M8
G0 Z   3.000 
G1 Z  -1.500
F400
G2 X2064.720 Y 889.200 I1077.143 J 347.250
G2 X2045.130 Y1019.350 I1257.048 J 255.759
G2 X2038.540 Y1153.570 I1358.961 J 133.995
G2 X2045.130 Y1287.790 I1365.551 J   0.225
G2 X2064.720 Y1417.930 I1276.541 J-125.614
G2 X2096.690 Y1540.040 I1109.113 J-225.140
G2 X2140.100 Y1650.410 I 893.461 J-287.688
G2 X2193.600 Y1745.680 I 665.035 J-310.802
G2 X2255.590 Y1822.960 I 456.026 J-302.298
G2 X2324.170 Y1879.900 I 287.266 J-276.221
G2 X2397.250 Y1914.780 I 164.073 J-249.764
G2 X2472.640 Y1926.520 I  75.693 J-238.138
G1 X2472.640 Y 380.620
G2 X2397.250 Y 392.360 I   0.303 J 249.878
G2 X2324.170 Y 427.230 I  90.956 J 284.639
G2 X2255.590 Y 484.170 I 218.686 J 333.161
G2 X2193.600 Y 561.450 I 394.036 J 379.578
G2 X2140.100 Y 656.720 I 611.535 J 406.072
G2 X2096.690 Y 767.090 I 850.051 J 398.058
F150
G1 Z  -3.000
F400
G2 X2064.720 Y 889.200 I1077.143 J 347.250
G2 X2045.130 Y1019.350 I1257.048 J 255.759
G2 X2038.540 Y1153.570 I1358.961 J 133.995
G2 X2045.130 Y1287.790 I1365.551 J   0.225
G2 X2064.720 Y1417.930 I1276.541 J-125.614
G2 X2096.690 Y1540.040 I1109.113 J-225.140
G2 X2140.100 Y1650.410 I 893.461 J-287.688
G2 X2193.600 Y1745.680 I 665.035 J-310.802
G2 X2255.590 Y1822.960 I 456.026 J-302.298
G2 X2324.170 Y1879.900 I 287.266 J-276.221
G2 X2397.250 Y1914.780 I 164.073 J-249.764
G2 X2472.640 Y1926.520 I  75.693 J-238.138
G1 X2472.640 Y 380.620
G2 X2397.250 Y 392.360 I   0.303 J 249.878
G2 X2324.170 Y 427.230 I  90.956 J 284.639
G2 X2255.590 Y 484.170 I 218.686 J 333.161
G2 X2193.600 Y 561.450 I 394.036 J 379.578
G2 X2140.100 Y 656.720 I 611.535 J 406.072
G2 X2096.690 Y 767.090 I 850.051 J 398.058
F150
G1 Z   3.000
G0 Z  15.000 
M9 M5

(* SHAPE Nr: 52 *)
G0 X1120.290 Y1562.950
M3 M8
G0 Z   3.000 
G1 Z  -1.500
F400
G2 X1104.850 Y1581.070 I  72.421 J  77.348
G2 X1090.890 Y1605.660 I 146.929 J  99.671
G2 X1078.850 Y1635.970 I 246.843 J 115.599
G2 X1069.070 Y1671.090 I 361.221 J 119.512
G2 X1061.870 Y1709.940 I 472.468 J 107.654
G2 X1057.460 Y1751.350 I 561.467 J  80.734
G2 X1055.980 Y1794.060 I 611.491 J  42.570
G2 X1057.460 Y1836.770 I 612.971 J   0.140
G2 X1061.870 Y1878.180 I 565.877 J -39.324
G2 X1069.070 Y1917.030 I 479.668 J -68.804
G2 X1078.850 Y1952.150 I 371.001 J -84.392
G2 X1090.890 Y1982.460 I 258.883 J -85.289
G2 X1104.850 Y2007.050 I 160.893 J -75.083
G2 X1120.290 Y2025.170 I  87.861 J -59.228
G2 X1136.750 Y2036.260 I  42.093 J -44.715
G2 X1153.720 Y2040.000 I  17.158 J -37.484
G2 X1170.690 Y2036.260 I  -0.188 J -41.224
G2 X1187.150 Y2025.170 I -25.633 J -55.805
G2 X1202.590 Y2007.050 I -72.421 J -77.348
G2 X1216.550 Y1982.460 I-146.933 J -99.673
G2 X1228.590 Y1952.150 I-246.843 J-115.599
G2 X1238.360 Y1917.030 I-361.226 J-119.408
G2 X1245.570 Y1878.180 I-472.463 J-107.776
G2 X1249.970 Y1836.770 I-561.472 J -80.598
G2 X1251.460 Y1794.060 I-611.486 J -42.714
G2 X1249.970 Y1751.350 I-612.976 J   0.004
G2 X1245.570 Y1709.940 I-565.872 J  39.188
G2 X1238.360 Y1671.090 I-479.673 J  68.926
G2 X1228.590 Y1635.970 I-370.996 J  84.288
G2 X1216.550 Y1605.660 I-258.883 J  85.289
G2 X1202.590 Y1581.070 I-160.889 J  75.081
G2 X1187.150 Y1562.950 I -87.861 J  59.228
G2 X1170.690 Y1551.860 I -42.093 J  44.715
G2 X1153.720 Y1548.120 I -17.158 J  37.484
G2 X1136.750 Y1551.860 I   0.188 J  41.224
G2 X1120.290 Y1562.950 I  25.633 J  55.805
F150
G1 Z  -3.000
F400
G2 X1104.850 Y1581.070 I  72.421 J  77.348
G2 X1090.890 Y1605.660 I 146.929 J  99.671
G2 X1078.850 Y1635.970 I 246.843 J 115.599
G2 X1069.070 Y1671.090 I 361.221 J 119.512
G2 X1061.870 Y1709.940 I 472.468 J 107.654
G2 X1057.460 Y1751.350 I 561.467 J  80.734
G2 X1055.980 Y1794.060 I 611.491 J  42.570
G2 X1057.460 Y1836.770 I 612.971 J   0.140
G2 X1061.870 Y1878.180 I 565.877 J -39.324
G2 X1069.070 Y1917.030 I 479.668 J -68.804
G2 X1078.850 Y1952.150 I 371.001 J -84.392
G2 X1090.890 Y1982.460 I 258.883 J -85.289
G2 X1104.850 Y2007.050 I 160.893 J -75.083
G2 X1120.290 Y2025.170 I  87.861 J -59.228
G2 X1136.750 Y2036.260 I  42.093 J -44.715
G2 X1153.720 Y2040.000 I  17.158 J -37.484
G2 X1170.690 Y2036.260 I  -0.188 J -41.224
G2 X1187.150 Y2025.170 I -25.633 J -55.805
G2 X1202.590 Y2007.050 I -72.421 J -77.348
G2 X1216.550 Y1982.460 I-146.933 J -99.673
G2 X1228.590 Y1952.150 I-246.843 J-115.599
G2 X1238.360 Y1917.030 I-361.226 J-119.408
G2 X1245.570 Y1878.180 I-472.463 J-107.776
G2 X1249.970 Y1836.770 I-561.472 J -80.598
G2 X1251.460 Y1794.060 I-611.486 J -42.714
G2 X1249.970 Y1751.350 I-612.976 J   0.004
G2 X1245.570 Y1709.940 I-565.872 J  39.188
G2 X1238.360 Y1671.090 I-479.673 J  68.926
G2 X1228.590 Y1635.970 I-370.996 J  84.288
G2 X1216.550 Y1605.660 I-258.883 J  85.289
G2 X1202.590 Y1581.070 I-160.889 J  75.081
G2 X1187.150 Y1562.950 I -87.861 J  59.228
G2 X1170.690 Y1551.860 I -42.093 J  44.715
G2 X1153.720 Y1548.120 I -17.158 J  37.484
G2 X1136.750 Y1551.860 I   0.188 J  41.224
G2 X1120.290 Y1562.950 I  25.633 J  55.805
F150
G1 Z   3.000
G0 Z  15.000 
M9 M5

(* SHAPE Nr: 53 *)
G0 X1135.860 Y 876.130
M3 M8
G0 Z   3.000 
G1 Z  -1.500
F400
G1 X1164.080 Y 925.000
G1 X1135.860 Y 973.870
G1 X1192.300 Y 973.870
G1 X1220.510 Y1022.740
G1 X1248.720 Y 973.870
G1 X1305.160 Y 973.870
G1 X1276.940 Y 925.000
G1 X1305.160 Y 876.130
G1 X1248.720 Y 876.130
G1 X1220.510 Y 827.260
G1 X1192.300 Y 876.130
G1 X1135.860 Y 876.130
F150
G1 Z  -3.000
F400
G1 X1164.080 Y 925.000
G1 X1135.860 Y 973.870
G1 X1192.300 Y 973.870
G1 X1220.510 Y1022.740
G1 X1248.720 Y 973.870
G1 X1305.160 Y 973.870
G1 X1276.940 Y 925.000
G1 X1305.160 Y 876.130
G1 X1248.720 Y 876.130
G1 X1220.510 Y 827.260
G1 X1192.300 Y 876.130
G1 X1135.860 Y 876.130
F150
G1 Z   3.000
G0 Z  15.000 
M9 M5

(* SHAPE Nr: 55 *)
G0 X 518.850 Y 695.710
M3 M8
G0 Z   3.000 
G1 Z  -1.500
F400
G1 X 547.070 Y 646.840
G1 X 518.850 Y 597.970
G1 X 575.280 Y 597.970
G1 X 603.500 Y 549.100
G1 X 610.110 Y 537.640
G1 X 514.990 Y 432.860
G1 X 501.880 Y 434.600
G1 X 132.970 Y 483.470
G1 X  10.000 Y 450.890
G1 X  10.000 Y 320.570
G1 X 132.970 Y 287.990
G1 X 501.880 Y 336.860
G1 X 545.600 Y 342.650
G1 X 648.770 Y 293.360
G1 X 646.840 Y 278.790
G1 X 639.550 Y 279.750
G1 X 516.580 Y 247.170
G1 X 516.580 Y 129.580
G1 X 501.880 Y 129.580
G1 X 501.880 Y 273.130
G1 X 378.910 Y 305.710
G1 X  10.000 Y 256.840
G1 X  71.490 Y 237.290
G1 X  71.490 Y 178.650
G1 X  10.000 Y 159.100
G1 X -14.700 Y 159.100
F150
G1 Z  -3.000
F400
G1 X  10.000 Y 159.100
G1 X  71.490 Y 178.650
G1 X  71.490 Y 237.290
G1 X  10.000 Y 256.840
G1 X 378.910 Y 305.710
G1 X 501.880 Y 273.130
G1 X 501.880 Y 129.580
G1 X 516.580 Y 129.580
G1 X 516.580 Y 247.170
G1 X 639.550 Y 279.750
G1 X 646.840 Y 278.790
G1 X 648.770 Y 293.360
G1 X 545.600 Y 342.650
G1 X 501.880 Y 336.860
G1 X 132.970 Y 287.990
G1 X  10.000 Y 320.570
G1 X  10.000 Y 450.890
G1 X 132.970 Y 483.470
G1 X 501.880 Y 434.600
G1 X 514.990 Y 432.860
G1 X 610.110 Y 537.640
G1 X 603.500 Y 549.100
G1 X 575.280 Y 597.970
G1 X 518.850 Y 597.970
G1 X 547.070 Y 646.840
G1 X 518.850 Y 695.710
F150
G1 Z   3.000
G0 Z  15.000 
M9 M5

(* SHAPE Nr: 56 *)
G0 X 501.880 Y 692.380
M3 M8
G0 Z   3.000 
G1 Z  -1.500
F400
G1 X 132.970 Y 643.510
G1 X  10.000 Y 676.090
G1 X  10.000 Y 806.410
G1 X 132.970 Y 838.990
G1 X 501.880 Y 790.120
G1 X 514.990 Y 788.380
G1 X 516.930 Y 802.950
G1 X 518.430 Y 843.000
G1 X 514.670 Y 857.210
G1 X 501.880 Y 853.820
G1 X 378.910 Y 821.240
G1 X  10.000 Y 870.110
G1 X  71.490 Y 889.660
G1 X  71.490 Y 948.300
G1 X  10.000 Y 967.850
G1 X 378.910 Y1016.720
G1 X 501.880 Y 984.140
G1 X 644.770 Y 945.170
G1 X 693.640 Y 909.670
G1 X 712.310 Y 852.220
G1 X 693.640 Y 794.770
G1 X 644.770 Y 759.260
G1 X 584.360 Y 759.260
G1 X 535.490 Y 794.770
G1 X 516.830 Y 852.220
G1 X 535.490 Y 909.670
G1 X 584.360 Y 945.170
G1 X 595.070 Y 952.950
G1 X 593.950 Y1055.890
G1 X 583.250 Y1063.660
G1 X 534.380 Y1099.170
G1 X 515.710 Y1156.620
G1 X 534.380 Y1214.070
G1 X 583.250 Y1249.580
G1 X 643.650 Y1249.580
G1 X 692.520 Y1214.070
G1 X 711.190 Y1156.620
G1 X 692.520 Y1099.170
G1 X 643.650 Y1063.660
G1 X 501.880 Y1047.900
G1 X 132.970 Y 999.030
G1 X  10.000 Y1031.600
G1 X  10.000 Y1161.930
G1 X 132.970 Y1194.510
G1 X 501.880 Y1145.640
G1 X 440.390 Y1126.090
G1 X 440.390 Y1067.440
G1 X 514.490 Y1043.890
G1 X 656.880 Y1048.960
G1 X 656.880 Y1063.660
G1 X 570.020 Y1063.660
G1 X 570.020 Y1048.960
G1 X 571.130 Y 945.170
G1 X 658.000 Y 945.170
G1 X 658.000 Y 959.870
G1 X 516.580 Y 997.370
G1 X 501.880 Y 997.370
G1 X 501.880 Y 833.780
G1 X 514.490 Y 794.130
G1 X 501.880 Y 790.120
G1 X 440.390 Y 770.570
G1 X 440.390 Y 711.920
G1 X 514.490 Y 688.370
G1 X 518.850 Y 695.710
G1 X 575.280 Y 695.710
G1 X 603.500 Y 744.580
G1 X 631.710 Y 695.710
G1 X 688.140 Y 695.710
G1 X 659.930 Y 646.840
G1 X 688.140 Y 597.970
G1 X 631.710 Y 597.970
G1 X 603.500 Y 549.100
G1 X 501.880 Y 498.320
G1 X 378.910 Y 465.740
G1 X  10.000 Y 514.610
G1 X  71.490 Y 534.160
G1 X  71.490 Y 592.800
G1 X  10.000 Y 612.350
G1 X 378.910 Y 661.220
G1 X 501.880 Y 628.640
G1 X 501.880 Y 478.260
G1 X 514.490 Y 438.610
G1 X 501.880 Y 434.600
G1 X 440.390 Y 415.050
G1 X 440.390 Y 356.400
G1 X 501.880 Y 336.860
G1 X 626.430 Y 281.490
G1 X 639.550 Y 279.750
G1 X1008.460 Y 230.880
G1 X 946.970 Y 211.330
G1 X 946.970 Y 152.690
G1 X1008.460 Y 133.140
G1 X 639.550 Y  84.270
G1 X 516.580 Y 116.850
G1 X 516.580 Y 260.400
G1 X 501.880 Y 260.400
G1 X 501.880 Y 142.810
G1 X 378.910 Y 110.230
G1 X  10.000 Y 159.100
F150
G1 Z  -3.000
F400
G1 X 378.910 Y 110.230
G1 X 501.880 Y 142.810
G1 X 501.880 Y 260.400
G1 X 516.580 Y 260.400
G1 X 516.580 Y 116.850
G1 X 639.550 Y  84.270
G1 X1008.460 Y 133.140
G1 X 946.970 Y 152.690
G1 X 946.970 Y 211.330
G1 X1008.460 Y 230.880
G1 X 639.550 Y 279.750
G1 X 626.430 Y 281.490
G1 X 501.880 Y 336.860
G1 X 440.390 Y 356.400
G1 X 440.390 Y 415.050
G1 X 501.880 Y 434.600
G1 X 514.490 Y 438.610
G1 X 501.880 Y 478.260
G1 X 501.880 Y 628.640
G1 X 378.910 Y 661.220
G1 X  10.000 Y 612.350
G1 X  71.490 Y 592.800
G1 X  71.490 Y 534.160
G1 X  10.000 Y 514.610
G1 X 378.910 Y 465.740
G1 X 501.880 Y 498.320
G1 X 603.500 Y 549.100
G1 X 631.710 Y 597.970
G1 X 688.140 Y 597.970
G1 X 659.930 Y 646.840
G1 X 688.140 Y 695.710
G1 X 631.710 Y 695.710
G1 X 603.500 Y 744.580
G1 X 575.280 Y 695.710
G1 X 518.850 Y 695.710
G1 X 514.490 Y 688.370
G1 X 440.390 Y 711.920
G1 X 440.390 Y 770.570
G1 X 501.880 Y 790.120
G1 X 514.490 Y 794.130
G1 X 501.880 Y 833.780
G1 X 501.880 Y 997.370
G1 X 516.580 Y 997.370
G1 X 658.000 Y 959.870
G1 X 658.000 Y 945.170
G1 X 571.130 Y 945.170
G1 X 570.020 Y1048.960
G1 X 570.020 Y1063.660
G1 X 656.880 Y1063.660
G1 X 656.880 Y1048.960
G1 X 514.490 Y1043.890
G1 X 440.390 Y1067.440
G1 X 440.390 Y1126.090
G1 X 501.880 Y1145.640
G1 X 132.970 Y1194.510
G1 X  10.000 Y1161.930
G1 X  10.000 Y1031.600
G1 X 132.970 Y 999.030
G1 X 501.880 Y1047.900
G1 X 643.650 Y1063.660
G1 X 692.520 Y1099.170
G1 X 711.190 Y1156.620
G1 X 692.520 Y1214.070
G1 X 643.650 Y1249.580
G1 X 583.250 Y1249.580
G1 X 534.380 Y1214.070
G1 X 515.710 Y1156.620
G1 X 534.380 Y1099.170
G1 X 583.250 Y1063.660
G1 X 593.950 Y1055.890
G1 X 595.070 Y 952.950
G1 X 584.360 Y 945.170
G1 X 535.490 Y 909.670
G1 X 516.830 Y 852.220
G1 X 535.490 Y 794.770
G1 X 584.360 Y 759.260
G1 X 644.770 Y 759.260
G1 X 693.640 Y 794.770
G1 X 712.310 Y 852.220
G1 X 693.640 Y 909.670
G1 X 644.770 Y 945.170
G1 X 501.880 Y 984.140
G1 X 378.910 Y1016.720
G1 X  10.000 Y 967.850
G1 X  71.490 Y 948.300
G1 X  71.490 Y 889.660
G1 X  10.000 Y 870.110
G1 X 378.910 Y 821.240
G1 X 501.880 Y 853.820
G1 X 514.670 Y 857.210
G1 X 518.430 Y 843.000
G1 X 516.930 Y 802.950
G1 X 514.990 Y 788.380
G1 X 501.880 Y 790.120
G1 X 132.970 Y 838.990
G1 X  10.000 Y 806.410
G1 X  10.000 Y 676.090
G1 X 132.970 Y 643.510
G1 X 501.880 Y 692.380
F150
G1 Z   3.000
G0 Z  15.000 
M9 M5

(* SHAPE Nr: 57 *)
G0 X 938.870 Y2040.000
M3 M8
G0 Z   3.000 
G1 Z  -1.500
F400
G1 X 938.870 Y1009.400
G2 X 659.150 Y 334.100 I-867.440 J -36.275
G1 X 597.760 Y 395.490
G3 X 852.050 Y1009.400 I-613.911 J 613.911
G1 X 852.050 Y2040.000
G1 X 952.100 Y2040.000
G1 X 952.100 Y2054.700
G1 X 426.970 Y2059.340
G1 X 415.080 Y2050.700
G1 X 422.850 Y2040.000
G1 X 520.320 Y1905.860
G1 X 678.010 Y1957.090
G1 X 678.010 Y1791.280
G1 X 835.710 Y1740.040
G1 X 738.250 Y1605.900
G1 X 835.710 Y1471.760
G1 X 678.010 Y1420.520
G1 X 678.010 Y1254.710
G1 X 520.320 Y1305.940
G1 X 422.850 Y1171.800
G1 X 325.390 Y1305.940
G1 X 167.700 Y1254.710
G1 X 167.700 Y1420.520
G1 X  10.000 Y1471.760
G1 X 107.460 Y1605.900
G1 X  10.000 Y1740.040
G1 X 167.700 Y1791.280
G1 X 167.700 Y1957.090
G1 X 325.390 Y1905.860
G1 X 422.850 Y2040.000
F150
G1 Z  -3.000
F400
G1 X 325.390 Y1905.860
G1 X 167.700 Y1957.090
G1 X 167.700 Y1791.280
G1 X  10.000 Y1740.040
G1 X 107.460 Y1605.900
G1 X  10.000 Y1471.760
G1 X 167.700 Y1420.520
G1 X 167.700 Y1254.710
G1 X 325.390 Y1305.940
G1 X 422.850 Y1171.800
G1 X 520.320 Y1305.940
G1 X 678.010 Y1254.710
G1 X 678.010 Y1420.520
G1 X 835.710 Y1471.760
G1 X 738.250 Y1605.900
G1 X 835.710 Y1740.040
G1 X 678.010 Y1791.280
G1 X 678.010 Y1957.090
G1 X 520.320 Y1905.860
G1 X 422.850 Y2040.000
G1 X 415.080 Y2050.700
G1 X 426.970 Y2059.340
G1 X 952.100 Y2054.700
G1 X 952.100 Y2040.000
G1 X 852.050 Y2040.000
G1 X 852.050 Y1009.400
G2 X 597.760 Y 395.490 I-868.201 J   0.001
G1 X 659.150 Y 334.100
G3 X 938.870 Y1009.400 I-587.720 J 639.025
G1 X 938.870 Y2040.000
F150
G1 Z   3.000
G0 Z  15.000 
M9 M5

(* SHAPE Nr: 58 *)
G0 X1091.500 Y1029.730
M3 M8
G0 Z   3.000 
G1 Z  -1.500
F400
G1 X1056.000 Y1078.600
G1 X1056.000 Y1139.010
G1 X1091.500 Y1187.880
G1 X1148.950 Y1206.550
G1 X1248.340 Y1174.250
G1 X1218.980 Y1244.820
G1 X1206.400 Y1240.730
G1 X1148.950 Y1222.070
G1 X1091.500 Y1240.730
G1 X1056.000 Y1289.600
G1 X1056.000 Y1350.010
G1 X1091.500 Y1398.880
G1 X1148.950 Y1417.550
G1 X1206.400 Y1398.880
G1 X1241.910 Y1350.010
G1 X1241.910 Y1289.600
G1 X1206.400 Y1240.730
G1 X1198.630 Y1230.030
G1 X1198.630 Y1198.580
G1 X1206.400 Y1187.880
G1 X1241.910 Y1139.010
G1 X1241.910 Y1078.600
G1 X1206.400 Y1029.730
G1 X1148.950 Y1011.070
G1 X1091.500 Y1029.730
F150
G1 Z  -3.000
F400
G1 X1056.000 Y1078.600
G1 X1056.000 Y1139.010
G1 X1091.500 Y1187.880
G1 X1148.950 Y1206.550
G1 X1248.340 Y1174.250
G1 X1218.980 Y1244.820
G1 X1206.400 Y1240.730
G1 X1148.950 Y1222.070
G1 X1091.500 Y1240.730
G1 X1056.000 Y1289.600
G1 X1056.000 Y1350.010
G1 X1091.500 Y1398.880
G1 X1148.950 Y1417.550
G1 X1206.400 Y1398.880
G1 X1241.910 Y1350.010
G1 X1241.910 Y1289.600
G1 X1206.400 Y1240.730
G1 X1198.630 Y1230.030
G1 X1198.630 Y1198.580
G1 X1206.400 Y1187.880
G1 X1241.910 Y1139.010
G1 X1241.910 Y1078.600
G1 X1206.400 Y1029.730
G1 X1148.950 Y1011.070
G1 X1091.500 Y1029.730
F150
G1 Z   3.000
G0 Z  15.000 
M9 M5

(* SHAPE Nr: 59 *)
G0 X2187.130 Y1920.000
M3 M8
G0 Z   3.000 
G1 Z  -1.500
F400
G1 X2138.260 Y1891.790
G1 X2138.260 Y1835.350
G1 X1986.080 Y1781.760
G1 X1990.170 Y1769.170
G1 X2073.070 Y1514.010
G1 X1990.170 Y1258.860
G1 X1773.120 Y1101.160
G1 X1491.600 Y1101.160
G1 X1354.090 Y1031.390
G1 X1388.190 Y1003.420
G1 X1580.480 Y 845.690
G1 X1643.340 Y1086.330
G1 X1706.200 Y 845.690
G1 X1898.500 Y1003.420
G1 X1807.910 Y 771.790
G1 X2056.200 Y 786.370
G1 X1846.760 Y 652.230
G1 X2056.200 Y 518.090
G1 X1807.910 Y 532.670
G1 X1898.500 Y 301.040
G1 X1706.200 Y 458.770
G1 X1643.340 Y 218.130
G1 X1580.480 Y 458.770
G1 X1388.190 Y 301.040
G1 X1478.780 Y 532.670
G1 X1230.490 Y 518.090
G1 X1439.930 Y 652.230
G1 X1230.490 Y 786.370
G1 X1478.780 Y 771.790
G1 X1388.190 Y1003.420
G1 X1506.890 Y1081.490
G1 X1515.530 Y1093.380
G1 X1504.830 Y1101.160
G1 X1287.780 Y1258.860
G1 X1204.880 Y1514.010
G1 X1287.780 Y1769.170
G1 X1504.830 Y1926.870
G1 X1773.120 Y1926.870
G1 X1990.170 Y1769.170
G1 X1992.440 Y1762.180
G1 X2006.420 Y1766.720
G1 X2012.770 Y1848.660
G1 X1974.580 Y1870.710
G1 X1925.710 Y1898.930
G1 X1876.840 Y1870.710
G1 X1876.840 Y1927.140
G1 X1827.970 Y1955.350
G1 X1876.840 Y1983.570
G1 X1876.840 Y2040.000
G1 X1925.710 Y2011.790
G1 X1974.580 Y2040.000
G1 X1974.580 Y1983.570
G1 X2023.450 Y1955.350
G1 X1974.580 Y1927.140
G1 X1974.580 Y1870.710
F150
G1 Z  -3.000
F400
G1 X1974.580 Y1927.140
G1 X2023.450 Y1955.350
G1 X1974.580 Y1983.570
G1 X1974.580 Y2040.000
G1 X1925.710 Y2011.790
G1 X1876.840 Y2040.000
G1 X1876.840 Y1983.570
G1 X1827.970 Y1955.350
G1 X1876.840 Y1927.140
G1 X1876.840 Y1870.710
G1 X1925.710 Y1898.930
G1 X1974.580 Y1870.710
G1 X2012.770 Y1848.660
G1 X2006.420 Y1766.720
G1 X1992.440 Y1762.180
G1 X1990.170 Y1769.170
G1 X1773.120 Y1926.870
G1 X1504.830 Y1926.870
G1 X1287.780 Y1769.170
G1 X1204.880 Y1514.010
G1 X1287.780 Y1258.860
G1 X1504.830 Y1101.160
G1 X1515.530 Y1093.380
G1 X1506.890 Y1081.490
G1 X1388.190 Y1003.420
G1 X1478.780 Y 771.790
G1 X1230.490 Y 786.370
G1 X1439.930 Y 652.230
G1 X1230.490 Y 518.090
G1 X1478.780 Y 532.670
G1 X1388.190 Y 301.040
G1 X1580.480 Y 458.770
G1 X1643.340 Y 218.130
G1 X1706.200 Y 458.770
G1 X1898.500 Y 301.040
G1 X1807.910 Y 532.670
G1 X2056.200 Y 518.090
G1 X1846.760 Y 652.230
G1 X2056.200 Y 786.370
G1 X1807.910 Y 771.790
G1 X1898.500 Y1003.420
G1 X1706.200 Y 845.690
G1 X1643.340 Y1086.330
G1 X1580.480 Y 845.690
G1 X1388.190 Y1003.420
G1 X1354.090 Y1031.390
G1 X1491.600 Y1101.160
G1 X1773.120 Y1101.160
G1 X1990.170 Y1258.860
G1 X2073.070 Y1514.010
G1 X1990.170 Y1769.170
G1 X1986.080 Y1781.760
G1 X2138.260 Y1835.350
G1 X2138.260 Y1891.790
G1 X2187.130 Y1920.000
F150
G1 Z   3.000
G0 Z  15.000 
M9 M5

(* SHAPE Nr: 60 *)
G0 X2138.260 Y1835.350
M3 M8
G0 Z   3.000 
G1 Z  -1.500
F400
G1 X2089.390 Y1863.570
G1 X2040.520 Y1835.350
G1 X2040.520 Y1891.790
G1 X1991.650 Y1920.000
G1 X2040.520 Y1948.210
G1 X2040.520 Y2004.650
G1 X2089.390 Y1976.430
G1 X2138.260 Y2004.650
G1 X2138.260 Y1948.210
G1 X2187.130 Y1920.000
G1 X2198.590 Y1913.390
G1 X2574.960 Y2065.920
G1 X2610.640 Y2040.000
G1 X2659.510 Y2004.490
G1 X2678.180 Y1947.040
G1 X2659.510 Y1889.590
G1 X2629.950 Y1830.670
G1 X2637.730 Y1819.960
G1 X2673.230 Y1771.090
G1 X2673.230 Y1710.690
G1 X2637.730 Y1661.820
G1 X2629.950 Y1651.110
G1 X2629.950 Y1619.730
G1 X2637.730 Y1609.030
G1 X2673.230 Y1560.160
G1 X2699.150 Y1524.480
G1 X2674.640 Y 349.260
G1 X2670.550 Y 336.670
G1 X2651.880 Y 279.230
G1 X2603.010 Y 243.720
G1 X2529.370 Y 243.720
G1 X2529.370 Y 229.020
G1 X2557.120 Y 229.020
G1 X2605.990 Y 193.510
G1 X2624.660 Y 136.060
F150
G1 Z  -3.000
F400
G1 X2605.990 Y 193.510
G1 X2557.120 Y 229.020
G1 X2529.370 Y 229.020
G1 X2529.370 Y 243.720
G1 X2603.010 Y 243.720
G1 X2651.880 Y 279.230
G1 X2670.550 Y 336.670
G1 X2674.640 Y 349.260
G1 X2699.150 Y1524.480
G1 X2673.230 Y1560.160
G1 X2637.730 Y1609.030
G1 X2629.950 Y1619.730
G1 X2629.950 Y1651.110
G1 X2637.730 Y1661.820
G1 X2673.230 Y1710.690
G1 X2673.230 Y1771.090
G1 X2637.730 Y1819.960
G1 X2629.950 Y1830.670
G1 X2659.510 Y1889.590
G1 X2678.180 Y1947.040
G1 X2659.510 Y2004.490
G1 X2610.640 Y2040.000
G1 X2574.960 Y2065.920
G1 X2198.590 Y1913.390
G1 X2187.130 Y1920.000
G1 X2138.260 Y1948.210
G1 X2138.260 Y2004.650
G1 X2089.390 Y1976.430
G1 X2040.520 Y2004.650
G1 X2040.520 Y1948.210
G1 X1991.650 Y1920.000
G1 X2040.520 Y1891.790
G1 X2040.520 Y1835.350
G1 X2089.390 Y1863.570
G1 X2138.260 Y1835.350
F150
G1 Z   3.000
G0 Z  15.000 
M9 M5

(* SHAPE Nr: 61 *)
G0 X2658.880 Y 553.570
M3 M8
G0 Z   3.000 
G1 Z  -1.500
F400
G1 X2602.450 Y 553.570
G1 X2574.240 Y 504.700
G1 X2546.020 Y 553.570
G1 X2489.590 Y 553.570
G1 X2517.810 Y 602.440
G1 X2489.590 Y 651.310
G1 X2546.020 Y 651.310
G1 X2574.240 Y 700.180
G1 X2602.450 Y 651.310
G1 X2702.980 Y 651.310
G1 X2672.110 Y 763.800
G1 X2602.450 Y 763.800
G1 X2574.240 Y 714.930
G1 X2546.020 Y 763.800
G1 X2489.590 Y 763.800
G1 X2517.810 Y 812.670
G1 X2489.590 Y 861.540
G1 X2546.020 Y 861.540
G1 X2574.240 Y 910.410
G1 X2602.450 Y 861.540
G1 X2658.880 Y 861.540
G1 X2630.670 Y 812.670
G1 X2658.880 Y 763.800
G1 X2658.880 Y 651.310
G1 X2630.670 Y 602.440
G1 X2723.790 Y 441.150
G1 X2624.660 Y 136.060
G1 X2605.990 Y  78.610
G1 X2557.120 Y  43.110
G1 X2496.710 Y  43.110
G1 X2447.840 Y  78.610
G1 X2429.180 Y 136.060
G1 X2447.840 Y 193.510
G1 X2496.710 Y 229.020
G1 X2570.350 Y 229.020
G1 X2570.350 Y 243.720
G1 X2542.600 Y 243.720
G1 X2493.730 Y 279.230
G1 X2475.070 Y 336.670
G1 X2493.730 Y 394.130
G1 X2542.600 Y 429.630
G1 X2603.010 Y 429.630
G1 X2651.880 Y 394.130
G1 X2670.550 Y 336.670
F150
G1 Z  -3.000
F400
G1 X2651.880 Y 394.130
G1 X2603.010 Y 429.630
G1 X2542.600 Y 429.630
G1 X2493.730 Y 394.130
G1 X2475.070 Y 336.670
G1 X2493.730 Y 279.230
G1 X2542.600 Y 243.720
G1 X2570.350 Y 243.720
G1 X2570.350 Y 229.020
G1 X2496.710 Y 229.020
G1 X2447.840 Y 193.510
G1 X2429.180 Y 136.060
G1 X2447.840 Y  78.610
G1 X2496.710 Y  43.110
G1 X2557.120 Y  43.110
G1 X2605.990 Y  78.610
G1 X2624.660 Y 136.060
G1 X2723.790 Y 441.150
G1 X2630.670 Y 602.440
G1 X2658.880 Y 651.310
G1 X2658.880 Y 763.800
G1 X2630.670 Y 812.670
G1 X2658.880 Y 861.540
G1 X2602.450 Y 861.540
G1 X2574.240 Y 910.410
G1 X2546.020 Y 861.540
G1 X2489.590 Y 861.540
G1 X2517.810 Y 812.670
G1 X2489.590 Y 763.800
G1 X2546.020 Y 763.800
G1 X2574.240 Y 714.930
G1 X2602.450 Y 763.800
G1 X2672.110 Y 763.800
G1 X2702.980 Y 651.310
G1 X2602.450 Y 651.310
G1 X2574.240 Y 700.180
G1 X2546.020 Y 651.310
G1 X2489.590 Y 651.310
G1 X2517.810 Y 602.440
G1 X2489.590 Y 553.570
G1 X2546.020 Y 553.570
G1 X2574.240 Y 504.700
G1 X2602.450 Y 553.570
G1 X2658.880 Y 553.570
F150
G1 Z   3.000
G0 Z  15.000 
M9 M5

(* SHAPE Nr: 62 *)
G0 X2673.230 Y1560.160
M3 M8
G0 Z   3.000 
G1 Z  -1.500
F400
G1 X2673.230 Y1499.750
G1 X2637.730 Y1450.880
G1 X2580.270 Y1432.210
G1 X2522.820 Y1450.880
G1 X2487.320 Y1499.750
G1 X2487.320 Y1560.160
G1 X2522.820 Y1609.030
G1 X2580.270 Y1627.690
G1 X2650.310 Y1604.940
G1 X2679.670 Y1675.450
G1 X2637.730 Y1661.820
G1 X2580.270 Y1643.150
G1 X2522.820 Y1661.820
G1 X2487.320 Y1710.690
G1 X2487.320 Y1771.090
G1 X2522.820 Y1819.960
G1 X2580.270 Y1838.630
G1 X2650.310 Y1815.880
G1 X2678.850 Y1885.480
G1 X2670.210 Y1897.370
G1 X2659.510 Y1889.590
G1 X2610.640 Y1854.090
G1 X2550.240 Y1854.090
G1 X2501.360 Y1889.590
G1 X2482.700 Y1947.040
G1 X2501.360 Y2004.490
G1 X2550.240 Y2040.000
G1 X2610.640 Y2040.000
F150
G1 Z  -3.000
F400
G1 X2550.240 Y2040.000
G1 X2501.360 Y2004.490
G1 X2482.700 Y1947.040
G1 X2501.360 Y1889.590
G1 X2550.240 Y1854.090
G1 X2610.640 Y1854.090
G1 X2659.510 Y1889.590
G1 X2670.210 Y1897.370
G1 X2678.850 Y1885.480
G1 X2650.310 Y1815.880
G1 X2580.270 Y1838.630
G1 X2522.820 Y1819.960
G1 X2487.320 Y1771.090
G1 X2487.320 Y1710.690
G1 X2522.820 Y1661.820
G1 X2580.270 Y1643.150
G1 X2637.730 Y1661.820
G1 X2679.670 Y1675.450
G1 X2650.310 Y1604.940
G1 X2580.270 Y1627.690
G1 X2522.820 Y1609.030
G1 X2487.320 Y1560.160
G1 X2487.320 Y1499.750
G1 X2522.820 Y1450.880
G1 X2580.270 Y1432.210
G1 X2637.730 Y1450.880
G1 X2673.230 Y1499.750
G1 X2673.230 Y1560.160
F150
G1 Z   3.000
G0 Z  15.000 
M9 M5
G0 X   0.000 Y   0.000
M2 (Program end)