(Generated with: DXF2GCODE, Version: REMOVED, Date: $Date$)
(Created from file: )
(Output format description: G-CODE for LinuxCNC)
(Time: Thu Sep 13 16:00:23 2018)
G21 (Units in millimeters)
G90 (Absolute programming)
G64 (Default cutting) G17 (XY plane) G40 (Cancel radius comp.) G49 (Cancel length comp.)
G0 Z  15.000 

(*** LAYER: FRAME_Z18 ***)
T1 M6
S6000

(* SHAPE Nr: 70 *)
G0 X   0.000 Y   0.000
M3 M8
G0 Z   3.000 
F150
G1 Z  -1.500
F400
G1 X   0.000 Y2050.000
G1 X2800.000 Y2050.000
G1 X2800.000 Y   0.000
G1 X   0.000 Y   0.000
F150
G1 Z  -3.000
F400
G1 X   0.000 Y2050.000
G1 X2800.000 Y2050.000
G1 X2800.000 Y   0.000
G1 X   0.000 Y   0.000
F150
G1 Z   3.000
G0 Z  15.000 
M9 M5

(*** LAYER: CONTOUR_D0 ***)

(* SHAPE Nr: 0 *)
G0 X1466.660 Y 461.390
M3 M8
G0 Z   3.000 
G1 Z  -1.500
F400
G2 X1463.220 Y 475.000 I  25.958 J  13.801
G2 X1466.660 Y 488.600 I  29.398 J  -0.201
G2 X1476.890 Y 501.800 I  43.627 J -23.247
G2 X1493.570 Y 514.170 I  64.843 J -70.004
G2 X1516.220 Y 525.360 I  53.219 J -79.203
G2 X1544.150 Y 535.020 I  69.814 J-156.647
G2 X1576.500 Y 542.850 I 108.355 J-376.932
G2 X1612.290 Y 548.620 I  98.510 J-497.151
G2 X1650.430 Y 552.160 I  74.306 J-593.345
G2 X1689.770 Y 553.350 I  39.269 J-647.318
G2 X1729.110 Y 552.160 I   0.071 J-648.508
G2 X1767.250 Y 548.620 I -36.166 J-596.885
G2 X1803.040 Y 542.850 I -62.720 J-502.921
G2 X1835.390 Y 535.020 I -76.005 J-384.762
G2 X1863.310 Y 525.360 I -75.622 J-263.746
G2 X1885.970 Y 514.170 I -64.400 J-158.951
G2 X1902.660 Y 501.800 I -48.136 J -82.391
G2 X1912.880 Y 488.600 I -33.416 J -36.429
G2 X1916.320 Y 475.000 I -25.958 J -13.801
G2 X1912.880 Y 461.390 I -29.398 J   0.191
G2 X1902.660 Y 448.200 I -43.626 J  23.248
G2 X1885.970 Y 435.830 I -64.826 J  70.021
G2 X1863.310 Y 424.640 I -87.060 J 147.761
G2 X1835.390 Y 414.980 I-103.542 J 254.086
G2 X1803.040 Y 407.150 I-108.355 J 376.932
G2 X1767.250 Y 401.380 I -98.510 J 497.151
G2 X1729.110 Y 397.840 I -74.306 J 593.345
G2 X1689.770 Y 396.650 I -39.269 J 647.318
G2 X1650.430 Y 397.840 I  -0.071 J 648.508
G2 X1612.290 Y 401.380 I  36.166 J 596.885
G2 X1576.500 Y 407.150 I  62.720 J 502.921
G2 X1544.150 Y 414.980 I  76.005 J 384.762
G2 X1516.220 Y 424.640 I  75.587 J 263.752
G2 X1493.570 Y 435.830 I  64.432 J 158.937
G2 X1476.890 Y 448.200 I  48.163 J  82.374
G2 X1466.660 Y 461.390 I  33.386 J  36.456
F150
G1 Z  -3.000
F400
G2 X1463.220 Y 475.000 I  25.958 J  13.801
G2 X1466.660 Y 488.600 I  29.398 J  -0.201
G2 X1476.890 Y 501.800 I  43.627 J -23.247
G2 X1493.570 Y 514.170 I  64.843 J -70.004
G2 X1516.220 Y 525.360 I  53.219 J -79.203
G2 X1544.150 Y 535.020 I  69.814 J-156.647
G2 X1576.500 Y 542.850 I 108.355 J-376.932
G2 X1612.290 Y 548.620 I  98.510 J-497.151
G2 X1650.430 Y 552.160 I  74.306 J-593.345
G2 X1689.770 Y 553.350 I  39.269 J-647.318
G2 X1729.110 Y 552.160 I   0.071 J-648.508
G2 X1767.250 Y 548.620 I -36.166 J-596.885
G2 X1803.040 Y 542.850 I -62.720 J-502.921
G2 X1835.390 Y 535.020 I -76.005 J-384.762
G2 X1863.310 Y 525.360 I -75.622 J-263.746
G2 X1885.970 Y 514.170 I -64.400 J-158.951
G2 X1902.660 Y 501.800 I -48.136 J -82.391
G2 X1912.880 Y 488.600 I -33.416 J -36.429
G2 X1916.320 Y 475.000 I -25.958 J -13.801
G2 X1912.880 Y 461.390 I -29.398 J   0.191
G2 X1902.660 Y 448.200 I -43.626 J  23.248
G2 X1885.970 Y 435.830 I -64.826 J  70.021
G2 X1863.310 Y 424.640 I -87.060 J 147.761
G2 X1835.390 Y 414.980 I-103.542 J 254.086
G2 X1803.040 Y 407.150 I-108.355 J 376.932
G2 X1767.250 Y 401.380 I -98.510 J 497.151
G2 X1729.110 Y 397.840 I -74.306 J 593.345
G2 X1689.770 Y 396.650 I -39.269 J 647.318
G2 X1650.430 Y 397.840 I  -0.071 J 648.508
G2 X1612.290 Y 401.380 I  36.166 J 596.885
G2 X1576.500 Y 407.150 I  62.720 J 502.921
G2 X1544.150 Y 414.980 I  76.005 J 384.762
G2 X1516.220 Y 424.640 I  75.587 J 263.752
G2 X1493.570 Y 435.830 I  64.432 J 158.937
G2 X1476.890 Y 448.200 I  48.163 J  82.374
G2 X1466.660 Y 461.390 I  33.386 J  36.456
F150
G1 Z   3.000
G0 Z  15.000 
M9 M5

(* SHAPE Nr: 1 *)
G0 X1917.400 Y 380.000
M3 M8
G0 Z   3.000 
G1 Z  -1.500
F400
G2 X1920.840 Y 393.600 I  29.398 J  -0.201
G2 X1931.070 Y 406.800 I  43.627 J -23.247
G2 X1947.750 Y 419.170 I  64.843 J -70.004
G2 X1970.400 Y 430.360 I  53.219 J -79.203
G2 X1998.330 Y 440.020 I  69.814 J-156.647
G2 X2030.680 Y 447.850 I 108.355 J-376.932
G2 X2066.470 Y 453.620 I  98.510 J-497.151
G2 X2104.610 Y 457.160 I  74.306 J-593.345
G2 X2143.950 Y 458.350 I  39.269 J-647.318
G2 X2183.290 Y 457.160 I   0.071 J-648.508
G2 X2221.430 Y 453.620 I -36.166 J-596.885
G2 X2257.220 Y 447.850 I -62.720 J-502.921
G2 X2289.570 Y 440.020 I -76.005 J-384.762
G2 X2317.490 Y 430.360 I -75.622 J-263.746
G2 X2340.150 Y 419.170 I -64.400 J-158.951
G2 X2356.840 Y 406.800 I -48.136 J -82.391
G2 X2367.060 Y 393.600 I -33.416 J -36.428
G2 X2370.500 Y 380.000 I -25.958 J -13.801
G2 X2367.060 Y 366.390 I -29.398 J   0.191
G2 X2356.840 Y 353.200 I -43.626 J  23.248
G2 X2340.150 Y 340.830 I -64.826 J  70.021
G2 X2317.490 Y 329.640 I -87.060 J 147.761
G2 X2289.570 Y 319.980 I-103.542 J 254.086
G2 X2257.220 Y 312.150 I-108.355 J 376.932
G2 X2221.430 Y 306.380 I -98.510 J 497.151
G2 X2183.290 Y 302.840 I -74.306 J 593.345
G2 X2143.950 Y 301.650 I -39.269 J 647.318
G2 X2104.610 Y 302.840 I  -0.071 J 648.508
G2 X2066.470 Y 306.380 I  36.166 J 596.885
G2 X2030.680 Y 312.150 I  62.720 J 502.921
G2 X1998.330 Y 319.980 I  76.005 J 384.762
G2 X1970.400 Y 329.640 I  75.587 J 263.752
G2 X1947.750 Y 340.830 I  64.432 J 158.937
G2 X1931.070 Y 353.200 I  48.163 J  82.374
G2 X1920.840 Y 366.390 I  33.386 J  36.456
G2 X1917.400 Y 380.000 I  25.958 J  13.801
F150
G1 Z  -3.000
F400
G2 X1920.840 Y 393.600 I  29.398 J  -0.201
G2 X1931.070 Y 406.800 I  43.627 J -23.247
G2 X1947.750 Y 419.170 I  64.843 J -70.004
G2 X1970.400 Y 430.360 I  53.219 J -79.203
G2 X1998.330 Y 440.020 I  69.814 J-156.647
G2 X2030.680 Y 447.850 I 108.355 J-376.932
G2 X2066.470 Y 453.620 I  98.510 J-497.151
G2 X2104.610 Y 457.160 I  74.306 J-593.345
G2 X2143.950 Y 458.350 I  39.269 J-647.318
G2 X2183.290 Y 457.160 I   0.071 J-648.508
G2 X2221.430 Y 453.620 I -36.166 J-596.885
G2 X2257.220 Y 447.850 I -62.720 J-502.921
G2 X2289.570 Y 440.020 I -76.005 J-384.762
G2 X2317.490 Y 430.360 I -75.622 J-263.746
G2 X2340.150 Y 419.170 I -64.400 J-158.951
G2 X2356.840 Y 406.800 I -48.136 J -82.391
G2 X2367.060 Y 393.600 I -33.416 J -36.428
G2 X2370.500 Y 380.000 I -25.958 J -13.801
G2 X2367.060 Y 366.390 I -29.398 J   0.191
G2 X2356.840 Y 353.200 I -43.626 J  23.248
G2 X2340.150 Y 340.830 I -64.826 J  70.021
G2 X2317.490 Y 329.640 I -87.060 J 147.761
G2 X2289.570 Y 319.980 I-103.542 J 254.086
G2 X2257.220 Y 312.150 I-108.355 J 376.932
G2 X2221.430 Y 306.380 I -98.510 J 497.151
G2 X2183.290 Y 302.840 I -74.306 J 593.345
G2 X2143.950 Y 301.650 I -39.269 J 647.318
G2 X2104.610 Y 302.840 I  -0.071 J 648.508
G2 X2066.470 Y 306.380 I  36.166 J 596.885
G2 X2030.680 Y 312.150 I  62.720 J 502.921
G2 X1998.330 Y 319.980 I  76.005 J 384.762
G2 X1970.400 Y 329.640 I  75.587 J 263.752
G2 X1947.750 Y 340.830 I  64.432 J 158.937
G2 X1931.070 Y 353.200 I  48.163 J  82.374
G2 X1920.840 Y 366.390 I  33.386 J  36.456
G2 X1917.400 Y 380.000 I  25.958 J  13.801
F150
G1 Z   3.000
G0 Z  15.000 
M9 M5

(* SHAPE Nr: 2 *)
G0 X2642.700 Y1597.860
M3 M8
G0 Z   3.000 
G1 Z  -1.500
F400
G2 X2631.510 Y1620.510 I  79.203 J  53.219
G2 X2621.850 Y1648.440 I 156.647 J  69.814
G2 X2614.020 Y1680.790 I 376.932 J 108.355
G2 X2608.250 Y1716.580 I 497.151 J  98.510
G2 X2604.710 Y1754.720 I 593.345 J  74.306
G2 X2603.520 Y1794.060 I 647.318 J  39.269
G2 X2604.710 Y1833.400 I 648.508 J   0.071
G2 X2608.250 Y1871.540 I 596.885 J -36.166
G2 X2614.020 Y1907.330 I 502.921 J -62.720
G2 X2621.850 Y1939.680 I 384.762 J -76.005
G2 X2631.510 Y1967.600 I 263.746 J -75.622
G2 X2642.700 Y1990.260 I 158.951 J -64.400
G2 X2655.070 Y2006.950 I  82.392 J -48.137
G2 X2668.270 Y2017.170 I  36.429 J -33.416
G2 X2681.870 Y2020.610 I  13.801 J -25.958
G2 X2695.480 Y2017.170 I  -0.191 J -29.398
G2 X2708.670 Y2006.950 I -23.248 J -43.626
G2 X2721.040 Y1990.260 I -70.022 J -64.827
G2 X2732.230 Y1967.600 I-147.761 J -87.060
G2 X2741.890 Y1939.680 I-254.086 J-103.542
G2 X2749.720 Y1907.330 I-376.932 J-108.355
G2 X2755.490 Y1871.540 I-497.151 J -98.510
G2 X2759.030 Y1833.400 I-593.345 J -74.306
G2 X2760.220 Y1794.060 I-647.318 J -39.269
G2 X2759.030 Y1754.720 I-648.508 J  -0.071
G2 X2755.490 Y1716.580 I-596.885 J  36.166
G2 X2749.720 Y1680.790 I-502.921 J  62.720
G2 X2741.890 Y1648.440 I-384.762 J  76.005
G2 X2732.230 Y1620.510 I-263.762 J  75.590
G2 X2721.040 Y1597.860 I-158.937 J  64.432
G2 X2708.670 Y1581.180 I -82.376 J  48.164
G2 X2695.480 Y1570.950 I -36.456 J  33.386
G2 X2681.870 Y1567.510 I -13.801 J  25.958
G2 X2668.270 Y1570.950 I   0.201 J  29.398
G2 X2655.070 Y1581.180 I  23.247 J  43.627
G2 X2642.700 Y1597.860 I  70.006 J  64.844
F150
G1 Z  -3.000
F400
G2 X2631.510 Y1620.510 I  79.203 J  53.219
G2 X2621.850 Y1648.440 I 156.647 J  69.814
G2 X2614.020 Y1680.790 I 376.932 J 108.355
G2 X2608.250 Y1716.580 I 497.151 J  98.510
G2 X2604.710 Y1754.720 I 593.345 J  74.306
G2 X2603.520 Y1794.060 I 647.318 J  39.269
G2 X2604.710 Y1833.400 I 648.508 J   0.071
G2 X2608.250 Y1871.540 I 596.885 J -36.166
G2 X2614.020 Y1907.330 I 502.921 J -62.720
G2 X2621.850 Y1939.680 I 384.762 J -76.005
G2 X2631.510 Y1967.600 I 263.746 J -75.622
G2 X2642.700 Y1990.260 I 158.951 J -64.400
G2 X2655.070 Y2006.950 I  82.392 J -48.137
G2 X2668.270 Y2017.170 I  36.429 J -33.416
G2 X2681.870 Y2020.610 I  13.801 J -25.958
G2 X2695.480 Y2017.170 I  -0.191 J -29.398
G2 X2708.670 Y2006.950 I -23.248 J -43.626
G2 X2721.040 Y1990.260 I -70.022 J -64.827
G2 X2732.230 Y1967.600 I-147.761 J -87.060
G2 X2741.890 Y1939.680 I-254.086 J-103.542
G2 X2749.720 Y1907.330 I-376.932 J-108.355
G2 X2755.490 Y1871.540 I-497.151 J -98.510
G2 X2759.030 Y1833.400 I-593.345 J -74.306
G2 X2760.220 Y1794.060 I-647.318 J -39.269
G2 X2759.030 Y1754.720 I-648.508 J  -0.071
G2 X2755.490 Y1716.580 I-596.885 J  36.166
G2 X2749.720 Y1680.790 I-502.921 J  62.720
G2 X2741.890 Y1648.440 I-384.762 J  76.005
G2 X2732.230 Y1620.510 I-263.762 J  75.590
G2 X2721.040 Y1597.860 I-158.937 J  64.432
G2 X2708.670 Y1581.180 I -82.376 J  48.164
G2 X2695.480 Y1570.950 I -36.456 J  33.386
G2 X2681.870 Y1567.510 I -13.801 J  25.958
G2 X2668.270 Y1570.950 I   0.201 J  29.398
G2 X2655.070 Y1581.180 I  23.247 J  43.627
G2 X2642.700 Y1597.860 I  70.006 J  64.844
F150
G1 Z   3.000
G0 Z  15.000 
M9 M5

(* SHAPE Nr: 3 *)
G0 X1943.340 Y 825.570
M3 M8
G0 Z   3.000 
G1 Z  -1.500
F400
G2 X1908.550 Y 923.640 I 820.093 J 346.131
G2 X1882.920 Y1032.140 I1051.305 J 305.618
G2 X1867.220 Y1147.780 I1235.026 J 226.560
G2 X1861.930 Y1267.050 I1338.856 J 119.135
G2 X1867.220 Y1386.320 I1344.206 J   0.133
G2 X1882.920 Y1501.960 I1250.726 J-110.920
G2 X1908.550 Y1610.460 I1076.935 J-197.118
G2 X1943.340 Y1708.530 I 854.883 J-248.061
G2 X1986.230 Y1793.180 I 622.267 J-262.096
G2 X2035.910 Y1861.850 I 413.077 J-246.539
G2 X2090.890 Y1912.450 I 249.161 J-215.559
G2 X2149.480 Y1943.430 I 135.687 J-185.721
G2 X2209.900 Y1953.870 I  60.781 J-171.702
G2 X2270.320 Y1943.430 I  -0.361 J-182.142
G2 X2328.910 Y1912.450 I -77.096 J-216.698
G2 X2383.890 Y1861.850 I-194.181 J-266.159
G2 X2433.570 Y1793.180 I-363.397 J-315.209
G2 X2476.460 Y1708.530 I-579.377 J-346.746
G2 X2511.250 Y1610.460 I-820.093 J-346.131
G2 X2536.880 Y1501.960 I-1051.305 J-305.618
G2 X2552.580 Y1386.320 I-1235.026 J-226.560
G2 X2557.870 Y1267.050 I-1338.916 J-119.137
G2 X2552.580 Y1147.780 I-1344.146 J  -0.135
G2 X2536.880 Y1032.140 I-1250.726 J 110.920
G2 X2511.250 Y 923.640 I-1076.935 J 197.118
G2 X2476.460 Y 825.570 I-854.883 J 248.061
G2 X2433.570 Y 740.920 I-622.267 J 262.096
G2 X2383.890 Y 672.250 I-413.077 J 246.539
G2 X2328.910 Y 621.650 I-249.161 J 215.559
G2 X2270.320 Y 590.670 I-135.686 J 185.718
G2 X2209.900 Y 580.230 I -60.781 J 171.702
G2 X2149.480 Y 590.670 I   0.361 J 182.142
G2 X2090.890 Y 621.650 I  77.097 J 216.701
G2 X2035.910 Y 672.250 I 194.181 J 266.159
G2 X1986.230 Y 740.920 I 239.876 J 225.847
G2 X1943.340 Y 825.570 I 405.579 J 258.687
F150
G1 Z  -3.000
F400
G2 X1908.550 Y 923.640 I 820.093 J 346.131
G2 X1882.920 Y1032.140 I1051.305 J 305.618
G2 X1867.220 Y1147.780 I1235.026 J 226.560
G2 X1861.930 Y1267.050 I1338.856 J 119.135
G2 X1867.220 Y1386.320 I1344.206 J   0.133
G2 X1882.920 Y1501.960 I1250.726 J-110.920
G2 X1908.550 Y1610.460 I1076.935 J-197.118
G2 X1943.340 Y1708.530 I 854.883 J-248.061
G2 X1986.230 Y1793.180 I 622.267 J-262.096
G2 X2035.910 Y1861.850 I 413.077 J-246.539
G2 X2090.890 Y1912.450 I 249.161 J-215.559
G2 X2149.480 Y1943.430 I 135.687 J-185.721
G2 X2209.900 Y1953.870 I  60.781 J-171.702
G2 X2270.320 Y1943.430 I  -0.361 J-182.142
G2 X2328.910 Y1912.450 I -77.096 J-216.698
G2 X2383.890 Y1861.850 I-194.181 J-266.159
G2 X2433.570 Y1793.180 I-363.397 J-315.209
G2 X2476.460 Y1708.530 I-579.377 J-346.746
G2 X2511.250 Y1610.460 I-820.093 J-346.131
G2 X2536.880 Y1501.960 I-1051.305 J-305.618
G2 X2552.580 Y1386.320 I-1235.026 J-226.560
G2 X2557.870 Y1267.050 I-1338.916 J-119.137
G2 X2552.580 Y1147.780 I-1344.146 J  -0.135
G2 X2536.880 Y1032.140 I-1250.726 J 110.920
G2 X2511.250 Y 923.640 I-1076.935 J 197.118
G2 X2476.460 Y 825.570 I-854.883 J 248.061
G2 X2433.570 Y 740.920 I-622.267 J 262.096
G2 X2383.890 Y 672.250 I-413.077 J 246.539
G2 X2328.910 Y 621.650 I-249.161 J 215.559
G2 X2270.320 Y 590.670 I-135.686 J 185.718
G2 X2209.900 Y 580.230 I -60.781 J 171.702
G2 X2149.480 Y 590.670 I   0.361 J 182.142
G2 X2090.890 Y 621.650 I  77.097 J 216.701
G2 X2035.910 Y 672.250 I 194.181 J 266.159
G2 X1986.230 Y 740.920 I 239.876 J 225.847
G2 X1943.340 Y 825.570 I 405.579 J 258.687
F150
G1 Z   3.000
G0 Z  15.000 
M9 M5

(* SHAPE Nr: 4 *)
G0 X1103.330 Y 740.920
M3 M8
G0 Z   3.000 
G1 Z  -1.500
F400
G2 X1060.440 Y 825.570 I 405.579 J 258.687
G2 X1025.650 Y 923.640 I 820.093 J 346.131
G2 X1000.020 Y1032.140 I1051.305 J 305.618
G2 X 984.320 Y1147.780 I1235.026 J 226.560
G2 X 979.030 Y1267.050 I1338.856 J 119.135
G2 X 984.320 Y1386.320 I1344.206 J   0.133
G2 X1000.020 Y1501.960 I1250.726 J-110.920
G2 X1025.650 Y1610.460 I1076.935 J-197.118
G2 X1060.440 Y1708.530 I 854.883 J-248.061
G2 X1103.330 Y1793.180 I 622.267 J-262.096
G2 X1153.010 Y1861.850 I 413.077 J-246.539
G2 X1207.990 Y1912.450 I 249.161 J-215.559
G2 X1266.580 Y1943.430 I 135.686 J-185.718
G2 X1327.000 Y1953.870 I  60.781 J-171.702
G2 X1387.420 Y1943.430 I  -0.361 J-182.142
G2 X1446.010 Y1912.450 I -77.096 J-216.698
G2 X1500.990 Y1861.850 I-194.181 J-266.159
G2 X1550.670 Y1793.180 I-363.397 J-315.209
G2 X1593.560 Y1708.530 I-579.377 J-346.746
G2 X1628.350 Y1610.460 I-820.093 J-346.131
G2 X1653.980 Y1501.960 I-1051.305 J-305.618
G2 X1669.680 Y1386.320 I-1235.026 J-226.560
G2 X1674.970 Y1267.050 I-1338.916 J-119.137
G2 X1669.680 Y1147.780 I-1344.146 J  -0.135
G2 X1653.980 Y1032.140 I-1250.726 J 110.920
G2 X1628.350 Y 923.640 I-1076.935 J 197.118
G2 X1593.560 Y 825.570 I-854.883 J 248.061
G2 X1550.670 Y 740.920 I-622.267 J 262.096
G2 X1500.990 Y 672.250 I-413.077 J 246.539
G2 X1446.010 Y 621.650 I-249.161 J 215.559
G2 X1387.420 Y 590.670 I-135.686 J 185.718
G2 X1327.000 Y 580.230 I -60.781 J 171.702
G2 X1266.580 Y 590.670 I   0.361 J 182.142
G2 X1207.990 Y 621.650 I  77.096 J 216.698
G2 X1153.010 Y 672.250 I 194.181 J 266.159
G2 X1103.330 Y 740.920 I 239.876 J 225.847
F150
G1 Z  -3.000
F400
G2 X1060.440 Y 825.570 I 405.579 J 258.687
G2 X1025.650 Y 923.640 I 820.093 J 346.131
G2 X1000.020 Y1032.140 I1051.305 J 305.618
G2 X 984.320 Y1147.780 I1235.026 J 226.560
G2 X 979.030 Y1267.050 I1338.856 J 119.135
G2 X 984.320 Y1386.320 I1344.206 J   0.133
G2 X1000.020 Y1501.960 I1250.726 J-110.920
G2 X1025.650 Y1610.460 I1076.935 J-197.118
G2 X1060.440 Y1708.530 I 854.883 J-248.061
G2 X1103.330 Y1793.180 I 622.267 J-262.096
G2 X1153.010 Y1861.850 I 413.077 J-246.539
G2 X1207.990 Y1912.450 I 249.161 J-215.559
G2 X1266.580 Y1943.430 I 135.686 J-185.718
G2 X1327.000 Y1953.870 I  60.781 J-171.702
G2 X1387.420 Y1943.430 I  -0.361 J-182.142
G2 X1446.010 Y1912.450 I -77.096 J-216.698
G2 X1500.990 Y1861.850 I-194.181 J-266.159
G2 X1550.670 Y1793.180 I-363.397 J-315.209
G2 X1593.560 Y1708.530 I-579.377 J-346.746
G2 X1628.350 Y1610.460 I-820.093 J-346.131
G2 X1653.980 Y1501.960 I-1051.305 J-305.618
G2 X1669.680 Y1386.320 I-1235.026 J-226.560
G2 X1674.970 Y1267.050 I-1338.916 J-119.137
G2 X1669.680 Y1147.780 I-1344.146 J  -0.135
G2 X1653.980 Y1032.140 I-1250.726 J 110.920
G2 X1628.350 Y 923.640 I-1076.935 J 197.118
G2 X1593.560 Y 825.570 I-854.883 J 248.061
G2 X1550.670 Y 740.920 I-622.267 J 262.096
G2 X1500.990 Y 672.250 I-413.077 J 246.539
G2 X1446.010 Y 621.650 I-249.161 J 215.559
G2 X1387.420 Y 590.670 I-135.686 J 185.718
G2 X1327.000 Y 580.230 I -60.781 J 171.702
G2 X1266.580 Y 590.670 I   0.361 J 182.142
G2 X1207.990 Y 621.650 I  77.096 J 216.698
G2 X1153.010 Y 672.250 I 194.181 J 266.159
G2 X1103.330 Y 740.920 I 239.876 J 225.847
F150
G1 Z   3.000
G0 Z  15.000 
M9 M5

(* SHAPE Nr: 5 *)
G0 X 325.090 Y 621.650
M3 M8
G0 Z   3.000 
G1 Z  -1.500
F400
G2 X 270.110 Y 672.250 I 194.181 J 266.159
G2 X 220.430 Y 740.920 I 239.876 J 225.847
G2 X 177.540 Y 825.570 I 405.579 J 258.687
G2 X 142.750 Y 923.640 I 820.093 J 346.131
G2 X 117.120 Y1032.140 I1051.305 J 305.618
G2 X 101.420 Y1147.780 I1235.026 J 226.560
G2 X  96.130 Y1267.050 I1338.916 J 119.137
G2 X 101.420 Y1386.320 I1344.206 J   0.133
G2 X 117.120 Y1501.960 I1250.726 J-110.920
G2 X 142.750 Y1610.460 I1076.935 J-197.118
G2 X 177.540 Y1708.530 I 854.883 J-248.061
G2 X 220.430 Y1793.180 I 622.267 J-262.096
G2 X 270.110 Y1861.850 I 413.077 J-246.539
G2 X 325.090 Y1912.450 I 249.161 J-215.559
G2 X 383.680 Y1943.430 I 135.686 J-185.718
G2 X 444.100 Y1953.870 I  60.781 J-171.702
G2 X 504.520 Y1943.430 I  -0.361 J-182.142
G2 X 563.110 Y1912.450 I -77.096 J-216.698
G2 X 618.090 Y1861.850 I-194.181 J-266.159
G2 X 667.770 Y1793.180 I-363.397 J-315.209
G2 X 710.660 Y1708.530 I-579.377 J-346.746
G2 X 745.450 Y1610.460 I-820.093 J-346.131
G2 X 771.080 Y1501.960 I-1051.305 J-305.618
G2 X 786.780 Y1386.320 I-1235.026 J-226.560
G2 X 792.070 Y1267.050 I-1338.916 J-119.137
G2 X 786.780 Y1147.780 I-1344.146 J  -0.135
G2 X 771.080 Y1032.140 I-1250.726 J 110.920
G2 X 745.450 Y 923.640 I-1076.935 J 197.118
G2 X 710.660 Y 825.570 I-854.883 J 248.061
G2 X 667.770 Y 740.920 I-622.267 J 262.096
G2 X 618.090 Y 672.250 I-413.077 J 246.539
G2 X 563.110 Y 621.650 I-249.161 J 215.559
G2 X 504.520 Y 590.670 I-135.686 J 185.718
G2 X 444.100 Y 580.230 I -60.781 J 171.702
G2 X 383.680 Y 590.670 I   0.361 J 182.142
G2 X 325.090 Y 621.650 I  77.096 J 216.698
F150
G1 Z  -3.000
F400
G2 X 270.110 Y 672.250 I 194.181 J 266.159
G2 X 220.430 Y 740.920 I 239.876 J 225.847
G2 X 177.540 Y 825.570 I 405.579 J 258.687
G2 X 142.750 Y 923.640 I 820.093 J 346.131
G2 X 117.120 Y1032.140 I1051.305 J 305.618
G2 X 101.420 Y1147.780 I1235.026 J 226.560
G2 X  96.130 Y1267.050 I1338.916 J 119.137
G2 X 101.420 Y1386.320 I1344.206 J   0.133
G2 X 117.120 Y1501.960 I1250.726 J-110.920
G2 X 142.750 Y1610.460 I1076.935 J-197.118
G2 X 177.540 Y1708.530 I 854.883 J-248.061
G2 X 220.430 Y1793.180 I 622.267 J-262.096
G2 X 270.110 Y1861.850 I 413.077 J-246.539
G2 X 325.090 Y1912.450 I 249.161 J-215.559
G2 X 383.680 Y1943.430 I 135.686 J-185.718
G2 X 444.100 Y1953.870 I  60.781 J-171.702
G2 X 504.520 Y1943.430 I  -0.361 J-182.142
G2 X 563.110 Y1912.450 I -77.096 J-216.698
G2 X 618.090 Y1861.850 I-194.181 J-266.159
G2 X 667.770 Y1793.180 I-363.397 J-315.209
G2 X 710.660 Y1708.530 I-579.377 J-346.746
G2 X 745.450 Y1610.460 I-820.093 J-346.131
G2 X 771.080 Y1501.960 I-1051.305 J-305.618
G2 X 786.780 Y1386.320 I-1235.026 J-226.560
G2 X 792.070 Y1267.050 I-1338.916 J-119.137
G2 X 786.780 Y1147.780 I-1344.146 J  -0.135
G2 X 771.080 Y1032.140 I-1250.726 J 110.920
G2 X 745.450 Y 923.640 I-1076.935 J 197.118
G2 X 710.660 Y 825.570 I-854.883 J 248.061
G2 X 667.770 Y 740.920 I-622.267 J 262.096
G2 X 618.090 Y 672.250 I-413.077 J 246.539
G2 X 563.110 Y 621.650 I-249.161 J 215.559
G2 X 504.520 Y 590.670 I-135.686 J 185.718
G2 X 444.100 Y 580.230 I -60.781 J 171.702
G2 X 383.680 Y 590.670 I   0.361 J 182.142
G2 X 325.090 Y 621.650 I  77.096 J 216.698
F150
G1 Z   3.000
G0 Z  15.000 
M9 M5

(*** LAYER: BORDER_D0_T132_RK1_A0_W0_EM1_RI1_ID0020 ***)

(* SHAPE Nr: 6 *)
G0 X 464.430 Y 126.790
M3 M8
G0 Z   3.000 
G1 Z  -1.500
F400
G2 X 460.690 Y 143.760 I  37.487 J  17.159
G1 X 706.630 Y 143.760
G1 X 952.570 Y 143.760
G2 X 948.830 Y 126.790 I -41.227 J   0.189
G2 X 937.740 Y 110.330 I -55.807 J  25.634
G2 X 919.620 Y  94.890 I -77.345 J  72.418
G2 X 895.030 Y  80.930 I -99.664 J 146.917
G2 X 864.720 Y  68.890 I-115.619 J 246.893
G2 X 829.600 Y  59.120 I-119.400 J 361.196
G2 X 790.750 Y  51.910 I-107.781 J 472.487
G2 X 749.340 Y  47.510 I -80.598 J 561.472
G2 X 706.630 Y  46.020 I -42.711 J 611.416
G2 X 663.920 Y  47.510 I   0.001 J 612.906
G2 X 622.510 Y  51.910 I  39.188 J 565.872
G2 X 583.660 Y  59.120 I  68.931 J 479.697
G2 X 548.540 Y  68.890 I  84.280 J 370.966
G2 X 518.230 Y  80.930 I  85.309 J 258.933
G2 X 493.640 Y  94.890 I  75.074 J 160.877
G2 X 475.520 Y 110.330 I  59.224 J  87.857
G2 X 464.430 Y 126.790 I  44.717 J  42.094
F150
G1 Z  -3.000
F400
G2 X 460.690 Y 143.760 I  37.487 J  17.159
G1 X 706.630 Y 143.760
G1 X 952.570 Y 143.760
G2 X 948.830 Y 126.790 I -41.227 J   0.189
G2 X 937.740 Y 110.330 I -55.807 J  25.634
G2 X 919.620 Y  94.890 I -77.345 J  72.418
G2 X 895.030 Y  80.930 I -99.664 J 146.917
G2 X 864.720 Y  68.890 I-115.619 J 246.893
G2 X 829.600 Y  59.120 I-119.400 J 361.196
G2 X 790.750 Y  51.910 I-107.781 J 472.487
G2 X 749.340 Y  47.510 I -80.598 J 561.472
G2 X 706.630 Y  46.020 I -42.711 J 611.416
G2 X 663.920 Y  47.510 I   0.001 J 612.906
G2 X 622.510 Y  51.910 I  39.188 J 565.872
G2 X 583.660 Y  59.120 I  68.931 J 479.697
G2 X 548.540 Y  68.890 I  84.280 J 370.966
G2 X 518.230 Y  80.930 I  85.309 J 258.933
G2 X 493.640 Y  94.890 I  75.074 J 160.877
G2 X 475.520 Y 110.330 I  59.224 J  87.857
G2 X 464.430 Y 126.790 I  44.717 J  42.094
F150
G1 Z   3.000
G0 Z  15.000 
M9 M5

(* SHAPE Nr: 7 *)
G0 X  10.000 Y 158.460
M3 M8
G0 Z   3.000 
G1 Z  -1.500
F400
G2 X  13.740 Y 175.430 I  41.227 J  -0.189
G2 X  24.830 Y 191.890 I  55.807 J -25.634
G2 X  42.950 Y 207.330 I  77.344 J -72.417
G2 X  67.540 Y 221.290 I  99.664 J-146.917
G2 X  97.850 Y 233.330 I 115.619 J-246.893
G2 X 132.970 Y 243.100 I 119.400 J-361.196
G2 X 171.820 Y 250.310 I 107.781 J-472.487
G2 X 213.230 Y 254.710 I  80.598 J-561.472
G2 X 255.940 Y 256.200 I  42.711 J-611.416
G2 X 298.650 Y 254.710 I  -0.001 J-612.906
G2 X 340.060 Y 250.310 I -39.188 J-565.872
G2 X 378.910 Y 243.100 I -68.931 J-479.697
G2 X 414.030 Y 233.330 I -84.280 J-370.966
G2 X 444.340 Y 221.290 I -85.309 J-258.933
G2 X 468.930 Y 207.330 I -75.074 J-160.877
G2 X 487.050 Y 191.890 I -59.224 J -87.857
G2 X 498.140 Y 175.430 I -44.717 J -42.094
G2 X 501.880 Y 158.460 I -37.487 J -17.159
G1 X 255.940 Y 158.460
G1 X  10.000 Y 158.460
F150
G1 Z  -3.000
F400
G2 X  13.740 Y 175.430 I  41.227 J  -0.189
G2 X  24.830 Y 191.890 I  55.807 J -25.634
G2 X  42.950 Y 207.330 I  77.344 J -72.417
G2 X  67.540 Y 221.290 I  99.664 J-146.917
G2 X  97.850 Y 233.330 I 115.619 J-246.893
G2 X 132.970 Y 243.100 I 119.400 J-361.196
G2 X 171.820 Y 250.310 I 107.781 J-472.487
G2 X 213.230 Y 254.710 I  80.598 J-561.472
G2 X 255.940 Y 256.200 I  42.711 J-611.416
G2 X 298.650 Y 254.710 I  -0.001 J-612.906
G2 X 340.060 Y 250.310 I -39.188 J-565.872
G2 X 378.910 Y 243.100 I -68.931 J-479.697
G2 X 414.030 Y 233.330 I -84.280 J-370.966
G2 X 444.340 Y 221.290 I -85.309 J-258.933
G2 X 468.930 Y 207.330 I -75.074 J-160.877
G2 X 487.050 Y 191.890 I -59.224 J -87.857
G2 X 498.140 Y 175.430 I -44.717 J -42.094
G2 X 501.880 Y 158.460 I -37.487 J -17.159
G1 X 255.940 Y 158.460
G1 X  10.000 Y 158.460
F150
G1 Z   3.000
G0 Z  15.000 
M9 M5

(* SHAPE Nr: 8 *)
G0 X  10.000 Y  46.020
M3 M8
G0 Z   3.000 
G1 Z  -1.500
F400
G2 X  13.740 Y  62.990 I  41.227 J  -0.189
G2 X  24.830 Y  79.450 I  55.807 J -25.634
G2 X  42.950 Y  94.890 I  77.344 J -72.417
G2 X  67.540 Y 108.850 I  99.664 J-146.917
G2 X  97.850 Y 120.890 I 115.619 J-246.893
G2 X 132.970 Y 130.660 I 119.400 J-361.196
G2 X 171.820 Y 137.870 I 107.781 J-472.487
G2 X 213.230 Y 142.270 I  80.598 J-561.472
G2 X 255.940 Y 143.760 I  42.711 J-611.416
G2 X 298.650 Y 142.270 I  -0.001 J-612.906
G2 X 340.060 Y 137.870 I -39.188 J-565.872
G2 X 378.910 Y 130.660 I -68.931 J-479.697
G2 X 414.030 Y 120.890 I -84.280 J-370.966
G2 X 444.340 Y 108.850 I -85.309 J-258.933
G2 X 468.930 Y  94.890 I -75.074 J-160.877
G2 X 487.050 Y  79.450 I -59.224 J -87.857
G2 X 498.140 Y  62.990 I -44.717 J -42.094
G2 X 501.880 Y  46.020 I -37.487 J -17.159
G1 X 255.940 Y  46.020
G1 X  10.000 Y  46.020
F150
G1 Z  -3.000
F400
G2 X  13.740 Y  62.990 I  41.227 J  -0.189
G2 X  24.830 Y  79.450 I  55.807 J -25.634
G2 X  42.950 Y  94.890 I  77.344 J -72.417
G2 X  67.540 Y 108.850 I  99.664 J-146.917
G2 X  97.850 Y 120.890 I 115.619 J-246.893
G2 X 132.970 Y 130.660 I 119.400 J-361.196
G2 X 171.820 Y 137.870 I 107.781 J-472.487
G2 X 213.230 Y 142.270 I  80.598 J-561.472
G2 X 255.940 Y 143.760 I  42.711 J-611.416
G2 X 298.650 Y 142.270 I  -0.001 J-612.906
G2 X 340.060 Y 137.870 I -39.188 J-565.872
G2 X 378.910 Y 130.660 I -68.931 J-479.697
G2 X 414.030 Y 120.890 I -84.280 J-370.966
G2 X 444.340 Y 108.850 I -85.309 J-258.933
G2 X 468.930 Y  94.890 I -75.074 J-160.877
G2 X 487.050 Y  79.450 I -59.224 J -87.857
G2 X 498.140 Y  62.990 I -44.717 J -42.094
G2 X 501.880 Y  46.020 I -37.487 J -17.159
G1 X 255.940 Y  46.020
G1 X  10.000 Y  46.020
F150
G1 Z   3.000
G0 Z  15.000 
M9 M5

(* SHAPE Nr: 12 *)
G0 X 562.650 Y 476.130
M3 M8
G0 Z   3.000 
G1 Z  -1.500
F400
G2 X 566.390 Y 493.100 I  41.227 J  -0.189
G2 X 577.480 Y 509.560 I  55.807 J -25.634
G2 X 595.600 Y 525.000 I  77.344 J -72.417
G2 X 620.190 Y 538.960 I  99.664 J-146.917
G2 X 650.500 Y 551.000 I 115.619 J-246.893
G2 X 685.620 Y 560.770 I 119.400 J-361.196
G2 X 724.470 Y 567.980 I 107.781 J-472.487
G2 X 765.880 Y 572.380 I  80.598 J-561.472
G2 X 808.590 Y 573.870 I  42.711 J-611.416
G2 X 851.300 Y 572.380 I  -0.001 J-612.906
G2 X 892.710 Y 567.980 I -39.188 J-565.872
G2 X 931.560 Y 560.770 I -68.931 J-479.697
G2 X 966.680 Y 551.000 I -84.280 J-370.966
G2 X 996.990 Y 538.960 I -85.309 J-258.933
G2 X1021.580 Y 525.000 I -75.074 J-160.877
G2 X1039.700 Y 509.560 I -59.224 J -87.857
G2 X1050.790 Y 493.100 I -44.717 J -42.094
G2 X1054.530 Y 476.130 I -37.487 J -17.159
G1 X 808.590 Y 476.130
G1 X 562.650 Y 476.130
F150
G1 Z  -3.000
F400
G2 X 566.390 Y 493.100 I  41.227 J  -0.189
G2 X 577.480 Y 509.560 I  55.807 J -25.634
G2 X 595.600 Y 525.000 I  77.344 J -72.417
G2 X 620.190 Y 538.960 I  99.664 J-146.917
G2 X 650.500 Y 551.000 I 115.619 J-246.893
G2 X 685.620 Y 560.770 I 119.400 J-361.196
G2 X 724.470 Y 567.980 I 107.781 J-472.487
G2 X 765.880 Y 572.380 I  80.598 J-561.472
G2 X 808.590 Y 573.870 I  42.711 J-611.416
G2 X 851.300 Y 572.380 I  -0.001 J-612.906
G2 X 892.710 Y 567.980 I -39.188 J-565.872
G2 X 931.560 Y 560.770 I -68.931 J-479.697
G2 X 966.680 Y 551.000 I -84.280 J-370.966
G2 X 996.990 Y 538.960 I -85.309 J-258.933
G2 X1021.580 Y 525.000 I -75.074 J-160.877
G2 X1039.700 Y 509.560 I -59.224 J -87.857
G2 X1050.790 Y 493.100 I -44.717 J -42.094
G2 X1054.530 Y 476.130 I -37.487 J -17.159
G1 X 808.590 Y 476.130
G1 X 562.650 Y 476.130
F150
G1 Z   3.000
G0 Z  15.000 
M9 M5

(* SHAPE Nr: 14 *)
G0 X 942.570 Y  77.340
M3 M8
G0 Z   3.000 
G1 Z  -1.500
F400
G2 X 946.310 Y  94.310 I  41.227 J  -0.189
G2 X 957.400 Y 110.770 I  55.807 J -25.634
G2 X 975.520 Y 126.210 I  77.345 J -72.418
G2 X1000.110 Y 140.170 I  99.664 J-146.917
G2 X1030.420 Y 152.210 I 115.619 J-246.893
G2 X1065.540 Y 161.980 I 119.400 J-361.196
G2 X1104.390 Y 169.190 I 107.781 J-472.487
G2 X1145.800 Y 173.590 I  80.598 J-561.472
G2 X1188.510 Y 175.080 I  42.711 J-611.416
G2 X1231.220 Y 173.590 I  -0.001 J-612.906
G2 X1272.630 Y 169.190 I -39.188 J-565.872
G2 X1311.480 Y 161.980 I -68.931 J-479.697
G2 X1346.600 Y 152.210 I -84.280 J-370.966
G2 X1376.910 Y 140.170 I -85.309 J-258.933
G2 X1401.500 Y 126.210 I -75.074 J-160.877
G2 X1419.620 Y 110.770 I -59.224 J -87.857
G2 X1430.710 Y  94.310 I -44.717 J -42.094
G2 X1434.450 Y  77.340 I -37.487 J -17.159
G1 X1188.510 Y  77.340
G1 X 942.570 Y  77.340
F150
G1 Z  -3.000
F400
G2 X 946.310 Y  94.310 I  41.227 J  -0.189
G2 X 957.400 Y 110.770 I  55.807 J -25.634
G2 X 975.520 Y 126.210 I  77.345 J -72.418
G2 X1000.110 Y 140.170 I  99.664 J-146.917
G2 X1030.420 Y 152.210 I 115.619 J-246.893
G2 X1065.540 Y 161.980 I 119.400 J-361.196
G2 X1104.390 Y 169.190 I 107.781 J-472.487
G2 X1145.800 Y 173.590 I  80.598 J-561.472
G2 X1188.510 Y 175.080 I  42.711 J-611.416
G2 X1231.220 Y 173.590 I  -0.001 J-612.906
G2 X1272.630 Y 169.190 I -39.188 J-565.872
G2 X1311.480 Y 161.980 I -68.931 J-479.697
G2 X1346.600 Y 152.210 I -84.280 J-370.966
G2 X1376.910 Y 140.170 I -85.309 J-258.933
G2 X1401.500 Y 126.210 I -75.074 J-160.877
G2 X1419.620 Y 110.770 I -59.224 J -87.857
G2 X1430.710 Y  94.310 I -44.717 J -42.094
G2 X1434.450 Y  77.340 I -37.487 J -17.159
G1 X1188.510 Y  77.340
G1 X 942.570 Y  77.340
F150
G1 Z   3.000
G0 Z  15.000 
M9 M5

(* SHAPE Nr: 15 *)
G0 X1895.940 Y 151.670
M3 M8
G0 Z   3.000 
G1 Z  -1.500
F400
G1 X2141.880 Y 151.670
G1 X2387.820 Y 151.670
G2 X2384.080 Y 134.700 I -41.227 J   0.189
G2 X2372.990 Y 118.240 I -55.807 J  25.634
G2 X2354.870 Y 102.800 I -77.345 J  72.418
G2 X2330.280 Y  88.840 I -99.662 J 146.913
G2 X2299.970 Y  76.800 I-115.619 J 246.893
G2 X2264.850 Y  67.030 I-119.400 J 361.196
G2 X2226.000 Y  59.820 I-107.781 J 472.487
G2 X2184.590 Y  55.420 I -80.598 J 561.472
G2 X2141.880 Y  53.930 I -42.711 J 611.416
G2 X2099.170 Y  55.420 I   0.001 J 612.906
G2 X2057.760 Y  59.820 I  39.188 J 565.872
G2 X2018.910 Y  67.030 I  68.931 J 479.697
G2 X1983.790 Y  76.800 I  84.280 J 370.966
G2 X1953.480 Y  88.840 I  85.309 J 258.933
G2 X1928.890 Y 102.800 I  75.074 J 160.877
G2 X1910.770 Y 118.240 I  59.224 J  87.857
G2 X1899.680 Y 134.700 I  44.717 J  42.094
G2 X1895.940 Y 151.670 I  37.487 J  17.159
F150
G1 Z  -3.000
F400
G1 X2141.880 Y 151.670
G1 X2387.820 Y 151.670
G2 X2384.080 Y 134.700 I -41.227 J   0.189
G2 X2372.990 Y 118.240 I -55.807 J  25.634
G2 X2354.870 Y 102.800 I -77.345 J  72.418
G2 X2330.280 Y  88.840 I -99.662 J 146.913
G2 X2299.970 Y  76.800 I-115.619 J 246.893
G2 X2264.850 Y  67.030 I-119.400 J 361.196
G2 X2226.000 Y  59.820 I-107.781 J 472.487
G2 X2184.590 Y  55.420 I -80.598 J 561.472
G2 X2141.880 Y  53.930 I -42.711 J 611.416
G2 X2099.170 Y  55.420 I   0.001 J 612.906
G2 X2057.760 Y  59.820 I  39.188 J 565.872
G2 X2018.910 Y  67.030 I  68.931 J 479.697
G2 X1983.790 Y  76.800 I  84.280 J 370.966
G2 X1953.480 Y  88.840 I  85.309 J 258.933
G2 X1928.890 Y 102.800 I  75.074 J 160.877
G2 X1910.770 Y 118.240 I  59.224 J  87.857
G2 X1899.680 Y 134.700 I  44.717 J  42.094
G2 X1895.940 Y 151.670 I  37.487 J  17.159
F150
G1 Z   3.000
G0 Z  15.000 
M9 M5

(* SHAPE Nr: 16 *)
G0 X1445.270 Y  53.900
M3 M8
G0 Z   3.000 
G1 Z  -1.500
F400
G2 X1449.010 Y  70.870 I  41.227 J  -0.189
G2 X1460.100 Y  87.330 I  55.807 J -25.634
G2 X1478.220 Y 102.770 I  77.345 J -72.418
G2 X1502.810 Y 116.730 I  99.664 J-146.917
G2 X1533.120 Y 128.770 I 115.619 J-246.893
G2 X1568.240 Y 138.540 I 119.400 J-361.196
G2 X1607.090 Y 145.750 I 107.781 J-472.487
G2 X1648.500 Y 150.150 I  80.598 J-561.472
G2 X1691.210 Y 151.640 I  42.711 J-611.416
G2 X1733.920 Y 150.150 I  -0.001 J-612.906
G2 X1775.330 Y 145.750 I -39.188 J-565.872
G2 X1814.180 Y 138.540 I -68.931 J-479.697
G2 X1849.300 Y 128.770 I -84.280 J-370.966
G2 X1879.610 Y 116.730 I -85.309 J-258.933
G2 X1904.200 Y 102.770 I -75.074 J-160.877
G2 X1922.320 Y  87.330 I -59.224 J -87.857
G2 X1933.410 Y  70.870 I -44.717 J -42.094
G2 X1937.150 Y  53.900 I -37.487 J -17.159
G1 X1691.210 Y  53.900
G1 X1445.270 Y  53.900
F150
G1 Z  -3.000
F400
G2 X1449.010 Y  70.870 I  41.227 J  -0.189
G2 X1460.100 Y  87.330 I  55.807 J -25.634
G2 X1478.220 Y 102.770 I  77.345 J -72.418
G2 X1502.810 Y 116.730 I  99.664 J-146.917
G2 X1533.120 Y 128.770 I 115.619 J-246.893
G2 X1568.240 Y 138.540 I 119.400 J-361.196
G2 X1607.090 Y 145.750 I 107.781 J-472.487
G2 X1648.500 Y 150.150 I  80.598 J-561.472
G2 X1691.210 Y 151.640 I  42.711 J-611.416
G2 X1733.920 Y 150.150 I  -0.001 J-612.906
G2 X1775.330 Y 145.750 I -39.188 J-565.872
G2 X1814.180 Y 138.540 I -68.931 J-479.697
G2 X1849.300 Y 128.770 I -84.280 J-370.966
G2 X1879.610 Y 116.730 I -85.309 J-258.933
G2 X1904.200 Y 102.770 I -75.074 J-160.877
G2 X1922.320 Y  87.330 I -59.224 J -87.857
G2 X1933.410 Y  70.870 I -44.717 J -42.094
G2 X1937.150 Y  53.900 I -37.487 J -17.159
G1 X1691.210 Y  53.900
G1 X1445.270 Y  53.900
F150
G1 Z   3.000
G0 Z  15.000 
M9 M5

(* SHAPE Nr: 23 *)
G0 X2637.790 Y 174.330
M3 M8
G0 Z   3.000 
G1 Z  -1.500
F400
G1 X2637.790 Y 420.270
G1 X2637.790 Y 666.210
G2 X2654.760 Y 662.470 I  -0.189 J -41.227
G2 X2671.220 Y 651.380 I -25.634 J -55.807
G2 X2686.660 Y 633.260 I -72.417 J -77.344
G2 X2700.620 Y 608.670 I-146.917 J -99.664
G2 X2712.660 Y 578.360 I-246.893 J-115.619
G2 X2722.430 Y 543.240 I-361.196 J-119.400
G2 X2729.640 Y 504.390 I-472.487 J-107.781
G2 X2734.040 Y 462.980 I-561.472 J -80.598
G2 X2735.530 Y 420.270 I-611.416 J -42.711
G2 X2734.040 Y 377.560 I-612.906 J   0.001
G2 X2729.640 Y 336.150 I-565.872 J  39.188
G2 X2722.430 Y 297.300 I-479.697 J  68.931
G2 X2712.660 Y 262.180 I-370.966 J  84.280
G2 X2700.620 Y 231.870 I-258.933 J  85.309
G2 X2686.660 Y 207.280 I-160.877 J  75.074
G2 X2671.220 Y 189.160 I -87.857 J  59.224
G2 X2654.760 Y 178.070 I -42.094 J  44.717
G2 X2637.790 Y 174.330 I -17.159 J  37.487
F150
G1 Z  -3.000
F400
G1 X2637.790 Y 420.270
G1 X2637.790 Y 666.210
G2 X2654.760 Y 662.470 I  -0.189 J -41.227
G2 X2671.220 Y 651.380 I -25.634 J -55.807
G2 X2686.660 Y 633.260 I -72.417 J -77.344
G2 X2700.620 Y 608.670 I-146.917 J -99.664
G2 X2712.660 Y 578.360 I-246.893 J-115.619
G2 X2722.430 Y 543.240 I-361.196 J-119.400
G2 X2729.640 Y 504.390 I-472.487 J-107.781
G2 X2734.040 Y 462.980 I-561.472 J -80.598
G2 X2735.530 Y 420.270 I-611.416 J -42.711
G2 X2734.040 Y 377.560 I-612.906 J   0.001
G2 X2729.640 Y 336.150 I-565.872 J  39.188
G2 X2722.430 Y 297.300 I-479.697 J  68.931
G2 X2712.660 Y 262.180 I-370.966 J  84.280
G2 X2700.620 Y 231.870 I-258.933 J  85.309
G2 X2686.660 Y 207.280 I-160.877 J  75.074
G2 X2671.220 Y 189.160 I -87.857 J  59.224
G2 X2654.760 Y 178.070 I -42.094 J  44.717
G2 X2637.790 Y 174.330 I -17.159 J  37.487
F150
G1 Z   3.000
G0 Z  15.000 
M9 M5

(* SHAPE Nr: 25 *)
G0 X2658.730 Y1044.290
M3 M8
G0 Z   3.000 
G1 Z  -1.500
F400
G1 X2658.730 Y1290.230
G1 X2658.730 Y1536.170
G2 X2675.700 Y1532.430 I  -0.189 J -41.227
G2 X2692.160 Y1521.340 I -25.634 J -55.807
G2 X2707.600 Y1503.220 I -72.417 J -77.344
G2 X2721.560 Y1478.630 I-146.917 J -99.664
G2 X2733.600 Y1448.320 I-246.893 J-115.619
G2 X2743.370 Y1413.200 I-361.196 J-119.400
G2 X2750.580 Y1374.350 I-472.487 J-107.781
G2 X2754.980 Y1332.940 I-561.472 J -80.598
G2 X2756.470 Y1290.230 I-611.416 J -42.711
G2 X2754.980 Y1247.520 I-612.906 J   0.001
G2 X2750.580 Y1206.110 I-565.872 J  39.188
G2 X2743.370 Y1167.260 I-479.697 J  68.931
G2 X2733.600 Y1132.140 I-370.966 J  84.280
G2 X2721.560 Y1101.830 I-258.933 J  85.309
G2 X2707.600 Y1077.240 I-160.877 J  75.074
G2 X2692.160 Y1059.120 I -87.857 J  59.224
G2 X2675.700 Y1048.030 I -42.094 J  44.717
G2 X2658.730 Y1044.290 I -17.159 J  37.487
F150
G1 Z  -3.000
F400
G1 X2658.730 Y1290.230
G1 X2658.730 Y1536.170
G2 X2675.700 Y1532.430 I  -0.189 J -41.227
G2 X2692.160 Y1521.340 I -25.634 J -55.807
G2 X2707.600 Y1503.220 I -72.417 J -77.344
G2 X2721.560 Y1478.630 I-146.917 J -99.664
G2 X2733.600 Y1448.320 I-246.893 J-115.619
G2 X2743.370 Y1413.200 I-361.196 J-119.400
G2 X2750.580 Y1374.350 I-472.487 J-107.781
G2 X2754.980 Y1332.940 I-561.472 J -80.598
G2 X2756.470 Y1290.230 I-611.416 J -42.711
G2 X2754.980 Y1247.520 I-612.906 J   0.001
G2 X2750.580 Y1206.110 I-565.872 J  39.188
G2 X2743.370 Y1167.260 I-479.697 J  68.931
G2 X2733.600 Y1132.140 I-370.966 J  84.280
G2 X2721.560 Y1101.830 I-258.933 J  85.309
G2 X2707.600 Y1077.240 I-160.877 J  75.074
G2 X2692.160 Y1059.120 I -87.857 J  59.224
G2 X2675.700 Y1048.030 I -42.094 J  44.717
G2 X2658.730 Y1044.290 I -17.159 J  37.487
F150
G1 Z   3.000
G0 Z  15.000 
M9 M5

(* SHAPE Nr: 26 *)
G0 X2672.330 Y 717.210
M3 M8
G0 Z   3.000 
G1 Z  -1.500
F400
G2 X2665.120 Y 756.060 I 472.487 J 107.781
G2 X2660.720 Y 797.470 I 561.472 J  80.598
G2 X2659.230 Y 840.180 I 611.416 J  42.711
G2 X2660.720 Y 882.890 I 612.906 J  -0.001
G2 X2665.120 Y 924.300 I 565.872 J -39.188
G2 X2672.330 Y 963.150 I 479.697 J -68.931
G2 X2682.100 Y 998.270 I 370.966 J -84.280
G2 X2694.140 Y1028.580 I 258.933 J -85.309
G2 X2708.100 Y1053.170 I 160.877 J -75.074
G2 X2723.540 Y1071.290 I  87.857 J -59.224
G2 X2740.000 Y1082.380 I  42.094 J -44.717
G2 X2756.970 Y1086.120 I  17.159 J -37.487
G1 X2756.970 Y 840.180
G1 X2756.970 Y 594.240
G2 X2740.000 Y 597.980 I   0.189 J  41.227
G2 X2723.540 Y 609.070 I  25.634 J  55.807
G2 X2708.100 Y 627.190 I  72.418 J  77.345
G2 X2694.140 Y 651.780 I 146.917 J  99.664
G2 X2682.100 Y 682.090 I 246.893 J 115.619
G2 X2672.330 Y 717.210 I 361.196 J 119.400
F150
G1 Z  -3.000
F400
G2 X2665.120 Y 756.060 I 472.487 J 107.781
G2 X2660.720 Y 797.470 I 561.472 J  80.598
G2 X2659.230 Y 840.180 I 611.416 J  42.711
G2 X2660.720 Y 882.890 I 612.906 J  -0.001
G2 X2665.120 Y 924.300 I 565.872 J -39.188
G2 X2672.330 Y 963.150 I 479.697 J -68.931
G2 X2682.100 Y 998.270 I 370.966 J -84.280
G2 X2694.140 Y1028.580 I 258.933 J -85.309
G2 X2708.100 Y1053.170 I 160.877 J -75.074
G2 X2723.540 Y1071.290 I  87.857 J -59.224
G2 X2740.000 Y1082.380 I  42.094 J -44.717
G2 X2756.970 Y1086.120 I  17.159 J -37.487
G1 X2756.970 Y 840.180
G1 X2756.970 Y 594.240
G2 X2740.000 Y 597.980 I   0.189 J  41.227
G2 X2723.540 Y 609.070 I  25.634 J  55.807
G2 X2708.100 Y 627.190 I  72.418 J  77.345
G2 X2694.140 Y 651.780 I 146.917 J  99.664
G2 X2682.100 Y 682.090 I 246.893 J 115.619
G2 X2672.330 Y 717.210 I 361.196 J 119.400
F150
G1 Z   3.000
G0 Z  15.000 
M9 M5

(*** LAYER: BORDER_D0_T132_RK1_A0_W0_EM1_RI1_ID0027 ***)

(* SHAPE Nr: 9 *)
G0 X  10.000 Y 487.980
M3 M8
G0 Z   3.000 
G1 Z  -1.500
F400
G1 X  67.070 Y 545.050
G3 X 637.780 Y 308.660 I 570.702 J 570.711
G1 X1309.110 Y 308.660
G1 X1309.110 Y 227.940
G1 X 637.780 Y 227.940
G2 X  10.000 Y 487.980 I -33.721 J 806.394
F150
G1 Z  -3.000
F400
G1 X  67.070 Y 545.050
G3 X 637.780 Y 308.660 I 570.702 J 570.711
G1 X1309.110 Y 308.660
G1 X1309.110 Y 227.940
G1 X 637.780 Y 227.940
G2 X  10.000 Y 487.980 I -33.721 J 806.394
F150
G1 Z   3.000
G0 Z  15.000 
M9 M5

(* SHAPE Nr: 10 *)
G0 X  10.000 Y 621.180
M3 M8
G0 Z   3.000 
G1 Z  -1.500
F400
G1 X  67.070 Y 678.250
G3 X 637.780 Y 441.860 I 570.702 J 570.711
G1 X1309.110 Y 441.860
G1 X1309.110 Y 361.140
G1 X 637.780 Y 361.140
G2 X  10.000 Y 621.180 I -33.721 J 806.394
F150
G1 Z  -3.000
F400
G1 X  67.070 Y 678.250
G3 X 637.780 Y 441.860 I 570.702 J 570.711
G1 X1309.110 Y 441.860
G1 X1309.110 Y 361.140
G1 X 637.780 Y 361.140
G2 X  10.000 Y 621.180 I -33.721 J 806.394
F150
G1 Z   3.000
G0 Z  15.000 
M9 M5

(* SHAPE Nr: 17 *)
G0 X1323.930 Y 427.110
M3 M8
G0 Z   3.000 
G1 Z  -1.500
F400
G1 X1381.000 Y 484.180
G3 X1951.710 Y 247.790 I 570.702 J 570.711
G1 X2623.040 Y 247.790
G1 X2623.040 Y 167.070
G1 X1951.710 Y 167.070
G2 X1323.930 Y 427.110 I -33.721 J 806.394
F150
G1 Z  -3.000
F400
G1 X1381.000 Y 484.180
G3 X1951.710 Y 247.790 I 570.702 J 570.711
G1 X2623.040 Y 247.790
G1 X2623.040 Y 167.070
G1 X1951.710 Y 167.070
G2 X1323.930 Y 427.110 I -33.721 J 806.394
F150
G1 Z   3.000
G0 Z  15.000 
M9 M5

(*** LAYER: BORDER_D0_T132_RK1_A0_W0_EM1_RI1_ID0007 ***)

(* SHAPE Nr: 11 *)
G0 X 776.780 Y 697.100
M3 M8
G0 Z   3.000 
G1 Z  -1.500
F400
G1 X 834.230 Y 738.840
G1 X 812.290 Y 806.380
G1 X 869.740 Y 764.640
G1 X 927.190 Y 806.380
G1 X 905.240 Y 738.840
G1 X 962.690 Y 697.100
G1 X 891.680 Y 697.100
G1 X 869.740 Y 629.570
G1 X 847.790 Y 697.100
G1 X 776.780 Y 697.100
F150
G1 Z  -3.000
F400
G1 X 834.230 Y 738.840
G1 X 812.290 Y 806.380
G1 X 869.740 Y 764.640
G1 X 927.190 Y 806.380
G1 X 905.240 Y 738.840
G1 X 962.690 Y 697.100
G1 X 891.680 Y 697.100
G1 X 869.740 Y 629.570
G1 X 847.790 Y 697.100
G1 X 776.780 Y 697.100
F150
G1 Z   3.000
G0 Z  15.000 
M9 M5

(* SHAPE Nr: 24 *)
G0 X2600.730 Y 119.940
M3 M8
G0 Z   3.000 
G1 Z  -1.500
F400
G1 X2671.740 Y 119.940
G1 X2693.680 Y 187.470
G1 X2715.630 Y 119.940
G1 X2786.640 Y 119.940
G1 X2729.190 Y  78.200
G1 X2751.130 Y  10.660
G1 X2693.680 Y  52.400
G1 X2636.230 Y  10.660
G1 X2658.180 Y  78.200
G1 X2600.730 Y 119.940
F150
G1 Z  -3.000
F400
G1 X2671.740 Y 119.940
G1 X2693.680 Y 187.470
G1 X2715.630 Y 119.940
G1 X2786.640 Y 119.940
G1 X2729.190 Y  78.200
G1 X2751.130 Y  10.660
G1 X2693.680 Y  52.400
G1 X2636.230 Y  10.660
G1 X2658.180 Y  78.200
G1 X2600.730 Y 119.940
F150
G1 Z   3.000
G0 Z  15.000 
M9 M5

(* SHAPE Nr: 34 *)
G0 X 869.960 Y1764.010
M3 M8
G0 Z   3.000 
G1 Z  -1.500
F400
G1 X 869.960 Y1835.020
G1 X 802.430 Y1856.960
G1 X 869.960 Y1878.910
G1 X 869.960 Y1949.920
G1 X 911.700 Y1892.470
G1 X 979.240 Y1914.410
G1 X 937.500 Y1856.960
G1 X 979.240 Y1799.510
G1 X 911.700 Y1821.460
G1 X 869.960 Y1764.010
F150
G1 Z  -3.000
F400
G1 X 869.960 Y1835.020
G1 X 802.430 Y1856.960
G1 X 869.960 Y1878.910
G1 X 869.960 Y1949.920
G1 X 911.700 Y1892.470
G1 X 979.240 Y1914.410
G1 X 937.500 Y1856.960
G1 X 979.240 Y1799.510
G1 X 911.700 Y1821.460
G1 X 869.960 Y1764.010
F150
G1 Z   3.000
G0 Z  15.000 
M9 M5

(*** LAYER: BORDER_D0_T132_RK1_A0_W0_EM1_RI1_ID0013 ***)

(* SHAPE Nr: 13 *)
G0 X1323.810 Y 201.480
M3 M8
G0 Z   3.000 
G1 Z  -1.500
F400
G1 X1323.810 Y 226.060
G1 X1323.810 Y 250.640
G2 X1519.290 Y 250.640 I  97.740 J-130.352
G1 X1519.290 Y 201.480
G3 X1323.810 Y 201.480 I -97.740 J -81.189
F150
G1 Z  -3.000
F400
G1 X1323.810 Y 226.060
G1 X1323.810 Y 250.640
G2 X1519.290 Y 250.640 I  97.740 J-130.352
G1 X1519.290 Y 201.480
G3 X1323.810 Y 201.480 I -97.740 J -81.189
F150
G1 Z   3.000
G0 Z  15.000 
M9 M5

(* SHAPE Nr: 22 *)
G0 X2383.790 Y 284.130
M3 M8
G0 Z   3.000 
G1 Z  -1.500
F400
G1 X2383.790 Y 308.710
G1 X2383.790 Y 333.290
G2 X2579.270 Y 333.290 I  97.740 J-130.352
G1 X2579.270 Y 284.130
G3 X2383.790 Y 284.130 I -97.740 J -81.189
F150
G1 Z  -3.000
F400
G1 X2383.790 Y 308.710
G1 X2383.790 Y 333.290
G2 X2579.270 Y 333.290 I  97.740 J-130.352
G1 X2579.270 Y 284.130
G3 X2383.790 Y 284.130 I -97.740 J -81.189
F150
G1 Z   3.000
G0 Z  15.000 
M9 M5

(* SHAPE Nr: 29 *)
G0 X1755.820 Y1990.840
M3 M8
G0 Z   3.000 
G1 Z  -1.500
F400
G1 X1755.820 Y2040.000
G3 X1951.300 Y2040.000 I  97.740 J  81.189
G1 X1951.300 Y2015.420
G1 X1951.300 Y1990.840
G2 X1755.820 Y1990.840 I -97.740 J 130.352
F150
G1 Z  -3.000
F400
G1 X1755.820 Y2040.000
G3 X1951.300 Y2040.000 I  97.740 J  81.189
G1 X1951.300 Y2015.420
G1 X1951.300 Y1990.840
G2 X1755.820 Y1990.840 I -97.740 J 130.352
F150
G1 Z   3.000
G0 Z  15.000 
M9 M5

(* SHAPE Nr: 33 *)
G0 X 869.910 Y1990.840
M3 M8
G0 Z   3.000 
G1 Z  -1.500
F400
G1 X 869.910 Y2040.000
G3 X1065.390 Y2040.000 I  97.740 J  81.189
G1 X1065.390 Y2015.420
G1 X1065.390 Y1990.840
G2 X 869.910 Y1990.840 I -97.740 J 130.352
F150
G1 Z  -3.000
F400
G1 X 869.910 Y2040.000
G3 X1065.390 Y2040.000 I  97.740 J  81.189
G1 X1065.390 Y2015.420
G1 X1065.390 Y1990.840
G2 X 869.910 Y1990.840 I -97.740 J 130.352
F150
G1 Z   3.000
G0 Z  15.000 
M9 M5

(*** LAYER: BORDER_D0_T132_RK1_A0_W0_EM1_RI1_ID0021 ***)

(* SHAPE Nr: 18 *)
G0 X1447.570 Y 458.030
M3 M8
G0 Z   3.000 
G1 Z  -1.500
F400
G2 X1443.830 Y 475.000 I  37.487 J  17.159
G2 X1447.570 Y 491.970 I  41.227 J  -0.189
G2 X1458.660 Y 508.430 I  55.807 J -25.634
G2 X1476.780 Y 523.870 I  77.344 J -72.417
G2 X1501.370 Y 537.830 I  99.664 J-146.917
G2 X1531.680 Y 549.870 I 115.619 J-246.893
G2 X1566.800 Y 559.640 I 119.400 J-361.196
G2 X1605.650 Y 566.850 I 107.781 J-472.487
G2 X1647.060 Y 571.250 I  80.598 J-561.472
G2 X1689.770 Y 572.740 I  42.711 J-611.416
G2 X1732.480 Y 571.250 I  -0.001 J-612.906
G2 X1773.890 Y 566.850 I -39.188 J-565.872
G2 X1812.740 Y 559.640 I -68.931 J-479.697
G2 X1847.860 Y 549.870 I -84.280 J-370.966
G2 X1878.170 Y 537.830 I -85.309 J-258.933
G2 X1902.760 Y 523.870 I -75.074 J-160.877
G2 X1920.880 Y 508.430 I -59.224 J -87.857
G2 X1931.970 Y 491.970 I -44.717 J -42.094
G2 X1935.710 Y 475.000 I -37.487 J -17.159
G2 X1931.970 Y 458.030 I -41.227 J   0.189
G2 X1920.880 Y 441.570 I -55.807 J  25.634
G2 X1902.760 Y 426.130 I -77.344 J  72.417
G2 X1878.170 Y 412.170 I -99.664 J 146.917
G2 X1847.860 Y 400.130 I-115.619 J 246.893
G2 X1812.740 Y 390.360 I-119.400 J 361.196
G2 X1773.890 Y 383.150 I-107.781 J 472.487
G2 X1732.480 Y 378.750 I -80.598 J 561.472
G2 X1689.770 Y 377.260 I -42.711 J 611.416
G2 X1647.060 Y 378.750 I   0.001 J 612.906
G2 X1605.650 Y 383.150 I  39.188 J 565.872
G2 X1566.800 Y 390.360 I  68.931 J 479.697
G2 X1531.680 Y 400.130 I  84.280 J 370.966
G2 X1501.370 Y 412.170 I  85.309 J 258.933
G2 X1476.780 Y 426.130 I  75.074 J 160.877
G2 X1458.660 Y 441.570 I  59.224 J  87.857
G2 X1447.570 Y 458.030 I  44.717 J  42.094
F150
G1 Z  -3.000
F400
G2 X1443.830 Y 475.000 I  37.487 J  17.159
G2 X1447.570 Y 491.970 I  41.227 J  -0.189
G2 X1458.660 Y 508.430 I  55.807 J -25.634
G2 X1476.780 Y 523.870 I  77.344 J -72.417
G2 X1501.370 Y 537.830 I  99.664 J-146.917
G2 X1531.680 Y 549.870 I 115.619 J-246.893
G2 X1566.800 Y 559.640 I 119.400 J-361.196
G2 X1605.650 Y 566.850 I 107.781 J-472.487
G2 X1647.060 Y 571.250 I  80.598 J-561.472
G2 X1689.770 Y 572.740 I  42.711 J-611.416
G2 X1732.480 Y 571.250 I  -0.001 J-612.906
G2 X1773.890 Y 566.850 I -39.188 J-565.872
G2 X1812.740 Y 559.640 I -68.931 J-479.697
G2 X1847.860 Y 549.870 I -84.280 J-370.966
G2 X1878.170 Y 537.830 I -85.309 J-258.933
G2 X1902.760 Y 523.870 I -75.074 J-160.877
G2 X1920.880 Y 508.430 I -59.224 J -87.857
G2 X1931.970 Y 491.970 I -44.717 J -42.094
G2 X1935.710 Y 475.000 I -37.487 J -17.159
G2 X1931.970 Y 458.030 I -41.227 J   0.189
G2 X1920.880 Y 441.570 I -55.807 J  25.634
G2 X1902.760 Y 426.130 I -77.344 J  72.417
G2 X1878.170 Y 412.170 I -99.664 J 146.917
G2 X1847.860 Y 400.130 I-115.619 J 246.893
G2 X1812.740 Y 390.360 I-119.400 J 361.196
G2 X1773.890 Y 383.150 I-107.781 J 472.487
G2 X1732.480 Y 378.750 I -80.598 J 561.472
G2 X1689.770 Y 377.260 I -42.711 J 611.416
G2 X1647.060 Y 378.750 I   0.001 J 612.906
G2 X1605.650 Y 383.150 I  39.188 J 565.872
G2 X1566.800 Y 390.360 I  68.931 J 479.697
G2 X1531.680 Y 400.130 I  84.280 J 370.966
G2 X1501.370 Y 412.170 I  85.309 J 258.933
G2 X1476.780 Y 426.130 I  75.074 J 160.877
G2 X1458.660 Y 441.570 I  59.224 J  87.857
G2 X1447.570 Y 458.030 I  44.717 J  42.094
F150
G1 Z   3.000
G0 Z  15.000 
M9 M5

(* SHAPE Nr: 21 *)
G0 X1898.010 Y 380.000
M3 M8
G0 Z   3.000 
G1 Z  -1.500
F400
G2 X1901.750 Y 396.970 I  41.227 J  -0.189
G2 X1912.840 Y 413.430 I  55.807 J -25.634
G2 X1930.960 Y 428.870 I  77.344 J -72.417
G2 X1955.550 Y 442.830 I  99.664 J-146.917
G2 X1985.860 Y 454.870 I 115.619 J-246.893
G2 X2020.980 Y 464.640 I 119.400 J-361.196
G2 X2059.830 Y 471.850 I 107.781 J-472.487
G2 X2101.240 Y 476.250 I  80.598 J-561.472
G2 X2143.950 Y 477.740 I  42.711 J-611.416
G2 X2186.660 Y 476.250 I  -0.001 J-612.906
G2 X2228.070 Y 471.850 I -39.188 J-565.872
G2 X2266.920 Y 464.640 I -68.931 J-479.697
G2 X2302.040 Y 454.870 I -84.280 J-370.966
G2 X2332.350 Y 442.830 I -85.309 J-258.933
G2 X2356.940 Y 428.870 I -75.074 J-160.877
G2 X2375.060 Y 413.430 I -59.224 J -87.857
G2 X2386.150 Y 396.970 I -44.717 J -42.094
G2 X2389.890 Y 380.000 I -37.487 J -17.159
G2 X2386.150 Y 363.030 I -41.227 J   0.189
G2 X2375.060 Y 346.570 I -55.807 J  25.634
G2 X2356.940 Y 331.130 I -77.344 J  72.417
G2 X2332.350 Y 317.170 I -99.664 J 146.917
G2 X2302.040 Y 305.130 I-115.619 J 246.893
G2 X2266.920 Y 295.360 I-119.400 J 361.196
G2 X2228.070 Y 288.150 I-107.781 J 472.487
G2 X2186.660 Y 283.750 I -80.598 J 561.472
G2 X2143.950 Y 282.260 I -42.711 J 611.416
G2 X2101.240 Y 283.750 I   0.001 J 612.906
G2 X2059.830 Y 288.150 I  39.188 J 565.872
G2 X2020.980 Y 295.360 I  68.931 J 479.697
G2 X1985.860 Y 305.130 I  84.280 J 370.966
G2 X1955.550 Y 317.170 I  85.309 J 258.933
G2 X1930.960 Y 331.130 I  75.074 J 160.877
G2 X1912.840 Y 346.570 I  59.224 J  87.857
G2 X1901.750 Y 363.030 I  44.717 J  42.094
G2 X1898.010 Y 380.000 I  37.487 J  17.159
F150
G1 Z  -3.000
F400
G2 X1901.750 Y 396.970 I  41.227 J  -0.189
G2 X1912.840 Y 413.430 I  55.807 J -25.634
G2 X1930.960 Y 428.870 I  77.344 J -72.417
G2 X1955.550 Y 442.830 I  99.664 J-146.917
G2 X1985.860 Y 454.870 I 115.619 J-246.893
G2 X2020.980 Y 464.640 I 119.400 J-361.196
G2 X2059.830 Y 471.850 I 107.781 J-472.487
G2 X2101.240 Y 476.250 I  80.598 J-561.472
G2 X2143.950 Y 477.740 I  42.711 J-611.416
G2 X2186.660 Y 476.250 I  -0.001 J-612.906
G2 X2228.070 Y 471.850 I -39.188 J-565.872
G2 X2266.920 Y 464.640 I -68.931 J-479.697
G2 X2302.040 Y 454.870 I -84.280 J-370.966
G2 X2332.350 Y 442.830 I -85.309 J-258.933
G2 X2356.940 Y 428.870 I -75.074 J-160.877
G2 X2375.060 Y 413.430 I -59.224 J -87.857
G2 X2386.150 Y 396.970 I -44.717 J -42.094
G2 X2389.890 Y 380.000 I -37.487 J -17.159
G2 X2386.150 Y 363.030 I -41.227 J   0.189
G2 X2375.060 Y 346.570 I -55.807 J  25.634
G2 X2356.940 Y 331.130 I -77.344 J  72.417
G2 X2332.350 Y 317.170 I -99.664 J 146.917
G2 X2302.040 Y 305.130 I-115.619 J 246.893
G2 X2266.920 Y 295.360 I-119.400 J 361.196
G2 X2228.070 Y 288.150 I-107.781 J 472.487
G2 X2186.660 Y 283.750 I -80.598 J 561.472
G2 X2143.950 Y 282.260 I -42.711 J 611.416
G2 X2101.240 Y 283.750 I   0.001 J 612.906
G2 X2059.830 Y 288.150 I  39.188 J 565.872
G2 X2020.980 Y 295.360 I  68.931 J 479.697
G2 X1985.860 Y 305.130 I  84.280 J 370.966
G2 X1955.550 Y 317.170 I  85.309 J 258.933
G2 X1930.960 Y 331.130 I  75.074 J 160.877
G2 X1912.840 Y 346.570 I  59.224 J  87.857
G2 X1901.750 Y 363.030 I  44.717 J  42.094
G2 X1898.010 Y 380.000 I  37.487 J  17.159
F150
G1 Z   3.000
G0 Z  15.000 
M9 M5

(* SHAPE Nr: 27 *)
G0 X2633.000 Y1581.070
M3 M8
G0 Z   3.000 
G1 Z  -1.500
F400
G2 X2619.040 Y1605.660 I 146.913 J  99.662
G2 X2607.000 Y1635.970 I 246.893 J 115.619
G2 X2597.230 Y1671.090 I 361.196 J 119.400
G2 X2590.020 Y1709.940 I 472.487 J 107.781
G2 X2585.620 Y1751.350 I 561.472 J  80.598
G2 X2584.130 Y1794.060 I 611.416 J  42.711
G2 X2585.620 Y1836.770 I 612.941 J  -0.002
G2 X2590.020 Y1878.180 I 565.872 J -39.188
G2 X2597.230 Y1917.030 I 479.697 J -68.931
G2 X2607.000 Y1952.150 I 370.966 J -84.280
G2 X2619.040 Y1982.460 I 258.933 J -85.309
G2 X2633.000 Y2007.050 I 160.873 J -75.072
G2 X2648.440 Y2025.170 I  87.858 J -59.225
G2 X2664.900 Y2036.260 I  42.094 J -44.717
G2 X2681.870 Y2040.000 I  17.159 J -37.487
G2 X2698.840 Y2036.260 I  -0.189 J -41.227
G2 X2715.300 Y2025.170 I -25.634 J -55.807
G2 X2730.740 Y2007.050 I -72.417 J -77.344
G2 X2744.700 Y1982.460 I-146.917 J -99.664
G2 X2756.740 Y1952.150 I-246.893 J-115.619
G2 X2766.510 Y1917.030 I-361.196 J-119.400
G2 X2773.720 Y1878.180 I-472.487 J-107.781
G2 X2778.120 Y1836.770 I-561.472 J -80.598
G2 X2779.610 Y1794.060 I-611.416 J -42.711
G2 X2778.120 Y1751.350 I-612.906 J   0.001
G2 X2773.720 Y1709.940 I-565.872 J  39.188
G2 X2766.510 Y1671.090 I-479.697 J  68.931
G2 X2756.740 Y1635.970 I-370.966 J  84.280
G2 X2744.700 Y1605.660 I-258.933 J  85.309
G2 X2730.740 Y1581.070 I-160.877 J  75.074
G2 X2715.300 Y1562.950 I -87.857 J  59.224
G2 X2698.840 Y1551.860 I -42.094 J  44.717
G2 X2681.870 Y1548.120 I -17.159 J  37.487
G2 X2664.900 Y1551.860 I   0.189 J  41.227
G2 X2648.440 Y1562.950 I  25.634 J  55.807
G2 X2633.000 Y1581.070 I  72.418 J  77.345
F150
G1 Z  -3.000
F400
G2 X2619.040 Y1605.660 I 146.913 J  99.662
G2 X2607.000 Y1635.970 I 246.893 J 115.619
G2 X2597.230 Y1671.090 I 361.196 J 119.400
G2 X2590.020 Y1709.940 I 472.487 J 107.781
G2 X2585.620 Y1751.350 I 561.472 J  80.598
G2 X2584.130 Y1794.060 I 611.416 J  42.711
G2 X2585.620 Y1836.770 I 612.941 J  -0.002
G2 X2590.020 Y1878.180 I 565.872 J -39.188
G2 X2597.230 Y1917.030 I 479.697 J -68.931
G2 X2607.000 Y1952.150 I 370.966 J -84.280
G2 X2619.040 Y1982.460 I 258.933 J -85.309
G2 X2633.000 Y2007.050 I 160.873 J -75.072
G2 X2648.440 Y2025.170 I  87.858 J -59.225
G2 X2664.900 Y2036.260 I  42.094 J -44.717
G2 X2681.870 Y2040.000 I  17.159 J -37.487
G2 X2698.840 Y2036.260 I  -0.189 J -41.227
G2 X2715.300 Y2025.170 I -25.634 J -55.807
G2 X2730.740 Y2007.050 I -72.417 J -77.344
G2 X2744.700 Y1982.460 I-146.917 J -99.664
G2 X2756.740 Y1952.150 I-246.893 J-115.619
G2 X2766.510 Y1917.030 I-361.196 J-119.400
G2 X2773.720 Y1878.180 I-472.487 J-107.781
G2 X2778.120 Y1836.770 I-561.472 J -80.598
G2 X2779.610 Y1794.060 I-611.416 J -42.711
G2 X2778.120 Y1751.350 I-612.906 J   0.001
G2 X2773.720 Y1709.940 I-565.872 J  39.188
G2 X2766.510 Y1671.090 I-479.697 J  68.931
G2 X2756.740 Y1635.970 I-370.966 J  84.280
G2 X2744.700 Y1605.660 I-258.933 J  85.309
G2 X2730.740 Y1581.070 I-160.877 J  75.074
G2 X2715.300 Y1562.950 I -87.857 J  59.224
G2 X2698.840 Y1551.860 I -42.094 J  44.717
G2 X2681.870 Y1548.120 I -17.159 J  37.487
G2 X2664.900 Y1551.860 I   0.189 J  41.227
G2 X2648.440 Y1562.950 I  25.634 J  55.807
G2 X2633.000 Y1581.070 I  72.418 J  77.345
F150
G1 Z   3.000
G0 Z  15.000 
M9 M5

(*** LAYER: BORDER_D0_T132_RK1_A0_W0_EM1_RI1_ID0025 ***)

(* SHAPE Nr: 19 *)
G0 X1690.220 Y 611.600
M3 M8
G0 Z   3.000 
G1 Z  -1.500
F400
G1 X1654.720 Y 720.880
G1 X1747.670 Y 788.410
G1 X1840.630 Y 720.880
G1 X1805.120 Y 611.600
G1 X1690.220 Y 611.600
F150
G1 Z  -3.000
F400
G1 X1654.720 Y 720.880
G1 X1747.670 Y 788.410
G1 X1840.630 Y 720.880
G1 X1805.120 Y 611.600
G1 X1690.220 Y 611.600
F150
G1 Z   3.000
G0 Z  15.000 
M9 M5

(* SHAPE Nr: 20 *)
G0 X2389.880 Y 515.000
M3 M8
G0 Z   3.000 
G1 Z  -1.500
F400
G1 X2457.410 Y 607.960
G1 X2566.690 Y 572.450
G1 X2566.690 Y 457.550
G1 X2457.410 Y 422.050
G1 X2389.880 Y 515.000
F150
G1 Z  -3.000
F400
G1 X2457.410 Y 607.960
G1 X2566.690 Y 572.450
G1 X2566.690 Y 457.550
G1 X2457.410 Y 422.050
G1 X2389.880 Y 515.000
F150
G1 Z   3.000
G0 Z  15.000 
M9 M5

(* SHAPE Nr: 30 *)
G0 X1695.120 Y1731.590
M3 M8
G0 Z   3.000 
G1 Z  -1.500
F400
G1 X1659.620 Y1840.870
G1 X1752.570 Y1908.400
G1 X1845.530 Y1840.870
G1 X1810.020 Y1731.590
G1 X1695.120 Y1731.590
F150
G1 Z  -3.000
F400
G1 X1659.620 Y1840.870
G1 X1752.570 Y1908.400
G1 X1845.530 Y1840.870
G1 X1810.020 Y1731.590
G1 X1695.120 Y1731.590
F150
G1 Z   3.000
G0 Z  15.000 
M9 M5

(* SHAPE Nr: 31 *)
G0 X1572.310 Y1930.720
M3 M8
G0 Z   3.000 
G1 Z  -1.500
F400
G1 X1607.820 Y2040.000
G1 X1722.720 Y2040.000
G1 X1758.220 Y1930.720
G1 X1665.270 Y1863.190
G1 X1572.310 Y1930.720
F150
G1 Z  -3.000
F400
G1 X1607.820 Y2040.000
G1 X1722.720 Y2040.000
G1 X1758.220 Y1930.720
G1 X1665.270 Y1863.190
G1 X1572.310 Y1930.720
F150
G1 Z   3.000
G0 Z  15.000 
M9 M5

(* SHAPE Nr: 35 *)
G0 X 745.950 Y1854.090
M3 M8
G0 Z   3.000 
G1 Z  -1.500
F400
G1 X 678.420 Y1947.040
G1 X 745.950 Y2040.000
G1 X 855.230 Y2004.490
G1 X 855.230 Y1889.590
G1 X 745.950 Y1854.090
F150
G1 Z  -3.000
F400
G1 X 678.420 Y1947.040
G1 X 745.950 Y2040.000
G1 X 855.230 Y2004.490
G1 X 855.230 Y1889.590
G1 X 745.950 Y1854.090
F150
G1 Z   3.000
G0 Z  15.000 
M9 M5

(* SHAPE Nr: 37 *)
G0 X 119.280 Y1854.090
M3 M8
G0 Z   3.000 
G1 Z  -1.500
F400
G1 X  10.000 Y1889.600
G1 X  10.000 Y2004.500
G1 X 119.280 Y2040.000
G1 X 186.810 Y1947.050
G1 X 119.280 Y1854.090
F150
G1 Z  -3.000
F400
G1 X  10.000 Y1889.600
G1 X  10.000 Y2004.500
G1 X 119.280 Y2040.000
G1 X 186.810 Y1947.050
G1 X 119.280 Y1854.090
F150
G1 Z   3.000
G0 Z  15.000 
M9 M5

(*** LAYER: BORDER_D0_T132_RK1_A0_W0_EM1_RI1_ID0022 ***)

(* SHAPE Nr: 28 *)
G0 X1877.360 Y 770.210
M3 M8
G0 Z   3.000 
G1 Z  -1.500
F400
G2 X1833.960 Y 880.580 I 850.056 J 397.979
G2 X1801.980 Y1002.690 I1077.138 J 347.340
G2 X1782.390 Y1132.830 I1256.951 J 255.754
G2 X1775.800 Y1267.050 I1358.961 J 133.995
G2 X1782.390 Y1401.270 I1365.551 J   0.225
G2 X1801.980 Y1531.410 I1276.541 J-125.614
G2 X1833.960 Y1653.530 I1109.129 J-225.204
G2 X1877.360 Y1763.890 I 893.432 J-287.636
G2 X1930.870 Y1859.160 I 665.040 J-310.869
G2 X1992.850 Y1936.440 I 456.030 J-302.250
G2 X2061.430 Y1993.390 I 287.293 J-276.195
G2 X2134.520 Y2028.260 I 164.043 J-249.810
G2 X2209.900 Y2040.000 I  75.689 J-238.112
G2 X2285.280 Y2028.260 I  -0.309 J-249.852
G2 X2358.370 Y1993.390 I -90.953 J-284.680
G2 X2426.950 Y1936.440 I-218.713 J-333.145
G2 X2488.930 Y1859.160 I-394.050 J-379.530
G2 X2542.440 Y1763.890 I-611.530 J-406.139
G2 X2585.840 Y1653.530 I-850.032 J-397.996
G2 X2617.820 Y1531.410 I-1077.149 J-347.324
G2 X2637.400 Y1401.270 I-1257.005 J-255.664
G2 X2644.000 Y1267.050 I-1358.956 J-134.096
G2 X2637.400 Y1132.830 I-1365.556 J  -0.124
G2 X2617.820 Y1002.690 I-1276.585 J 125.524
G2 X2585.840 Y 880.580 I-1109.118 J 225.230
G2 X2542.440 Y 770.210 I-893.456 J 287.609
G2 X2488.930 Y 674.940 I-665.040 J 310.869
G2 X2426.950 Y 597.660 I-456.030 J 302.250
G2 X2358.370 Y 540.720 I-287.266 J 276.221
G2 X2285.280 Y 505.840 I-164.072 J 249.789
G2 X2209.900 Y 494.100 I -75.689 J 238.112
G2 X2134.520 Y 505.840 I   0.309 J 249.852
G2 X2061.430 Y 540.720 I  90.982 J 284.669
G2 X1992.850 Y 597.660 I 218.686 J 333.161
G2 X1930.870 Y 674.940 I 394.050 J 379.530
G2 X1877.360 Y 770.210 I 611.530 J 406.139
F150
G1 Z  -3.000
F400
G2 X1833.960 Y 880.580 I 850.056 J 397.979
G2 X1801.980 Y1002.690 I1077.138 J 347.340
G2 X1782.390 Y1132.830 I1256.951 J 255.754
G2 X1775.800 Y1267.050 I1358.961 J 133.995
G2 X1782.390 Y1401.270 I1365.551 J   0.225
G2 X1801.980 Y1531.410 I1276.541 J-125.614
G2 X1833.960 Y1653.530 I1109.129 J-225.204
G2 X1877.360 Y1763.890 I 893.432 J-287.636
G2 X1930.870 Y1859.160 I 665.040 J-310.869
G2 X1992.850 Y1936.440 I 456.030 J-302.250
G2 X2061.430 Y1993.390 I 287.293 J-276.195
G2 X2134.520 Y2028.260 I 164.043 J-249.810
G2 X2209.900 Y2040.000 I  75.689 J-238.112
G2 X2285.280 Y2028.260 I  -0.309 J-249.852
G2 X2358.370 Y1993.390 I -90.953 J-284.680
G2 X2426.950 Y1936.440 I-218.713 J-333.145
G2 X2488.930 Y1859.160 I-394.050 J-379.530
G2 X2542.440 Y1763.890 I-611.530 J-406.139
G2 X2585.840 Y1653.530 I-850.032 J-397.996
G2 X2617.820 Y1531.410 I-1077.149 J-347.324
G2 X2637.400 Y1401.270 I-1257.005 J-255.664
G2 X2644.000 Y1267.050 I-1358.956 J-134.096
G2 X2637.400 Y1132.830 I-1365.556 J  -0.124
G2 X2617.820 Y1002.690 I-1276.585 J 125.524
G2 X2585.840 Y 880.580 I-1109.118 J 225.230
G2 X2542.440 Y 770.210 I-893.456 J 287.609
G2 X2488.930 Y 674.940 I-665.040 J 310.869
G2 X2426.950 Y 597.660 I-456.030 J 302.250
G2 X2358.370 Y 540.720 I-287.266 J 276.221
G2 X2285.280 Y 505.840 I-164.072 J 249.789
G2 X2209.900 Y 494.100 I -75.689 J 238.112
G2 X2134.520 Y 505.840 I   0.309 J 249.852
G2 X2061.430 Y 540.720 I  90.982 J 284.669
G2 X1992.850 Y 597.660 I 218.686 J 333.161
G2 X1930.870 Y 674.940 I 394.050 J 379.530
G2 X1877.360 Y 770.210 I 611.530 J 406.139
F150
G1 Z   3.000
G0 Z  15.000 
M9 M5

(* SHAPE Nr: 32 *)
G0 X1047.970 Y 674.940
M3 M8
G0 Z   3.000 
G1 Z  -1.500
F400
G2 X 994.460 Y 770.210 I 611.530 J 406.139
G2 X 951.060 Y 880.580 I 850.056 J 397.979
G2 X 919.080 Y1002.690 I1077.138 J 347.340
G2 X 899.490 Y1132.830 I1256.951 J 255.754
G2 X 892.900 Y1267.050 I1358.961 J 133.995
G2 X 899.490 Y1401.270 I1365.551 J   0.225
G2 X 919.080 Y1531.410 I1276.541 J-125.614
G2 X 951.060 Y1653.530 I1109.129 J-225.204
G2 X 994.460 Y1763.890 I 893.432 J-287.636
G2 X1047.970 Y1859.160 I 665.040 J-310.869
G2 X1109.950 Y1936.440 I 456.030 J-302.250
G2 X1178.530 Y1993.390 I 287.293 J-276.195
G2 X1251.620 Y2028.260 I 164.043 J-249.810
G2 X1327.000 Y2040.000 I  75.689 J-238.112
G2 X1402.380 Y2028.260 I  -0.309 J-249.852
G2 X1475.470 Y1993.390 I -90.953 J-284.680
G2 X1544.050 Y1936.440 I-218.713 J-333.145
G2 X1606.030 Y1859.160 I-394.050 J-379.530
G2 X1659.540 Y1763.890 I-611.530 J-406.139
G2 X1702.940 Y1653.530 I-850.032 J-397.996
G2 X1734.920 Y1531.410 I-1077.149 J-347.324
G2 X1754.500 Y1401.270 I-1257.005 J-255.664
G2 X1761.100 Y1267.050 I-1358.956 J-134.096
G2 X1754.500 Y1132.830 I-1365.556 J  -0.124
G2 X1734.920 Y1002.690 I-1276.585 J 125.524
G2 X1702.940 Y 880.580 I-1109.118 J 225.230
G2 X1659.540 Y 770.210 I-893.456 J 287.609
G2 X1606.030 Y 674.940 I-665.040 J 310.869
G2 X1544.050 Y 597.660 I-456.030 J 302.250
G2 X1475.470 Y 540.720 I-287.266 J 276.221
G2 X1402.380 Y 505.840 I-164.072 J 249.789
G2 X1327.000 Y 494.100 I -75.689 J 238.112
G2 X1251.620 Y 505.840 I   0.309 J 249.852
G2 X1178.530 Y 540.720 I  90.982 J 284.669
G2 X1109.950 Y 597.660 I 218.686 J 333.161
G2 X1047.970 Y 674.940 I 394.050 J 379.530
F150
G1 Z  -3.000
F400
G2 X 994.460 Y 770.210 I 611.530 J 406.139
G2 X 951.060 Y 880.580 I 850.056 J 397.979
G2 X 919.080 Y1002.690 I1077.138 J 347.340
G2 X 899.490 Y1132.830 I1256.951 J 255.754
G2 X 892.900 Y1267.050 I1358.961 J 133.995
G2 X 899.490 Y1401.270 I1365.551 J   0.225
G2 X 919.080 Y1531.410 I1276.541 J-125.614
G2 X 951.060 Y1653.530 I1109.129 J-225.204
G2 X 994.460 Y1763.890 I 893.432 J-287.636
G2 X1047.970 Y1859.160 I 665.040 J-310.869
G2 X1109.950 Y1936.440 I 456.030 J-302.250
G2 X1178.530 Y1993.390 I 287.293 J-276.195
G2 X1251.620 Y2028.260 I 164.043 J-249.810
G2 X1327.000 Y2040.000 I  75.689 J-238.112
G2 X1402.380 Y2028.260 I  -0.309 J-249.852
G2 X1475.470 Y1993.390 I -90.953 J-284.680
G2 X1544.050 Y1936.440 I-218.713 J-333.145
G2 X1606.030 Y1859.160 I-394.050 J-379.530
G2 X1659.540 Y1763.890 I-611.530 J-406.139
G2 X1702.940 Y1653.530 I-850.032 J-397.996
G2 X1734.920 Y1531.410 I-1077.149 J-347.324
G2 X1754.500 Y1401.270 I-1257.005 J-255.664
G2 X1761.100 Y1267.050 I-1358.956 J-134.096
G2 X1754.500 Y1132.830 I-1365.556 J  -0.124
G2 X1734.920 Y1002.690 I-1276.585 J 125.524
G2 X1702.940 Y 880.580 I-1109.118 J 225.230
G2 X1659.540 Y 770.210 I-893.456 J 287.609
G2 X1606.030 Y 674.940 I-665.040 J 310.869
G2 X1544.050 Y 597.660 I-456.030 J 302.250
G2 X1475.470 Y 540.720 I-287.266 J 276.221
G2 X1402.380 Y 505.840 I-164.072 J 249.789
G2 X1327.000 Y 494.100 I -75.689 J 238.112
G2 X1251.620 Y 505.840 I   0.309 J 249.852
G2 X1178.530 Y 540.720 I  90.982 J 284.669
G2 X1109.950 Y 597.660 I 218.686 J 333.161
G2 X1047.970 Y 674.940 I 394.050 J 379.530
F150
G1 Z   3.000
G0 Z  15.000 
M9 M5

(* SHAPE Nr: 36 *)
G0 X 295.630 Y 540.720
M3 M8
G0 Z   3.000 
G1 Z  -1.500
F400
G2 X 227.050 Y 597.660 I 218.686 J 333.161
G2 X 165.070 Y 674.940 I 394.050 J 379.530
G2 X 111.560 Y 770.210 I 611.530 J 406.139
G2 X  68.160 Y 880.580 I 850.056 J 397.979
G2 X  36.180 Y1002.690 I1077.138 J 347.340
G2 X  16.590 Y1132.830 I1256.951 J 255.754
G2 X  10.000 Y1267.050 I1358.961 J 133.995
G2 X  16.590 Y1401.270 I1365.551 J   0.225
G2 X  36.180 Y1531.410 I1276.541 J-125.614
G2 X  68.160 Y1653.530 I1109.129 J-225.204
G2 X 111.560 Y1763.890 I 893.432 J-287.636
G2 X 165.070 Y1859.160 I 665.040 J-310.869
G2 X 227.050 Y1936.440 I 456.030 J-302.250
G2 X 295.630 Y1993.390 I 287.293 J-276.195
G2 X 368.720 Y2028.260 I 164.043 J-249.810
G2 X 444.100 Y2040.000 I  75.689 J-238.112
G2 X 519.480 Y2028.260 I  -0.309 J-249.852
G2 X 592.570 Y1993.390 I -90.953 J-284.680
G2 X 661.150 Y1936.440 I-218.713 J-333.145
G2 X 723.130 Y1859.160 I-394.050 J-379.530
G2 X 776.640 Y1763.890 I-611.530 J-406.139
G2 X 820.040 Y1653.530 I-850.032 J-397.996
G2 X 852.020 Y1531.410 I-1077.149 J-347.324
G2 X 871.600 Y1401.270 I-1257.005 J-255.664
G2 X 878.200 Y1267.050 I-1358.956 J-134.096
G2 X 871.600 Y1132.830 I-1365.556 J  -0.124
G2 X 852.020 Y1002.690 I-1276.585 J 125.524
G2 X 820.040 Y 880.580 I-1109.118 J 225.230
G2 X 776.640 Y 770.210 I-893.456 J 287.609
G2 X 723.130 Y 674.940 I-665.040 J 310.869
G2 X 661.150 Y 597.660 I-456.030 J 302.250
G2 X 592.570 Y 540.720 I-287.266 J 276.221
G2 X 519.480 Y 505.840 I-164.072 J 249.789
G2 X 444.100 Y 494.100 I -75.689 J 238.112
G2 X 368.720 Y 505.840 I   0.309 J 249.852
G2 X 295.630 Y 540.720 I  90.982 J 284.669
F150
G1 Z  -3.000
F400
G2 X 227.050 Y 597.660 I 218.686 J 333.161
G2 X 165.070 Y 674.940 I 394.050 J 379.530
G2 X 111.560 Y 770.210 I 611.530 J 406.139
G2 X  68.160 Y 880.580 I 850.056 J 397.979
G2 X  36.180 Y1002.690 I1077.138 J 347.340
G2 X  16.590 Y1132.830 I1256.951 J 255.754
G2 X  10.000 Y1267.050 I1358.961 J 133.995
G2 X  16.590 Y1401.270 I1365.551 J   0.225
G2 X  36.180 Y1531.410 I1276.541 J-125.614
G2 X  68.160 Y1653.530 I1109.129 J-225.204
G2 X 111.560 Y1763.890 I 893.432 J-287.636
G2 X 165.070 Y1859.160 I 665.040 J-310.869
G2 X 227.050 Y1936.440 I 456.030 J-302.250
G2 X 295.630 Y1993.390 I 287.293 J-276.195
G2 X 368.720 Y2028.260 I 164.043 J-249.810
G2 X 444.100 Y2040.000 I  75.689 J-238.112
G2 X 519.480 Y2028.260 I  -0.309 J-249.852
G2 X 592.570 Y1993.390 I -90.953 J-284.680
G2 X 661.150 Y1936.440 I-218.713 J-333.145
G2 X 723.130 Y1859.160 I-394.050 J-379.530
G2 X 776.640 Y1763.890 I-611.530 J-406.139
G2 X 820.040 Y1653.530 I-850.032 J-397.996
G2 X 852.020 Y1531.410 I-1077.149 J-347.324
G2 X 871.600 Y1401.270 I-1257.005 J-255.664
G2 X 878.200 Y1267.050 I-1358.956 J-134.096
G2 X 871.600 Y1132.830 I-1365.556 J  -0.124
G2 X 852.020 Y1002.690 I-1276.585 J 125.524
G2 X 820.040 Y 880.580 I-1109.118 J 225.230
G2 X 776.640 Y 770.210 I-893.456 J 287.609
G2 X 723.130 Y 674.940 I-665.040 J 310.869
G2 X 661.150 Y 597.660 I-456.030 J 302.250
G2 X 592.570 Y 540.720 I-287.266 J 276.221
G2 X 519.480 Y 505.840 I-164.072 J 249.789
G2 X 444.100 Y 494.100 I -75.689 J 238.112
G2 X 368.720 Y 505.840 I   0.309 J 249.852
G2 X 295.630 Y 540.720 I  90.982 J 284.669
F150
G1 Z   3.000
G0 Z  15.000 
M9 M5

(*** LAYER: BORDER_D0_T132.1_RK1_A0_W0_EM1 ***)

(* SHAPE Nr: 38 *)
G0 X 464.420 Y 126.790
M3 M8
G0 Z   3.000 
G1 Z  -1.500
F400
G2 X 460.690 Y 143.760 I  37.489 J  17.135
G1 X 952.570 Y 143.760
G2 X 948.830 Y 126.790 I -41.224 J   0.188
G2 X 937.740 Y 110.330 I -55.805 J  25.633
G2 X 919.620 Y  94.890 I -77.347 J  72.419
G2 X 895.030 Y  80.930 I -99.673 J 146.933
G2 X 864.720 Y  68.880 I-115.683 J 246.838
G2 X 829.600 Y  59.110 I-119.408 J 361.226
G2 X 790.740 Y  51.910 I-107.659 J 472.591
G2 X 749.340 Y  47.500 I -80.729 J 561.330
G2 X 706.630 Y  46.020 I -42.570 J 611.491
G2 X 663.920 Y  47.500 I  -0.140 J 612.971
G2 X 622.510 Y  51.910 I  39.324 J 565.877
G2 X 583.660 Y  59.110 I  68.804 J 479.668
G2 X 548.540 Y  68.880 I  84.288 J 370.996
G2 X 518.230 Y  80.930 I  85.373 J 258.888
G2 X 493.640 Y  94.890 I  75.083 J 160.893
G2 X 475.520 Y 110.330 I  59.228 J  87.861
G2 X 464.420 Y 126.790 I  44.710 J  42.123
F150
G1 Z  -3.000
F400
G2 X 460.690 Y 143.760 I  37.489 J  17.135
G1 X 952.570 Y 143.760
G2 X 948.830 Y 126.790 I -41.224 J   0.188
G2 X 937.740 Y 110.330 I -55.805 J  25.633
G2 X 919.620 Y  94.890 I -77.347 J  72.419
G2 X 895.030 Y  80.930 I -99.673 J 146.933
G2 X 864.720 Y  68.880 I-115.683 J 246.838
G2 X 829.600 Y  59.110 I-119.408 J 361.226
G2 X 790.740 Y  51.910 I-107.659 J 472.591
G2 X 749.340 Y  47.500 I -80.729 J 561.330
G2 X 706.630 Y  46.020 I -42.570 J 611.491
G2 X 663.920 Y  47.500 I  -0.140 J 612.971
G2 X 622.510 Y  51.910 I  39.324 J 565.877
G2 X 583.660 Y  59.110 I  68.804 J 479.668
G2 X 548.540 Y  68.880 I  84.288 J 370.996
G2 X 518.230 Y  80.930 I  85.373 J 258.888
G2 X 493.640 Y  94.890 I  75.083 J 160.893
G2 X 475.520 Y 110.330 I  59.228 J  87.861
G2 X 464.420 Y 126.790 I  44.710 J  42.123
F150
G1 Z   3.000
G0 Z  15.000 
M9 M5

(* SHAPE Nr: 39 *)
G0 X  10.000 Y 158.460
M3 M8
G0 Z   3.000 
G1 Z  -1.500
F400
G2 X  13.740 Y 175.430 I  41.224 J  -0.188
G2 X  24.830 Y 191.880 I  55.774 J -25.638
G2 X  42.950 Y 207.320 I  77.348 J -72.421
G2 X  67.540 Y 221.280 I  99.673 J-146.933
G2 X  97.850 Y 233.330 I 115.683 J-246.838
G2 X 132.970 Y 243.100 I 119.408 J-361.226
G2 X 171.820 Y 250.300 I 107.654 J-472.468
G2 X 213.230 Y 254.710 I  80.734 J-561.467
G2 X 255.940 Y 256.200 I  42.714 J-611.486
G2 X 298.650 Y 254.710 I  -0.004 J-612.976
G2 X 340.060 Y 250.300 I -39.324 J-565.877
G2 X 378.910 Y 243.100 I -68.804 J-479.668
G2 X 414.030 Y 233.330 I -84.288 J-370.996
G2 X 444.340 Y 221.280 I -85.373 J-258.888
G2 X 468.930 Y 207.320 I -75.083 J-160.893
G2 X 487.050 Y 191.880 I -59.228 J -87.861
G2 X 498.140 Y 175.430 I -44.684 J -42.088
G2 X 501.880 Y 158.460 I -37.484 J -17.158
G1 X  10.000 Y 158.460
F150
G1 Z  -3.000
F400
G2 X  13.740 Y 175.430 I  41.224 J  -0.188
G2 X  24.830 Y 191.880 I  55.774 J -25.638
G2 X  42.950 Y 207.320 I  77.348 J -72.421
G2 X  67.540 Y 221.280 I  99.673 J-146.933
G2 X  97.850 Y 233.330 I 115.683 J-246.838
G2 X 132.970 Y 243.100 I 119.408 J-361.226
G2 X 171.820 Y 250.300 I 107.654 J-472.468
G2 X 213.230 Y 254.710 I  80.734 J-561.467
G2 X 255.940 Y 256.200 I  42.714 J-611.486
G2 X 298.650 Y 254.710 I  -0.004 J-612.976
G2 X 340.060 Y 250.300 I -39.324 J-565.877
G2 X 378.910 Y 243.100 I -68.804 J-479.668
G2 X 414.030 Y 233.330 I -84.288 J-370.996
G2 X 444.340 Y 221.280 I -85.373 J-258.888
G2 X 468.930 Y 207.320 I -75.083 J-160.893
G2 X 487.050 Y 191.880 I -59.228 J -87.861
G2 X 498.140 Y 175.430 I -44.684 J -42.088
G2 X 501.880 Y 158.460 I -37.484 J -17.158
G1 X  10.000 Y 158.460
F150
G1 Z   3.000
G0 Z  15.000 
M9 M5

(* SHAPE Nr: 40 *)
G0 X  10.000 Y  46.020
M3 M8
G0 Z   3.000 
G1 Z  -1.500
F400
G2 X  13.740 Y  62.990 I  41.224 J  -0.188
G2 X  24.830 Y  79.450 I  55.805 J -25.633
G2 X  42.950 Y  94.890 I  77.348 J -72.421
G2 X  67.540 Y 108.840 I  99.610 J-146.938
G2 X  97.850 Y 120.890 I 115.683 J-246.838
G2 X 132.970 Y 130.660 I 119.408 J-361.226
G2 X 171.820 Y 137.860 I 107.654 J-472.468
G2 X 213.230 Y 142.270 I  80.734 J-561.467
G2 X 255.940 Y 143.760 I  42.714 J-611.486
G2 X 298.650 Y 142.270 I  -0.004 J-612.976
G2 X 340.060 Y 137.860 I -39.324 J-565.877
G2 X 378.910 Y 130.660 I -68.804 J-479.668
G2 X 414.030 Y 120.890 I -84.288 J-370.996
G2 X 444.340 Y 108.840 I -85.373 J-258.888
G2 X 468.930 Y  94.890 I -75.020 J-160.888
G2 X 487.050 Y  79.450 I -59.228 J -87.861
G2 X 498.140 Y  62.990 I -44.715 J -42.093
G2 X 501.880 Y  46.020 I -37.484 J -17.158
G1 X  10.000 Y  46.020
F150
G1 Z  -3.000
F400
G2 X  13.740 Y  62.990 I  41.224 J  -0.188
G2 X  24.830 Y  79.450 I  55.805 J -25.633
G2 X  42.950 Y  94.890 I  77.348 J -72.421
G2 X  67.540 Y 108.840 I  99.610 J-146.938
G2 X  97.850 Y 120.890 I 115.683 J-246.838
G2 X 132.970 Y 130.660 I 119.408 J-361.226
G2 X 171.820 Y 137.860 I 107.654 J-472.468
G2 X 213.230 Y 142.270 I  80.734 J-561.467
G2 X 255.940 Y 143.760 I  42.714 J-611.486
G2 X 298.650 Y 142.270 I  -0.004 J-612.976
G2 X 340.060 Y 137.860 I -39.324 J-565.877
G2 X 378.910 Y 130.660 I -68.804 J-479.668
G2 X 414.030 Y 120.890 I -84.288 J-370.996
G2 X 444.340 Y 108.840 I -85.373 J-258.888
G2 X 468.930 Y  94.890 I -75.020 J-160.888
G2 X 487.050 Y  79.450 I -59.228 J -87.861
G2 X 498.140 Y  62.990 I -44.715 J -42.093
G2 X 501.880 Y  46.020 I -37.484 J -17.158
G1 X  10.000 Y  46.020
F150
G1 Z   3.000
G0 Z  15.000 
M9 M5

(* SHAPE Nr: 41 *)
G0 X  10.000 Y 487.980
M3 M8
G0 Z   3.000 
G1 Z  -1.500
F400
G1 X  67.070 Y 545.050
G3 X 637.780 Y 308.650 I 570.716 J 570.709
G1 X1309.110 Y 308.650
G1 X1309.110 Y 227.940
G1 X 637.780 Y 227.940
G2 X  10.000 Y 487.980 I -33.718 J 806.401
F150
G1 Z  -3.000
F400
G1 X  67.070 Y 545.050
G3 X 637.780 Y 308.650 I 570.716 J 570.709
G1 X1309.110 Y 308.650
G1 X1309.110 Y 227.940
G1 X 637.780 Y 227.940
G2 X  10.000 Y 487.980 I -33.718 J 806.401
F150
G1 Z   3.000
G0 Z  15.000 
M9 M5

(* SHAPE Nr: 42 *)
G0 X  10.000 Y 621.180
M3 M8
G0 Z   3.000 
G1 Z  -1.500
F400
G1 X  67.070 Y 678.250
G3 X 637.780 Y 441.860 I 570.704 J 570.714
G1 X1309.110 Y 441.860
G1 X1309.110 Y 361.150
G1 X 637.780 Y 361.150
G2 X  10.000 Y 621.180 I -33.729 J 806.396
F150
G1 Z  -3.000
F400
G1 X  67.070 Y 678.250
G3 X 637.780 Y 441.860 I 570.704 J 570.714
G1 X1309.110 Y 441.860
G1 X1309.110 Y 361.150
G1 X 637.780 Y 361.150
G2 X  10.000 Y 621.180 I -33.729 J 806.396
F150
G1 Z   3.000
G0 Z  15.000 
M9 M5

(* SHAPE Nr: 43 *)
G0 X 776.780 Y 697.100
M3 M8
G0 Z   3.000 
G1 Z  -1.500
F400
G1 X 834.230 Y 738.840
G1 X 812.290 Y 806.380
G1 X 869.740 Y 764.640
G1 X 927.190 Y 806.380
G1 X 905.240 Y 738.840
G1 X 962.690 Y 697.100
G1 X 891.680 Y 697.100
G1 X 869.740 Y 629.560
G1 X 847.790 Y 697.100
G1 X 776.780 Y 697.100
F150
G1 Z  -3.000
F400
G1 X 834.230 Y 738.840
G1 X 812.290 Y 806.380
G1 X 869.740 Y 764.640
G1 X 927.190 Y 806.380
G1 X 905.240 Y 738.840
G1 X 962.690 Y 697.100
G1 X 891.680 Y 697.100
G1 X 869.740 Y 629.560
G1 X 847.790 Y 697.100
G1 X 776.780 Y 697.100
F150
G1 Z   3.000
G0 Z  15.000 
M9 M5

(* SHAPE Nr: 44 *)
G0 X 562.650 Y 476.130
M3 M8
G0 Z   3.000 
G1 Z  -1.500
F400
G2 X 566.380 Y 493.100 I  41.219 J  -0.165
G2 X 577.480 Y 509.560 I  55.810 J -25.663
G2 X 595.600 Y 525.000 I  77.347 J -72.419
G2 X 620.190 Y 538.960 I  99.673 J-146.933
G2 X 650.500 Y 551.000 I 115.599 J-246.843
G2 X 685.620 Y 560.780 I 119.512 J-361.221
G2 X 724.470 Y 567.980 I 107.654 J-472.468
G2 X 765.880 Y 572.390 I  80.734 J-561.467
G2 X 808.590 Y 573.870 I  42.570 J-611.491
G2 X 851.290 Y 572.390 I   0.135 J-612.828
G2 X 892.700 Y 567.980 I -39.324 J-565.877
G2 X 931.560 Y 560.780 I -68.799 J-479.791
G2 X 966.670 Y 551.000 I -84.397 J-370.897
G2 X 996.990 Y 538.960 I -85.284 J-258.966
G2 X1021.580 Y 525.000 I -75.083 J-160.893
G2 X1039.700 Y 509.560 I -59.227 J -87.859
G2 X1050.790 Y 493.100 I -44.715 J -42.093
G2 X1054.530 Y 476.130 I -37.484 J -17.158
G1 X 562.650 Y 476.130
F150
G1 Z  -3.000
F400
G2 X 566.380 Y 493.100 I  41.219 J  -0.165
G2 X 577.480 Y 509.560 I  55.810 J -25.663
G2 X 595.600 Y 525.000 I  77.347 J -72.419
G2 X 620.190 Y 538.960 I  99.673 J-146.933
G2 X 650.500 Y 551.000 I 115.599 J-246.843
G2 X 685.620 Y 560.780 I 119.512 J-361.221
G2 X 724.470 Y 567.980 I 107.654 J-472.468
G2 X 765.880 Y 572.390 I  80.734 J-561.467
G2 X 808.590 Y 573.870 I  42.570 J-611.491
G2 X 851.290 Y 572.390 I   0.135 J-612.828
G2 X 892.700 Y 567.980 I -39.324 J-565.877
G2 X 931.560 Y 560.780 I -68.799 J-479.791
G2 X 966.670 Y 551.000 I -84.397 J-370.897
G2 X 996.990 Y 538.960 I -85.284 J-258.966
G2 X1021.580 Y 525.000 I -75.083 J-160.893
G2 X1039.700 Y 509.560 I -59.227 J -87.859
G2 X1050.790 Y 493.100 I -44.715 J -42.093
G2 X1054.530 Y 476.130 I -37.484 J -17.158
G1 X 562.650 Y 476.130
F150
G1 Z   3.000
G0 Z  15.000 
M9 M5

(* SHAPE Nr: 45 *)
G0 X1323.810 Y 201.490
M3 M8
G0 Z   3.000 
G1 Z  -1.500
F400
G1 X1323.810 Y 250.650
G2 X1519.290 Y 250.650 I  97.740 J-130.352
G1 X1519.290 Y 201.490
G3 X1323.810 Y 201.490 I -97.740 J -81.189
F150
G1 Z  -3.000
F400
G1 X1323.810 Y 250.650
G2 X1519.290 Y 250.650 I  97.740 J-130.352
G1 X1519.290 Y 201.490
G3 X1323.810 Y 201.490 I -97.740 J -81.189
F150
G1 Z   3.000
G0 Z  15.000 
M9 M5

(* SHAPE Nr: 46 *)
G0 X 942.570 Y  77.340
M3 M8
G0 Z   3.000 
G1 Z  -1.500
F400
G2 X 946.310 Y  94.310 I  41.224 J  -0.188
G2 X 957.410 Y 110.770 I  55.810 J -25.663
G2 X 975.520 Y 126.210 I  77.343 J -72.377
G2 X1000.110 Y 140.170 I  99.673 J-146.933
G2 X1030.430 Y 152.210 I 115.604 J-246.926
G2 X1065.540 Y 161.990 I 119.507 J-361.117
G2 X1104.400 Y 169.190 I 107.659 J-472.591
G2 X1145.810 Y 173.600 I  80.734 J-561.467
G2 X1188.510 Y 175.080 I  42.565 J-611.348
G2 X1231.220 Y 173.600 I   0.140 J-612.971
G2 X1272.630 Y 169.190 I -39.324 J-565.877
G2 X1311.480 Y 161.990 I -68.804 J-479.668
G2 X1346.600 Y 152.210 I -84.392 J-371.001
G2 X1376.920 Y 140.170 I -85.284 J-258.966
G2 X1401.500 Y 126.210 I -75.088 J-160.830
G2 X1419.620 Y 110.770 I -59.228 J -87.861
G2 X1430.720 Y  94.310 I -44.710 J -42.123
G2 X1434.450 Y  77.340 I -37.489 J -17.135
G1 X 942.570 Y  77.340
F150
G1 Z  -3.000
F400
G2 X 946.310 Y  94.310 I  41.224 J  -0.188
G2 X 957.410 Y 110.770 I  55.810 J -25.663
G2 X 975.520 Y 126.210 I  77.343 J -72.377
G2 X1000.110 Y 140.170 I  99.673 J-146.933
G2 X1030.430 Y 152.210 I 115.604 J-246.926
G2 X1065.540 Y 161.990 I 119.507 J-361.117
G2 X1104.400 Y 169.190 I 107.659 J-472.591
G2 X1145.810 Y 173.600 I  80.734 J-561.467
G2 X1188.510 Y 175.080 I  42.565 J-611.348
G2 X1231.220 Y 173.600 I   0.140 J-612.971
G2 X1272.630 Y 169.190 I -39.324 J-565.877
G2 X1311.480 Y 161.990 I -68.804 J-479.668
G2 X1346.600 Y 152.210 I -84.392 J-371.001
G2 X1376.920 Y 140.170 I -85.284 J-258.966
G2 X1401.500 Y 126.210 I -75.088 J-160.830
G2 X1419.620 Y 110.770 I -59.228 J -87.861
G2 X1430.720 Y  94.310 I -44.710 J -42.123
G2 X1434.450 Y  77.340 I -37.489 J -17.135
G1 X 942.570 Y  77.340
F150
G1 Z   3.000
G0 Z  15.000 
M9 M5

(* SHAPE Nr: 47 *)
G0 X1895.940 Y 151.670
M3 M8
G0 Z   3.000 
G1 Z  -1.500
F400
G1 X2387.820 Y 151.670
G2 X2384.090 Y 134.700 I -41.219 J   0.165
G2 X2372.990 Y 118.250 I -55.779 J  25.668
G2 X2354.870 Y 102.800 I -77.392 J  72.416
G2 X2330.280 Y  88.850 I -99.608 J 146.934
G2 X2299.970 Y  76.800 I-115.683 J 246.838
G2 X2264.850 Y  67.030 I-119.408 J 361.226
G2 X2226.000 Y  59.830 I-107.654 J 472.468
G2 X2184.590 Y  55.420 I -80.734 J 561.467
G2 X2141.880 Y  53.930 I -42.714 J 611.486
G2 X2099.180 Y  55.420 I   0.009 J 612.833
G2 X2057.770 Y  59.830 I  39.324 J 565.877
G2 X2018.910 Y  67.030 I  68.799 J 479.791
G2 X1983.800 Y  76.800 I  84.293 J 370.892
G2 X1953.480 Y  88.850 I  85.368 J 258.971
G2 X1928.890 Y 102.800 I  75.020 J 160.888
G2 X1910.770 Y 118.250 I  59.272 J  87.866
G2 X1899.680 Y 134.700 I  44.684 J  42.088
G2 X1895.940 Y 151.670 I  37.484 J  17.158
F150
G1 Z  -3.000
F400
G1 X2387.820 Y 151.670
G2 X2384.090 Y 134.700 I -41.219 J   0.165
G2 X2372.990 Y 118.250 I -55.779 J  25.668
G2 X2354.870 Y 102.800 I -77.392 J  72.416
G2 X2330.280 Y  88.850 I -99.608 J 146.934
G2 X2299.970 Y  76.800 I-115.683 J 246.838
G2 X2264.850 Y  67.030 I-119.408 J 361.226
G2 X2226.000 Y  59.830 I-107.654 J 472.468
G2 X2184.590 Y  55.420 I -80.734 J 561.467
G2 X2141.880 Y  53.930 I -42.714 J 611.486
G2 X2099.180 Y  55.420 I   0.009 J 612.833
G2 X2057.770 Y  59.830 I  39.324 J 565.877
G2 X2018.910 Y  67.030 I  68.799 J 479.791
G2 X1983.800 Y  76.800 I  84.293 J 370.892
G2 X1953.480 Y  88.850 I  85.368 J 258.971
G2 X1928.890 Y 102.800 I  75.020 J 160.888
G2 X1910.770 Y 118.250 I  59.272 J  87.866
G2 X1899.680 Y 134.700 I  44.684 J  42.088
G2 X1895.940 Y 151.670 I  37.484 J  17.158
F150
G1 Z   3.000
G0 Z  15.000 
M9 M5

(* SHAPE Nr: 48 *)
G0 X1445.270 Y  53.900
M3 M8
G0 Z   3.000 
G1 Z  -1.500
F400
G2 X1449.010 Y  70.880 I  41.247 J  -0.183
G2 X1460.100 Y  87.330 I  55.774 J -25.638
G2 X1478.220 Y 102.770 I  77.347 J -72.419
G2 X1502.810 Y 116.730 I  99.673 J-146.933
G2 X1533.120 Y 128.780 I 115.686 J-246.846
G2 X1568.240 Y 138.550 I 119.408 J-361.226
G2 X1607.090 Y 145.750 I 107.654 J-472.468
G2 X1648.500 Y 150.160 I  80.734 J-561.467
G2 X1691.210 Y 151.640 I  42.570 J-611.491
G2 X1733.920 Y 150.160 I   0.140 J-612.971
G2 X1775.320 Y 145.750 I -39.329 J-565.740
G2 X1814.180 Y 138.550 I -68.799 J-479.791
G2 X1849.300 Y 128.780 I -84.288 J-370.996
G2 X1879.610 Y 116.730 I -85.376 J-258.896
G2 X1904.200 Y 102.770 I -75.083 J-160.893
G2 X1922.320 Y  87.330 I -59.227 J -87.859
G2 X1933.410 Y  70.880 I -44.684 J -42.088
G2 X1937.150 Y  53.900 I -37.507 J -17.163
G1 X1445.270 Y  53.900
F150
G1 Z  -3.000
F400
G2 X1449.010 Y  70.880 I  41.247 J  -0.183
G2 X1460.100 Y  87.330 I  55.774 J -25.638
G2 X1478.220 Y 102.770 I  77.347 J -72.419
G2 X1502.810 Y 116.730 I  99.673 J-146.933
G2 X1533.120 Y 128.780 I 115.686 J-246.846
G2 X1568.240 Y 138.550 I 119.408 J-361.226
G2 X1607.090 Y 145.750 I 107.654 J-472.468
G2 X1648.500 Y 150.160 I  80.734 J-561.467
G2 X1691.210 Y 151.640 I  42.570 J-611.491
G2 X1733.920 Y 150.160 I   0.140 J-612.971
G2 X1775.320 Y 145.750 I -39.329 J-565.740
G2 X1814.180 Y 138.550 I -68.799 J-479.791
G2 X1849.300 Y 128.780 I -84.288 J-370.996
G2 X1879.610 Y 116.730 I -85.376 J-258.896
G2 X1904.200 Y 102.770 I -75.083 J-160.893
G2 X1922.320 Y  87.330 I -59.227 J -87.859
G2 X1933.410 Y  70.880 I -44.684 J -42.088
G2 X1937.150 Y  53.900 I -37.507 J -17.163
G1 X1445.270 Y  53.900
F150
G1 Z   3.000
G0 Z  15.000 
M9 M5

(* SHAPE Nr: 49 *)
G0 X1323.930 Y 427.110
M3 M8
G0 Z   3.000 
G1 Z  -1.500
F400
G1 X1381.000 Y 484.180
G3 X1951.710 Y 247.790 I 570.704 J 570.714
G1 X2623.040 Y 247.790
G1 X2623.040 Y 167.080
G1 X1951.710 Y 167.080
G2 X1323.930 Y 427.110 I -33.729 J 806.396
F150
G1 Z  -3.000
F400
G1 X1381.000 Y 484.180
G3 X1951.710 Y 247.790 I 570.704 J 570.714
G1 X2623.040 Y 247.790
G1 X2623.040 Y 167.080
G1 X1951.710 Y 167.080
G2 X1323.930 Y 427.110 I -33.729 J 806.396
F150
G1 Z   3.000
G0 Z  15.000 
M9 M5

(* SHAPE Nr: 50 *)
G0 X1447.560 Y 458.030
M3 M8
G0 Z   3.000 
G1 Z  -1.500
F400
G2 X1443.820 Y 475.000 I  37.484 J  17.158
G2 X1447.560 Y 491.970 I  41.224 J  -0.188
G2 X1458.660 Y 508.430 I  55.810 J -25.663
G2 X1476.780 Y 523.870 I  77.348 J -72.421
G2 X1501.360 Y 537.830 I  99.668 J-146.870
G2 X1531.680 Y 549.870 I 115.604 J-246.926
G2 X1566.800 Y 559.650 I 119.512 J-361.221
G2 X1605.650 Y 566.850 I 107.654 J-472.468
G2 X1647.060 Y 571.260 I  80.734 J-561.467
G2 X1689.770 Y 572.740 I  42.570 J-611.491
G2 X1732.470 Y 571.260 I   0.135 J-612.828
G2 X1773.880 Y 566.850 I -39.324 J-565.877
G2 X1812.730 Y 559.650 I -68.804 J-479.668
G2 X1847.850 Y 549.870 I -84.392 J-371.001
G2 X1878.170 Y 537.830 I -85.288 J-258.975
G2 X1902.760 Y 523.870 I -75.083 J-160.893
G2 X1920.870 Y 508.430 I -59.232 J -87.815
G2 X1931.970 Y 491.970 I -44.710 J -42.123
G2 X1935.700 Y 475.000 I -37.489 J -17.135
G2 X1931.970 Y 458.030 I -41.219 J   0.165
G2 X1920.870 Y 441.570 I -55.810 J  25.663
G2 X1902.760 Y 426.130 I -77.342 J  72.375
G2 X1878.170 Y 412.170 I -99.673 J 146.933
G2 X1847.850 Y 400.130 I-115.604 J 246.926
G2 X1812.730 Y 390.360 I-119.408 J 361.226
G2 X1773.880 Y 383.150 I-107.776 J 472.463
G2 X1732.470 Y 378.740 I -80.734 J 561.467
G2 X1689.770 Y 377.260 I -42.565 J 611.348
G2 X1647.060 Y 378.740 I  -0.140 J 612.971
G2 X1605.650 Y 383.150 I  39.324 J 565.877
G2 X1566.800 Y 390.360 I  68.926 J 479.673
G2 X1531.680 Y 400.130 I  84.288 J 370.996
G2 X1501.360 Y 412.170 I  85.284 J 258.966
G2 X1476.780 Y 426.130 I  75.088 J 160.830
G2 X1458.660 Y 441.570 I  59.228 J  87.861
G2 X1447.560 Y 458.030 I  44.710 J  42.123
F150
G1 Z  -3.000
F400
G2 X1443.820 Y 475.000 I  37.484 J  17.158
G2 X1447.560 Y 491.970 I  41.224 J  -0.188
G2 X1458.660 Y 508.430 I  55.810 J -25.663
G2 X1476.780 Y 523.870 I  77.348 J -72.421
G2 X1501.360 Y 537.830 I  99.668 J-146.870
G2 X1531.680 Y 549.870 I 115.604 J-246.926
G2 X1566.800 Y 559.650 I 119.512 J-361.221
G2 X1605.650 Y 566.850 I 107.654 J-472.468
G2 X1647.060 Y 571.260 I  80.734 J-561.467
G2 X1689.770 Y 572.740 I  42.570 J-611.491
G2 X1732.470 Y 571.260 I   0.135 J-612.828
G2 X1773.880 Y 566.850 I -39.324 J-565.877
G2 X1812.730 Y 559.650 I -68.804 J-479.668
G2 X1847.850 Y 549.870 I -84.392 J-371.001
G2 X1878.170 Y 537.830 I -85.288 J-258.975
G2 X1902.760 Y 523.870 I -75.083 J-160.893
G2 X1920.870 Y 508.430 I -59.232 J -87.815
G2 X1931.970 Y 491.970 I -44.710 J -42.123
G2 X1935.700 Y 475.000 I -37.489 J -17.135
G2 X1931.970 Y 458.030 I -41.219 J   0.165
G2 X1920.870 Y 441.570 I -55.810 J  25.663
G2 X1902.760 Y 426.130 I -77.342 J  72.375
G2 X1878.170 Y 412.170 I -99.673 J 146.933
G2 X1847.850 Y 400.130 I-115.604 J 246.926
G2 X1812.730 Y 390.360 I-119.408 J 361.226
G2 X1773.880 Y 383.150 I-107.776 J 472.463
G2 X1732.470 Y 378.740 I -80.734 J 561.467
G2 X1689.770 Y 377.260 I -42.565 J 611.348
G2 X1647.060 Y 378.740 I  -0.140 J 612.971
G2 X1605.650 Y 383.150 I  39.324 J 565.877
G2 X1566.800 Y 390.360 I  68.926 J 479.673
G2 X1531.680 Y 400.130 I  84.288 J 370.996
G2 X1501.360 Y 412.170 I  85.284 J 258.966
G2 X1476.780 Y 426.130 I  75.088 J 160.830
G2 X1458.660 Y 441.570 I  59.228 J  87.861
G2 X1447.560 Y 458.030 I  44.710 J  42.123
F150
G1 Z   3.000
G0 Z  15.000 
M9 M5

(* SHAPE Nr: 51 *)
G0 X1690.220 Y 611.590
M3 M8
G0 Z   3.000 
G1 Z  -1.500
F400
G1 X1654.720 Y 720.870
G1 X1747.680 Y 788.410
G1 X1840.630 Y 720.870
G1 X1805.130 Y 611.590
G1 X1690.220 Y 611.590
F150
G1 Z  -3.000
F400
G1 X1654.720 Y 720.870
G1 X1747.680 Y 788.410
G1 X1840.630 Y 720.870
G1 X1805.130 Y 611.590
G1 X1690.220 Y 611.590
F150
G1 Z   3.000
G0 Z  15.000 
M9 M5

(* SHAPE Nr: 52 *)
G0 X2389.880 Y 515.000
M3 M8
G0 Z   3.000 
G1 Z  -1.500
F400
G1 X2457.410 Y 607.960
G1 X2566.690 Y 572.450
G1 X2566.690 Y 457.550
G1 X2457.410 Y 422.040
G1 X2389.880 Y 515.000
F150
G1 Z  -3.000
F400
G1 X2457.410 Y 607.960
G1 X2566.690 Y 572.450
G1 X2566.690 Y 457.550
G1 X2457.410 Y 422.040
G1 X2389.880 Y 515.000
F150
G1 Z   3.000
G0 Z  15.000 
M9 M5

(* SHAPE Nr: 53 *)
G0 X1898.010 Y 380.000
M3 M8
G0 Z   3.000 
G1 Z  -1.500
F400
G2 X1901.740 Y 396.970 I  41.219 J  -0.165
G2 X1912.840 Y 413.430 I  55.810 J -25.663
G2 X1930.960 Y 428.870 I  77.347 J -72.419
G2 X1955.550 Y 442.830 I  99.673 J-146.933
G2 X1985.860 Y 454.870 I 115.599 J-246.843
G2 X2020.980 Y 464.640 I 119.408 J-361.226
G2 X2059.830 Y 471.850 I 107.776 J-472.463
G2 X2101.240 Y 476.260 I  80.734 J-561.467
G2 X2143.950 Y 477.740 I  42.570 J-611.491
G2 X2186.650 Y 476.260 I   0.135 J-612.828
G2 X2228.060 Y 471.850 I -39.324 J-565.877
G2 X2266.920 Y 464.640 I -68.921 J-479.796
G2 X2302.030 Y 454.870 I -84.293 J-370.892
G2 X2332.350 Y 442.830 I -85.284 J-258.966
G2 X2356.940 Y 428.870 I -75.081 J-160.889
G2 X2375.050 Y 413.430 I -59.233 J -87.817
G2 X2386.150 Y 396.970 I -44.710 J -42.123
G2 X2389.890 Y 380.000 I -37.484 J -17.158
G1 X2389.880 Y 380.000
G2 X2386.150 Y 363.030 I -41.225 J   0.166
G2 X2375.050 Y 346.570 I -55.810 J  25.663
G2 X2356.940 Y 331.130 I -77.343 J  72.377
G2 X2332.350 Y 317.170 I -99.671 J 146.929
G2 X2302.030 Y 305.130 I-115.604 J 246.926
G2 X2266.920 Y 295.360 I-119.403 J 361.122
G2 X2228.060 Y 288.150 I-107.781 J 472.586
G2 X2186.650 Y 283.740 I -80.734 J 561.467
G2 X2143.950 Y 282.260 I -42.565 J 611.348
G2 X2101.240 Y 283.740 I  -0.140 J 612.971
G2 X2059.830 Y 288.150 I  39.324 J 565.877
G2 X2020.980 Y 295.360 I  68.926 J 479.673
G2 X1985.860 Y 305.130 I  84.288 J 370.996
G2 X1955.550 Y 317.170 I  85.289 J 258.883
G2 X1930.960 Y 331.130 I  75.083 J 160.893
G2 X1912.840 Y 346.570 I  59.227 J  87.859
G2 X1901.740 Y 363.030 I  44.710 J  42.123
G2 X1898.010 Y 380.000 I  37.489 J  17.135
F150
G1 Z  -3.000
F400
G2 X1901.740 Y 396.970 I  41.219 J  -0.165
G2 X1912.840 Y 413.430 I  55.810 J -25.663
G2 X1930.960 Y 428.870 I  77.347 J -72.419
G2 X1955.550 Y 442.830 I  99.673 J-146.933
G2 X1985.860 Y 454.870 I 115.599 J-246.843
G2 X2020.980 Y 464.640 I 119.408 J-361.226
G2 X2059.830 Y 471.850 I 107.776 J-472.463
G2 X2101.240 Y 476.260 I  80.734 J-561.467
G2 X2143.950 Y 477.740 I  42.570 J-611.491
G2 X2186.650 Y 476.260 I   0.135 J-612.828
G2 X2228.060 Y 471.850 I -39.324 J-565.877
G2 X2266.920 Y 464.640 I -68.921 J-479.796
G2 X2302.030 Y 454.870 I -84.293 J-370.892
G2 X2332.350 Y 442.830 I -85.284 J-258.966
G2 X2356.940 Y 428.870 I -75.081 J-160.889
G2 X2375.050 Y 413.430 I -59.233 J -87.817
G2 X2386.150 Y 396.970 I -44.710 J -42.123
G2 X2389.890 Y 380.000 I -37.484 J -17.158
G1 X2389.880 Y 380.000
G2 X2386.150 Y 363.030 I -41.225 J   0.166
G2 X2375.050 Y 346.570 I -55.810 J  25.663
G2 X2356.940 Y 331.130 I -77.343 J  72.377
G2 X2332.350 Y 317.170 I -99.671 J 146.929
G2 X2302.030 Y 305.130 I-115.604 J 246.926
G2 X2266.920 Y 295.360 I-119.403 J 361.122
G2 X2228.060 Y 288.150 I-107.781 J 472.586
G2 X2186.650 Y 283.740 I -80.734 J 561.467
G2 X2143.950 Y 282.260 I -42.565 J 611.348
G2 X2101.240 Y 283.740 I  -0.140 J 612.971
G2 X2059.830 Y 288.150 I  39.324 J 565.877
G2 X2020.980 Y 295.360 I  68.926 J 479.673
G2 X1985.860 Y 305.130 I  84.288 J 370.996
G2 X1955.550 Y 317.170 I  85.289 J 258.883
G2 X1930.960 Y 331.130 I  75.083 J 160.893
G2 X1912.840 Y 346.570 I  59.227 J  87.859
G2 X1901.740 Y 363.030 I  44.710 J  42.123
G2 X1898.010 Y 380.000 I  37.489 J  17.135
F150
G1 Z   3.000
G0 Z  15.000 
M9 M5

(* SHAPE Nr: 54 *)
G0 X2383.790 Y 284.130
M3 M8
G0 Z   3.000 
G1 Z  -1.500
F400
G1 X2383.790 Y 333.300
G2 X2579.270 Y 333.300 I  97.740 J-130.352
G1 X2579.270 Y 284.130
G3 X2383.790 Y 284.130 I -97.740 J -81.189
F150
G1 Z  -3.000
F400
G1 X2383.790 Y 333.300
G2 X2579.270 Y 333.300 I  97.740 J-130.352
G1 X2579.270 Y 284.130
G3 X2383.790 Y 284.130 I -97.740 J -81.189
F150
G1 Z   3.000
G0 Z  15.000 
M9 M5

(* SHAPE Nr: 55 *)
G0 X2637.790 Y 174.330
M3 M8
G0 Z   3.000 
G1 Z  -1.500
F400
G1 X2637.790 Y 666.210
G2 X2654.760 Y 662.470 I  -0.188 J -41.224
G2 X2671.220 Y 651.380 I -25.633 J -55.805
G2 X2686.660 Y 633.260 I -72.419 J -77.347
G2 X2700.620 Y 608.670 I-146.933 J -99.673
G2 X2712.670 Y 578.350 I-246.921 J-115.688
G2 X2722.440 Y 543.240 I-361.122 J-119.403
G2 X2729.640 Y 504.380 I-472.591 J-107.659
G2 X2734.050 Y 462.980 I-561.330 J -80.729
G2 X2735.530 Y 420.270 I-611.491 J -42.570
G2 X2734.050 Y 377.560 I-612.971 J  -0.140
G2 X2729.640 Y 336.150 I-565.877 J  39.324
G2 X2722.440 Y 297.300 I-479.668 J  68.804
G2 X2712.670 Y 262.180 I-370.996 J  84.288
G2 X2700.620 Y 231.870 I-258.888 J  85.373
G2 X2686.660 Y 207.280 I-160.893 J  75.083
G2 X2671.220 Y 189.160 I -87.859 J  59.227
G2 X2654.760 Y 178.060 I -42.123 J  44.710
G2 X2637.790 Y 174.330 I -17.135 J  37.489
F150
G1 Z  -3.000
F400
G1 X2637.790 Y 666.210
G2 X2654.760 Y 662.470 I  -0.188 J -41.224
G2 X2671.220 Y 651.380 I -25.633 J -55.805
G2 X2686.660 Y 633.260 I -72.419 J -77.347
G2 X2700.620 Y 608.670 I-146.933 J -99.673
G2 X2712.670 Y 578.350 I-246.921 J-115.688
G2 X2722.440 Y 543.240 I-361.122 J-119.403
G2 X2729.640 Y 504.380 I-472.591 J-107.659
G2 X2734.050 Y 462.980 I-561.330 J -80.729
G2 X2735.530 Y 420.270 I-611.491 J -42.570
G2 X2734.050 Y 377.560 I-612.971 J  -0.140
G2 X2729.640 Y 336.150 I-565.877 J  39.324
G2 X2722.440 Y 297.300 I-479.668 J  68.804
G2 X2712.670 Y 262.180 I-370.996 J  84.288
G2 X2700.620 Y 231.870 I-258.888 J  85.373
G2 X2686.660 Y 207.280 I-160.893 J  75.083
G2 X2671.220 Y 189.160 I -87.859 J  59.227
G2 X2654.760 Y 178.060 I -42.123 J  44.710
G2 X2637.790 Y 174.330 I -17.135 J  37.489
F150
G1 Z   3.000
G0 Z  15.000 
M9 M5

(* SHAPE Nr: 56 *)
G0 X2600.730 Y 119.930
M3 M8
G0 Z   3.000 
G1 Z  -1.500
F400
G1 X2671.750 Y 119.930
G1 X2693.690 Y 187.470
G1 X2715.630 Y 119.930
G1 X2786.650 Y 119.930
G1 X2729.200 Y  78.190
G1 X2751.140 Y  10.650
G1 X2693.690 Y  52.390
G1 X2636.240 Y  10.650
G1 X2658.180 Y  78.190
G1 X2600.730 Y 119.930
F150
G1 Z  -3.000
F400
G1 X2671.750 Y 119.930
G1 X2693.690 Y 187.470
G1 X2715.630 Y 119.930
G1 X2786.650 Y 119.930
G1 X2729.200 Y  78.190
G1 X2751.140 Y  10.650
G1 X2693.690 Y  52.390
G1 X2636.240 Y  10.650
G1 X2658.180 Y  78.190
G1 X2600.730 Y 119.930
F150
G1 Z   3.000
G0 Z  15.000 
M9 M5

(* SHAPE Nr: 57 *)
G0 X2658.730 Y1044.300
M3 M8
G0 Z   3.000 
G1 Z  -1.500
F400
G1 X2658.730 Y1536.180
G2 X2675.700 Y1532.440 I  -0.188 J -41.224
G2 X2692.160 Y1521.340 I -25.663 J -55.810
G2 X2707.600 Y1503.220 I -72.421 J -77.348
G2 X2721.550 Y1478.640 I-146.875 J -99.605
G2 X2733.600 Y1448.320 I-246.921 J-115.688
G2 X2743.370 Y1413.200 I-361.226 J-119.408
G2 X2750.570 Y1374.350 I-472.468 J-107.654
G2 X2754.980 Y1332.940 I-561.467 J -80.734
G2 X2756.470 Y1290.230 I-611.486 J -42.714
G2 X2754.980 Y1247.530 I-612.833 J   0.009
G2 X2750.570 Y1206.120 I-565.877 J  39.324
G2 X2743.370 Y1167.270 I-479.668 J  68.804
G2 X2733.600 Y1132.150 I-370.996 J  84.288
G2 X2721.550 Y1101.830 I-258.971 J  85.368
G2 X2707.600 Y1077.240 I-160.888 J  75.020
G2 X2692.160 Y1059.130 I -87.817 J  59.233
G2 X2675.700 Y1048.030 I -42.123 J  44.710
G2 X2658.730 Y1044.300 I -17.135 J  37.489
F150
G1 Z  -3.000
F400
G1 X2658.730 Y1536.180
G2 X2675.700 Y1532.440 I  -0.188 J -41.224
G2 X2692.160 Y1521.340 I -25.663 J -55.810
G2 X2707.600 Y1503.220 I -72.421 J -77.348
G2 X2721.550 Y1478.640 I-146.875 J -99.605
G2 X2733.600 Y1448.320 I-246.921 J-115.688
G2 X2743.370 Y1413.200 I-361.226 J-119.408
G2 X2750.570 Y1374.350 I-472.468 J-107.654
G2 X2754.980 Y1332.940 I-561.467 J -80.734
G2 X2756.470 Y1290.230 I-611.486 J -42.714
G2 X2754.980 Y1247.530 I-612.833 J   0.009
G2 X2750.570 Y1206.120 I-565.877 J  39.324
G2 X2743.370 Y1167.270 I-479.668 J  68.804
G2 X2733.600 Y1132.150 I-370.996 J  84.288
G2 X2721.550 Y1101.830 I-258.971 J  85.368
G2 X2707.600 Y1077.240 I-160.888 J  75.020
G2 X2692.160 Y1059.130 I -87.817 J  59.233
G2 X2675.700 Y1048.030 I -42.123 J  44.710
G2 X2658.730 Y1044.300 I -17.135 J  37.489
F150
G1 Z   3.000
G0 Z  15.000 
M9 M5

(* SHAPE Nr: 58 *)
G0 X2672.320 Y 717.210
M3 M8
G0 Z   3.000 
G1 Z  -1.500
F400
G2 X2665.120 Y 756.070 I 472.591 J 107.659
G2 X2660.720 Y 797.480 I 561.472 J  80.598
G2 X2659.230 Y 840.180 I 611.343 J  42.709
G2 X2660.720 Y 882.890 I 612.976 J  -0.004
G2 X2665.120 Y 924.300 I 565.872 J -39.188
G2 X2672.320 Y 963.150 I 479.668 J -68.804
G2 X2682.100 Y 998.270 I 371.001 J -84.392
G2 X2694.140 Y1028.580 I 258.891 J -85.293
G2 X2708.100 Y1053.170 I 160.893 J -75.083
G2 X2723.540 Y1071.290 I  87.861 J -59.228
G2 X2740.000 Y1082.390 I  42.123 J -44.710
G2 X2756.970 Y1086.120 I  17.135 J -37.489
G1 X2756.970 Y 594.240
G2 X2740.000 Y 597.980 I   0.188 J  41.224
G2 X2723.540 Y 609.080 I  25.663 J  55.810
G2 X2708.100 Y 627.190 I  72.377 J  77.343
G2 X2694.140 Y 651.780 I 146.933 J  99.673
G2 X2682.100 Y 682.100 I 246.926 J 115.604
G2 X2672.320 Y 717.210 I 361.117 J 119.507
F150
G1 Z  -3.000
F400
G2 X2665.120 Y 756.070 I 472.591 J 107.659
G2 X2660.720 Y 797.480 I 561.472 J  80.598
G2 X2659.230 Y 840.180 I 611.343 J  42.709
G2 X2660.720 Y 882.890 I 612.976 J  -0.004
G2 X2665.120 Y 924.300 I 565.872 J -39.188
G2 X2672.320 Y 963.150 I 479.668 J -68.804
G2 X2682.100 Y 998.270 I 371.001 J -84.392
G2 X2694.140 Y1028.580 I 258.891 J -85.293
G2 X2708.100 Y1053.170 I 160.893 J -75.083
G2 X2723.540 Y1071.290 I  87.861 J -59.228
G2 X2740.000 Y1082.390 I  42.123 J -44.710
G2 X2756.970 Y1086.120 I  17.135 J -37.489
G1 X2756.970 Y 594.240
G2 X2740.000 Y 597.980 I   0.188 J  41.224
G2 X2723.540 Y 609.080 I  25.663 J  55.810
G2 X2708.100 Y 627.190 I  72.377 J  77.343
G2 X2694.140 Y 651.780 I 146.933 J  99.673
G2 X2682.100 Y 682.100 I 246.926 J 115.604
G2 X2672.320 Y 717.210 I 361.117 J 119.507
F150
G1 Z   3.000
G0 Z  15.000 
M9 M5

(* SHAPE Nr: 59 *)
G0 X2633.000 Y1581.070
M3 M8
G0 Z   3.000 
G1 Z  -1.500
F400
G2 X2619.050 Y1605.660 I 146.938 J  99.610
G2 X2607.000 Y1635.970 I 246.838 J 115.683
G2 X2597.230 Y1671.090 I 361.226 J 119.408
G2 X2590.030 Y1709.940 I 472.468 J 107.654
G2 X2585.620 Y1751.350 I 561.467 J  80.734
G2 X2584.130 Y1794.060 I 611.486 J  42.714
G2 X2585.620 Y1836.770 I 612.976 J  -0.004
G2 X2590.030 Y1878.180 I 565.877 J -39.324
G2 X2597.230 Y1917.030 I 479.668 J -68.804
G2 X2607.000 Y1952.150 I 370.996 J -84.288
G2 X2619.050 Y1982.460 I 258.888 J -85.373
G2 X2633.000 Y2007.050 I 160.888 J -75.020
G2 X2648.450 Y2025.170 I  87.866 J -59.272
G2 X2664.900 Y2036.260 I  42.088 J -44.684
G2 X2681.870 Y2040.000 I  17.158 J -37.484
G2 X2698.850 Y2036.260 I  -0.183 J -41.247
G2 X2715.300 Y2025.170 I -25.638 J -55.774
G2 X2730.740 Y2007.050 I -72.421 J -77.348
G2 X2744.700 Y1982.460 I-146.933 J -99.673
G2 X2756.750 Y1952.150 I-246.838 J-115.683
G2 X2766.520 Y1917.030 I-361.226 J-119.408
G2 X2773.720 Y1878.180 I-472.468 J-107.654
G2 X2778.130 Y1836.770 I-561.467 J -80.734
G2 X2779.610 Y1794.060 I-611.491 J -42.570
G2 X2778.130 Y1751.350 I-612.971 J  -0.140
G2 X2773.720 Y1709.940 I-565.877 J  39.324
G2 X2766.520 Y1671.090 I-479.668 J  68.804
G2 X2756.750 Y1635.970 I-370.996 J  84.288
G2 X2744.700 Y1605.660 I-258.888 J  85.373
G2 X2730.740 Y1581.070 I-160.889 J  75.081
G2 X2715.300 Y1562.950 I -87.861 J  59.228
G2 X2698.850 Y1551.860 I -42.088 J  44.684
G2 X2681.870 Y1548.120 I -17.163 J  37.508
G2 X2664.900 Y1551.860 I   0.188 J  41.224
G2 X2648.450 Y1562.950 I  25.638 J  55.774
G2 X2633.000 Y1581.070 I  72.416 J  77.392
F150
G1 Z  -3.000
F400
G2 X2619.050 Y1605.660 I 146.938 J  99.610
G2 X2607.000 Y1635.970 I 246.838 J 115.683
G2 X2597.230 Y1671.090 I 361.226 J 119.408
G2 X2590.030 Y1709.940 I 472.468 J 107.654
G2 X2585.620 Y1751.350 I 561.467 J  80.734
G2 X2584.130 Y1794.060 I 611.486 J  42.714
G2 X2585.620 Y1836.770 I 612.976 J  -0.004
G2 X2590.030 Y1878.180 I 565.877 J -39.324
G2 X2597.230 Y1917.030 I 479.668 J -68.804
G2 X2607.000 Y1952.150 I 370.996 J -84.288
G2 X2619.050 Y1982.460 I 258.888 J -85.373
G2 X2633.000 Y2007.050 I 160.888 J -75.020
G2 X2648.450 Y2025.170 I  87.866 J -59.272
G2 X2664.900 Y2036.260 I  42.088 J -44.684
G2 X2681.870 Y2040.000 I  17.158 J -37.484
G2 X2698.850 Y2036.260 I  -0.183 J -41.247
G2 X2715.300 Y2025.170 I -25.638 J -55.774
G2 X2730.740 Y2007.050 I -72.421 J -77.348
G2 X2744.700 Y1982.460 I-146.933 J -99.673
G2 X2756.750 Y1952.150 I-246.838 J-115.683
G2 X2766.520 Y1917.030 I-361.226 J-119.408
G2 X2773.720 Y1878.180 I-472.468 J-107.654
G2 X2778.130 Y1836.770 I-561.467 J -80.734
G2 X2779.610 Y1794.060 I-611.491 J -42.570
G2 X2778.130 Y1751.350 I-612.971 J  -0.140
G2 X2773.720 Y1709.940 I-565.877 J  39.324
G2 X2766.520 Y1671.090 I-479.668 J  68.804
G2 X2756.750 Y1635.970 I-370.996 J  84.288
G2 X2744.700 Y1605.660 I-258.888 J  85.373
G2 X2730.740 Y1581.070 I-160.889 J  75.081
G2 X2715.300 Y1562.950 I -87.861 J  59.228
G2 X2698.850 Y1551.860 I -42.088 J  44.684
G2 X2681.870 Y1548.120 I -17.163 J  37.508
G2 X2664.900 Y1551.860 I   0.188 J  41.224
G2 X2648.450 Y1562.950 I  25.638 J  55.774
G2 X2633.000 Y1581.070 I  72.416 J  77.392
F150
G1 Z   3.000
G0 Z  15.000 
M9 M5

(* SHAPE Nr: 60 *)
G0 X1877.360 Y 770.210
M3 M8
G0 Z   3.000 
G1 Z  -1.500
F400
G2 X1833.960 Y 880.580 I 850.056 J 397.979
G2 X1801.980 Y1002.690 I1077.138 J 347.340
G2 X1782.400 Y1132.830 I1256.956 J 255.656
G2 X1775.800 Y1267.050 I1358.956 J 134.096
G2 X1782.400 Y1401.270 I1365.556 J   0.124
G2 X1801.980 Y1531.410 I1276.536 J-125.516
G2 X1833.960 Y1653.530 I1109.207 J-225.225
G2 X1877.360 Y1763.890 I 893.377 J-287.614
G2 X1930.870 Y1859.160 I 665.040 J-310.869
G2 X1992.850 Y1936.440 I 456.021 J-302.243
G2 X2061.430 Y1993.390 I 287.311 J-276.216
G2 X2134.520 Y2028.260 I 164.041 J-249.806
G2 X2209.900 Y2040.000 I  75.688 J-238.105
G2 X2285.280 Y2028.260 I  -0.308 J-249.845
G2 X2358.370 Y1993.390 I -90.951 J-284.676
G2 X2426.950 Y1936.440 I-218.731 J-333.166
G2 X2488.930 Y1859.160 I-394.041 J-379.523
G2 X2542.440 Y1763.890 I-611.530 J-406.139
G2 X2585.840 Y1653.530 I-849.977 J-397.974
G2 X2617.820 Y1531.410 I-1077.227 J-347.345
G2 X2637.410 Y1401.270 I-1256.951 J-255.754
G2 X2644.000 Y1267.050 I-1358.961 J-133.995
G2 X2637.410 Y1132.830 I-1365.551 J  -0.225
G2 X2617.820 Y1002.690 I-1276.541 J 125.614
G2 X2585.840 Y 880.580 I-1109.118 J 225.230
G2 X2542.440 Y 770.210 I-893.456 J 287.609
G2 X2488.930 Y 674.940 I-665.040 J 310.869
G2 X2426.950 Y 597.660 I-456.021 J 302.243
G2 X2358.370 Y 540.720 I-287.266 J 276.221
G2 X2285.280 Y 505.840 I-164.078 J 249.801
G2 X2209.900 Y 494.100 I -75.688 J 238.105
G2 X2134.520 Y 505.840 I   0.308 J 249.845
G2 X2061.430 Y 540.720 I  90.988 J 284.681
G2 X1992.850 Y 597.660 I 218.686 J 333.161
G2 X1930.870 Y 674.940 I 394.041 J 379.523
G2 X1877.360 Y 770.210 I 611.530 J 406.139
F150
G1 Z  -3.000
F400
G2 X1833.960 Y 880.580 I 850.056 J 397.979
G2 X1801.980 Y1002.690 I1077.138 J 347.340
G2 X1782.400 Y1132.830 I1256.956 J 255.656
G2 X1775.800 Y1267.050 I1358.956 J 134.096
G2 X1782.400 Y1401.270 I1365.556 J   0.124
G2 X1801.980 Y1531.410 I1276.536 J-125.516
G2 X1833.960 Y1653.530 I1109.207 J-225.225
G2 X1877.360 Y1763.890 I 893.377 J-287.614
G2 X1930.870 Y1859.160 I 665.040 J-310.869
G2 X1992.850 Y1936.440 I 456.021 J-302.243
G2 X2061.430 Y1993.390 I 287.311 J-276.216
G2 X2134.520 Y2028.260 I 164.041 J-249.806
G2 X2209.900 Y2040.000 I  75.688 J-238.105
G2 X2285.280 Y2028.260 I  -0.308 J-249.845
G2 X2358.370 Y1993.390 I -90.951 J-284.676
G2 X2426.950 Y1936.440 I-218.731 J-333.166
G2 X2488.930 Y1859.160 I-394.041 J-379.523
G2 X2542.440 Y1763.890 I-611.530 J-406.139
G2 X2585.840 Y1653.530 I-849.977 J-397.974
G2 X2617.820 Y1531.410 I-1077.227 J-347.345
G2 X2637.410 Y1401.270 I-1256.951 J-255.754
G2 X2644.000 Y1267.050 I-1358.961 J-133.995
G2 X2637.410 Y1132.830 I-1365.551 J  -0.225
G2 X2617.820 Y1002.690 I-1276.541 J 125.614
G2 X2585.840 Y 880.580 I-1109.118 J 225.230
G2 X2542.440 Y 770.210 I-893.456 J 287.609
G2 X2488.930 Y 674.940 I-665.040 J 310.869
G2 X2426.950 Y 597.660 I-456.021 J 302.243
G2 X2358.370 Y 540.720 I-287.266 J 276.221
G2 X2285.280 Y 505.840 I-164.078 J 249.801
G2 X2209.900 Y 494.100 I -75.688 J 238.105
G2 X2134.520 Y 505.840 I   0.308 J 249.845
G2 X2061.430 Y 540.720 I  90.988 J 284.681
G2 X1992.850 Y 597.660 I 218.686 J 333.161
G2 X1930.870 Y 674.940 I 394.041 J 379.523
G2 X1877.360 Y 770.210 I 611.530 J 406.139
F150
G1 Z   3.000
G0 Z  15.000 
M9 M5

(* SHAPE Nr: 61 *)
G0 X1755.810 Y1990.840
M3 M8
G0 Z   3.000 
G1 Z  -1.500
F400
G1 X1755.810 Y2040.000
