(Generated with: DXF2GCODE, Version: REMOVED, Date: $Date$)
(Created from file: )
(Output format description: G-CODE for LinuxCNC)
(Time: Thu Sep 13 16:00:43 2018)
G21 (Units in millimeters)
G90 (Absolute programming)
G64 (Default cutting) G17 (XY plane) G40 (Cancel radius comp.) G49 (Cancel length comp.)
G0 Z  15.000 

(*** LAYER: FRAME_Z18 ***)
T1 M6
S6000

(* SHAPE Nr: 36 *)
G0 X   0.000 Y   0.000
M3 M8
G0 Z   3.000 
F150
G1 Z  -1.500
F400
G1 X   0.000 Y2050.000
G1 X2800.000 Y2050.000
G1 X2800.000 Y   0.000
G1 X   0.000 Y   0.000
F150
G1 Z  -3.000
F400
G1 X   0.000 Y2050.000
G1 X2800.000 Y2050.000
G1 X2800.000 Y   0.000
G1 X   0.000 Y   0.000
F150
G1 Z   3.000
G0 Z  15.000 
M9 M5

(*** LAYER: BORDER_D0_T132_RK1_A0_W0_EM1_RI1_ID0015 ***)

(* SHAPE Nr: 0 *)
G0 X  58.870 Y  59.010
M3 M8
G0 Z   3.000 
G1 Z  -1.500
F400
G1 X  10.000 Y 427.920
G1 X  42.580 Y 550.890
G1 X 107.740 Y 550.890
G1 X 172.900 Y 550.890
G1 X 205.480 Y 427.920
G1 X 156.610 Y  59.010
G1 X 137.060 Y 120.500
G1 X  78.420 Y 120.500
G1 X  58.870 Y  59.010
F150
G1 Z  -3.000
F400
G1 X  10.000 Y 427.920
G1 X  42.580 Y 550.890
G1 X 107.740 Y 550.890
G1 X 172.900 Y 550.890
G1 X 205.480 Y 427.920
G1 X 156.610 Y  59.010
G1 X 137.060 Y 120.500
G1 X  78.420 Y 120.500
G1 X  58.870 Y  59.010
F150
G1 Z   3.000
G0 Z  15.000 
M9 M5

(* SHAPE Nr: 13 *)
G0 X 692.750 Y1877.100
M3 M8
G0 Z   3.000 
G1 Z  -1.500
F400
G1 X 692.750 Y1942.260
G1 X 692.750 Y2007.420
G1 X 815.720 Y2040.000
G1 X1184.630 Y1991.130
G1 X1123.140 Y1971.580
G1 X1123.140 Y1912.940
G1 X1184.630 Y1893.390
G1 X 815.720 Y1844.520
G1 X 692.750 Y1877.100
F150
G1 Z  -3.000
F400
G1 X 692.750 Y1942.260
G1 X 692.750 Y2007.420
G1 X 815.720 Y2040.000
G1 X1184.630 Y1991.130
G1 X1123.140 Y1971.580
G1 X1123.140 Y1912.940
G1 X1184.630 Y1893.390
G1 X 815.720 Y1844.520
G1 X 692.750 Y1877.100
F150
G1 Z   3.000
G0 Z  15.000 
M9 M5

(* SHAPE Nr: 19 *)
G0 X1817.510 Y 284.410
M3 M8
G0 Z   3.000 
G1 Z  -1.500
F400
G1 X1879.000 Y 303.960
G1 X1879.000 Y 362.600
G1 X1817.510 Y 382.150
G1 X2186.420 Y 431.020
G1 X2309.390 Y 398.440
G1 X2309.390 Y 333.280
G1 X2309.390 Y 268.120
G1 X2186.420 Y 235.540
G1 X1817.510 Y 284.410
F150
G1 Z  -3.000
F400
G1 X1879.000 Y 303.960
G1 X1879.000 Y 362.600
G1 X1817.510 Y 382.150
G1 X2186.420 Y 431.020
G1 X2309.390 Y 398.440
G1 X2309.390 Y 333.280
G1 X2309.390 Y 268.120
G1 X2186.420 Y 235.540
G1 X1817.510 Y 284.410
F150
G1 Z   3.000
G0 Z  15.000 
M9 M5

(* SHAPE Nr: 20 *)
G0 X1310.620 Y  60.360
M3 M8
G0 Z   3.000 
G1 Z  -1.500
F400
G1 X1372.110 Y  79.910
G1 X1372.110 Y 138.550
G1 X1310.620 Y 158.100
G1 X1679.530 Y 206.970
G1 X1802.500 Y 174.390
G1 X1802.500 Y 109.230
G1 X1802.500 Y  44.070
G1 X1679.530 Y  11.490
G1 X1310.620 Y  60.360
F150
G1 Z  -3.000
F400
G1 X1372.110 Y  79.910
G1 X1372.110 Y 138.550
G1 X1310.620 Y 158.100
G1 X1679.530 Y 206.970
G1 X1802.500 Y 174.390
G1 X1802.500 Y 109.230
G1 X1802.500 Y  44.070
G1 X1679.530 Y  11.490
G1 X1310.620 Y  60.360
F150
G1 Z   3.000
G0 Z  15.000 
M9 M5

(* SHAPE Nr: 21 *)
G0 X1817.180 Y  90.400
M3 M8
G0 Z   3.000 
G1 Z  -1.500
F400
G1 X1817.180 Y 155.560
G1 X1817.180 Y 220.720
G1 X1940.150 Y 253.300
G1 X2309.060 Y 204.430
G1 X2247.570 Y 184.880
G1 X2247.570 Y 126.240
G1 X2309.060 Y 106.690
G1 X1940.150 Y  57.820
G1 X1817.180 Y  90.400
F150
G1 Z  -3.000
F400
G1 X1817.180 Y 155.560
G1 X1817.180 Y 220.720
G1 X1940.150 Y 253.300
G1 X2309.060 Y 204.430
G1 X2247.570 Y 184.880
G1 X2247.570 Y 126.240
G1 X2309.060 Y 106.690
G1 X1940.150 Y  57.820
G1 X1817.180 Y  90.400
F150
G1 Z   3.000
G0 Z  15.000 
M9 M5

(* SHAPE Nr: 22 *)
G0 X2320.280 Y 141.290
M3 M8
G0 Z   3.000 
G1 Z  -1.500
F400
G1 X2369.150 Y 510.200
G1 X2388.700 Y 448.710
G1 X2447.340 Y 448.710
G1 X2466.890 Y 510.200
G1 X2515.760 Y 141.290
G1 X2483.180 Y  18.320
G1 X2418.020 Y  18.320
G1 X2352.860 Y  18.320
G1 X2320.280 Y 141.290
F150
G1 Z  -3.000
F400
G1 X2369.150 Y 510.200
G1 X2388.700 Y 448.710
G1 X2447.340 Y 448.710
G1 X2466.890 Y 510.200
G1 X2515.760 Y 141.290
G1 X2483.180 Y  18.320
G1 X2418.020 Y  18.320
G1 X2352.860 Y  18.320
G1 X2320.280 Y 141.290
F150
G1 Z   3.000
G0 Z  15.000 
M9 M5

(* SHAPE Nr: 23 *)
G0 X2358.160 Y 524.180
M3 M8
G0 Z   3.000 
G1 Z  -1.500
F400
G1 X2309.290 Y 893.090
G1 X2341.870 Y1016.060
G1 X2407.030 Y1016.060
G1 X2472.190 Y1016.060
G1 X2504.770 Y 893.090
G1 X2455.900 Y 524.180
G1 X2436.350 Y 585.670
G1 X2377.710 Y 585.670
G1 X2358.160 Y 524.180
F150
G1 Z  -3.000
F400
G1 X2309.290 Y 893.090
G1 X2341.870 Y1016.060
G1 X2407.030 Y1016.060
G1 X2472.190 Y1016.060
G1 X2504.770 Y 893.090
G1 X2455.900 Y 524.180
G1 X2436.350 Y 585.670
G1 X2377.710 Y 585.670
G1 X2358.160 Y 524.180
F150
G1 Z   3.000
G0 Z  15.000 
M9 M5

(* SHAPE Nr: 24 *)
G0 X2310.550 Y1041.500
M3 M8
G0 Z   3.000 
G1 Z  -1.500
F400
G1 X2261.680 Y1410.410
G1 X2294.260 Y1533.380
G1 X2359.420 Y1533.380
G1 X2424.580 Y1533.380
G1 X2457.160 Y1410.410
G1 X2408.290 Y1041.500
G1 X2388.740 Y1102.990
G1 X2330.100 Y1102.990
G1 X2310.550 Y1041.500
F150
G1 Z  -3.000
F400
G1 X2261.680 Y1410.410
G1 X2294.260 Y1533.380
G1 X2359.420 Y1533.380
G1 X2424.580 Y1533.380
G1 X2457.160 Y1410.410
G1 X2408.290 Y1041.500
G1 X2388.740 Y1102.990
G1 X2330.100 Y1102.990
G1 X2310.550 Y1041.500
F150
G1 Z   3.000
G0 Z  15.000 
M9 M5

(* SHAPE Nr: 25 *)
G0 X2371.270 Y1548.120
M3 M8
G0 Z   3.000 
G1 Z  -1.500
F400
G1 X2338.690 Y1671.090
G1 X2387.560 Y2040.000
G1 X2407.110 Y1978.510
G1 X2465.750 Y1978.510
G1 X2485.300 Y2040.000
G1 X2534.170 Y1671.090
G1 X2501.590 Y1548.120
G1 X2436.430 Y1548.120
G1 X2371.270 Y1548.120
F150
G1 Z  -3.000
F400
G1 X2338.690 Y1671.090
G1 X2387.560 Y2040.000
G1 X2407.110 Y1978.510
G1 X2465.750 Y1978.510
G1 X2485.300 Y2040.000
G1 X2534.170 Y1671.090
G1 X2501.590 Y1548.120
G1 X2436.430 Y1548.120
G1 X2371.270 Y1548.120
F150
G1 Z   3.000
G0 Z  15.000 
M9 M5

(* SHAPE Nr: 26 *)
G0 X2565.350 Y1548.120
M3 M8
G0 Z   3.000 
G1 Z  -1.500
F400
G1 X2516.480 Y1917.030
G1 X2549.060 Y2040.000
G1 X2614.220 Y2040.000
G1 X2679.380 Y2040.000
G1 X2711.960 Y1917.030
G1 X2663.090 Y1548.120
G1 X2643.540 Y1609.610
G1 X2584.900 Y1609.610
G1 X2565.350 Y1548.120
F150
G1 Z  -3.000
F400
G1 X2516.480 Y1917.030
G1 X2549.060 Y2040.000
G1 X2614.220 Y2040.000
G1 X2679.380 Y2040.000
G1 X2711.960 Y1917.030
G1 X2663.090 Y1548.120
G1 X2643.540 Y1609.610
G1 X2584.900 Y1609.610
G1 X2565.350 Y1548.120
F150
G1 Z   3.000
G0 Z  15.000 
M9 M5

(* SHAPE Nr: 27 *)
G0 X2478.460 Y1040.880
M3 M8
G0 Z   3.000 
G1 Z  -1.500
F400
G1 X2445.880 Y1163.850
G1 X2494.750 Y1532.760
G1 X2514.300 Y1471.270
G1 X2572.940 Y1471.270
G1 X2592.490 Y1532.760
G1 X2641.360 Y1163.850
G1 X2608.780 Y1040.880
G1 X2543.620 Y1040.880
G1 X2478.460 Y1040.880
F150
G1 Z  -3.000
F400
G1 X2445.880 Y1163.850
G1 X2494.750 Y1532.760
G1 X2514.300 Y1471.270
G1 X2572.940 Y1471.270
G1 X2592.490 Y1532.760
G1 X2641.360 Y1163.850
G1 X2608.780 Y1040.880
G1 X2543.620 Y1040.880
G1 X2478.460 Y1040.880
F150
G1 Z   3.000
G0 Z  15.000 
M9 M5

(* SHAPE Nr: 29 *)
G0 X2549.110 Y 376.130
M3 M8
G0 Z   3.000 
G1 Z  -1.500
F400
G1 X2500.240 Y 745.040
G1 X2532.820 Y 868.010
G1 X2597.980 Y 868.010
G1 X2663.140 Y 868.010
G1 X2695.720 Y 745.040
G1 X2646.850 Y 376.130
G1 X2627.300 Y 437.620
G1 X2568.660 Y 437.620
G1 X2549.110 Y 376.130
F150
G1 Z  -3.000
F400
G1 X2500.240 Y 745.040
G1 X2532.820 Y 868.010
G1 X2597.980 Y 868.010
G1 X2663.140 Y 868.010
G1 X2695.720 Y 745.040
G1 X2646.850 Y 376.130
G1 X2627.300 Y 437.620
G1 X2568.660 Y 437.620
G1 X2549.110 Y 376.130
F150
G1 Z   3.000
G0 Z  15.000 
M9 M5

(*** LAYER: BORDER_D0_T132_RK1_A0_W0_EM1_RI1_ID0005 ***)

(* SHAPE Nr: 1 *)
G0 X 309.960 Y 407.920
M3 M8
G0 Z   3.000 
G1 Z  -1.500
F400
G1 X 258.720 Y 565.620
G1 X  92.910 Y 565.620
G1 X 144.140 Y 723.310
G1 X  10.000 Y 820.770
G1 X 144.140 Y 918.240
G1 X  92.910 Y1075.930
G1 X 258.720 Y1075.930
G1 X 309.960 Y1233.630
G1 X 444.100 Y1136.170
G1 X 578.240 Y1233.630
G1 X 629.480 Y1075.930
G1 X 795.290 Y1075.930
G1 X 744.060 Y 918.240
G1 X 878.200 Y 820.770
G1 X 744.060 Y 723.310
G1 X 795.290 Y 565.620
G1 X 629.480 Y 565.620
G1 X 578.240 Y 407.920
G1 X 444.100 Y 505.380
G1 X 309.960 Y 407.920
F150
G1 Z  -3.000
F400
G1 X 258.720 Y 565.620
G1 X  92.910 Y 565.620
G1 X 144.140 Y 723.310
G1 X  10.000 Y 820.770
G1 X 144.140 Y 918.240
G1 X  92.910 Y1075.930
G1 X 258.720 Y1075.930
G1 X 309.960 Y1233.630
G1 X 444.100 Y1136.170
G1 X 578.240 Y1233.630
G1 X 629.480 Y1075.930
G1 X 795.290 Y1075.930
G1 X 744.060 Y 918.240
G1 X 878.200 Y 820.770
G1 X 744.060 Y 723.310
G1 X 795.290 Y 565.620
G1 X 629.480 Y 565.620
G1 X 578.240 Y 407.920
G1 X 444.100 Y 505.380
G1 X 309.960 Y 407.920
F150
G1 Z   3.000
G0 Z  15.000 
M9 M5

(* SHAPE Nr: 7 *)
G0 X 774.710 Y 215.110
M3 M8
G0 Z   3.000 
G1 Z  -1.500
F400
G1 X 825.940 Y 372.800
G1 X 691.800 Y 470.270
G1 X 825.940 Y 567.730
G1 X 774.710 Y 725.420
G1 X 940.520 Y 725.420
G1 X 991.760 Y 883.120
G1 X1125.900 Y 785.660
G1 X1260.040 Y 883.120
G1 X1311.280 Y 725.420
G1 X1477.090 Y 725.420
G1 X1425.860 Y 567.730
G1 X1560.000 Y 470.270
G1 X1425.860 Y 372.800
G1 X1477.090 Y 215.110
G1 X1311.280 Y 215.110
G1 X1260.040 Y  57.410
G1 X1125.900 Y 154.870
G1 X 991.760 Y  57.410
G1 X 940.520 Y 215.110
G1 X 774.710 Y 215.110
F150
G1 Z  -3.000
F400
G1 X 825.940 Y 372.800
G1 X 691.800 Y 470.270
G1 X 825.940 Y 567.730
G1 X 774.710 Y 725.420
G1 X 940.520 Y 725.420
G1 X 991.760 Y 883.120
G1 X1125.900 Y 785.660
G1 X1260.040 Y 883.120
G1 X1311.280 Y 725.420
G1 X1477.090 Y 725.420
G1 X1425.860 Y 567.730
G1 X1560.000 Y 470.270
G1 X1425.860 Y 372.800
G1 X1477.090 Y 215.110
G1 X1311.280 Y 215.110
G1 X1260.040 Y  57.410
G1 X1125.900 Y 154.870
G1 X 991.760 Y  57.410
G1 X 940.520 Y 215.110
G1 X 774.710 Y 215.110
F150
G1 Z   3.000
G0 Z  15.000 
M9 M5

(* SHAPE Nr: 8 *)
G0 X1488.890 Y 708.980
M3 M8
G0 Z   3.000 
G1 Z  -1.500
F400
G1 X1586.360 Y 843.120
G1 X1488.890 Y 977.250
G1 X1646.600 Y1028.490
G1 X1646.600 Y1194.300
G1 X1804.290 Y1143.080
G1 X1901.760 Y1277.220
G1 X1999.220 Y1143.080
G1 X2156.910 Y1194.300
G1 X2156.910 Y1028.490
G1 X2314.610 Y 977.250
G1 X2217.140 Y 843.120
G1 X2314.610 Y 708.980
G1 X2156.910 Y 657.740
G1 X2156.910 Y 491.930
G1 X1999.220 Y 543.160
G1 X1901.760 Y 409.020
G1 X1804.290 Y 543.160
G1 X1646.600 Y 491.930
G1 X1646.600 Y 657.740
G1 X1488.890 Y 708.980
F150
G1 Z  -3.000
F400
G1 X1586.360 Y 843.120
G1 X1488.890 Y 977.250
G1 X1646.600 Y1028.490
G1 X1646.600 Y1194.300
G1 X1804.290 Y1143.080
G1 X1901.760 Y1277.220
G1 X1999.220 Y1143.080
G1 X2156.910 Y1194.300
G1 X2156.910 Y1028.490
G1 X2314.610 Y 977.250
G1 X2217.140 Y 843.120
G1 X2314.610 Y 708.980
G1 X2156.910 Y 657.740
G1 X2156.910 Y 491.930
G1 X1999.220 Y 543.160
G1 X1901.760 Y 409.020
G1 X1804.290 Y 543.160
G1 X1646.600 Y 491.930
G1 X1646.600 Y 657.740
G1 X1488.890 Y 708.980
F150
G1 Z   3.000
G0 Z  15.000 
M9 M5

(* SHAPE Nr: 9 *)
G0 X1548.340 Y1371.990
M3 M8
G0 Z   3.000 
G1 Z  -1.500
F400
G1 X1599.570 Y1529.680
G1 X1465.430 Y1627.140
G1 X1599.570 Y1724.610
G1 X1548.340 Y1882.300
G1 X1714.150 Y1882.300
G1 X1765.390 Y2040.000
G1 X1899.530 Y1942.540
G1 X2033.670 Y2040.000
G1 X2084.910 Y1882.300
G1 X2250.720 Y1882.300
G1 X2199.490 Y1724.610
G1 X2333.630 Y1627.140
G1 X2199.490 Y1529.680
G1 X2250.720 Y1371.990
G1 X2084.910 Y1371.990
G1 X2033.670 Y1214.290
G1 X1899.530 Y1311.750
G1 X1765.390 Y1214.290
G1 X1714.150 Y1371.990
G1 X1548.340 Y1371.990
F150
G1 Z  -3.000
F400
G1 X1599.570 Y1529.680
G1 X1465.430 Y1627.140
G1 X1599.570 Y1724.610
G1 X1548.340 Y1882.300
G1 X1714.150 Y1882.300
G1 X1765.390 Y2040.000
G1 X1899.530 Y1942.540
G1 X2033.670 Y2040.000
G1 X2084.910 Y1882.300
G1 X2250.720 Y1882.300
G1 X2199.490 Y1724.610
G1 X2333.630 Y1627.140
G1 X2199.490 Y1529.680
G1 X2250.720 Y1371.990
G1 X2084.910 Y1371.990
G1 X2033.670 Y1214.290
G1 X1899.530 Y1311.750
G1 X1765.390 Y1214.290
G1 X1714.150 Y1371.990
G1 X1548.340 Y1371.990
F150
G1 Z   3.000
G0 Z  15.000 
M9 M5

(* SHAPE Nr: 15 *)
G0 X 422.850 Y1171.800
M3 M8
G0 Z   3.000 
G1 Z  -1.500
F400
G1 X 325.390 Y1305.940
G1 X 167.690 Y1254.710
G1 X 167.690 Y1420.520
G1 X   9.990 Y1471.760
G1 X 107.450 Y1605.890
G1 X   9.990 Y1740.030
G1 X 167.690 Y1791.270
G1 X 167.690 Y1957.090
G1 X 325.390 Y1905.860
G1 X 422.850 Y2039.990
G1 X 520.320 Y1905.860
G1 X 678.010 Y1957.090
G1 X 678.010 Y1791.270
G1 X 835.710 Y1740.030
G1 X 738.240 Y1605.890
G1 X 835.710 Y1471.760
G1 X 678.010 Y1420.520
G1 X 678.010 Y1254.710
G1 X 520.320 Y1305.940
G1 X 422.850 Y1171.800
F150
G1 Z  -3.000
F400
G1 X 325.390 Y1305.940
G1 X 167.690 Y1254.710
G1 X 167.690 Y1420.520
G1 X   9.990 Y1471.760
G1 X 107.450 Y1605.890
G1 X   9.990 Y1740.030
G1 X 167.690 Y1791.270
G1 X 167.690 Y1957.090
G1 X 325.390 Y1905.860
G1 X 422.850 Y2039.990
G1 X 520.320 Y1905.860
G1 X 678.010 Y1957.090
G1 X 678.010 Y1791.270
G1 X 835.710 Y1740.030
G1 X 738.240 Y1605.890
G1 X 835.710 Y1471.760
G1 X 678.010 Y1420.520
G1 X 678.010 Y1254.710
G1 X 520.320 Y1305.940
G1 X 422.850 Y1171.800
F150
G1 Z   3.000
G0 Z  15.000 
M9 M5

(* SHAPE Nr: 16 *)
G0 X 869.280 Y 930.630
M3 M8
G0 Z   3.000 
G1 Z  -1.500
F400
G1 X 869.280 Y1096.440
G1 X 711.580 Y1147.680
G1 X 809.040 Y1281.810
G1 X 711.580 Y1415.950
G1 X 869.280 Y1467.190
G1 X 869.280 Y1633.010
G1 X1026.980 Y1581.780
G1 X1124.440 Y1715.910
G1 X1221.910 Y1581.780
G1 X1379.600 Y1633.010
G1 X1379.600 Y1467.190
G1 X1537.300 Y1415.950
G1 X1439.830 Y1281.810
G1 X1537.300 Y1147.680
G1 X1379.600 Y1096.440
G1 X1379.600 Y 930.630
G1 X1221.910 Y 981.860
G1 X1124.440 Y 847.720
G1 X1026.980 Y 981.860
G1 X 869.280 Y 930.630
F150
G1 Z  -3.000
F400
G1 X 869.280 Y1096.440
G1 X 711.580 Y1147.680
G1 X 809.040 Y1281.810
G1 X 711.580 Y1415.950
G1 X 869.280 Y1467.190
G1 X 869.280 Y1633.010
G1 X1026.980 Y1581.780
G1 X1124.440 Y1715.910
G1 X1221.910 Y1581.780
G1 X1379.600 Y1633.010
G1 X1379.600 Y1467.190
G1 X1537.300 Y1415.950
G1 X1439.830 Y1281.810
G1 X1537.300 Y1147.680
G1 X1379.600 Y1096.440
G1 X1379.600 Y 930.630
G1 X1221.910 Y 981.860
G1 X1124.440 Y 847.720
G1 X1026.980 Y 981.860
G1 X 869.280 Y 930.630
F150
G1 Z   3.000
G0 Z  15.000 
M9 M5

(*** LAYER: BORDER_D0_T132_RK1_A0_W0_EM1_RI1_ID0006 ***)

(* SHAPE Nr: 2 *)
G0 X 567.040 Y 320.700
M3 M8
G0 Z   3.000 
G1 Z  -1.500
F400
G1 X 588.980 Y 350.910
G1 X 567.040 Y 381.100
G1 X 602.550 Y 392.650
G1 X 602.550 Y 429.970
G1 X 638.050 Y 418.440
G1 X 660.000 Y 448.650
G1 X 681.940 Y 418.440
G1 X 717.460 Y 429.970
G1 X 717.460 Y 392.650
G1 X 752.960 Y 381.100
G1 X 731.020 Y 350.910
G1 X 752.960 Y 320.700
G1 X 717.460 Y 309.170
G1 X 717.460 Y 271.840
G1 X 681.940 Y 283.370
G1 X 660.000 Y 253.170
G1 X 638.050 Y 283.370
G1 X 602.550 Y 271.840
G1 X 602.550 Y 309.170
G1 X 567.040 Y 320.700
F150
G1 Z  -3.000
F400
G1 X 588.980 Y 350.910
G1 X 567.040 Y 381.100
G1 X 602.550 Y 392.650
G1 X 602.550 Y 429.970
G1 X 638.050 Y 418.440
G1 X 660.000 Y 448.650
G1 X 681.940 Y 418.440
G1 X 717.460 Y 429.970
G1 X 717.460 Y 392.650
G1 X 752.960 Y 381.100
G1 X 731.020 Y 350.910
G1 X 752.960 Y 320.700
G1 X 717.460 Y 309.170
G1 X 717.460 Y 271.840
G1 X 681.940 Y 283.370
G1 X 660.000 Y 253.170
G1 X 638.050 Y 283.370
G1 X 602.550 Y 271.840
G1 X 602.550 Y 309.170
G1 X 567.040 Y 320.700
F150
G1 Z   3.000
G0 Z  15.000 
M9 M5

(*** LAYER: BORDER_D0_T132_RK1_A0_W0_EM1_RI1_ID0011 ***)

(* SHAPE Nr: 3 *)
G0 X 576.800 Y  91.760
M3 M8
G0 Z   3.000 
G1 Z  -1.500
F400
G1 X 605.020 Y 140.630
G1 X 576.800 Y 189.500
G1 X 633.230 Y 189.500
G1 X 661.440 Y 238.370
G1 X 689.660 Y 189.500
G1 X 746.080 Y 189.500
G1 X 717.880 Y 140.630
G1 X 746.080 Y  91.760
G1 X 689.660 Y  91.760
G1 X 661.440 Y  42.890
G1 X 633.230 Y  91.760
G1 X 576.800 Y  91.760
F150
G1 Z  -3.000
F400
G1 X 605.020 Y 140.630
G1 X 576.800 Y 189.500
G1 X 633.230 Y 189.500
G1 X 661.440 Y 238.370
G1 X 689.660 Y 189.500
G1 X 746.080 Y 189.500
G1 X 717.880 Y 140.630
G1 X 746.080 Y  91.760
G1 X 689.660 Y  91.760
G1 X 661.440 Y  42.890
G1 X 633.230 Y  91.760
G1 X 576.800 Y  91.760
F150
G1 Z   3.000
G0 Z  15.000 
M9 M5

(* SHAPE Nr: 10 *)
G0 X1358.660 Y1893.380
M3 M8
G0 Z   3.000 
G1 Z  -1.500
F400
G1 X1386.880 Y1942.250
G1 X1358.660 Y1991.120
G1 X1415.090 Y1991.120
G1 X1443.300 Y2039.990
G1 X1471.520 Y1991.120
G1 X1527.940 Y1991.120
G1 X1499.740 Y1942.250
G1 X1527.940 Y1893.380
G1 X1471.520 Y1893.380
G1 X1443.300 Y1844.510
G1 X1415.090 Y1893.380
G1 X1358.660 Y1893.380
F150
G1 Z  -3.000
F400
G1 X1386.880 Y1942.250
G1 X1358.660 Y1991.120
G1 X1415.090 Y1991.120
G1 X1443.300 Y2039.990
G1 X1471.520 Y1991.120
G1 X1527.940 Y1991.120
G1 X1499.740 Y1942.250
G1 X1527.940 Y1893.380
G1 X1471.520 Y1893.380
G1 X1443.300 Y1844.510
G1 X1415.090 Y1893.380
G1 X1358.660 Y1893.380
F150
G1 Z   3.000
G0 Z  15.000 
M9 M5

(* SHAPE Nr: 11 *)
G0 X1383.500 Y1711.480
M3 M8
G0 Z   3.000 
G1 Z  -1.500
F400
G1 X1411.720 Y1760.350
G1 X1383.500 Y1809.220
G1 X1439.930 Y1809.220
G1 X1468.140 Y1858.090
G1 X1496.360 Y1809.220
G1 X1552.780 Y1809.220
G1 X1524.580 Y1760.350
G1 X1552.780 Y1711.480
G1 X1496.360 Y1711.480
G1 X1468.140 Y1662.610
G1 X1439.930 Y1711.480
G1 X1383.500 Y1711.480
F150
G1 Z  -3.000
F400
G1 X1411.720 Y1760.350
G1 X1383.500 Y1809.220
G1 X1439.930 Y1809.220
G1 X1468.140 Y1858.090
G1 X1496.360 Y1809.220
G1 X1552.780 Y1809.220
G1 X1524.580 Y1760.350
G1 X1552.780 Y1711.480
G1 X1496.360 Y1711.480
G1 X1468.140 Y1662.610
G1 X1439.930 Y1711.480
G1 X1383.500 Y1711.480
F150
G1 Z   3.000
G0 Z  15.000 
M9 M5

(*** LAYER: BORDER_D0_T132_RK1_A0_W0_EM1_RI1_ID0003 ***)

(* SHAPE Nr: 4 *)
G0 X 377.080 Y 131.010
M3 M8
G0 Z   3.000 
G1 Z  -1.500
F400
G1 X 395.750 Y 188.460
G1 X 444.620 Y 223.960
G1 X 505.020 Y 223.960
G1 X 553.890 Y 188.460
G1 X 572.560 Y 131.010
G1 X 553.890 Y  73.560
G1 X 505.020 Y  38.050
G1 X 444.620 Y  38.050
G1 X 395.750 Y  73.560
G1 X 377.080 Y 131.010
F150
G1 Z  -3.000
F400
G1 X 395.750 Y 188.460
G1 X 444.620 Y 223.960
G1 X 505.020 Y 223.960
G1 X 553.890 Y 188.460
G1 X 572.560 Y 131.010
G1 X 553.890 Y  73.560
G1 X 505.020 Y  38.050
G1 X 444.620 Y  38.050
G1 X 395.750 Y  73.560
G1 X 377.080 Y 131.010
F150
G1 Z   3.000
G0 Z  15.000 
M9 M5

(* SHAPE Nr: 5 *)
G0 X 210.930 Y 153.950
M3 M8
G0 Z   3.000 
G1 Z  -1.500
F400
G1 X 192.260 Y 211.400
G1 X 210.930 Y 268.850
G1 X 259.800 Y 304.350
G1 X 320.200 Y 304.350
G1 X 369.070 Y 268.850
G1 X 387.740 Y 211.400
G1 X 369.070 Y 153.950
G1 X 320.200 Y 118.440
G1 X 259.800 Y 118.440
G1 X 210.930 Y 153.950
F150
G1 Z  -3.000
F400
G1 X 192.260 Y 211.400
G1 X 210.930 Y 268.850
G1 X 259.800 Y 304.350
G1 X 320.200 Y 304.350
G1 X 369.070 Y 268.850
G1 X 387.740 Y 211.400
G1 X 369.070 Y 153.950
G1 X 320.200 Y 118.440
G1 X 259.800 Y 118.440
G1 X 210.930 Y 153.950
F150
G1 Z   3.000
G0 Z  15.000 
M9 M5

(* SHAPE Nr: 12 *)
G0 X1216.110 Y1746.820
M3 M8
G0 Z   3.000 
G1 Z  -1.500
F400
G1 X1180.600 Y1795.690
G1 X1180.600 Y1856.090
G1 X1216.110 Y1904.960
G1 X1273.560 Y1923.630
G1 X1331.020 Y1904.960
G1 X1366.520 Y1856.090
G1 X1366.520 Y1795.690
G1 X1331.020 Y1746.820
G1 X1273.560 Y1728.150
G1 X1216.110 Y1746.820
F150
G1 Z  -3.000
F400
G1 X1180.600 Y1795.690
G1 X1180.600 Y1856.090
G1 X1216.110 Y1904.960
G1 X1273.560 Y1923.630
G1 X1331.020 Y1904.960
G1 X1366.520 Y1856.090
G1 X1366.520 Y1795.690
G1 X1331.020 Y1746.820
G1 X1273.560 Y1728.150
G1 X1216.110 Y1746.820
F150
G1 Z   3.000
G0 Z  15.000 
M9 M5

(* SHAPE Nr: 14 *)
G0 X 887.550 Y1669.290
M3 M8
G0 Z   3.000 
G1 Z  -1.500
F400
G1 X 852.040 Y1718.160
G1 X 852.040 Y1778.560
G1 X 887.550 Y1827.430
G1 X 945.000 Y1846.100
G1 X1002.460 Y1827.430
G1 X1037.960 Y1778.560
G1 X1037.960 Y1718.160
G1 X1002.460 Y1669.290
G1 X 945.000 Y1650.620
G1 X 887.550 Y1669.290
F150
G1 Z  -3.000
F400
G1 X 852.040 Y1718.160
G1 X 852.040 Y1778.560
G1 X 887.550 Y1827.430
G1 X 945.000 Y1846.100
G1 X1002.460 Y1827.430
G1 X1037.960 Y1778.560
G1 X1037.960 Y1718.160
G1 X1002.460 Y1669.290
G1 X 945.000 Y1650.620
G1 X 887.550 Y1669.290
F150
G1 Z   3.000
G0 Z  15.000 
M9 M5

(* SHAPE Nr: 17 *)
G0 X1459.250 Y 335.010
M3 M8
G0 Z   3.000 
G1 Z  -1.500
F400
G1 X1477.920 Y 392.460
G1 X1526.790 Y 427.960
G1 X1587.190 Y 427.960
G1 X1636.060 Y 392.460
G1 X1654.730 Y 335.010
G1 X1636.060 Y 277.560
G1 X1587.190 Y 242.050
G1 X1526.790 Y 242.050
G1 X1477.920 Y 277.560
G1 X1459.250 Y 335.010
F150
G1 Z  -3.000
F400
G1 X1477.920 Y 392.460
G1 X1526.790 Y 427.960
G1 X1587.190 Y 427.960
G1 X1636.060 Y 392.460
G1 X1654.730 Y 335.010
G1 X1636.060 Y 277.560
G1 X1587.190 Y 242.050
G1 X1526.790 Y 242.050
G1 X1477.920 Y 277.560
G1 X1459.250 Y 335.010
F150
G1 Z   3.000
G0 Z  15.000 
M9 M5

(* SHAPE Nr: 30 *)
G0 X2514.520 Y 267.450
M3 M8
G0 Z   3.000 
G1 Z  -1.500
F400
G1 X2533.190 Y 324.900
G1 X2582.060 Y 360.400
G1 X2642.460 Y 360.400
G1 X2691.330 Y 324.900
G1 X2710.000 Y 267.450
G1 X2691.330 Y 210.000
G1 X2642.460 Y 174.490
G1 X2582.060 Y 174.490
G1 X2533.190 Y 210.000
G1 X2514.520 Y 267.450
F150
G1 Z  -3.000
F400
G1 X2533.190 Y 324.900
G1 X2582.060 Y 360.400
G1 X2642.460 Y 360.400
G1 X2691.330 Y 324.900
G1 X2710.000 Y 267.450
G1 X2691.330 Y 210.000
G1 X2642.460 Y 174.490
G1 X2582.060 Y 174.490
G1 X2533.190 Y 210.000
G1 X2514.520 Y 267.450
F150
G1 Z   3.000
G0 Z  15.000 
M9 M5

(*** LAYER: BORDER_D0_T132_RK1_A0_W0_EM1_RI1_ID0025 ***)

(* SHAPE Nr: 6 *)
G0 X 401.360 Y 267.050
M3 M8
G0 Z   3.000 
G1 Z  -1.500
F400
G1 X 333.830 Y 360.000
G1 X 401.360 Y 452.960
G1 X 510.640 Y 417.450
G1 X 510.640 Y 302.550
G1 X 401.360 Y 267.050
F150
G1 Z  -3.000
F400
G1 X 333.830 Y 360.000
G1 X 401.360 Y 452.960
G1 X 510.640 Y 417.450
G1 X 510.640 Y 302.550
G1 X 401.360 Y 267.050
F150
G1 Z   3.000
G0 Z  15.000 
M9 M5

(* SHAPE Nr: 31 *)
G0 X2591.490 Y 119.280
M3 M8
G0 Z   3.000 
G1 Z  -1.500
F400
G1 X2684.440 Y 186.810
G1 X2777.400 Y 119.280
G1 X2741.890 Y  10.000
G1 X2626.990 Y  10.000
G1 X2591.490 Y 119.280
F150
G1 Z  -3.000
F400
G1 X2684.440 Y 186.810
G1 X2777.400 Y 119.280
G1 X2741.890 Y  10.000
G1 X2626.990 Y  10.000
G1 X2591.490 Y 119.280
F150
G1 Z   3.000
G0 Z  15.000 
M9 M5

(*** LAYER: BORDER_D0_T132_RK1_A0_W0_EM1_RI1_ID0007 ***)

(* SHAPE Nr: 18 *)
G0 X1659.430 Y 293.520
M3 M8
G0 Z   3.000 
G1 Z  -1.500
F400
G1 X1701.170 Y 350.970
G1 X1659.430 Y 408.420
G1 X1726.970 Y 386.470
G1 X1768.710 Y 443.920
G1 X1768.710 Y 372.910
G1 X1836.240 Y 350.970
G1 X1768.710 Y 329.020
G1 X1768.710 Y 258.010
G1 X1726.970 Y 315.460
G1 X1659.430 Y 293.520
F150
G1 Z  -3.000
F400
G1 X1701.170 Y 350.970
G1 X1659.430 Y 408.420
G1 X1726.970 Y 386.470
G1 X1768.710 Y 443.920
G1 X1768.710 Y 372.910
G1 X1836.240 Y 350.970
G1 X1768.710 Y 329.020
G1 X1768.710 Y 258.010
G1 X1726.970 Y 315.460
G1 X1659.430 Y 293.520
F150
G1 Z   3.000
G0 Z  15.000 
M9 M5

(*** LAYER: BORDER_D0_T132_RK1_A0_W0_EM1_RI1_ID0009 ***)

(* SHAPE Nr: 28 *)
G0 X2591.500 Y 926.520
M3 M8
G0 Z   3.000 
G1 Z  -1.500
F400
G1 X2635.610 Y 975.390
G1 X2591.500 Y1024.260
G1 X2655.880 Y1010.490
G1 X2676.140 Y1073.130
G1 X2696.410 Y1010.490
G1 X2760.780 Y1024.260
G1 X2716.680 Y 975.390
G1 X2760.780 Y 926.520
G1 X2696.410 Y 940.290
G1 X2676.140 Y 877.650
G1 X2655.880 Y 940.290
G1 X2591.500 Y 926.520
F150
G1 Z  -3.000
F400
G1 X2635.610 Y 975.390
G1 X2591.500 Y1024.260
G1 X2655.880 Y1010.490
G1 X2676.140 Y1073.130
G1 X2696.410 Y1010.490
G1 X2760.780 Y1024.260
G1 X2716.680 Y 975.390
G1 X2760.780 Y 926.520
G1 X2696.410 Y 940.290
G1 X2676.140 Y 877.650
G1 X2655.880 Y 940.290
G1 X2591.500 Y 926.520
F150
G1 Z   3.000
G0 Z  15.000 
M9 M5

(*** LAYER: BORDER_D0_T132_RK1_A0_W0_EM1_RI1_ID0020 ***)

(* SHAPE Nr: 32 *)
G0 X2678.490 Y1162.810
M3 M8
G0 Z   3.000 
G1 Z  -1.500
F400
G2 X2666.450 Y1193.120 I 246.893 J 115.619
G2 X2656.680 Y1228.240 I 361.196 J 119.400
G2 X2649.470 Y1267.090 I 472.487 J 107.781
G2 X2645.070 Y1308.500 I 561.472 J  80.598
G2 X2643.580 Y1351.210 I 611.451 J  42.712
G2 X2645.070 Y1393.920 I 612.906 J  -0.001
G2 X2649.470 Y1435.330 I 565.872 J -39.188
G2 X2656.680 Y1474.180 I 479.697 J -68.931
G2 X2666.450 Y1509.300 I 370.966 J -84.280
G2 X2678.490 Y1539.610 I 258.933 J -85.309
G2 X2692.450 Y1564.200 I 160.877 J -75.074
G2 X2707.890 Y1582.320 I  87.857 J -59.224
G2 X2724.350 Y1593.410 I  42.094 J -44.717
G2 X2741.320 Y1597.150 I  17.159 J -37.487
G1 X2741.320 Y1351.210
G1 X2741.320 Y1105.270
G2 X2724.350 Y1109.010 I   0.189 J  41.227
G2 X2707.890 Y1120.100 I  25.634 J  55.807
G2 X2692.450 Y1138.220 I  72.418 J  77.345
G2 X2678.490 Y1162.810 I 146.913 J  99.662
F150
G1 Z  -3.000
F400
G2 X2666.450 Y1193.120 I 246.893 J 115.619
G2 X2656.680 Y1228.240 I 361.196 J 119.400
G2 X2649.470 Y1267.090 I 472.487 J 107.781
G2 X2645.070 Y1308.500 I 561.472 J  80.598
G2 X2643.580 Y1351.210 I 611.451 J  42.712
G2 X2645.070 Y1393.920 I 612.906 J  -0.001
G2 X2649.470 Y1435.330 I 565.872 J -39.188
G2 X2656.680 Y1474.180 I 479.697 J -68.931
G2 X2666.450 Y1509.300 I 370.966 J -84.280
G2 X2678.490 Y1539.610 I 258.933 J -85.309
G2 X2692.450 Y1564.200 I 160.877 J -75.074
G2 X2707.890 Y1582.320 I  87.857 J -59.224
G2 X2724.350 Y1593.410 I  42.094 J -44.717
G2 X2741.320 Y1597.150 I  17.159 J -37.487
G1 X2741.320 Y1351.210
G1 X2741.320 Y1105.270
G2 X2724.350 Y1109.010 I   0.189 J  41.227
G2 X2707.890 Y1120.100 I  25.634 J  55.807
G2 X2692.450 Y1138.220 I  72.418 J  77.345
G2 X2678.490 Y1162.810 I 146.913 J  99.662
F150
G1 Z   3.000
G0 Z  15.000 
M9 M5

(*** LAYER: BORDER_D0_T132.1_RK1_A0_W0_EM1 ***)

(* SHAPE Nr: 33 *)
G0 X2678.500 Y1162.810
M3 M8
G0 Z   3.000 
G1 Z  -1.500
F400
G2 X2666.450 Y1193.130 I 246.921 J 115.688
G2 X2656.680 Y1228.240 I 361.122 J 119.403
G2 X2649.480 Y1267.100 I 472.591 J 107.659
G2 X2645.070 Y1308.510 I 561.467 J  80.734
G2 X2643.580 Y1351.210 I 611.343 J  42.709
G2 X2645.070 Y1393.920 I 612.976 J  -0.004
G2 X2649.480 Y1435.330 I 565.877 J -39.324
G2 X2656.680 Y1474.180 I 479.668 J -68.804
G2 X2666.450 Y1509.300 I 370.996 J -84.288
G2 X2678.500 Y1539.610 I 258.888 J -85.373
G2 X2692.450 Y1564.200 I 160.888 J -75.020
G2 X2707.900 Y1582.320 I  87.866 J -59.272
G2 X2724.350 Y1593.420 I  42.118 J -44.679
G2 X2741.320 Y1597.150 I  17.135 J -37.489
G1 X2741.320 Y1105.270
G2 X2724.350 Y1109.010 I   0.188 J  41.224
G2 X2707.900 Y1120.110 I  25.668 J  55.779
G2 X2692.450 Y1138.220 I  72.372 J  77.387
G2 X2678.500 Y1162.810 I 146.938 J  99.610
F150
G1 Z  -3.000
F400
G2 X2666.450 Y1193.130 I 246.921 J 115.688
G2 X2656.680 Y1228.240 I 361.122 J 119.403
G2 X2649.480 Y1267.100 I 472.591 J 107.659
G2 X2645.070 Y1308.510 I 561.467 J  80.734
G2 X2643.580 Y1351.210 I 611.343 J  42.709
G2 X2645.070 Y1393.920 I 612.976 J  -0.004
G2 X2649.480 Y1435.330 I 565.877 J -39.324
G2 X2656.680 Y1474.180 I 479.668 J -68.804
G2 X2666.450 Y1509.300 I 370.996 J -84.288
G2 X2678.500 Y1539.610 I 258.888 J -85.373
G2 X2692.450 Y1564.200 I 160.888 J -75.020
G2 X2707.900 Y1582.320 I  87.866 J -59.272
G2 X2724.350 Y1593.420 I  42.118 J -44.679
G2 X2741.320 Y1597.150 I  17.135 J -37.489
G1 X2741.320 Y1105.270
G2 X2724.350 Y1109.010 I   0.188 J  41.224
G2 X2707.900 Y1120.110 I  25.668 J  55.779
G2 X2692.450 Y1138.220 I  72.372 J  77.387
G2 X2678.500 Y1162.810 I 146.938 J  99.610
F150
G1 Z   3.000
G0 Z  15.000 
M9 M5

(* SHAPE Nr: 34 *)
G0 X1817.510 Y 284.410
M3 M8
G0 Z   3.000 
G1 Z  -1.500
F400
G1 X1879.000 Y 303.960
G1 X1879.000 Y 362.600
G1 X1817.510 Y 382.150
G1 X2186.420 Y 431.020
G1 X2309.390 Y 398.440
G1 X2309.390 Y 268.120
G1 X2186.420 Y 235.540
G1 X1817.510 Y 284.410
F150
G1 Z  -3.000
F400
G1 X1879.000 Y 303.960
G1 X1879.000 Y 362.600
G1 X1817.510 Y 382.150
G1 X2186.420 Y 431.020
G1 X2309.390 Y 398.440
G1 X2309.390 Y 268.120
G1 X2186.420 Y 235.540
G1 X1817.510 Y 284.410
F150
G1 Z   3.000
G0 Z  15.000 
M9 M5

(* SHAPE Nr: 35 *)
G0 X 309.960 Y 407.920
M3 M8
G0 Z   3.000 
G1 Z  -1.500
F400
G1 X 258.720 Y 565.620
G1 X  92.910 Y 565.620
G1 X 144.140 Y 723.320
G1 X  10.000 Y 820.780
G1 X 144.140 Y 918.240
G1 X  92.910 Y1075.940
G1 X 258.720 Y1075.940
G1 X 309.960 Y1233.630
G1 X 444.100 Y1136.170
G1 X 578.240 Y1233.630
G1 X 629.480 Y1075.940
G1 X 795.290 Y1075.940
G1 X 744.060 Y 918.240
G1 X 878.200 Y 820.780
G1 X 744.060 Y 723.320
G1 X 795.290 Y 565.620
G1 X 629.480 Y 565.620
G1 X 578.240 Y 407.920
G1 X 444.100 Y 505.390
G1 X 309.960 Y 407.920
F150
G1 Z  -3.000
F400
G1 X 258.720 Y 565.620
G1 X  92.910 Y 565.620
G1 X 144.140 Y 723.320
G1 X  10.000 Y 820.780
G1 X 144.140 Y 918.240
G1 X  92.910 Y1075.940
G1 X 258.720 Y1075.940
G1 X 309.960 Y1233.630
G1 X 444.100 Y1136.170
G1 X 578.240 Y1233.630
G1 X 629.480 Y1075.940
G1 X 795.290 Y1075.940
G1 X 744.060 Y 918.240
G1 X 878.200 Y 820.780
G1 X 744.060 Y 723.320
G1 X 795.290 Y 565.620
G1 X 629.480 Y 565.620
G1 X 578.240 Y 407.920
G1 X 444.100 Y 505.390
G1 X 309.960 Y 407.920
F150
G1 Z   3.000
G0 Z  15.000 
M9 M5

(* SHAPE Nr: 37 *)
G0 X -14.700 Y 427.920
M3 M8
G0 Z   3.000 
G1 Z  -1.500
F400
G1 X  10.000 Y 427.920
G1 X  42.580 Y 550.890
G1 X 172.900 Y 550.890
G1 X 205.480 Y 427.920
G1 X 156.610 Y  59.010
G1 X 137.060 Y 120.500
G1 X  78.420 Y 120.500
G1 X  58.870 Y  59.010
G1 X  10.000 Y 427.920
F150
G1 Z  -3.000
F400
G1 X  58.870 Y  59.010
G1 X  78.420 Y 120.500
G1 X 137.060 Y 120.500
G1 X 156.610 Y  59.010
G1 X 205.480 Y 427.920
G1 X 172.900 Y 550.890
G1 X  42.580 Y 550.890
G1 X  10.000 Y 427.920
G1 X -14.700 Y 427.920
F150
G1 Z   3.000
G0 Z  15.000 
M9 M5

(* SHAPE Nr: 38 *)
G0 X 717.450 Y 271.830
M3 M8
G0 Z   3.000 
G1 Z  -1.500
F400
G1 X 681.940 Y 283.370
G1 X 660.000 Y 253.160
G1 X 638.060 Y 283.370
G1 X 602.550 Y 271.830
G1 X 602.550 Y 309.170
G1 X 567.040 Y 320.700
G1 X 588.990 Y 350.900
G1 X 567.040 Y 381.110
G1 X 602.550 Y 392.640
G1 X 602.550 Y 429.980
G1 X 638.060 Y 418.440
G1 X 660.000 Y 448.640
G1 X 681.940 Y 418.440
G1 X 717.450 Y 429.980
G1 X 717.450 Y 392.640
G1 X 752.960 Y 381.110
G1 X 731.010 Y 350.900
G1 X 752.960 Y 320.700
G1 X 717.450 Y 309.170
G1 X 717.450 Y 258.600
G1 X 790.190 Y  91.760
G1 X 689.660 Y  91.760
G1 X 661.440 Y  42.890
G1 X 633.230 Y  91.760
G1 X 576.800 Y  91.760
G1 X 605.010 Y 140.630
G1 X 576.800 Y 189.500
F150
G1 Z  -3.000
F400
G1 X 605.010 Y 140.630
G1 X 576.800 Y  91.760
G1 X 633.230 Y  91.760
G1 X 661.440 Y  42.890
G1 X 689.660 Y  91.760
G1 X 790.190 Y  91.760
G1 X 717.450 Y 258.600
G1 X 717.450 Y 309.170
G1 X 752.960 Y 320.700
G1 X 731.010 Y 350.900
G1 X 752.960 Y 381.110
G1 X 717.450 Y 392.640
G1 X 717.450 Y 429.980
G1 X 681.940 Y 418.440
G1 X 660.000 Y 448.640
G1 X 638.060 Y 418.440
G1 X 602.550 Y 429.980
G1 X 602.550 Y 392.640
G1 X 567.040 Y 381.110
G1 X 588.990 Y 350.900
G1 X 567.040 Y 320.700
G1 X 602.550 Y 309.170
G1 X 602.550 Y 271.830
G1 X 638.060 Y 283.370
G1 X 660.000 Y 253.160
G1 X 681.940 Y 283.370
G1 X 717.450 Y 271.830
F150
G1 Z   3.000
G0 Z  15.000 
M9 M5

(* SHAPE Nr: 39 *)
G0 X 553.890 Y 188.450
M3 M8
G0 Z   3.000 
G1 Z  -1.500
F400
G1 X 572.560 Y 131.000
G1 X 553.890 Y  73.550
G1 X 505.020 Y  38.050
G1 X 444.620 Y  38.050
G1 X 395.750 Y  73.550
G1 X 377.080 Y 131.000
F150
G1 Z  -3.000
F400
G1 X 395.750 Y  73.550
G1 X 444.620 Y  38.050
G1 X 505.020 Y  38.050
G1 X 553.890 Y  73.550
G1 X 572.560 Y 131.000
G1 X 553.890 Y 188.450
F150
G1 Z   3.000
G0 Z  15.000 
M9 M5

(* SHAPE Nr: 40 *)
G0 X 401.370 Y 267.040
M3 M8
G0 Z   3.000 
G1 Z  -1.500
F400
G1 X 333.830 Y 360.000
G1 X 401.370 Y 452.960
G1 X 510.650 Y 417.450
G1 X 510.650 Y 302.550
G1 X 388.790 Y 262.960
G1 X 387.740 Y 211.390
G1 X 369.070 Y 153.940
G1 X 320.200 Y 118.430
G1 X 259.800 Y 118.430
G1 X 210.930 Y 153.940
G1 X 192.260 Y 211.390
G1 X 210.930 Y 268.840
G1 X 259.800 Y 304.350
G1 X 320.200 Y 304.350
G1 X 369.070 Y 268.840
G1 X 387.740 Y 211.390
G1 X 359.010 Y 122.960
G1 X 372.990 Y 118.420
G1 X 377.080 Y 131.000
G1 X 395.750 Y 188.450
G1 X 444.620 Y 223.960
G1 X 505.020 Y 223.960
G1 X 564.590 Y 180.680
G1 X 576.800 Y 189.500
G1 X 633.230 Y 189.500
G1 X 661.440 Y 238.370
G1 X 689.660 Y 189.500
G1 X 746.090 Y 189.500
G1 X 717.870 Y 140.630
G1 X 746.090 Y  91.760
F150
G1 Z  -3.000
F400
G1 X 717.870 Y 140.630
G1 X 746.090 Y 189.500
G1 X 689.660 Y 189.500
G1 X 661.440 Y 238.370
G1 X 633.230 Y 189.500
G1 X 576.800 Y 189.500
G1 X 564.590 Y 180.680
G1 X 505.020 Y 223.960
G1 X 444.620 Y 223.960
G1 X 395.750 Y 188.450
G1 X 377.080 Y 131.000
G1 X 372.990 Y 118.420
G1 X 359.010 Y 122.960
G1 X 387.740 Y 211.390
G1 X 369.070 Y 268.840
G1 X 320.200 Y 304.350
G1 X 259.800 Y 304.350
G1 X 210.930 Y 268.840
G1 X 192.260 Y 211.390
G1 X 210.930 Y 153.940
G1 X 259.800 Y 118.430
G1 X 320.200 Y 118.430
G1 X 369.070 Y 153.940
G1 X 387.740 Y 211.390
G1 X 388.790 Y 262.960
G1 X 510.650 Y 302.550
G1 X 510.650 Y 417.450
G1 X 401.370 Y 452.960
G1 X 333.830 Y 360.000
G1 X 401.370 Y 267.040
F150
G1 Z   3.000
G0 Z  15.000 
M9 M5

(* SHAPE Nr: 41 *)
G0 X 774.700 Y 215.110
M3 M8
G0 Z   3.000 
G1 Z  -1.500
F400
G1 X 825.940 Y 372.800
G1 X 691.800 Y 470.260
G1 X 825.940 Y 567.730
G1 X 774.700 Y 725.420
G1 X 940.520 Y 725.420
G1 X 991.750 Y 883.120
G1 X1125.900 Y 785.660
G1 X1260.040 Y 883.120
G1 X1311.280 Y 725.420
G1 X1477.090 Y 725.420
G1 X1425.850 Y 567.730
G1 X1560.000 Y 470.260
G1 X1425.850 Y 372.800
G1 X1477.090 Y 215.110
G1 X1311.280 Y 215.110
G1 X1260.040 Y  57.410
G1 X1125.900 Y 154.870
G1 X 991.750 Y  57.410
G1 X 940.520 Y 215.110
G1 X 774.700 Y 215.110
F150
G1 Z  -3.000
F400
G1 X 825.940 Y 372.800
G1 X 691.800 Y 470.260
G1 X 825.940 Y 567.730
G1 X 774.700 Y 725.420
G1 X 940.520 Y 725.420
G1 X 991.750 Y 883.120
G1 X1125.900 Y 785.660
G1 X1260.040 Y 883.120
G1 X1311.280 Y 725.420
G1 X1477.090 Y 725.420
G1 X1425.850 Y 567.730
G1 X1560.000 Y 470.260
G1 X1425.850 Y 372.800
G1 X1477.090 Y 215.110
G1 X1311.280 Y 215.110
G1 X1260.040 Y  57.410
G1 X1125.900 Y 154.870
G1 X 991.750 Y  57.410
G1 X 940.520 Y 215.110
G1 X 774.700 Y 215.110
F150
G1 Z   3.000
G0 Z  15.000 
M9 M5

(* SHAPE Nr: 42 *)
G0 X1488.890 Y 708.970
M3 M8
G0 Z   3.000 
G1 Z  -1.500
F400
G1 X1586.350 Y 843.110
G1 X1488.890 Y 977.260
G1 X1646.590 Y1028.490
G1 X1646.590 Y1194.310
G1 X1804.290 Y1143.070
G1 X1901.750 Y1277.210
G1 X1999.210 Y1143.070
G1 X2156.910 Y1194.310
G1 X2169.490 Y1198.390
G1 X2263.960 Y1357.290
G1 X2263.960 Y1371.990
G1 X2084.920 Y1371.990
G1 X2033.680 Y1214.290
G1 X1899.530 Y1311.750
G1 X1765.390 Y1214.290
G1 X1714.150 Y1371.990
G1 X1548.340 Y1371.990
G1 X1599.580 Y1529.680
G1 X1465.430 Y1627.150
G1 X1599.580 Y1724.610
G1 X1548.340 Y1882.300
G1 X1714.150 Y1882.300
G1 X1765.390 Y2040.000
G1 X1769.480 Y2052.580
G1 X1755.500 Y2057.130
G1 X1527.940 Y1893.390
G1 X1471.510 Y1893.390
G1 X1443.300 Y1844.520
G1 X1415.080 Y1893.390
G1 X1358.650 Y1893.390
G1 X1386.870 Y1942.260
G1 X1358.650 Y1991.130
G1 X1415.080 Y1991.130
G1 X1443.300 Y2040.000
G1 X1471.510 Y1991.130
G1 X1527.940 Y1991.130
G1 X1499.730 Y1942.260
G1 X1534.560 Y1881.930
G1 X1547.290 Y1889.280
G1 X1765.390 Y2040.000
G1 X1899.530 Y1942.540
G1 X2033.680 Y2040.000
G1 X2084.920 Y1882.300
G1 X2250.730 Y1882.300
G1 X2199.490 Y1724.610
G1 X2333.630 Y1627.150
G1 X2199.490 Y1529.680
G1 X2250.730 Y1371.990
G1 X2156.910 Y1207.540
G1 X2156.910 Y1028.490
G1 X2314.600 Y 977.260
G1 X2217.140 Y 843.110
G1 X2314.600 Y 708.970
G1 X2156.910 Y 657.730
G1 X2156.910 Y 491.920
G1 X1999.210 Y 543.160
G1 X1901.750 Y 409.010
G1 X1804.290 Y 543.160
G1 X1646.590 Y 491.920
G1 X1646.590 Y 657.730
G1 X1488.890 Y 708.970
F150
G1 Z  -3.000
F400
G1 X1586.350 Y 843.110
G1 X1488.890 Y 977.260
G1 X1646.590 Y1028.490
G1 X1646.590 Y1194.310
G1 X1804.290 Y1143.070
G1 X1901.750 Y1277.210
G1 X1999.210 Y1143.070
G1 X2156.910 Y1194.310
G1 X2169.490 Y1198.390
G1 X2263.960 Y1357.290
G1 X2263.960 Y1371.990
G1 X2084.920 Y1371.990
G1 X2033.680 Y1214.290
G1 X1899.530 Y1311.750
G1 X1765.390 Y1214.290
G1 X1714.150 Y1371.990
G1 X1548.340 Y1371.990
G1 X1599.580 Y1529.680
G1 X1465.430 Y1627.150
G1 X1599.580 Y1724.610
G1 X1548.340 Y1882.300
G1 X1714.150 Y1882.300
G1 X1765.390 Y2040.000
G1 X1769.480 Y2052.580
G1 X1755.500 Y2057.130
G1 X1527.940 Y1893.390
G1 X1471.510 Y1893.390
G1 X1443.300 Y1844.520
G1 X1415.080 Y1893.390
G1 X1358.650 Y1893.390
G1 X1386.870 Y1942.260
G1 X1358.650 Y1991.130
G1 X1415.080 Y1991.130
G1 X1443.300 Y2040.000
G1 X1471.510 Y1991.130
G1 X1527.940 Y1991.130
G1 X1499.730 Y1942.260
G1 X1534.560 Y1881.930
G1 X1547.290 Y1889.280
G1 X1765.390 Y2040.000
G1 X1899.530 Y1942.540
G1 X2033.680 Y2040.000
G1 X2084.920 Y1882.300
G1 X2250.730 Y1882.300
G1 X2199.490 Y1724.610
G1 X2333.630 Y1627.150
G1 X2199.490 Y1529.680
G1 X2250.730 Y1371.990
G1 X2156.910 Y1207.540
G1 X2156.910 Y1028.490
G1 X2314.600 Y 977.260
G1 X2217.140 Y 843.110
G1 X2314.600 Y 708.970
G1 X2156.910 Y 657.730
G1 X2156.910 Y 491.920
G1 X1999.210 Y 543.160
G1 X1901.750 Y 409.010
G1 X1804.290 Y 543.160
G1 X1646.590 Y 491.920
G1 X1646.590 Y 657.730
G1 X1488.890 Y 708.970
F150
G1 Z   3.000
G0 Z  15.000 
M9 M5

(* SHAPE Nr: 43 *)
G0 X 835.710 Y1740.040
M3 M8
G0 Z   3.000 
G1 Z  -1.500
F400
G1 X 738.250 Y1605.900
G1 X 835.710 Y1471.760
G1 X 678.010 Y1420.520
G1 X 678.010 Y1254.710
G1 X 520.320 Y1305.940
G1 X 422.850 Y1171.800
G1 X 325.390 Y1305.940
G1 X 167.700 Y1254.710
G1 X 167.700 Y1420.520
G1 X  10.000 Y1471.760
G1 X 107.460 Y1605.900
G1 X  10.000 Y1740.040
G1 X 167.700 Y1791.280
G1 X 167.700 Y1957.090
G1 X 325.390 Y1905.860
G1 X 422.850 Y2040.000
G1 X 520.320 Y1905.860
G1 X 678.010 Y1957.090
G1 X 678.010 Y1791.280
G1 X 835.710 Y1740.040
G1 X 837.340 Y1704.930
G1 X 852.040 Y1704.930
G1 X 852.040 Y1791.790
G1 X 828.510 Y1841.130
G1 X 815.720 Y1844.520
G1 X 692.750 Y1877.100
G1 X 692.750 Y2007.420
G1 X 815.720 Y2040.000
G1 X1184.630 Y1991.130
G1 X1260.980 Y1927.720
G1 X1273.560 Y1923.630
G1 X1331.020 Y1904.970
G1 X1366.520 Y1856.100
G1 X1370.270 Y1809.230
G1 X1439.930 Y1809.230
G1 X1468.140 Y1858.100
G1 X1496.360 Y1809.230
G1 X1552.790 Y1809.230
G1 X1524.570 Y1760.360
G1 X1552.790 Y1711.490
G1 X1496.360 Y1711.490
G1 X1468.140 Y1662.620
G1 X1439.930 Y1711.490
G1 X1383.500 Y1711.490
G1 X1411.710 Y1760.360
G1 X1383.500 Y1809.230
G1 X1381.220 Y1869.330
G1 X1366.520 Y1869.330
G1 X1366.520 Y1795.690
G1 X1331.020 Y1746.820
G1 X1273.560 Y1728.150
G1 X1216.110 Y1746.820
G1 X1180.610 Y1795.690
G1 X1180.610 Y1856.100
G1 X1216.110 Y1904.970
G1 X1273.560 Y1923.630
G1 X1286.150 Y1927.720
G1 X1281.600 Y1941.700
G1 X1197.240 Y1995.140
G1 X1184.630 Y1991.130
G1 X1123.150 Y1971.580
G1 X1123.150 Y1912.940
G1 X1184.630 Y1893.390
G1 X 815.720 Y1844.520
F150
G1 Z  -3.000
F400
G1 X1184.630 Y1893.390
G1 X1123.150 Y1912.940
G1 X1123.150 Y1971.580
G1 X1184.630 Y1991.130
G1 X1197.240 Y1995.140
G1 X1281.600 Y1941.700
G1 X1286.150 Y1927.720
G1 X1273.560 Y1923.630
G1 X1216.110 Y1904.970
G1 X1180.610 Y1856.100
G1 X1180.610 Y1795.690
G1 X1216.110 Y1746.820
G1 X1273.560 Y1728.150
G1 X1331.020 Y1746.820
G1 X1366.520 Y1795.690
G1 X1366.520 Y1869.330
G1 X1381.220 Y1869.330
G1 X1383.500 Y1809.230
G1 X1411.710 Y1760.360
G1 X1383.500 Y1711.490
G1 X1439.930 Y1711.490
G1 X1468.140 Y1662.620
G1 X1496.360 Y1711.490
G1 X1552.790 Y1711.490
G1 X1524.570 Y1760.360
G1 X1552.790 Y1809.230
G1 X1496.360 Y1809.230
G1 X1468.140 Y1858.100
G1 X1439.930 Y1809.230
G1 X1370.270 Y1809.230
G1 X1366.520 Y1856.100
G1 X1331.020 Y1904.970
G1 X1273.560 Y1923.630
G1 X1260.980 Y1927.720
G1 X1184.630 Y1991.130
G1 X 815.720 Y2040.000
G1 X 692.750 Y2007.420
G1 X 692.750 Y1877.100
G1 X 815.720 Y1844.520
G1 X 828.510 Y1841.130
G1 X 852.040 Y1791.790
G1 X 852.040 Y1704.930
G1 X 837.340 Y1704.930
G1 X 835.710 Y1740.040
G1 X 678.010 Y1791.280
G1 X 678.010 Y1957.090
G1 X 520.320 Y1905.860
G1 X 422.850 Y2040.000
G1 X 325.390 Y1905.860
G1 X 167.700 Y1957.090
G1 X 167.700 Y1791.280
G1 X  10.000 Y1740.040
G1 X 107.460 Y1605.900
G1 X  10.000 Y1471.760
G1 X 167.700 Y1420.520
G1 X 167.700 Y1254.710
G1 X 325.390 Y1305.940
G1 X 422.850 Y1171.800
G1 X 520.320 Y1305.940
G1 X 678.010 Y1254.710
G1 X 678.010 Y1420.520
G1 X 835.710 Y1471.760
G1 X 738.250 Y1605.900
G1 X 835.710 Y1740.040
F150
G1 Z   3.000
G0 Z  15.000 
M9 M5

(* SHAPE Nr: 44 *)
G0 X 852.040 Y1778.560
M3 M8
G0 Z   3.000 
G1 Z  -1.500
F400
G1 X 887.550 Y1827.430
G1 X 945.000 Y1846.100
G1 X1002.450 Y1827.430
G1 X1037.960 Y1778.560
G1 X1037.960 Y1718.160
G1 X1002.450 Y1669.290
G1 X 945.000 Y1650.620
G1 X 887.550 Y1669.290
G1 X 852.040 Y1718.160
F150
G1 Z  -3.000
F400
G1 X 887.550 Y1669.290
G1 X 945.000 Y1650.620
G1 X1002.450 Y1669.290
G1 X1037.960 Y1718.160
G1 X1037.960 Y1778.560
G1 X1002.450 Y1827.430
G1 X 945.000 Y1846.100
G1 X 887.550 Y1827.430
G1 X 852.040 Y1778.560
F150
G1 Z   3.000
G0 Z  15.000 
M9 M5

(* SHAPE Nr: 45 *)
G0 X 869.280 Y 930.620
M3 M8
G0 Z   3.000 
G1 Z  -1.500
F400
G1 X 869.280 Y1096.440
G1 X 711.590 Y1147.670
G1 X 809.050 Y1281.820
G1 X 711.590 Y1415.960
G1 X 869.280 Y1467.200
G1 X 869.280 Y1633.010
G1 X1026.980 Y1581.770
G1 X1124.440 Y1715.920
G1 X1221.900 Y1581.770
G1 X1379.600 Y1633.010
G1 X1379.600 Y1467.200
G1 X1537.290 Y1415.960
G1 X1439.830 Y1281.820
G1 X1537.290 Y1147.670
G1 X1379.600 Y1096.440
G1 X1379.600 Y 930.620
G1 X1221.900 Y 981.860
G1 X1124.440 Y 847.720
G1 X1026.980 Y 981.860
G1 X 869.280 Y 930.620
F150
G1 Z  -3.000
F400
G1 X 869.280 Y1096.440
G1 X 711.590 Y1147.670
G1 X 809.050 Y1281.820
G1 X 711.590 Y1415.960
G1 X 869.280 Y1467.200
G1 X 869.280 Y1633.010
G1 X1026.980 Y1581.770
G1 X1124.440 Y1715.920
G1 X1221.900 Y1581.770
G1 X1379.600 Y1633.010
G1 X1379.600 Y1467.200
G1 X1537.290 Y1415.960
G1 X1439.830 Y1281.820
G1 X1537.290 Y1147.670
G1 X1379.600 Y1096.440
G1 X1379.600 Y 930.620
G1 X1221.900 Y 981.860
G1 X1124.440 Y 847.720
G1 X1026.980 Y 981.860
G1 X 869.280 Y 930.620
F150
G1 Z   3.000
G0 Z  15.000 
M9 M5

(* SHAPE Nr: 46 *)
G0 X1459.250 Y 335.000
M3 M8
G0 Z   3.000 
G1 Z  -1.500
F400
G1 X1477.920 Y 392.450
G1 X1526.790 Y 427.960
G1 X1587.200 Y 427.960
G1 X1636.070 Y 392.450
G1 X1654.730 Y 335.000
G1 X1636.070 Y 277.550
G1 X1587.200 Y 242.040
G1 X1526.790 Y 242.040
G1 X1477.920 Y 277.550
G1 X1459.250 Y 335.000
F150
G1 Z  -3.000
F400
G1 X1477.920 Y 392.450
G1 X1526.790 Y 427.960
G1 X1587.200 Y 427.960
G1 X1636.070 Y 392.450
G1 X1654.730 Y 335.000
G1 X1636.070 Y 277.550
G1 X1587.200 Y 242.040
G1 X1526.790 Y 242.040
G1 X1477.920 Y 277.550
G1 X1459.250 Y 335.000
F150
G1 Z   3.000
G0 Z  15.000 
M9 M5

(* SHAPE Nr: 47 *)
G0 X1768.710 Y 258.010
M3 M8
G0 Z   3.000 
G1 Z  -1.500
F400
G1 X1726.970 Y 315.460
G1 X1659.430 Y 293.520
G1 X1701.170 Y 350.970
G1 X1659.430 Y 408.420
G1 X1726.970 Y 386.470
G1 X1768.710 Y 443.920
G1 X1768.710 Y 372.910
G1 X1836.240 Y 350.970
G1 X1768.710 Y 329.020
G1 X1768.710 Y 244.780
G1 X1802.500 Y 174.390
G1 X1802.500 Y  30.840
G1 X1817.200 Y  30.840
G1 X1949.170 Y  40.220
G1 X1952.940 Y  54.430
G1 X1940.150 Y  57.820
G1 X1817.180 Y  90.400
G1 X1817.180 Y 220.720
G1 X1940.150 Y 253.300
G1 X2309.060 Y 204.430
G1 X2247.570 Y 184.880
G1 X2247.570 Y 126.240
G1 X2309.060 Y 106.690
G1 X2342.030 Y   1.760
G1 X2356.240 Y   5.530
G1 X2352.860 Y  18.320
G1 X2320.280 Y 141.290
G1 X2359.900 Y 511.070
G1 X2358.160 Y 524.180
G1 X2309.290 Y 893.090
G1 X2341.870 Y1016.060
G1 X2345.260 Y1028.850
G1 X2310.550 Y1041.500
G1 X2261.680 Y1410.410
G1 X2294.260 Y1533.380
G1 X2437.810 Y1533.380
G1 X2437.810 Y1548.080
G1 X2371.260 Y1548.120
G1 X2338.690 Y1671.090
G1 X2387.550 Y2040.000
G1 X2407.100 Y1978.520
G1 X2465.750 Y1978.520
G1 X2485.290 Y2040.000
G1 X2534.170 Y1671.090
G1 X2501.580 Y1548.120
G1 X2498.200 Y1535.330
G1 X2512.410 Y1531.570
G1 X2552.510 Y1533.070
G1 X2567.080 Y1535.010
G1 X2565.350 Y1548.120
G1 X2516.480 Y1917.030
G1 X2549.060 Y2040.000
G1 X2679.380 Y2040.000
G1 X2711.960 Y1917.030
G1 X2663.090 Y1548.120
G1 X2643.540 Y1609.600
G1 X2584.890 Y1609.600
G1 X2565.350 Y1548.120
G1 X2358.030 Y1548.120
G1 X2358.030 Y1533.420
G1 X2424.580 Y1533.380
G1 X2457.160 Y1410.410
G1 X2408.290 Y1041.500
G1 X2388.740 Y1102.980
G1 X2330.100 Y1102.980
G1 X2306.540 Y1028.890
G1 X2328.640 Y1016.060
G1 X2472.190 Y1016.060
G1 X2504.770 Y 893.090
G1 X2455.900 Y 524.180
G1 X2436.350 Y 585.670
G1 X2377.710 Y 585.670
G1 X2358.160 Y 524.180
F150
G1 Z  -3.000
F400
G1 X2377.710 Y 585.670
G1 X2436.350 Y 585.670
G1 X2455.900 Y 524.180
G1 X2504.770 Y 893.090
G1 X2472.190 Y1016.060
G1 X2328.640 Y1016.060
G1 X2306.540 Y1028.890
G1 X2330.100 Y1102.980
G1 X2388.740 Y1102.980
G1 X2408.290 Y1041.500
G1 X2457.160 Y1410.410
G1 X2424.580 Y1533.380
G1 X2358.030 Y1533.420
G1 X2358.030 Y1548.120
G1 X2565.350 Y1548.120
G1 X2584.890 Y1609.600
G1 X2643.540 Y1609.600
G1 X2663.090 Y1548.120
G1 X2711.960 Y1917.030
G1 X2679.380 Y2040.000
G1 X2549.060 Y2040.000
G1 X2516.480 Y1917.030
G1 X2565.350 Y1548.120
G1 X2567.080 Y1535.010
G1 X2552.510 Y1533.070
G1 X2512.410 Y1531.570
G1 X2498.200 Y1535.330
G1 X2501.580 Y1548.120
G1 X2534.170 Y1671.090
G1 X2485.290 Y2040.000
G1 X2465.750 Y1978.520
G1 X2407.100 Y1978.520
G1 X2387.550 Y2040.000
G1 X2338.690 Y1671.090
G1 X2371.260 Y1548.120
G1 X2437.810 Y1548.080
G1 X2437.810 Y1533.380
G1 X2294.260 Y1533.380
G1 X2261.680 Y1410.410
G1 X2310.550 Y1041.500
G1 X2345.260 Y1028.850
G1 X2341.870 Y1016.060
G1 X2309.290 Y 893.090
G1 X2358.160 Y 524.180
G1 X2359.900 Y 511.070
G1 X2320.280 Y 141.290
G1 X2352.860 Y  18.320
G1 X2356.240 Y   5.530
G1 X2342.030 Y   1.760
G1 X2309.060 Y 106.690
G1 X2247.570 Y 126.240
G1 X2247.570 Y 184.880
G1 X2309.060 Y 204.430
G1 X1940.150 Y 253.300
G1 X1817.180 Y 220.720
G1 X1817.180 Y  90.400
G1 X1940.150 Y  57.820
G1 X1952.940 Y  54.430
G1 X1949.170 Y  40.220
G1 X1817.200 Y  30.840
G1 X1802.500 Y  30.840
G1 X1802.500 Y 174.390
G1 X1768.710 Y 244.780
G1 X1768.710 Y 329.020
G1 X1836.240 Y 350.970
G1 X1768.710 Y 372.910
G1 X1768.710 Y 443.920
G1 X1726.970 Y 386.470
G1 X1659.430 Y 408.420
G1 X1701.170 Y 350.970
G1 X1659.430 Y 293.520
G1 X1726.970 Y 315.460
G1 X1768.710 Y 258.010
F150
G1 Z   3.000
G0 Z  15.000 
M9 M5

(* SHAPE Nr: 48 *)
G0 X2478.460 Y1040.880
M3 M8
G0 Z   3.000 
G1 Z  -1.500
F400
G1 X2445.880 Y1163.850
G1 X2494.750 Y1532.760
G1 X2514.300 Y1471.270
G1 X2572.940 Y1471.270
G1 X2592.490 Y1532.760
G1 X2641.360 Y1163.850
G1 X2608.780 Y1040.880
G1 X2478.460 Y1040.880
F150
G1 Z  -3.000
F400
G1 X2445.880 Y1163.850
G1 X2494.750 Y1532.760
G1 X2514.300 Y1471.270
G1 X2572.940 Y1471.270
G1 X2592.490 Y1532.760
G1 X2641.360 Y1163.850
G1 X2608.780 Y1040.880
G1 X2478.460 Y1040.880
F150
G1 Z   3.000
G0 Z  15.000 
M9 M5

(* SHAPE Nr: 49 *)
G0 X2760.780 Y 926.520
M3 M8
G0 Z   3.000 
G1 Z  -1.500
F400
G1 X2696.410 Y 940.290
G1 X2676.140 Y 877.650
G1 X2655.870 Y 940.290
G1 X2591.490 Y 926.520
G1 X2635.610 Y 975.390
G1 X2591.490 Y1024.260
G1 X2655.870 Y1010.500
G1 X2676.140 Y1073.130
G1 X2696.410 Y1010.500
G1 X2760.780 Y1024.260
G1 X2716.670 Y 975.390
G1 X2760.780 Y 926.520
G1 X2687.250 Y 337.470
G1 X2691.340 Y 324.890
G1 X2710.000 Y 267.440
G1 X2691.340 Y 209.990
F150
G1 Z  -3.000
F400
G1 X2710.000 Y 267.440
G1 X2691.340 Y 324.890
G1 X2687.250 Y 337.470
G1 X2760.780 Y 926.520
G1 X2716.670 Y 975.390
G1 X2760.780 Y1024.260
G1 X2696.410 Y1010.500
G1 X2676.140 Y1073.130
G1 X2655.870 Y1010.500
G1 X2591.490 Y1024.260
G1 X2635.610 Y 975.390
G1 X2591.490 Y 926.520
G1 X2655.870 Y 940.290
G1 X2676.140 Y 877.650
G1 X2696.410 Y 940.290
G1 X2760.780 Y 926.520
F150
G1 Z   3.000
G0 Z  15.000 
M9 M5

(* SHAPE Nr: 50 *)
G0 X2777.410 Y 119.280
M3 M8
G0 Z   3.000 
G1 Z  -1.500
F400
G1 X2741.900 Y  10.000
G1 X2627.000 Y  10.000
G1 X2591.490 Y 119.280
G1 X2684.450 Y 186.810
G1 X2788.110 Y 111.500
G1 X2796.750 Y 123.390
G1 X2702.040 Y 217.770
G1 X2691.340 Y 209.990
G1 X2642.470 Y 174.490
G1 X2582.060 Y 174.490
G1 X2533.190 Y 209.990
G1 X2514.520 Y 267.440
G1 X2533.190 Y 324.890
G1 X2582.060 Y 360.400
G1 X2642.470 Y 360.400
G1 X2702.040 Y 317.110
G1 X2710.680 Y 329.010
G1 X2646.850 Y 376.130
G1 X2627.300 Y 437.610
G1 X2568.660 Y 437.610
G1 X2549.110 Y 376.130
G1 X2500.240 Y 745.040
G1 X2532.820 Y 868.010
G1 X2663.140 Y 868.010
G1 X2695.720 Y 745.040
G1 X2646.850 Y 376.130
F150
G1 Z  -3.000
F400
G1 X2695.720 Y 745.040
G1 X2663.140 Y 868.010
G1 X2532.820 Y 868.010
G1 X2500.240 Y 745.040
G1 X2549.110 Y 376.130
G1 X2568.660 Y 437.610
G1 X2627.300 Y 437.610
G1 X2646.850 Y 376.130
G1 X2710.680 Y 329.010
G1 X2702.040 Y 317.110
G1 X2642.470 Y 360.400
G1 X2582.060 Y 360.400
G1 X2533.190 Y 324.890
G1 X2514.520 Y 267.440
G1 X2533.190 Y 209.990
G1 X2582.060 Y 174.490
G1 X2642.470 Y 174.490
G1 X2691.340 Y 209.990
G1 X2702.040 Y 217.770
G1 X2796.750 Y 123.390
G1 X2788.110 Y 111.500
G1 X2684.450 Y 186.810
G1 X2591.490 Y 119.280
G1 X2627.000 Y  10.000
G1 X2741.900 Y  10.000
G1 X2777.410 Y 119.280
F150
G1 Z   3.000
G0 Z  15.000 
M9 M5

(* SHAPE Nr: 51 *)
G0 X2320.280 Y 141.290
M3 M8
G0 Z   3.000 
G1 Z  -1.500
F400
G1 X2369.150 Y 510.200
G1 X2388.690 Y 448.710
G1 X2447.340 Y 448.710
G1 X2466.890 Y 510.200
G1 X2515.760 Y 141.290
G1 X2483.180 Y  18.320
G1 X2352.860 Y  18.320
G1 X2322.170 Y 108.430
G1 X2309.060 Y 106.690
G1 X1927.030 Y  56.080
G1 X1802.500 Y  44.070
G1 X1679.530 Y  11.490
G1 X1310.620 Y  60.360
G1 X1372.100 Y  79.910
G1 X1372.100 Y 138.550
G1 X1310.620 Y 158.100
G1 X1679.530 Y 206.970
G1 X1802.500 Y 174.390
F150
G1 Z  -3.000
F400
G1 X1679.530 Y 206.970
G1 X1310.620 Y 158.100
G1 X1372.100 Y 138.550
G1 X1372.100 Y  79.910
G1 X1310.620 Y  60.360
G1 X1679.530 Y  11.490
G1 X1802.500 Y  44.070
G1 X1927.030 Y  56.080
G1 X2309.060 Y 106.690
G1 X2322.170 Y 108.430
G1 X2352.860 Y  18.320
G1 X2483.180 Y  18.320
G1 X2515.760 Y 141.290
G1 X2466.890 Y 510.200
G1 X2447.340 Y 448.710
G1 X2388.690 Y 448.710
G1 X2369.150 Y 510.200
G1 X2320.280 Y 141.290
F150
G1 Z   3.000
G0 Z  15.000 
M9 M5
G0 X   0.000 Y   0.000
M2 (Program end)