(Generated with: DXF2GCODE, Version: REMOVED, Date: $Date$)
(Created from file: )
(Output format description: G-CODE for LinuxCNC)
(Time: Thu Sep 13 16:01:06 2018)
G21 (Units in millimeters)
G90 (Absolute programming)
G64 (Default cutting) G17 (XY plane) G40 (Cancel radius comp.) G49 (Cancel length comp.)
G0 Z  15.000 

(*** LAYER: FRAME_Z18 ***)
T1 M6
S6000

(* SHAPE Nr: 152 *)
G0 X   0.000 Y   0.000
M3 M8
G0 Z   3.000 
F150
G1 Z  -1.500
F400
G1 X   0.000 Y2050.000
G1 X2800.000 Y2050.000
G1 X2800.000 Y   0.000
G1 X   0.000 Y   0.000
F150
G1 Z  -3.000
F400
G1 X   0.000 Y2050.000
G1 X2800.000 Y2050.000
G1 X2800.000 Y   0.000
G1 X   0.000 Y   0.000
F150
G1 Z   3.000
G0 Z  15.000 
M9 M5

(*** LAYER: BORDER_D0_T132_RK1_A0_W0_EM1_RI1_ID0001 ***)

(* SHAPE Nr: 0 *)
G0 X 128.180 Y 104.590
M3 M8
G0 Z   3.000 
G1 Z  -1.500
F400
G1 X 175.340 Y 134.800
G1 X 128.180 Y 164.990
G1 X 184.080 Y 161.720
G1 X 163.690 Y 213.860
G1 X 206.980 Y 178.350
G1 X 221.140 Y 232.540
G1 X 235.290 Y 178.350
G1 X 278.590 Y 213.860
G1 X 258.190 Y 161.720
G1 X 314.090 Y 164.990
G1 X 266.940 Y 134.800
G1 X 314.090 Y 104.590
G1 X 258.190 Y 107.870
G1 X 278.590 Y  55.730
G1 X 235.290 Y  91.230
G1 X 221.140 Y  37.060
G1 X 206.980 Y  91.230
G1 X 163.690 Y  55.730
G1 X 184.080 Y 107.870
G1 X 128.180 Y 104.590
F150
G1 Z  -3.000
F400
G1 X 175.340 Y 134.800
G1 X 128.180 Y 164.990
G1 X 184.080 Y 161.720
G1 X 163.690 Y 213.860
G1 X 206.980 Y 178.350
G1 X 221.140 Y 232.540
G1 X 235.290 Y 178.350
G1 X 278.590 Y 213.860
G1 X 258.190 Y 161.720
G1 X 314.090 Y 164.990
G1 X 266.940 Y 134.800
G1 X 314.090 Y 104.590
G1 X 258.190 Y 107.870
G1 X 278.590 Y  55.730
G1 X 235.290 Y  91.230
G1 X 221.140 Y  37.060
G1 X 206.980 Y  91.230
G1 X 163.690 Y  55.730
G1 X 184.080 Y 107.870
G1 X 128.180 Y 104.590
F150
G1 Z   3.000
G0 Z  15.000 
M9 M5

(* SHAPE Nr: 1 *)
G0 X  45.520 Y 181.750
M3 M8
G0 Z   3.000 
G1 Z  -1.500
F400
G1 X  65.910 Y 233.890
G1 X  10.010 Y 230.610
G1 X  57.170 Y 260.820
G1 X  10.010 Y 291.010
G1 X  65.910 Y 287.740
G1 X  45.520 Y 339.880
G1 X  88.810 Y 304.370
G1 X 102.970 Y 358.560
G1 X 117.120 Y 304.370
G1 X 160.420 Y 339.880
G1 X 140.020 Y 287.740
G1 X 195.920 Y 291.010
G1 X 148.770 Y 260.820
G1 X 195.920 Y 230.610
G1 X 140.020 Y 233.890
G1 X 160.420 Y 181.750
G1 X 117.120 Y 217.250
G1 X 102.970 Y 163.080
G1 X  88.810 Y 217.250
G1 X  45.520 Y 181.750
F150
G1 Z  -3.000
F400
G1 X  65.910 Y 233.890
G1 X  10.010 Y 230.610
G1 X  57.170 Y 260.820
G1 X  10.010 Y 291.010
G1 X  65.910 Y 287.740
G1 X  45.520 Y 339.880
G1 X  88.810 Y 304.370
G1 X 102.970 Y 358.560
G1 X 117.120 Y 304.370
G1 X 160.420 Y 339.880
G1 X 140.020 Y 287.740
G1 X 195.920 Y 291.010
G1 X 148.770 Y 260.820
G1 X 195.920 Y 230.610
G1 X 140.020 Y 233.890
G1 X 160.420 Y 181.750
G1 X 117.120 Y 217.250
G1 X 102.970 Y 163.080
G1 X  88.810 Y 217.250
G1 X  45.520 Y 181.750
F150
G1 Z   3.000
G0 Z  15.000 
M9 M5

(* SHAPE Nr: 2 *)
G0 X 102.970 Y 373.270
M3 M8
G0 Z   3.000 
G1 Z  -1.500
F400
G1 X  88.810 Y 427.440
G1 X  45.520 Y 391.940
G1 X  65.910 Y 444.080
G1 X  10.010 Y 440.800
G1 X  57.170 Y 471.010
G1 X  10.010 Y 501.200
G1 X  65.910 Y 497.930
G1 X  45.520 Y 550.070
G1 X  88.810 Y 514.560
G1 X 102.970 Y 568.750
G1 X 117.120 Y 514.560
G1 X 160.420 Y 550.070
G1 X 140.020 Y 497.930
G1 X 195.920 Y 501.200
G1 X 148.770 Y 471.010
G1 X 195.920 Y 440.800
G1 X 140.020 Y 444.080
G1 X 160.420 Y 391.940
G1 X 117.120 Y 427.440
G1 X 102.970 Y 373.270
F150
G1 Z  -3.000
F400
G1 X  88.810 Y 427.440
G1 X  45.520 Y 391.940
G1 X  65.910 Y 444.080
G1 X  10.010 Y 440.800
G1 X  57.170 Y 471.010
G1 X  10.010 Y 501.200
G1 X  65.910 Y 497.930
G1 X  45.520 Y 550.070
G1 X  88.810 Y 514.560
G1 X 102.970 Y 568.750
G1 X 117.120 Y 514.560
G1 X 160.420 Y 550.070
G1 X 140.020 Y 497.930
G1 X 195.920 Y 501.200
G1 X 148.770 Y 471.010
G1 X 195.920 Y 440.800
G1 X 140.020 Y 444.080
G1 X 160.420 Y 391.940
G1 X 117.120 Y 427.440
G1 X 102.970 Y 373.270
F150
G1 Z   3.000
G0 Z  15.000 
M9 M5

(* SHAPE Nr: 3 *)
G0 X 102.970 Y 583.450
M3 M8
G0 Z   3.000 
G1 Z  -1.500
F400
G1 X  88.810 Y 637.620
G1 X  45.520 Y 602.120
G1 X  65.910 Y 654.260
G1 X  10.010 Y 650.980
G1 X  57.170 Y 681.190
G1 X  10.010 Y 711.380
G1 X  65.910 Y 708.110
G1 X  45.520 Y 760.250
G1 X  88.810 Y 724.740
G1 X 102.970 Y 778.930
G1 X 117.120 Y 724.740
G1 X 160.420 Y 760.250
G1 X 140.020 Y 708.110
G1 X 195.920 Y 711.380
G1 X 148.770 Y 681.190
G1 X 195.920 Y 650.980
G1 X 140.020 Y 654.260
G1 X 160.420 Y 602.120
G1 X 117.120 Y 637.620
G1 X 102.970 Y 583.450
F150
G1 Z  -3.000
F400
G1 X  88.810 Y 637.620
G1 X  45.520 Y 602.120
G1 X  65.910 Y 654.260
G1 X  10.010 Y 650.980
G1 X  57.170 Y 681.190
G1 X  10.010 Y 711.380
G1 X  65.910 Y 708.110
G1 X  45.520 Y 760.250
G1 X  88.810 Y 724.740
G1 X 102.970 Y 778.930
G1 X 117.120 Y 724.740
G1 X 160.420 Y 760.250
G1 X 140.020 Y 708.110
G1 X 195.920 Y 711.380
G1 X 148.770 Y 681.190
G1 X 195.920 Y 650.980
G1 X 140.020 Y 654.260
G1 X 160.420 Y 602.120
G1 X 117.120 Y 637.620
G1 X 102.970 Y 583.450
F150
G1 Z   3.000
G0 Z  15.000 
M9 M5

(* SHAPE Nr: 4 *)
G0 X 102.970 Y 793.630
M3 M8
G0 Z   3.000 
G1 Z  -1.500
F400
G1 X  88.810 Y 847.800
G1 X  45.520 Y 812.300
G1 X  65.910 Y 864.440
G1 X  10.010 Y 861.160
G1 X  57.170 Y 891.370
G1 X  10.010 Y 921.560
G1 X  65.910 Y 918.290
G1 X  45.520 Y 970.430
G1 X  88.810 Y 934.920
G1 X 102.970 Y 989.110
G1 X 117.120 Y 934.920
G1 X 160.420 Y 970.430
G1 X 140.020 Y 918.290
G1 X 195.920 Y 921.560
G1 X 148.770 Y 891.370
G1 X 195.920 Y 861.160
G1 X 140.020 Y 864.440
G1 X 160.420 Y 812.300
G1 X 117.120 Y 847.800
G1 X 102.970 Y 793.630
F150
G1 Z  -3.000
F400
G1 X  88.810 Y 847.800
G1 X  45.520 Y 812.300
G1 X  65.910 Y 864.440
G1 X  10.010 Y 861.160
G1 X  57.170 Y 891.370
G1 X  10.010 Y 921.560
G1 X  65.910 Y 918.290
G1 X  45.520 Y 970.430
G1 X  88.810 Y 934.920
G1 X 102.970 Y 989.110
G1 X 117.120 Y 934.920
G1 X 160.420 Y 970.430
G1 X 140.020 Y 918.290
G1 X 195.920 Y 921.560
G1 X 148.770 Y 891.370
G1 X 195.920 Y 861.160
G1 X 140.020 Y 864.440
G1 X 160.420 Y 812.300
G1 X 117.120 Y 847.800
G1 X 102.970 Y 793.630
F150
G1 Z   3.000
G0 Z  15.000 
M9 M5

(* SHAPE Nr: 5 *)
G0 X 102.970 Y1003.800
M3 M8
G0 Z   3.000 
G1 Z  -1.500
F400
G1 X  88.810 Y1057.970
G1 X  45.520 Y1022.470
G1 X  65.910 Y1074.610
G1 X  10.010 Y1071.330
G1 X  57.170 Y1101.540
G1 X  10.010 Y1131.730
G1 X  65.910 Y1128.460
G1 X  45.520 Y1180.600
G1 X  88.810 Y1145.090
G1 X 102.970 Y1199.280
G1 X 117.120 Y1145.090
G1 X 160.420 Y1180.600
G1 X 140.020 Y1128.460
G1 X 195.920 Y1131.730
G1 X 148.770 Y1101.540
G1 X 195.920 Y1071.330
G1 X 140.020 Y1074.610
G1 X 160.420 Y1022.470
G1 X 117.120 Y1057.970
G1 X 102.970 Y1003.800
F150
G1 Z  -3.000
F400
G1 X  88.810 Y1057.970
G1 X  45.520 Y1022.470
G1 X  65.910 Y1074.610
G1 X  10.010 Y1071.330
G1 X  57.170 Y1101.540
G1 X  10.010 Y1131.730
G1 X  65.910 Y1128.460
G1 X  45.520 Y1180.600
G1 X  88.810 Y1145.090
G1 X 102.970 Y1199.280
G1 X 117.120 Y1145.090
G1 X 160.420 Y1180.600
G1 X 140.020 Y1128.460
G1 X 195.920 Y1131.730
G1 X 148.770 Y1101.540
G1 X 195.920 Y1071.330
G1 X 140.020 Y1074.610
G1 X 160.420 Y1022.470
G1 X 117.120 Y1057.970
G1 X 102.970 Y1003.800
F150
G1 Z   3.000
G0 Z  15.000 
M9 M5

(* SHAPE Nr: 6 *)
G0 X 102.970 Y1213.980
M3 M8
G0 Z   3.000 
G1 Z  -1.500
F400
G1 X  88.810 Y1268.150
G1 X  45.520 Y1232.650
G1 X  65.910 Y1284.790
G1 X  10.010 Y1281.510
G1 X  57.170 Y1311.720
G1 X  10.010 Y1341.910
G1 X  65.910 Y1338.640
G1 X  45.520 Y1390.780
G1 X  88.810 Y1355.270
G1 X 102.970 Y1409.460
G1 X 117.120 Y1355.270
G1 X 160.420 Y1390.780
G1 X 140.020 Y1338.640
G1 X 195.920 Y1341.910
G1 X 148.770 Y1311.720
G1 X 195.920 Y1281.510
G1 X 140.020 Y1284.790
G1 X 160.420 Y1232.650
G1 X 117.120 Y1268.150
G1 X 102.970 Y1213.980
F150
G1 Z  -3.000
F400
G1 X  88.810 Y1268.150
G1 X  45.520 Y1232.650
G1 X  65.910 Y1284.790
G1 X  10.010 Y1281.510
G1 X  57.170 Y1311.720
G1 X  10.010 Y1341.910
G1 X  65.910 Y1338.640
G1 X  45.520 Y1390.780
G1 X  88.810 Y1355.270
G1 X 102.970 Y1409.460
G1 X 117.120 Y1355.270
G1 X 160.420 Y1390.780
G1 X 140.020 Y1338.640
G1 X 195.920 Y1341.910
G1 X 148.770 Y1311.720
G1 X 195.920 Y1281.510
G1 X 140.020 Y1284.790
G1 X 160.420 Y1232.650
G1 X 117.120 Y1268.150
G1 X 102.970 Y1213.980
F150
G1 Z   3.000
G0 Z  15.000 
M9 M5

(* SHAPE Nr: 7 *)
G0 X 102.970 Y1424.170
M3 M8
G0 Z   3.000 
G1 Z  -1.500
F400
G1 X  88.810 Y1478.340
G1 X  45.520 Y1442.840
G1 X  65.910 Y1494.980
G1 X  10.010 Y1491.700
G1 X  57.170 Y1521.910
G1 X  10.010 Y1552.100
G1 X  65.910 Y1548.830
G1 X  45.520 Y1600.970
G1 X  88.810 Y1565.460
G1 X 102.970 Y1619.650
G1 X 117.120 Y1565.460
G1 X 160.420 Y1600.970
G1 X 140.020 Y1548.830
G1 X 195.920 Y1552.100
G1 X 148.770 Y1521.910
G1 X 195.920 Y1491.700
G1 X 140.020 Y1494.980
G1 X 160.420 Y1442.840
G1 X 117.120 Y1478.340
G1 X 102.970 Y1424.170
F150
G1 Z  -3.000
F400
G1 X  88.810 Y1478.340
G1 X  45.520 Y1442.840
G1 X  65.910 Y1494.980
G1 X  10.010 Y1491.700
G1 X  57.170 Y1521.910
G1 X  10.010 Y1552.100
G1 X  65.910 Y1548.830
G1 X  45.520 Y1600.970
G1 X  88.810 Y1565.460
G1 X 102.970 Y1619.650
G1 X 117.120 Y1565.460
G1 X 160.420 Y1600.970
G1 X 140.020 Y1548.830
G1 X 195.920 Y1552.100
G1 X 148.770 Y1521.910
G1 X 195.920 Y1491.700
G1 X 140.020 Y1494.980
G1 X 160.420 Y1442.840
G1 X 117.120 Y1478.340
G1 X 102.970 Y1424.170
F150
G1 Z   3.000
G0 Z  15.000 
M9 M5

(* SHAPE Nr: 8 *)
G0 X 102.970 Y1634.350
M3 M8
G0 Z   3.000 
G1 Z  -1.500
F400
G1 X  88.810 Y1688.520
G1 X  45.520 Y1653.020
G1 X  65.910 Y1705.160
G1 X  10.010 Y1701.880
G1 X  57.170 Y1732.090
G1 X  10.010 Y1762.280
G1 X  65.910 Y1759.010
G1 X  45.520 Y1811.150
G1 X  88.810 Y1775.640
G1 X 102.970 Y1829.830
G1 X 117.120 Y1775.640
G1 X 160.420 Y1811.150
G1 X 140.020 Y1759.010
G1 X 195.920 Y1762.280
G1 X 148.770 Y1732.090
G1 X 195.920 Y1701.880
G1 X 140.020 Y1705.160
G1 X 160.420 Y1653.020
G1 X 117.120 Y1688.520
G1 X 102.970 Y1634.350
F150
G1 Z  -3.000
F400
G1 X  88.810 Y1688.520
G1 X  45.520 Y1653.020
G1 X  65.910 Y1705.160
G1 X  10.010 Y1701.880
G1 X  57.170 Y1732.090
G1 X  10.010 Y1762.280
G1 X  65.910 Y1759.010
G1 X  45.520 Y1811.150
G1 X  88.810 Y1775.640
G1 X 102.970 Y1829.830
G1 X 117.120 Y1775.640
G1 X 160.420 Y1811.150
G1 X 140.020 Y1759.010
G1 X 195.920 Y1762.280
G1 X 148.770 Y1732.090
G1 X 195.920 Y1701.880
G1 X 140.020 Y1705.160
G1 X 160.420 Y1653.020
G1 X 117.120 Y1688.520
G1 X 102.970 Y1634.350
F150
G1 Z   3.000
G0 Z  15.000 
M9 M5

(* SHAPE Nr: 9 *)
G0 X 102.970 Y1844.520
M3 M8
G0 Z   3.000 
G1 Z  -1.500
F400
G1 X  88.810 Y1898.690
G1 X  45.520 Y1863.190
G1 X  65.910 Y1915.330
G1 X  10.010 Y1912.050
G1 X  57.170 Y1942.260
G1 X  10.010 Y1972.450
G1 X  65.910 Y1969.180
G1 X  45.520 Y2021.320
G1 X  88.810 Y1985.810
G1 X 102.970 Y2040.000
G1 X 117.120 Y1985.810
G1 X 160.420 Y2021.320
G1 X 140.020 Y1969.180
G1 X 195.920 Y1972.450
G1 X 148.770 Y1942.260
G1 X 195.920 Y1912.050
G1 X 140.020 Y1915.330
G1 X 160.420 Y1863.190
G1 X 117.120 Y1898.690
G1 X 102.970 Y1844.520
F150
G1 Z  -3.000
F400
G1 X  88.810 Y1898.690
G1 X  45.520 Y1863.190
G1 X  65.910 Y1915.330
G1 X  10.010 Y1912.050
G1 X  57.170 Y1942.260
G1 X  10.010 Y1972.450
G1 X  65.910 Y1969.180
G1 X  45.520 Y2021.320
G1 X  88.810 Y1985.810
G1 X 102.970 Y2040.000
G1 X 117.120 Y1985.810
G1 X 160.420 Y2021.320
G1 X 140.020 Y1969.180
G1 X 195.920 Y1972.450
G1 X 148.770 Y1942.260
G1 X 195.920 Y1912.050
G1 X 140.020 Y1915.330
G1 X 160.420 Y1863.190
G1 X 117.120 Y1898.690
G1 X 102.970 Y1844.520
F150
G1 Z   3.000
G0 Z  15.000 
M9 M5

(* SHAPE Nr: 10 *)
G0 X 256.280 Y1854.090
M3 M8
G0 Z   3.000 
G1 Z  -1.500
F400
G1 X 259.560 Y1909.990
G1 X 207.410 Y1889.600
G1 X 242.920 Y1932.890
G1 X 188.740 Y1947.050
G1 X 242.920 Y1961.200
G1 X 207.410 Y2004.500
G1 X 259.560 Y1984.100
G1 X 256.280 Y2040.000
G1 X 286.480 Y1992.850
G1 X 316.680 Y2040.000
G1 X 313.400 Y1984.100
G1 X 365.550 Y2004.500
G1 X 330.040 Y1961.200
G1 X 384.220 Y1947.050
G1 X 330.040 Y1932.890
G1 X 365.550 Y1889.600
G1 X 313.400 Y1909.990
G1 X 316.680 Y1854.090
G1 X 286.480 Y1901.250
G1 X 256.280 Y1854.090
F150
G1 Z  -3.000
F400
G1 X 259.560 Y1909.990
G1 X 207.410 Y1889.600
G1 X 242.920 Y1932.890
G1 X 188.740 Y1947.050
G1 X 242.920 Y1961.200
G1 X 207.410 Y2004.500
G1 X 259.560 Y1984.100
G1 X 256.280 Y2040.000
G1 X 286.480 Y1992.850
G1 X 316.680 Y2040.000
G1 X 313.400 Y1984.100
G1 X 365.550 Y2004.500
G1 X 330.040 Y1961.200
G1 X 384.220 Y1947.050
G1 X 330.040 Y1932.890
G1 X 365.550 Y1889.600
G1 X 313.400 Y1909.990
G1 X 316.680 Y1854.090
G1 X 286.480 Y1901.250
G1 X 256.280 Y1854.090
F150
G1 Z   3.000
G0 Z  15.000 
M9 M5

(* SHAPE Nr: 11 *)
G0 X 469.980 Y1844.520
M3 M8
G0 Z   3.000 
G1 Z  -1.500
F400
G1 X 455.820 Y1898.690
G1 X 412.530 Y1863.190
G1 X 432.920 Y1915.330
G1 X 377.020 Y1912.050
G1 X 424.180 Y1942.260
G1 X 377.020 Y1972.450
G1 X 432.920 Y1969.180
G1 X 412.530 Y2021.320
G1 X 455.820 Y1985.810
G1 X 469.980 Y2040.000
G1 X 484.130 Y1985.810
G1 X 527.430 Y2021.320
G1 X 507.030 Y1969.180
G1 X 562.930 Y1972.450
G1 X 515.780 Y1942.260
G1 X 562.930 Y1912.050
G1 X 507.030 Y1915.330
G1 X 527.430 Y1863.190
G1 X 484.130 Y1898.690
G1 X 469.980 Y1844.520
F150
G1 Z  -3.000
F400
G1 X 455.820 Y1898.690
G1 X 412.530 Y1863.190
G1 X 432.920 Y1915.330
G1 X 377.020 Y1912.050
G1 X 424.180 Y1942.260
G1 X 377.020 Y1972.450
G1 X 432.920 Y1969.180
G1 X 412.530 Y2021.320
G1 X 455.820 Y1985.810
G1 X 469.980 Y2040.000
G1 X 484.130 Y1985.810
G1 X 527.430 Y2021.320
G1 X 507.030 Y1969.180
G1 X 562.930 Y1972.450
G1 X 515.780 Y1942.260
G1 X 562.930 Y1912.050
G1 X 507.030 Y1915.330
G1 X 527.430 Y1863.190
G1 X 484.130 Y1898.690
G1 X 469.980 Y1844.520
F150
G1 Z   3.000
G0 Z  15.000 
M9 M5

(* SHAPE Nr: 12 *)
G0 X 623.240 Y1854.090
M3 M8
G0 Z   3.000 
G1 Z  -1.500
F400
G1 X 626.520 Y1909.990
G1 X 574.370 Y1889.600
G1 X 609.880 Y1932.890
G1 X 555.700 Y1947.050
G1 X 609.880 Y1961.200
G1 X 574.370 Y2004.500
G1 X 626.520 Y1984.100
G1 X 623.240 Y2040.000
G1 X 653.440 Y1992.850
G1 X 683.640 Y2040.000
G1 X 680.360 Y1984.100
G1 X 732.510 Y2004.500
G1 X 697.000 Y1961.200
G1 X 751.180 Y1947.050
G1 X 697.000 Y1932.890
G1 X 732.510 Y1889.600
G1 X 680.360 Y1909.990
G1 X 683.640 Y1854.090
G1 X 653.440 Y1901.250
G1 X 623.240 Y1854.090
F150
G1 Z  -3.000
F400
G1 X 626.520 Y1909.990
G1 X 574.370 Y1889.600
G1 X 609.880 Y1932.890
G1 X 555.700 Y1947.050
G1 X 609.880 Y1961.200
G1 X 574.370 Y2004.500
G1 X 626.520 Y1984.100
G1 X 623.240 Y2040.000
G1 X 653.440 Y1992.850
G1 X 683.640 Y2040.000
G1 X 680.360 Y1984.100
G1 X 732.510 Y2004.500
G1 X 697.000 Y1961.200
G1 X 751.180 Y1947.050
G1 X 697.000 Y1932.890
G1 X 732.510 Y1889.600
G1 X 680.360 Y1909.990
G1 X 683.640 Y1854.090
G1 X 653.440 Y1901.250
G1 X 623.240 Y1854.090
F150
G1 Z   3.000
G0 Z  15.000 
M9 M5

(* SHAPE Nr: 13 *)
G0 X 779.450 Y1863.190
M3 M8
G0 Z   3.000 
G1 Z  -1.500
F400
G1 X 799.840 Y1915.330
G1 X 743.940 Y1912.050
G1 X 791.100 Y1942.260
G1 X 743.940 Y1972.450
G1 X 799.840 Y1969.180
G1 X 779.450 Y2021.320
G1 X 822.740 Y1985.810
G1 X 836.900 Y2040.000
G1 X 851.050 Y1985.810
G1 X 894.350 Y2021.320
G1 X 873.950 Y1969.180
G1 X 929.850 Y1972.450
G1 X 882.700 Y1942.260
G1 X 929.850 Y1912.050
G1 X 873.950 Y1915.330
G1 X 894.350 Y1863.190
G1 X 851.050 Y1898.690
G1 X 836.900 Y1844.520
G1 X 822.740 Y1898.690
G1 X 779.450 Y1863.190
F150
G1 Z  -3.000
F400
G1 X 799.840 Y1915.330
G1 X 743.940 Y1912.050
G1 X 791.100 Y1942.260
G1 X 743.940 Y1972.450
G1 X 799.840 Y1969.180
G1 X 779.450 Y2021.320
G1 X 822.740 Y1985.810
G1 X 836.900 Y2040.000
G1 X 851.050 Y1985.810
G1 X 894.350 Y2021.320
G1 X 873.950 Y1969.180
G1 X 929.850 Y1972.450
G1 X 882.700 Y1942.260
G1 X 929.850 Y1912.050
G1 X 873.950 Y1915.330
G1 X 894.350 Y1863.190
G1 X 851.050 Y1898.690
G1 X 836.900 Y1844.520
G1 X 822.740 Y1898.690
G1 X 779.450 Y1863.190
F150
G1 Z   3.000
G0 Z  15.000 
M9 M5

(* SHAPE Nr: 14 *)
G0 X 990.190 Y1854.090
M3 M8
G0 Z   3.000 
G1 Z  -1.500
F400
G1 X 993.470 Y1909.990
G1 X 941.320 Y1889.600
G1 X 976.830 Y1932.890
G1 X 922.650 Y1947.050
G1 X 976.830 Y1961.200
G1 X 941.320 Y2004.500
G1 X 993.470 Y1984.100
G1 X 990.190 Y2040.000
G1 X1020.390 Y1992.850
G1 X1050.590 Y2040.000
G1 X1047.310 Y1984.100
G1 X1099.460 Y2004.500
G1 X1063.950 Y1961.200
G1 X1118.130 Y1947.050
G1 X1063.950 Y1932.890
G1 X1099.460 Y1889.600
G1 X1047.310 Y1909.990
G1 X1050.590 Y1854.090
G1 X1020.390 Y1901.250
G1 X 990.190 Y1854.090
F150
G1 Z  -3.000
F400
G1 X 993.470 Y1909.990
G1 X 941.320 Y1889.600
G1 X 976.830 Y1932.890
G1 X 922.650 Y1947.050
G1 X 976.830 Y1961.200
G1 X 941.320 Y2004.500
G1 X 993.470 Y1984.100
G1 X 990.190 Y2040.000
G1 X1020.390 Y1992.850
G1 X1050.590 Y2040.000
G1 X1047.310 Y1984.100
G1 X1099.460 Y2004.500
G1 X1063.950 Y1961.200
G1 X1118.130 Y1947.050
G1 X1063.950 Y1932.890
G1 X1099.460 Y1889.600
G1 X1047.310 Y1909.990
G1 X1050.590 Y1854.090
G1 X1020.390 Y1901.250
G1 X 990.190 Y1854.090
F150
G1 Z   3.000
G0 Z  15.000 
M9 M5

(* SHAPE Nr: 15 *)
G0 X1146.460 Y1863.190
M3 M8
G0 Z   3.000 
G1 Z  -1.500
F400
G1 X1166.850 Y1915.330
G1 X1110.950 Y1912.050
G1 X1158.110 Y1942.260
G1 X1110.950 Y1972.450
G1 X1166.850 Y1969.180
G1 X1146.460 Y2021.320
G1 X1189.750 Y1985.810
G1 X1203.910 Y2040.000
G1 X1218.060 Y1985.810
G1 X1261.360 Y2021.320
G1 X1240.960 Y1969.180
G1 X1296.860 Y1972.450
G1 X1249.710 Y1942.260
G1 X1296.860 Y1912.050
G1 X1240.960 Y1915.330
G1 X1261.360 Y1863.190
G1 X1218.060 Y1898.690
G1 X1203.910 Y1844.520
G1 X1189.750 Y1898.690
G1 X1146.460 Y1863.190
F150
G1 Z  -3.000
F400
G1 X1166.850 Y1915.330
G1 X1110.950 Y1912.050
G1 X1158.110 Y1942.260
G1 X1110.950 Y1972.450
G1 X1166.850 Y1969.180
G1 X1146.460 Y2021.320
G1 X1189.750 Y1985.810
G1 X1203.910 Y2040.000
G1 X1218.060 Y1985.810
G1 X1261.360 Y2021.320
G1 X1240.960 Y1969.180
G1 X1296.860 Y1972.450
G1 X1249.710 Y1942.260
G1 X1296.860 Y1912.050
G1 X1240.960 Y1915.330
G1 X1261.360 Y1863.190
G1 X1218.060 Y1898.690
G1 X1203.910 Y1844.520
G1 X1189.750 Y1898.690
G1 X1146.460 Y1863.190
F150
G1 Z   3.000
G0 Z  15.000 
M9 M5

(* SHAPE Nr: 16 *)
G0 X1264.650 Y1737.190
M3 M8
G0 Z   3.000 
G1 Z  -1.500
F400
G1 X1285.040 Y1789.330
G1 X1229.140 Y1786.050
G1 X1276.300 Y1816.260
G1 X1229.140 Y1846.450
G1 X1285.040 Y1843.180
G1 X1264.650 Y1895.320
G1 X1307.940 Y1859.810
G1 X1322.100 Y1914.000
G1 X1336.250 Y1859.810
G1 X1379.550 Y1895.320
G1 X1359.150 Y1843.180
G1 X1415.050 Y1846.450
G1 X1367.900 Y1816.260
G1 X1415.050 Y1786.050
G1 X1359.150 Y1789.330
G1 X1379.550 Y1737.190
G1 X1336.250 Y1772.690
G1 X1322.100 Y1718.520
G1 X1307.940 Y1772.690
G1 X1264.650 Y1737.190
F150
G1 Z  -3.000
F400
G1 X1285.040 Y1789.330
G1 X1229.140 Y1786.050
G1 X1276.300 Y1816.260
G1 X1229.140 Y1846.450
G1 X1285.040 Y1843.180
G1 X1264.650 Y1895.320
G1 X1307.940 Y1859.810
G1 X1322.100 Y1914.000
G1 X1336.250 Y1859.810
G1 X1379.550 Y1895.320
G1 X1359.150 Y1843.180
G1 X1415.050 Y1846.450
G1 X1367.900 Y1816.260
G1 X1415.050 Y1786.050
G1 X1359.150 Y1789.330
G1 X1379.550 Y1737.190
G1 X1336.250 Y1772.690
G1 X1322.100 Y1718.520
G1 X1307.940 Y1772.690
G1 X1264.650 Y1737.190
F150
G1 Z   3.000
G0 Z  15.000 
M9 M5

(* SHAPE Nr: 21 *)
G0 X1215.020 Y1167.830
M3 M8
G0 Z   3.000 
G1 Z  -1.500
F400
G1 X1235.410 Y1219.970
G1 X1179.510 Y1216.690
G1 X1226.670 Y1246.900
G1 X1179.510 Y1277.090
G1 X1235.410 Y1273.820
G1 X1215.020 Y1325.960
G1 X1258.310 Y1290.450
G1 X1272.470 Y1344.640
G1 X1286.620 Y1290.450
G1 X1329.920 Y1325.960
G1 X1309.520 Y1273.820
G1 X1365.420 Y1277.090
G1 X1318.270 Y1246.900
G1 X1365.420 Y1216.690
G1 X1309.520 Y1219.970
G1 X1329.920 Y1167.830
G1 X1286.620 Y1203.330
G1 X1272.470 Y1149.160
G1 X1258.310 Y1203.330
G1 X1215.020 Y1167.830
F150
G1 Z  -3.000
F400
G1 X1235.410 Y1219.970
G1 X1179.510 Y1216.690
G1 X1226.670 Y1246.900
G1 X1179.510 Y1277.090
G1 X1235.410 Y1273.820
G1 X1215.020 Y1325.960
G1 X1258.310 Y1290.450
G1 X1272.470 Y1344.640
G1 X1286.620 Y1290.450
G1 X1329.920 Y1325.960
G1 X1309.520 Y1273.820
G1 X1365.420 Y1277.090
G1 X1318.270 Y1246.900
G1 X1365.420 Y1216.690
G1 X1309.520 Y1219.970
G1 X1329.920 Y1167.830
G1 X1286.620 Y1203.330
G1 X1272.470 Y1149.160
G1 X1258.310 Y1203.330
G1 X1215.020 Y1167.830
F150
G1 Z   3.000
G0 Z  15.000 
M9 M5

(* SHAPE Nr: 22 *)
G0 X1197.000 Y1352.570
M3 M8
G0 Z   3.000 
G1 Z  -1.500
F400
G1 X1217.390 Y1404.710
G1 X1161.490 Y1401.430
G1 X1208.650 Y1431.640
G1 X1161.490 Y1461.830
G1 X1217.390 Y1458.560
G1 X1197.000 Y1510.700
G1 X1240.290 Y1475.190
G1 X1254.450 Y1529.380
G1 X1268.600 Y1475.190
G1 X1311.900 Y1510.700
G1 X1291.500 Y1458.560
G1 X1347.400 Y1461.830
G1 X1300.250 Y1431.640
G1 X1347.400 Y1401.430
G1 X1291.500 Y1404.710
G1 X1311.900 Y1352.570
G1 X1268.600 Y1388.070
G1 X1254.450 Y1333.900
G1 X1240.290 Y1388.070
G1 X1197.000 Y1352.570
F150
G1 Z  -3.000
F400
G1 X1217.390 Y1404.710
G1 X1161.490 Y1401.430
G1 X1208.650 Y1431.640
G1 X1161.490 Y1461.830
G1 X1217.390 Y1458.560
G1 X1197.000 Y1510.700
G1 X1240.290 Y1475.190
G1 X1254.450 Y1529.380
G1 X1268.600 Y1475.190
G1 X1311.900 Y1510.700
G1 X1291.500 Y1458.560
G1 X1347.400 Y1461.830
G1 X1300.250 Y1431.640
G1 X1347.400 Y1401.430
G1 X1291.500 Y1404.710
G1 X1311.900 Y1352.570
G1 X1268.600 Y1388.070
G1 X1254.450 Y1333.900
G1 X1240.290 Y1388.070
G1 X1197.000 Y1352.570
F150
G1 Z   3.000
G0 Z  15.000 
M9 M5

(* SHAPE Nr: 23 *)
G0 X1177.740 Y1532.510
M3 M8
G0 Z   3.000 
G1 Z  -1.500
F400
G1 X1198.130 Y1584.650
G1 X1142.230 Y1581.370
G1 X1189.390 Y1611.580
G1 X1142.230 Y1641.770
G1 X1198.130 Y1638.500
G1 X1177.740 Y1690.640
G1 X1221.030 Y1655.130
G1 X1235.190 Y1709.320
G1 X1249.340 Y1655.130
G1 X1292.640 Y1690.640
G1 X1272.240 Y1638.500
G1 X1328.140 Y1641.770
G1 X1280.990 Y1611.580
G1 X1328.140 Y1581.370
G1 X1272.240 Y1584.650
G1 X1292.640 Y1532.510
G1 X1249.340 Y1568.010
G1 X1235.190 Y1513.840
G1 X1221.030 Y1568.010
G1 X1177.740 Y1532.510
F150
G1 Z  -3.000
F400
G1 X1198.130 Y1584.650
G1 X1142.230 Y1581.370
G1 X1189.390 Y1611.580
G1 X1142.230 Y1641.770
G1 X1198.130 Y1638.500
G1 X1177.740 Y1690.640
G1 X1221.030 Y1655.130
G1 X1235.190 Y1709.320
G1 X1249.340 Y1655.130
G1 X1292.640 Y1690.640
G1 X1272.240 Y1638.500
G1 X1328.140 Y1641.770
G1 X1280.990 Y1611.580
G1 X1328.140 Y1581.370
G1 X1272.240 Y1584.650
G1 X1292.640 Y1532.510
G1 X1249.340 Y1568.010
G1 X1235.190 Y1513.840
G1 X1221.030 Y1568.010
G1 X1177.740 Y1532.510
F150
G1 Z   3.000
G0 Z  15.000 
M9 M5

(* SHAPE Nr: 24 *)
G0 X 997.420 Y1558.140
M3 M8
G0 Z   3.000 
G1 Z  -1.500
F400
G1 X1017.810 Y1610.280
G1 X 961.910 Y1607.000
G1 X1009.070 Y1637.210
G1 X 961.910 Y1667.400
G1 X1017.810 Y1664.130
G1 X 997.420 Y1716.270
G1 X1040.710 Y1680.760
G1 X1054.870 Y1734.950
G1 X1069.020 Y1680.760
G1 X1112.320 Y1716.270
G1 X1091.920 Y1664.130
G1 X1147.820 Y1667.400
G1 X1100.670 Y1637.210
G1 X1147.820 Y1607.000
G1 X1091.920 Y1610.280
G1 X1112.320 Y1558.140
G1 X1069.020 Y1593.640
G1 X1054.870 Y1539.470
G1 X1040.710 Y1593.640
G1 X 997.420 Y1558.140
F150
G1 Z  -3.000
F400
G1 X1017.810 Y1610.280
G1 X 961.910 Y1607.000
G1 X1009.070 Y1637.210
G1 X 961.910 Y1667.400
G1 X1017.810 Y1664.130
G1 X 997.420 Y1716.270
G1 X1040.710 Y1680.760
G1 X1054.870 Y1734.950
G1 X1069.020 Y1680.760
G1 X1112.320 Y1716.270
G1 X1091.920 Y1664.130
G1 X1147.820 Y1667.400
G1 X1100.670 Y1637.210
G1 X1147.820 Y1607.000
G1 X1091.920 Y1610.280
G1 X1112.320 Y1558.140
G1 X1069.020 Y1593.640
G1 X1054.870 Y1539.470
G1 X1040.710 Y1593.640
G1 X 997.420 Y1558.140
F150
G1 Z   3.000
G0 Z  15.000 
M9 M5

(* SHAPE Nr: 25 *)
G0 X 799.940 Y1541.450
M3 M8
G0 Z   3.000 
G1 Z  -1.500
F400
G1 X 820.330 Y1593.590
G1 X 764.430 Y1590.310
G1 X 811.590 Y1620.520
G1 X 764.430 Y1650.710
G1 X 820.330 Y1647.440
G1 X 799.940 Y1699.580
G1 X 843.230 Y1664.070
G1 X 857.390 Y1718.260
G1 X 871.540 Y1664.070
G1 X 914.840 Y1699.580
G1 X 894.440 Y1647.440
G1 X 950.340 Y1650.710
G1 X 903.190 Y1620.520
G1 X 950.340 Y1590.310
G1 X 894.440 Y1593.590
G1 X 914.840 Y1541.450
G1 X 871.540 Y1576.950
G1 X 857.390 Y1522.780
G1 X 843.230 Y1576.950
G1 X 799.940 Y1541.450
F150
G1 Z  -3.000
F400
G1 X 820.330 Y1593.590
G1 X 764.430 Y1590.310
G1 X 811.590 Y1620.520
G1 X 764.430 Y1650.710
G1 X 820.330 Y1647.440
G1 X 799.940 Y1699.580
G1 X 843.230 Y1664.070
G1 X 857.390 Y1718.260
G1 X 871.540 Y1664.070
G1 X 914.840 Y1699.580
G1 X 894.440 Y1647.440
G1 X 950.340 Y1650.710
G1 X 903.190 Y1620.520
G1 X 950.340 Y1590.310
G1 X 894.440 Y1593.590
G1 X 914.840 Y1541.450
G1 X 871.540 Y1576.950
G1 X 857.390 Y1522.780
G1 X 843.230 Y1576.950
G1 X 799.940 Y1541.450
F150
G1 Z   3.000
G0 Z  15.000 
M9 M5

(* SHAPE Nr: 26 *)
G0 X 601.790 Y1531.460
M3 M8
G0 Z   3.000 
G1 Z  -1.500
F400
G1 X 622.180 Y1583.600
G1 X 566.280 Y1580.320
G1 X 613.440 Y1610.530
G1 X 566.280 Y1640.720
G1 X 622.180 Y1637.450
G1 X 601.790 Y1689.590
G1 X 645.080 Y1654.080
G1 X 659.240 Y1708.270
G1 X 673.390 Y1654.080
G1 X 716.690 Y1689.590
G1 X 696.290 Y1637.450
G1 X 752.190 Y1640.720
G1 X 705.040 Y1610.530
G1 X 752.190 Y1580.320
G1 X 696.290 Y1583.600
G1 X 716.690 Y1531.460
G1 X 673.390 Y1566.960
G1 X 659.240 Y1512.790
G1 X 645.080 Y1566.960
G1 X 601.790 Y1531.460
F150
G1 Z  -3.000
F400
G1 X 622.180 Y1583.600
G1 X 566.280 Y1580.320
G1 X 613.440 Y1610.530
G1 X 566.280 Y1640.720
G1 X 622.180 Y1637.450
G1 X 601.790 Y1689.590
G1 X 645.080 Y1654.080
G1 X 659.240 Y1708.270
G1 X 673.390 Y1654.080
G1 X 716.690 Y1689.590
G1 X 696.290 Y1637.450
G1 X 752.190 Y1640.720
G1 X 705.040 Y1610.530
G1 X 752.190 Y1580.320
G1 X 696.290 Y1583.600
G1 X 716.690 Y1531.460
G1 X 673.390 Y1566.960
G1 X 659.240 Y1512.790
G1 X 645.080 Y1566.960
G1 X 601.790 Y1531.460
F150
G1 Z   3.000
G0 Z  15.000 
M9 M5

(* SHAPE Nr: 27 *)
G0 X 460.250 Y1521.910
M3 M8
G0 Z   3.000 
G1 Z  -1.500
F400
G1 X 446.090 Y1576.080
G1 X 402.800 Y1540.580
G1 X 423.190 Y1592.720
G1 X 367.290 Y1589.440
G1 X 414.450 Y1619.650
G1 X 367.290 Y1649.840
G1 X 423.190 Y1646.570
G1 X 402.800 Y1698.710
G1 X 446.090 Y1663.200
G1 X 460.250 Y1717.390
G1 X 474.400 Y1663.200
G1 X 517.700 Y1698.710
G1 X 497.300 Y1646.570
G1 X 553.200 Y1649.840
G1 X 506.050 Y1619.650
G1 X 553.200 Y1589.440
G1 X 497.300 Y1592.720
G1 X 517.700 Y1540.580
G1 X 474.400 Y1576.080
G1 X 460.250 Y1521.910
F150
G1 Z  -3.000
F400
G1 X 446.090 Y1576.080
G1 X 402.800 Y1540.580
G1 X 423.190 Y1592.720
G1 X 367.290 Y1589.440
G1 X 414.450 Y1619.650
G1 X 367.290 Y1649.840
G1 X 423.190 Y1646.570
G1 X 402.800 Y1698.710
G1 X 446.090 Y1663.200
G1 X 460.250 Y1717.390
G1 X 474.400 Y1663.200
G1 X 517.700 Y1698.710
G1 X 497.300 Y1646.570
G1 X 553.200 Y1649.840
G1 X 506.050 Y1619.650
G1 X 553.200 Y1589.440
G1 X 497.300 Y1592.720
G1 X 517.700 Y1540.580
G1 X 474.400 Y1576.080
G1 X 460.250 Y1521.910
F150
G1 Z   3.000
G0 Z  15.000 
M9 M5

(* SHAPE Nr: 28 *)
G0 X 263.380 Y1508.040
M3 M8
G0 Z   3.000 
G1 Z  -1.500
F400
G1 X 249.220 Y1562.210
G1 X 205.930 Y1526.710
G1 X 226.320 Y1578.850
G1 X 170.420 Y1575.570
G1 X 217.580 Y1605.780
G1 X 170.420 Y1635.970
G1 X 226.320 Y1632.700
G1 X 205.930 Y1684.840
G1 X 249.220 Y1649.330
G1 X 263.380 Y1703.520
G1 X 277.530 Y1649.330
G1 X 320.830 Y1684.840
G1 X 300.430 Y1632.700
G1 X 356.330 Y1635.970
G1 X 309.180 Y1605.780
G1 X 356.330 Y1575.570
G1 X 300.430 Y1578.850
G1 X 320.830 Y1526.710
G1 X 277.530 Y1562.210
G1 X 263.380 Y1508.040
F150
G1 Z  -3.000
F400
G1 X 249.220 Y1562.210
G1 X 205.930 Y1526.710
G1 X 226.320 Y1578.850
G1 X 170.420 Y1575.570
G1 X 217.580 Y1605.780
G1 X 170.420 Y1635.970
G1 X 226.320 Y1632.700
G1 X 205.930 Y1684.840
G1 X 249.220 Y1649.330
G1 X 263.380 Y1703.520
G1 X 277.530 Y1649.330
G1 X 320.830 Y1684.840
G1 X 300.430 Y1632.700
G1 X 356.330 Y1635.970
G1 X 309.180 Y1605.780
G1 X 356.330 Y1575.570
G1 X 300.430 Y1578.850
G1 X 320.830 Y1526.710
G1 X 277.530 Y1562.210
G1 X 263.380 Y1508.040
F150
G1 Z   3.000
G0 Z  15.000 
M9 M5

(* SHAPE Nr: 33 *)
G0 X 611.190 Y 874.340
M3 M8
G0 Z   3.000 
G1 Z  -1.500
F400
G1 X 631.580 Y 926.480
G1 X 575.680 Y 923.200
G1 X 622.840 Y 953.410
G1 X 575.680 Y 983.600
G1 X 631.580 Y 980.330
G1 X 611.190 Y1032.470
G1 X 654.480 Y 996.960
G1 X 668.640 Y1051.150
G1 X 682.790 Y 996.960
G1 X 726.090 Y1032.470
G1 X 705.690 Y 980.330
G1 X 761.590 Y 983.600
G1 X 714.440 Y 953.410
G1 X 761.590 Y 923.200
G1 X 705.690 Y 926.480
G1 X 726.090 Y 874.340
G1 X 682.790 Y 909.840
G1 X 668.640 Y 855.670
G1 X 654.480 Y 909.840
G1 X 611.190 Y 874.340
F150
G1 Z  -3.000
F400
G1 X 631.580 Y 926.480
G1 X 575.680 Y 923.200
G1 X 622.840 Y 953.410
G1 X 575.680 Y 983.600
G1 X 631.580 Y 980.330
G1 X 611.190 Y1032.470
G1 X 654.480 Y 996.960
G1 X 668.640 Y1051.150
G1 X 682.790 Y 996.960
G1 X 726.090 Y1032.470
G1 X 705.690 Y 980.330
G1 X 761.590 Y 983.600
G1 X 714.440 Y 953.410
G1 X 761.590 Y 923.200
G1 X 705.690 Y 926.480
G1 X 726.090 Y 874.340
G1 X 682.790 Y 909.840
G1 X 668.640 Y 855.670
G1 X 654.480 Y 909.840
G1 X 611.190 Y 874.340
F150
G1 Z   3.000
G0 Z  15.000 
M9 M5

(* SHAPE Nr: 35 *)
G0 X 398.160 Y 755.900
M3 M8
G0 Z   3.000 
G1 Z  -1.500
F400
G1 X 418.550 Y 808.040
G1 X 362.650 Y 804.760
G1 X 409.810 Y 834.970
G1 X 362.650 Y 865.160
G1 X 418.550 Y 861.890
G1 X 398.160 Y 914.030
G1 X 441.450 Y 878.520
G1 X 455.610 Y 932.710
G1 X 469.760 Y 878.520
G1 X 513.060 Y 914.030
G1 X 492.660 Y 861.890
G1 X 548.560 Y 865.160
G1 X 501.410 Y 834.970
G1 X 548.560 Y 804.760
G1 X 492.660 Y 808.040
G1 X 513.060 Y 755.900
G1 X 469.760 Y 791.400
G1 X 455.610 Y 737.230
G1 X 441.450 Y 791.400
G1 X 398.160 Y 755.900
F150
G1 Z  -3.000
F400
G1 X 418.550 Y 808.040
G1 X 362.650 Y 804.760
G1 X 409.810 Y 834.970
G1 X 362.650 Y 865.160
G1 X 418.550 Y 861.890
G1 X 398.160 Y 914.030
G1 X 441.450 Y 878.520
G1 X 455.610 Y 932.710
G1 X 469.760 Y 878.520
G1 X 513.060 Y 914.030
G1 X 492.660 Y 861.890
G1 X 548.560 Y 865.160
G1 X 501.410 Y 834.970
G1 X 548.560 Y 804.760
G1 X 492.660 Y 808.040
G1 X 513.060 Y 755.900
G1 X 469.760 Y 791.400
G1 X 455.610 Y 737.230
G1 X 441.450 Y 791.400
G1 X 398.160 Y 755.900
F150
G1 Z   3.000
G0 Z  15.000 
M9 M5

(* SHAPE Nr: 36 *)
G0 X 280.740 Y 766.360
M3 M8
G0 Z   3.000 
G1 Z  -1.500
F400
G1 X 266.580 Y 820.530
G1 X 223.290 Y 785.030
G1 X 243.680 Y 837.170
G1 X 187.780 Y 833.890
G1 X 234.940 Y 864.100
G1 X 187.780 Y 894.290
G1 X 243.680 Y 891.020
G1 X 223.290 Y 943.160
G1 X 266.580 Y 907.650
G1 X 280.740 Y 961.840
G1 X 294.890 Y 907.650
G1 X 338.190 Y 943.160
G1 X 317.790 Y 891.020
G1 X 373.690 Y 894.290
G1 X 326.540 Y 864.100
G1 X 373.690 Y 833.890
G1 X 317.790 Y 837.170
G1 X 338.190 Y 785.030
G1 X 294.890 Y 820.530
G1 X 280.740 Y 766.360
F150
G1 Z  -3.000
F400
G1 X 266.580 Y 820.530
G1 X 223.290 Y 785.030
G1 X 243.680 Y 837.170
G1 X 187.780 Y 833.890
G1 X 234.940 Y 864.100
G1 X 187.780 Y 894.290
G1 X 243.680 Y 891.020
G1 X 223.290 Y 943.160
G1 X 266.580 Y 907.650
G1 X 280.740 Y 961.840
G1 X 294.890 Y 907.650
G1 X 338.190 Y 943.160
G1 X 317.790 Y 891.020
G1 X 373.690 Y 894.290
G1 X 326.540 Y 864.100
G1 X 373.690 Y 833.890
G1 X 317.790 Y 837.170
G1 X 338.190 Y 785.030
G1 X 294.890 Y 820.530
G1 X 280.740 Y 766.360
F150
G1 Z   3.000
G0 Z  15.000 
M9 M5

(* SHAPE Nr: 38 *)
G0 X 389.030 Y 455.890
M3 M8
G0 Z   3.000 
G1 Z  -1.500
F400
G1 X 409.420 Y 508.030
G1 X 353.520 Y 504.750
G1 X 400.680 Y 534.960
G1 X 353.520 Y 565.150
G1 X 409.420 Y 561.880
G1 X 389.030 Y 614.020
G1 X 432.320 Y 578.510
G1 X 446.480 Y 632.700
G1 X 460.630 Y 578.510
G1 X 503.930 Y 614.020
G1 X 483.530 Y 561.880
G1 X 539.430 Y 565.150
G1 X 492.280 Y 534.960
G1 X 539.430 Y 504.750
G1 X 483.530 Y 508.030
G1 X 503.930 Y 455.890
G1 X 460.630 Y 491.390
G1 X 446.480 Y 437.220
G1 X 432.320 Y 491.390
G1 X 389.030 Y 455.890
F150
G1 Z  -3.000
F400
G1 X 409.420 Y 508.030
G1 X 353.520 Y 504.750
G1 X 400.680 Y 534.960
G1 X 353.520 Y 565.150
G1 X 409.420 Y 561.880
G1 X 389.030 Y 614.020
G1 X 432.320 Y 578.510
G1 X 446.480 Y 632.700
G1 X 460.630 Y 578.510
G1 X 503.930 Y 614.020
G1 X 483.530 Y 561.880
G1 X 539.430 Y 565.150
G1 X 492.280 Y 534.960
G1 X 539.430 Y 504.750
G1 X 483.530 Y 508.030
G1 X 503.930 Y 455.890
G1 X 460.630 Y 491.390
G1 X 446.480 Y 437.220
G1 X 432.320 Y 491.390
G1 X 389.030 Y 455.890
F150
G1 Z   3.000
G0 Z  15.000 
M9 M5

(* SHAPE Nr: 39 *)
G0 X 545.370 Y 382.440
M3 M8
G0 Z   3.000 
G1 Z  -1.500
F400
G1 X 565.760 Y 434.580
G1 X 509.860 Y 431.300
G1 X 557.020 Y 461.510
G1 X 509.860 Y 491.700
G1 X 565.760 Y 488.430
G1 X 545.370 Y 540.570
G1 X 588.660 Y 505.060
G1 X 602.820 Y 559.250
G1 X 616.970 Y 505.060
G1 X 660.270 Y 540.570
G1 X 639.870 Y 488.430
G1 X 695.770 Y 491.700
G1 X 648.620 Y 461.510
G1 X 695.770 Y 431.300
G1 X 639.870 Y 434.580
G1 X 660.270 Y 382.440
G1 X 616.970 Y 417.940
G1 X 602.820 Y 363.770
G1 X 588.660 Y 417.940
G1 X 545.370 Y 382.440
F150
G1 Z  -3.000
F400
G1 X 565.760 Y 434.580
G1 X 509.860 Y 431.300
G1 X 557.020 Y 461.510
G1 X 509.860 Y 491.700
G1 X 565.760 Y 488.430
G1 X 545.370 Y 540.570
G1 X 588.660 Y 505.060
G1 X 602.820 Y 559.250
G1 X 616.970 Y 505.060
G1 X 660.270 Y 540.570
G1 X 639.870 Y 488.430
G1 X 695.770 Y 491.700
G1 X 648.620 Y 461.510
G1 X 695.770 Y 431.300
G1 X 639.870 Y 434.580
G1 X 660.270 Y 382.440
G1 X 616.970 Y 417.940
G1 X 602.820 Y 363.770
G1 X 588.660 Y 417.940
G1 X 545.370 Y 382.440
F150
G1 Z   3.000
G0 Z  15.000 
M9 M5

(* SHAPE Nr: 40 *)
G0 X 695.810 Y 409.230
M3 M8
G0 Z   3.000 
G1 Z  -1.500
F400
G1 X 742.970 Y 439.440
G1 X 695.810 Y 469.630
G1 X 751.710 Y 466.360
G1 X 731.320 Y 518.500
G1 X 774.610 Y 482.990
G1 X 788.770 Y 537.180
G1 X 802.920 Y 482.990
G1 X 846.220 Y 518.500
G1 X 825.820 Y 466.360
G1 X 881.720 Y 469.630
G1 X 834.570 Y 439.440
G1 X 881.720 Y 409.230
G1 X 825.820 Y 412.510
G1 X 846.220 Y 360.370
G1 X 802.920 Y 395.870
G1 X 788.770 Y 341.700
G1 X 774.610 Y 395.870
G1 X 731.320 Y 360.370
G1 X 751.710 Y 412.510
G1 X 695.810 Y 409.230
F150
G1 Z  -3.000
F400
G1 X 742.970 Y 439.440
G1 X 695.810 Y 469.630
G1 X 751.710 Y 466.360
G1 X 731.320 Y 518.500
G1 X 774.610 Y 482.990
G1 X 788.770 Y 537.180
G1 X 802.920 Y 482.990
G1 X 846.220 Y 518.500
G1 X 825.820 Y 466.360
G1 X 881.720 Y 469.630
G1 X 834.570 Y 439.440
G1 X 881.720 Y 409.230
G1 X 825.820 Y 412.510
G1 X 846.220 Y 360.370
G1 X 802.920 Y 395.870
G1 X 788.770 Y 341.700
G1 X 774.610 Y 395.870
G1 X 731.320 Y 360.370
G1 X 751.710 Y 412.510
G1 X 695.810 Y 409.230
F150
G1 Z   3.000
G0 Z  15.000 
M9 M5

(* SHAPE Nr: 41 *)
G0 X 862.850 Y 525.470
M3 M8
G0 Z   3.000 
G1 Z  -1.500
F400
G1 X 910.010 Y 555.680
G1 X 862.850 Y 585.870
G1 X 918.750 Y 582.600
G1 X 898.360 Y 634.740
G1 X 941.650 Y 599.230
G1 X 955.810 Y 653.420
G1 X 969.960 Y 599.230
G1 X1013.260 Y 634.740
G1 X 992.860 Y 582.600
G1 X1048.760 Y 585.870
G1 X1001.610 Y 555.680
G1 X1048.760 Y 525.470
G1 X 992.860 Y 528.750
G1 X1013.260 Y 476.610
G1 X 969.960 Y 512.110
G1 X 955.810 Y 457.940
G1 X 941.650 Y 512.110
G1 X 898.360 Y 476.610
G1 X 918.750 Y 528.750
G1 X 862.850 Y 525.470
F150
G1 Z  -3.000
F400
G1 X 910.010 Y 555.680
G1 X 862.850 Y 585.870
G1 X 918.750 Y 582.600
G1 X 898.360 Y 634.740
G1 X 941.650 Y 599.230
G1 X 955.810 Y 653.420
G1 X 969.960 Y 599.230
G1 X1013.260 Y 634.740
G1 X 992.860 Y 582.600
G1 X1048.760 Y 585.870
G1 X1001.610 Y 555.680
G1 X1048.760 Y 525.470
G1 X 992.860 Y 528.750
G1 X1013.260 Y 476.610
G1 X 969.960 Y 512.110
G1 X 955.810 Y 457.940
G1 X 941.650 Y 512.110
G1 X 898.360 Y 476.610
G1 X 918.750 Y 528.750
G1 X 862.850 Y 525.470
F150
G1 Z   3.000
G0 Z  15.000 
M9 M5

(* SHAPE Nr: 43 *)
G0 X 998.430 Y 775.180
M3 M8
G0 Z   3.000 
G1 Z  -1.500
F400
G1 X1018.820 Y 827.320
G1 X 962.920 Y 824.040
G1 X1010.080 Y 854.250
G1 X 962.920 Y 884.440
G1 X1018.820 Y 881.170
G1 X 998.430 Y 933.310
G1 X1041.720 Y 897.800
G1 X1055.880 Y 951.990
G1 X1070.030 Y 897.800
G1 X1113.330 Y 933.310
G1 X1092.930 Y 881.170
G1 X1148.830 Y 884.440
G1 X1101.680 Y 854.250
G1 X1148.830 Y 824.040
G1 X1092.930 Y 827.320
G1 X1113.330 Y 775.180
G1 X1070.030 Y 810.680
G1 X1055.880 Y 756.510
G1 X1041.720 Y 810.680
G1 X 998.430 Y 775.180
F150
G1 Z  -3.000
F400
G1 X1018.820 Y 827.320
G1 X 962.920 Y 824.040
G1 X1010.080 Y 854.250
G1 X 962.920 Y 884.440
G1 X1018.820 Y 881.170
G1 X 998.430 Y 933.310
G1 X1041.720 Y 897.800
G1 X1055.880 Y 951.990
G1 X1070.030 Y 897.800
G1 X1113.330 Y 933.310
G1 X1092.930 Y 881.170
G1 X1148.830 Y 884.440
G1 X1101.680 Y 854.250
G1 X1148.830 Y 824.040
G1 X1092.930 Y 827.320
G1 X1113.330 Y 775.180
G1 X1070.030 Y 810.680
G1 X1055.880 Y 756.510
G1 X1041.720 Y 810.680
G1 X 998.430 Y 775.180
F150
G1 Z   3.000
G0 Z  15.000 
M9 M5

(* SHAPE Nr: 45 *)
G0 X 842.080 Y 848.580
M3 M8
G0 Z   3.000 
G1 Z  -1.500
F400
G1 X 862.470 Y 900.720
G1 X 806.570 Y 897.440
G1 X 853.730 Y 927.650
G1 X 806.570 Y 957.840
G1 X 862.470 Y 954.570
G1 X 842.080 Y1006.710
G1 X 885.370 Y 971.200
G1 X 899.530 Y1025.390
G1 X 913.680 Y 971.200
G1 X 956.980 Y1006.710
G1 X 936.580 Y 954.570
G1 X 992.480 Y 957.840
G1 X 945.330 Y 927.650
G1 X 992.480 Y 897.440
G1 X 936.580 Y 900.720
G1 X 956.980 Y 848.580
G1 X 913.680 Y 884.080
G1 X 899.530 Y 829.910
G1 X 885.370 Y 884.080
G1 X 842.080 Y 848.580
F150
G1 Z  -3.000
F400
G1 X 862.470 Y 900.720
G1 X 806.570 Y 897.440
G1 X 853.730 Y 927.650
G1 X 806.570 Y 957.840
G1 X 862.470 Y 954.570
G1 X 842.080 Y1006.710
G1 X 885.370 Y 971.200
G1 X 899.530 Y1025.390
G1 X 913.680 Y 971.200
G1 X 956.980 Y1006.710
G1 X 936.580 Y 954.570
G1 X 992.480 Y 957.840
G1 X 945.330 Y 927.650
G1 X 992.480 Y 897.440
G1 X 936.580 Y 900.720
G1 X 956.980 Y 848.580
G1 X 913.680 Y 884.080
G1 X 899.530 Y 829.910
G1 X 885.370 Y 884.080
G1 X 842.080 Y 848.580
F150
G1 Z   3.000
G0 Z  15.000 
M9 M5

(* SHAPE Nr: 46 *)
G0 X1115.060 Y 967.850
M3 M8
G0 Z   3.000 
G1 Z  -1.500
F400
G1 X1135.450 Y1019.990
G1 X1079.550 Y1016.710
G1 X1126.710 Y1046.920
G1 X1079.550 Y1077.110
G1 X1135.450 Y1073.840
G1 X1115.060 Y1125.980
G1 X1158.350 Y1090.470
G1 X1172.510 Y1144.660
G1 X1186.660 Y1090.470
G1 X1229.960 Y1125.980
G1 X1209.560 Y1073.840
G1 X1265.460 Y1077.110
G1 X1218.310 Y1046.920
G1 X1265.460 Y1016.710
G1 X1209.560 Y1019.990
G1 X1229.960 Y 967.850
G1 X1186.660 Y1003.350
G1 X1172.510 Y 949.180
G1 X1158.350 Y1003.350
G1 X1115.060 Y 967.850
F150
G1 Z  -3.000
F400
G1 X1135.450 Y1019.990
G1 X1079.550 Y1016.710
G1 X1126.710 Y1046.920
G1 X1079.550 Y1077.110
G1 X1135.450 Y1073.840
G1 X1115.060 Y1125.980
G1 X1158.350 Y1090.470
G1 X1172.510 Y1144.660
G1 X1186.660 Y1090.470
G1 X1229.960 Y1125.980
G1 X1209.560 Y1073.840
G1 X1265.460 Y1077.110
G1 X1218.310 Y1046.920
G1 X1265.460 Y1016.710
G1 X1209.560 Y1019.990
G1 X1229.960 Y 967.850
G1 X1186.660 Y1003.350
G1 X1172.510 Y 949.180
G1 X1158.350 Y1003.350
G1 X1115.060 Y 967.850
F150
G1 Z   3.000
G0 Z  15.000 
M9 M5

(* SHAPE Nr: 47 *)
G0 X1161.890 Y 861.710
M3 M8
G0 Z   3.000 
G1 Z  -1.500
F400
G1 X1209.050 Y 891.920
G1 X1161.890 Y 922.110
G1 X1217.790 Y 918.840
G1 X1197.400 Y 970.980
G1 X1240.690 Y 935.470
G1 X1254.850 Y 989.660
G1 X1269.000 Y 935.470
G1 X1312.300 Y 970.980
G1 X1291.900 Y 918.840
G1 X1347.800 Y 922.110
G1 X1300.650 Y 891.920
G1 X1347.800 Y 861.710
G1 X1291.900 Y 864.990
G1 X1312.300 Y 812.850
G1 X1269.000 Y 848.350
G1 X1254.850 Y 794.180
G1 X1240.690 Y 848.350
G1 X1197.400 Y 812.850
G1 X1217.790 Y 864.990
G1 X1161.890 Y 861.710
F150
G1 Z  -3.000
F400
G1 X1209.050 Y 891.920
G1 X1161.890 Y 922.110
G1 X1217.790 Y 918.840
G1 X1197.400 Y 970.980
G1 X1240.690 Y 935.470
G1 X1254.850 Y 989.660
G1 X1269.000 Y 935.470
G1 X1312.300 Y 970.980
G1 X1291.900 Y 918.840
G1 X1347.800 Y 922.110
G1 X1300.650 Y 891.920
G1 X1347.800 Y 861.710
G1 X1291.900 Y 864.990
G1 X1312.300 Y 812.850
G1 X1269.000 Y 848.350
G1 X1254.850 Y 794.180
G1 X1240.690 Y 848.350
G1 X1197.400 Y 812.850
G1 X1217.790 Y 864.990
G1 X1161.890 Y 861.710
F150
G1 Z   3.000
G0 Z  15.000 
M9 M5

(* SHAPE Nr: 56 *)
G0 X1143.400 Y 623.380
M3 M8
G0 Z   3.000 
G1 Z  -1.500
F400
G1 X1190.560 Y 653.590
G1 X1143.400 Y 683.780
G1 X1199.300 Y 680.510
G1 X1178.910 Y 732.650
G1 X1222.200 Y 697.140
G1 X1236.360 Y 751.330
G1 X1250.510 Y 697.140
G1 X1293.810 Y 732.650
G1 X1273.410 Y 680.510
G1 X1329.310 Y 683.780
G1 X1282.160 Y 653.590
G1 X1329.310 Y 623.380
G1 X1273.410 Y 626.660
G1 X1293.810 Y 574.520
G1 X1250.510 Y 610.020
G1 X1236.360 Y 555.850
G1 X1222.200 Y 610.020
G1 X1178.910 Y 574.520
G1 X1199.300 Y 626.660
G1 X1143.400 Y 623.380
F150
G1 Z  -3.000
F400
G1 X1190.560 Y 653.590
G1 X1143.400 Y 683.780
G1 X1199.300 Y 680.510
G1 X1178.910 Y 732.650
G1 X1222.200 Y 697.140
G1 X1236.360 Y 751.330
G1 X1250.510 Y 697.140
G1 X1293.810 Y 732.650
G1 X1273.410 Y 680.510
G1 X1329.310 Y 683.780
G1 X1282.160 Y 653.590
G1 X1329.310 Y 623.380
G1 X1273.410 Y 626.660
G1 X1293.810 Y 574.520
G1 X1250.510 Y 610.020
G1 X1236.360 Y 555.850
G1 X1222.200 Y 610.020
G1 X1178.910 Y 574.520
G1 X1199.300 Y 626.660
G1 X1143.400 Y 623.380
F150
G1 Z   3.000
G0 Z  15.000 
M9 M5

(* SHAPE Nr: 57 *)
G0 X1019.210 Y 452.040
M3 M8
G0 Z   3.000 
G1 Z  -1.500
F400
G1 X1066.370 Y 482.250
G1 X1019.210 Y 512.440
G1 X1075.110 Y 509.170
G1 X1054.720 Y 561.310
G1 X1098.010 Y 525.800
G1 X1112.170 Y 579.990
G1 X1126.320 Y 525.800
G1 X1169.620 Y 561.310
G1 X1149.220 Y 509.170
G1 X1205.120 Y 512.440
G1 X1157.970 Y 482.250
G1 X1205.120 Y 452.040
G1 X1149.220 Y 455.320
G1 X1169.620 Y 403.180
G1 X1126.320 Y 438.680
G1 X1112.170 Y 384.510
G1 X1098.010 Y 438.680
G1 X1054.720 Y 403.180
G1 X1075.110 Y 455.320
G1 X1019.210 Y 452.040
F150
G1 Z  -3.000
F400
G1 X1066.370 Y 482.250
G1 X1019.210 Y 512.440
G1 X1075.110 Y 509.170
G1 X1054.720 Y 561.310
G1 X1098.010 Y 525.800
G1 X1112.170 Y 579.990
G1 X1126.320 Y 525.800
G1 X1169.620 Y 561.310
G1 X1149.220 Y 509.170
G1 X1205.120 Y 512.440
G1 X1157.970 Y 482.250
G1 X1205.120 Y 452.040
G1 X1149.220 Y 455.320
G1 X1169.620 Y 403.180
G1 X1126.320 Y 438.680
G1 X1112.170 Y 384.510
G1 X1098.010 Y 438.680
G1 X1054.720 Y 403.180
G1 X1075.110 Y 455.320
G1 X1019.210 Y 452.040
F150
G1 Z   3.000
G0 Z  15.000 
M9 M5

(* SHAPE Nr: 59 *)
G0 X1028.290 Y 126.970
M3 M8
G0 Z   3.000 
G1 Z  -1.500
F400
G1 X1082.470 Y 141.120
G1 X1046.960 Y 184.420
G1 X1099.110 Y 164.020
G1 X1095.830 Y 219.920
G1 X1126.030 Y 172.770
G1 X1156.230 Y 219.920
G1 X1152.950 Y 164.020
G1 X1205.100 Y 184.420
G1 X1169.590 Y 141.120
G1 X1223.770 Y 126.970
G1 X1169.590 Y 112.810
G1 X1205.100 Y  69.520
G1 X1152.950 Y  89.910
G1 X1156.230 Y  34.010
G1 X1126.030 Y  81.170
G1 X1095.830 Y  34.010
G1 X1099.110 Y  89.910
G1 X1046.960 Y  69.520
G1 X1082.470 Y 112.810
G1 X1028.290 Y 126.970
F150
G1 Z  -3.000
F400
G1 X1082.470 Y 141.120
G1 X1046.960 Y 184.420
G1 X1099.110 Y 164.020
G1 X1095.830 Y 219.920
G1 X1126.030 Y 172.770
G1 X1156.230 Y 219.920
G1 X1152.950 Y 164.020
G1 X1205.100 Y 184.420
G1 X1169.590 Y 141.120
G1 X1223.770 Y 126.970
G1 X1169.590 Y 112.810
G1 X1205.100 Y  69.520
G1 X1152.950 Y  89.910
G1 X1156.230 Y  34.010
G1 X1126.030 Y  81.170
G1 X1095.830 Y  34.010
G1 X1099.110 Y  89.910
G1 X1046.960 Y  69.520
G1 X1082.470 Y 112.810
G1 X1028.290 Y 126.970
F150
G1 Z   3.000
G0 Z  15.000 
M9 M5

(* SHAPE Nr: 60 *)
G0 X 855.170 Y  95.540
M3 M8
G0 Z   3.000 
G1 Z  -1.500
F400
G1 X 902.330 Y 125.750
G1 X 855.170 Y 155.940
G1 X 911.070 Y 152.670
G1 X 890.680 Y 204.810
G1 X 933.970 Y 169.300
G1 X 948.130 Y 223.490
G1 X 962.280 Y 169.300
G1 X1005.580 Y 204.810
G1 X 985.180 Y 152.670
G1 X1041.080 Y 155.940
G1 X 993.930 Y 125.750
G1 X1041.080 Y  95.540
G1 X 985.180 Y  98.820
G1 X1005.580 Y  46.680
G1 X 962.280 Y  82.180
G1 X 948.130 Y  28.010
G1 X 933.970 Y  82.180
G1 X 890.680 Y  46.680
G1 X 911.070 Y  98.820
G1 X 855.170 Y  95.540
F150
G1 Z  -3.000
F400
G1 X 902.330 Y 125.750
G1 X 855.170 Y 155.940
G1 X 911.070 Y 152.670
G1 X 890.680 Y 204.810
G1 X 933.970 Y 169.300
G1 X 948.130 Y 223.490
G1 X 962.280 Y 169.300
G1 X1005.580 Y 204.810
G1 X 985.180 Y 152.670
G1 X1041.080 Y 155.940
G1 X 993.930 Y 125.750
G1 X1041.080 Y  95.540
G1 X 985.180 Y  98.820
G1 X1005.580 Y  46.680
G1 X 962.280 Y  82.180
G1 X 948.130 Y  28.010
G1 X 933.970 Y  82.180
G1 X 890.680 Y  46.680
G1 X 911.070 Y  98.820
G1 X 855.170 Y  95.540
F150
G1 Z   3.000
G0 Z  15.000 
M9 M5

(* SHAPE Nr: 61 *)
G0 X 655.810 Y 137.640
M3 M8
G0 Z   3.000 
G1 Z  -1.500
F400
G1 X 709.990 Y 151.790
G1 X 674.480 Y 195.090
G1 X 726.630 Y 174.690
G1 X 723.350 Y 230.590
G1 X 753.550 Y 183.440
G1 X 783.750 Y 230.590
G1 X 780.470 Y 174.690
G1 X 832.620 Y 195.090
G1 X 797.110 Y 151.790
G1 X 851.290 Y 137.640
G1 X 797.110 Y 123.480
G1 X 832.620 Y  80.190
G1 X 780.470 Y 100.580
G1 X 783.750 Y  44.680
G1 X 753.550 Y  91.840
G1 X 723.350 Y  44.680
G1 X 726.630 Y 100.580
G1 X 674.480 Y  80.190
G1 X 709.990 Y 123.480
G1 X 655.810 Y 137.640
F150
G1 Z  -3.000
F400
G1 X 709.990 Y 151.790
G1 X 674.480 Y 195.090
G1 X 726.630 Y 174.690
G1 X 723.350 Y 230.590
G1 X 753.550 Y 183.440
G1 X 783.750 Y 230.590
G1 X 780.470 Y 174.690
G1 X 832.620 Y 195.090
G1 X 797.110 Y 151.790
G1 X 851.290 Y 137.640
G1 X 797.110 Y 123.480
G1 X 832.620 Y  80.190
G1 X 780.470 Y 100.580
G1 X 783.750 Y  44.680
G1 X 753.550 Y  91.840
G1 X 723.350 Y  44.680
G1 X 726.630 Y 100.580
G1 X 674.480 Y  80.190
G1 X 709.990 Y 123.480
G1 X 655.810 Y 137.640
F150
G1 Z   3.000
G0 Z  15.000 
M9 M5

(* SHAPE Nr: 62 *)
G0 X 484.090 Y 107.100
M3 M8
G0 Z   3.000 
G1 Z  -1.500
F400
G1 X 531.250 Y 137.310
G1 X 484.090 Y 167.500
G1 X 539.990 Y 164.230
G1 X 519.600 Y 216.370
G1 X 562.890 Y 180.860
G1 X 577.050 Y 235.050
G1 X 591.200 Y 180.860
G1 X 634.500 Y 216.370
G1 X 614.100 Y 164.230
G1 X 670.000 Y 167.500
G1 X 622.850 Y 137.310
G1 X 670.000 Y 107.100
G1 X 614.100 Y 110.380
G1 X 634.500 Y  58.240
G1 X 591.200 Y  93.740
G1 X 577.050 Y  39.570
G1 X 562.890 Y  93.740
G1 X 519.600 Y  58.240
G1 X 539.990 Y 110.380
G1 X 484.090 Y 107.100
F150
G1 Z  -3.000
F400
G1 X 531.250 Y 137.310
G1 X 484.090 Y 167.500
G1 X 539.990 Y 164.230
G1 X 519.600 Y 216.370
G1 X 562.890 Y 180.860
G1 X 577.050 Y 235.050
G1 X 591.200 Y 180.860
G1 X 634.500 Y 216.370
G1 X 614.100 Y 164.230
G1 X 670.000 Y 167.500
G1 X 622.850 Y 137.310
G1 X 670.000 Y 107.100
G1 X 614.100 Y 110.380
G1 X 634.500 Y  58.240
G1 X 591.200 Y  93.740
G1 X 577.050 Y  39.570
G1 X 562.890 Y  93.740
G1 X 519.600 Y  58.240
G1 X 539.990 Y 110.380
G1 X 484.090 Y 107.100
F150
G1 Z   3.000
G0 Z  15.000 
M9 M5

(* SHAPE Nr: 63 *)
G0 X 319.210 Y  78.080
M3 M8
G0 Z   3.000 
G1 Z  -1.500
F400
G1 X 354.720 Y 121.370
G1 X 300.540 Y 135.530
G1 X 354.720 Y 149.680
G1 X 319.210 Y 192.980
G1 X 371.360 Y 172.580
G1 X 368.080 Y 228.480
G1 X 398.280 Y 181.330
G1 X 428.480 Y 228.480
G1 X 425.200 Y 172.580
G1 X 477.350 Y 192.980
G1 X 441.840 Y 149.680
G1 X 496.020 Y 135.530
G1 X 441.840 Y 121.370
G1 X 477.350 Y  78.080
G1 X 425.200 Y  98.470
G1 X 428.480 Y  42.570
G1 X 398.280 Y  89.730
G1 X 368.080 Y  42.570
G1 X 371.360 Y  98.470
G1 X 319.210 Y  78.080
F150
G1 Z  -3.000
F400
G1 X 354.720 Y 121.370
G1 X 300.540 Y 135.530
G1 X 354.720 Y 149.680
G1 X 319.210 Y 192.980
G1 X 371.360 Y 172.580
G1 X 368.080 Y 228.480
G1 X 398.280 Y 181.330
G1 X 428.480 Y 228.480
G1 X 425.200 Y 172.580
G1 X 477.350 Y 192.980
G1 X 441.840 Y 149.680
G1 X 496.020 Y 135.530
G1 X 441.840 Y 121.370
G1 X 477.350 Y  78.080
G1 X 425.200 Y  98.470
G1 X 428.480 Y  42.570
G1 X 398.280 Y  89.730
G1 X 368.080 Y  42.570
G1 X 371.360 Y  98.470
G1 X 319.210 Y  78.080
F150
G1 Z   3.000
G0 Z  15.000 
M9 M5

(* SHAPE Nr: 122 *)
G0 X 216.630 Y 360.370
M3 M8
G0 Z   3.000 
G1 Z  -1.500
F400
G1 X 237.020 Y 412.510
G1 X 181.120 Y 409.230
G1 X 228.280 Y 439.440
G1 X 181.120 Y 469.630
G1 X 237.020 Y 466.360
G1 X 216.630 Y 518.500
G1 X 259.920 Y 482.990
G1 X 274.080 Y 537.180
G1 X 288.230 Y 482.990
G1 X 331.530 Y 518.500
G1 X 311.130 Y 466.360
G1 X 367.030 Y 469.630
G1 X 319.880 Y 439.440
G1 X 367.030 Y 409.230
G1 X 311.130 Y 412.510
G1 X 331.530 Y 360.370
G1 X 288.230 Y 395.870
G1 X 274.080 Y 341.700
G1 X 259.920 Y 395.870
G1 X 216.630 Y 360.370
F150
G1 Z  -3.000
F400
G1 X 237.020 Y 412.510
G1 X 181.120 Y 409.230
G1 X 228.280 Y 439.440
G1 X 181.120 Y 469.630
G1 X 237.020 Y 466.360
G1 X 216.630 Y 518.500
G1 X 259.920 Y 482.990
G1 X 274.080 Y 537.180
G1 X 288.230 Y 482.990
G1 X 331.530 Y 518.500
G1 X 311.130 Y 466.360
G1 X 367.030 Y 469.630
G1 X 319.880 Y 439.440
G1 X 367.030 Y 409.230
G1 X 311.130 Y 412.510
G1 X 331.530 Y 360.370
G1 X 288.230 Y 395.870
G1 X 274.080 Y 341.700
G1 X 259.920 Y 395.870
G1 X 216.630 Y 360.370
F150
G1 Z   3.000
G0 Z  15.000 
M9 M5

(*** LAYER: BORDER_D0_T132_RK1_A0_W0_EM1_RI1_ID0023 ***)

(* SHAPE Nr: 17 *)
G0 X1428.840 Y1607.160
M3 M8
G0 Z   3.000 
G1 Z  -1.500
F400
G1 X1379.970 Y1691.800
G1 X1428.840 Y1776.450
G1 X1526.580 Y1776.450
G1 X1575.450 Y1691.800
G1 X1526.580 Y1607.160
G1 X1428.840 Y1607.160
F150
G1 Z  -3.000
F400
G1 X1379.970 Y1691.800
G1 X1428.840 Y1776.450
G1 X1526.580 Y1776.450
G1 X1575.450 Y1691.800
G1 X1526.580 Y1607.160
G1 X1428.840 Y1607.160
F150
G1 Z   3.000
G0 Z  15.000 
M9 M5

(* SHAPE Nr: 18 *)
G0 X1389.070 Y1423.150
M3 M8
G0 Z   3.000 
G1 Z  -1.500
F400
G1 X1340.200 Y1507.790
G1 X1389.070 Y1592.440
G1 X1486.810 Y1592.440
G1 X1535.680 Y1507.790
G1 X1486.810 Y1423.150
G1 X1389.070 Y1423.150
F150
G1 Z  -3.000
F400
G1 X1340.200 Y1507.790
G1 X1389.070 Y1592.440
G1 X1486.810 Y1592.440
G1 X1535.680 Y1507.790
G1 X1486.810 Y1423.150
G1 X1389.070 Y1423.150
F150
G1 Z   3.000
G0 Z  15.000 
M9 M5

(* SHAPE Nr: 19 *)
G0 X1382.910 Y1259.560
M3 M8
G0 Z   3.000 
G1 Z  -1.500
F400
G1 X1382.910 Y1357.300
G1 X1467.550 Y1406.170
G1 X1552.190 Y1357.300
G1 X1552.190 Y1259.560
G1 X1467.550 Y1210.690
G1 X1382.910 Y1259.560
F150
G1 Z  -3.000
F400
G1 X1382.910 Y1357.300
G1 X1467.550 Y1406.170
G1 X1552.190 Y1357.300
G1 X1552.190 Y1259.560
G1 X1467.550 Y1210.690
G1 X1382.910 Y1259.560
F150
G1 Z   3.000
G0 Z  15.000 
M9 M5

(* SHAPE Nr: 20 *)
G0 X1365.730 Y1024.450
M3 M8
G0 Z   3.000 
G1 Z  -1.500
F400
G1 X1316.860 Y1109.090
G1 X1365.730 Y1193.740
G1 X1463.470 Y1193.740
G1 X1512.340 Y1109.090
G1 X1463.470 Y1024.450
G1 X1365.730 Y1024.450
F150
G1 Z  -3.000
F400
G1 X1316.860 Y1109.090
G1 X1365.730 Y1193.740
G1 X1463.470 Y1193.740
G1 X1512.340 Y1109.090
G1 X1463.470 Y1024.450
G1 X1365.730 Y1024.450
F150
G1 Z   3.000
G0 Z  15.000 
M9 M5

(* SHAPE Nr: 48 *)
G0 X1311.680 Y 765.650
M3 M8
G0 Z   3.000 
G1 Z  -1.500
F400
G1 X1360.550 Y 850.300
G1 X1458.290 Y 850.300
G1 X1507.160 Y 765.650
G1 X1458.290 Y 681.010
G1 X1360.550 Y 681.010
G1 X1311.680 Y 765.650
F150
G1 Z  -3.000
F400
G1 X1360.550 Y 850.300
G1 X1458.290 Y 850.300
G1 X1507.160 Y 765.650
G1 X1458.290 Y 681.010
G1 X1360.550 Y 681.010
G1 X1311.680 Y 765.650
F150
G1 Z   3.000
G0 Z  15.000 
M9 M5

(* SHAPE Nr: 49 *)
G0 X1477.360 Y 582.340
M3 M8
G0 Z   3.000 
G1 Z  -1.500
F400
G1 X1477.360 Y 680.080
G1 X1562.000 Y 728.950
G1 X1646.640 Y 680.080
G1 X1646.640 Y 582.340
G1 X1562.000 Y 533.470
G1 X1477.360 Y 582.340
F150
G1 Z  -3.000
F400
G1 X1477.360 Y 680.080
G1 X1562.000 Y 728.950
G1 X1646.640 Y 680.080
G1 X1646.640 Y 582.340
G1 X1562.000 Y 533.470
G1 X1477.360 Y 582.340
F150
G1 Z   3.000
G0 Z  15.000 
M9 M5

(* SHAPE Nr: 50 *)
G0 X1581.560 Y 430.020
M3 M8
G0 Z   3.000 
G1 Z  -1.500
F400
G1 X1581.560 Y 527.760
G1 X1666.200 Y 576.630
G1 X1750.840 Y 527.760
G1 X1750.840 Y 430.020
G1 X1666.200 Y 381.150
G1 X1581.560 Y 430.020
F150
G1 Z  -3.000
F400
G1 X1581.560 Y 527.760
G1 X1666.200 Y 576.630
G1 X1750.840 Y 527.760
G1 X1750.840 Y 430.020
G1 X1666.200 Y 381.150
G1 X1581.560 Y 430.020
F150
G1 Z   3.000
G0 Z  15.000 
M9 M5

(* SHAPE Nr: 51 *)
G0 X1603.850 Y 230.390
M3 M8
G0 Z   3.000 
G1 Z  -1.500
F400
G1 X1603.850 Y 328.130
G1 X1688.490 Y 377.000
G1 X1773.130 Y 328.130
G1 X1773.130 Y 230.390
G1 X1688.490 Y 181.520
G1 X1603.850 Y 230.390
F150
G1 Z  -3.000
F400
G1 X1603.850 Y 328.130
G1 X1688.490 Y 377.000
G1 X1773.130 Y 328.130
G1 X1773.130 Y 230.390
G1 X1688.490 Y 181.520
G1 X1603.850 Y 230.390
F150
G1 Z   3.000
G0 Z  15.000 
M9 M5

(* SHAPE Nr: 52 *)
G0 X1679.130 Y  61.380
M3 M8
G0 Z   3.000 
G1 Z  -1.500
F400
G1 X1679.130 Y 159.120
G1 X1763.770 Y 207.990
G1 X1848.410 Y 159.120
G1 X1848.410 Y  61.380
G1 X1763.770 Y  12.510
G1 X1679.130 Y  61.380
F150
G1 Z  -3.000
F400
G1 X1679.130 Y 159.120
G1 X1763.770 Y 207.990
G1 X1848.410 Y 159.120
G1 X1848.410 Y  61.380
G1 X1763.770 Y  12.510
G1 X1679.130 Y  61.380
F150
G1 Z   3.000
G0 Z  15.000 
M9 M5

(* SHAPE Nr: 53 *)
G0 X1412.230 Y 140.770
M3 M8
G0 Z   3.000 
G1 Z  -1.500
F400
G1 X1461.100 Y 225.420
G1 X1558.840 Y 225.420
G1 X1607.710 Y 140.770
G1 X1558.840 Y  56.130
G1 X1461.100 Y  56.130
G1 X1412.230 Y 140.770
F150
G1 Z  -3.000
F400
G1 X1461.100 Y 225.420
G1 X1558.840 Y 225.420
G1 X1607.710 Y 140.770
G1 X1558.840 Y  56.130
G1 X1461.100 Y  56.130
G1 X1412.230 Y 140.770
F150
G1 Z   3.000
G0 Z  15.000 
M9 M5

(* SHAPE Nr: 54 *)
G0 X1419.390 Y 291.260
M3 M8
G0 Z   3.000 
G1 Z  -1.500
F400
G1 X1419.390 Y 389.000
G1 X1504.030 Y 437.870
G1 X1588.670 Y 389.000
G1 X1588.670 Y 291.260
G1 X1504.030 Y 242.390
G1 X1419.390 Y 291.260
F150
G1 Z  -3.000
F400
G1 X1419.390 Y 389.000
G1 X1504.030 Y 437.870
G1 X1588.670 Y 389.000
G1 X1588.670 Y 291.260
G1 X1504.030 Y 242.390
G1 X1419.390 Y 291.260
F150
G1 Z   3.000
G0 Z  15.000 
M9 M5

(* SHAPE Nr: 55 *)
G0 X1265.220 Y 488.900
M3 M8
G0 Z   3.000 
G1 Z  -1.500
F400
G1 X1314.090 Y 573.550
G1 X1411.830 Y 573.550
G1 X1460.700 Y 488.900
G1 X1411.830 Y 404.260
G1 X1314.090 Y 404.260
G1 X1265.220 Y 488.900
F150
G1 Z  -3.000
F400
G1 X1314.090 Y 573.550
G1 X1411.830 Y 573.550
G1 X1460.700 Y 488.900
G1 X1411.830 Y 404.260
G1 X1314.090 Y 404.260
G1 X1265.220 Y 488.900
F150
G1 Z   3.000
G0 Z  15.000 
M9 M5

(* SHAPE Nr: 58 *)
G0 X1127.260 Y 262.680
M3 M8
G0 Z   3.000 
G1 Z  -1.500
F400
G1 X1127.260 Y 360.420
G1 X1211.900 Y 409.290
G1 X1296.540 Y 360.420
G1 X1296.540 Y 262.680
G1 X1211.900 Y 213.810
G1 X1127.260 Y 262.680
F150
G1 Z  -3.000
F400
G1 X1127.260 Y 360.420
G1 X1211.900 Y 409.290
G1 X1296.540 Y 360.420
G1 X1296.540 Y 262.680
G1 X1211.900 Y 213.810
G1 X1127.260 Y 262.680
F150
G1 Z   3.000
G0 Z  15.000 
M9 M5

(* SHAPE Nr: 64 *)
G0 X1226.370 Y  94.640
M3 M8
G0 Z   3.000 
G1 Z  -1.500
F400
G1 X1275.240 Y 179.290
G1 X1372.980 Y 179.290
G1 X1421.850 Y  94.640
G1 X1372.980 Y  10.000
G1 X1275.240 Y  10.000
G1 X1226.370 Y  94.640
F150
G1 Z  -3.000
F400
G1 X1275.240 Y 179.290
G1 X1372.980 Y 179.290
G1 X1421.850 Y  94.640
G1 X1372.980 Y  10.000
G1 X1275.240 Y  10.000
G1 X1226.370 Y  94.640
F150
G1 Z   3.000
G0 Z  15.000 
M9 M5

(* SHAPE Nr: 67 *)
G0 X1770.980 Y 447.220
M3 M8
G0 Z   3.000 
G1 Z  -1.500
F400
G1 X1770.980 Y 544.960
G1 X1855.620 Y 593.830
G1 X1940.260 Y 544.960
G1 X1940.260 Y 447.220
G1 X1855.620 Y 398.350
G1 X1770.980 Y 447.220
F150
G1 Z  -3.000
F400
G1 X1770.980 Y 544.960
G1 X1855.620 Y 593.830
G1 X1940.260 Y 544.960
G1 X1940.260 Y 447.220
G1 X1855.620 Y 398.350
G1 X1770.980 Y 447.220
F150
G1 Z   3.000
G0 Z  15.000 
M9 M5

(* SHAPE Nr: 69 *)
G0 X1896.520 Y 696.780
M3 M8
G0 Z   3.000 
G1 Z  -1.500
F400
G1 X1896.520 Y 794.520
G1 X1981.160 Y 843.390
G1 X2065.800 Y 794.520
G1 X2065.800 Y 696.780
G1 X1981.160 Y 647.910
G1 X1896.520 Y 696.780
F150
G1 Z  -3.000
F400
G1 X1896.520 Y 794.520
G1 X1981.160 Y 843.390
G1 X2065.800 Y 794.520
G1 X2065.800 Y 696.780
G1 X1981.160 Y 647.910
G1 X1896.520 Y 696.780
F150
G1 Z   3.000
G0 Z  15.000 
M9 M5

(* SHAPE Nr: 70 *)
G0 X2087.640 Y 695.540
M3 M8
G0 Z   3.000 
G1 Z  -1.500
F400
G1 X2087.640 Y 793.280
G1 X2172.280 Y 842.150
G1 X2256.920 Y 793.280
G1 X2256.920 Y 695.540
G1 X2172.280 Y 646.670
G1 X2087.640 Y 695.540
F150
G1 Z  -3.000
F400
G1 X2087.640 Y 793.280
G1 X2172.280 Y 842.150
G1 X2256.920 Y 793.280
G1 X2256.920 Y 695.540
G1 X2172.280 Y 646.670
G1 X2087.640 Y 695.540
F150
G1 Z   3.000
G0 Z  15.000 
M9 M5

(* SHAPE Nr: 71 *)
G0 X2077.440 Y 902.120
M3 M8
G0 Z   3.000 
G1 Z  -1.500
F400
G1 X2077.440 Y 999.860
G1 X2162.080 Y1048.730
G1 X2246.720 Y 999.860
G1 X2246.720 Y 902.120
G1 X2162.080 Y 853.250
G1 X2077.440 Y 902.120
F150
G1 Z  -3.000
F400
G1 X2077.440 Y 999.860
G1 X2162.080 Y1048.730
G1 X2246.720 Y 999.860
G1 X2246.720 Y 902.120
G1 X2162.080 Y 853.250
G1 X2077.440 Y 902.120
F150
G1 Z   3.000
G0 Z  15.000 
M9 M5

(* SHAPE Nr: 77 *)
G0 X2123.870 Y1500.280
M3 M8
G0 Z   3.000 
G1 Z  -1.500
F400
G1 X2123.870 Y1598.020
G1 X2208.510 Y1646.890
G1 X2293.150 Y1598.020
G1 X2293.150 Y1500.280
G1 X2208.510 Y1451.410
G1 X2123.870 Y1500.280
F150
G1 Z  -3.000
F400
G1 X2123.870 Y1598.020
G1 X2208.510 Y1646.890
G1 X2293.150 Y1598.020
G1 X2293.150 Y1500.280
G1 X2208.510 Y1451.410
G1 X2123.870 Y1500.280
F150
G1 Z   3.000
G0 Z  15.000 
M9 M5

(* SHAPE Nr: 78 *)
G0 X1939.850 Y1494.670
M3 M8
G0 Z   3.000 
G1 Z  -1.500
F400
G1 X1939.850 Y1592.410
G1 X2024.490 Y1641.280
G1 X2109.130 Y1592.410
G1 X2109.130 Y1494.670
G1 X2024.490 Y1445.800
G1 X1939.850 Y1494.670
F150
G1 Z  -3.000
F400
G1 X1939.850 Y1592.410
G1 X2024.490 Y1641.280
G1 X2109.130 Y1592.410
G1 X2109.130 Y1494.670
G1 X2024.490 Y1445.800
G1 X1939.850 Y1494.670
F150
G1 Z   3.000
G0 Z  15.000 
M9 M5

(* SHAPE Nr: 79 *)
G0 X2030.020 Y1334.250
M3 M8
G0 Z   3.000 
G1 Z  -1.500
F400
G1 X2030.020 Y1431.990
G1 X2114.660 Y1480.860
G1 X2199.300 Y1431.990
G1 X2199.300 Y1334.250
G1 X2114.660 Y1285.380
G1 X2030.020 Y1334.250
F150
G1 Z  -3.000
F400
G1 X2030.020 Y1431.990
G1 X2114.660 Y1480.860
G1 X2199.300 Y1431.990
G1 X2199.300 Y1334.250
G1 X2114.660 Y1285.380
G1 X2030.020 Y1334.250
F150
G1 Z   3.000
G0 Z  15.000 
M9 M5

(* SHAPE Nr: 80 *)
G0 X1813.860 Y1344.460
M3 M8
G0 Z   3.000 
G1 Z  -1.500
F400
G1 X1813.860 Y1442.200
G1 X1898.500 Y1491.070
G1 X1983.140 Y1442.200
G1 X1983.140 Y1344.460
G1 X1898.500 Y1295.590
G1 X1813.860 Y1344.460
F150
G1 Z  -3.000
F400
G1 X1813.860 Y1442.200
G1 X1898.500 Y1491.070
G1 X1983.140 Y1442.200
G1 X1983.140 Y1344.460
G1 X1898.500 Y1295.590
G1 X1813.860 Y1344.460
F150
G1 Z   3.000
G0 Z  15.000 
M9 M5

(* SHAPE Nr: 81 *)
G0 X1902.440 Y1111.580
M3 M8
G0 Z   3.000 
G1 Z  -1.500
F400
G1 X1853.570 Y1196.220
G1 X1902.440 Y1280.870
G1 X2000.180 Y1280.870
G1 X2049.050 Y1196.220
G1 X2000.180 Y1111.580
G1 X1902.440 Y1111.580
F150
G1 Z  -3.000
F400
G1 X1853.570 Y1196.220
G1 X1902.440 Y1280.870
G1 X2000.180 Y1280.870
G1 X2049.050 Y1196.220
G1 X2000.180 Y1111.580
G1 X1902.440 Y1111.580
F150
G1 Z   3.000
G0 Z  15.000 
M9 M5

(* SHAPE Nr: 82 *)
G0 X1893.400 Y 947.960
M3 M8
G0 Z   3.000 
G1 Z  -1.500
F400
G1 X1893.400 Y1045.700
G1 X1978.040 Y1094.570
G1 X2062.680 Y1045.700
G1 X2062.680 Y 947.960
G1 X1978.040 Y 899.090
G1 X1893.400 Y 947.960
F150
G1 Z  -3.000
F400
G1 X1893.400 Y1045.700
G1 X1978.040 Y1094.570
G1 X2062.680 Y1045.700
G1 X2062.680 Y 947.960
G1 X1978.040 Y 899.090
G1 X1893.400 Y 947.960
F150
G1 Z   3.000
G0 Z  15.000 
M9 M5

(* SHAPE Nr: 83 *)
G0 X2039.570 Y1150.340
M3 M8
G0 Z   3.000 
G1 Z  -1.500
F400
G1 X2088.440 Y1234.990
G1 X2186.180 Y1234.990
G1 X2235.050 Y1150.340
G1 X2186.180 Y1065.700
G1 X2088.440 Y1065.700
G1 X2039.570 Y1150.340
F150
G1 Z  -3.000
F400
G1 X2088.440 Y1234.990
G1 X2186.180 Y1234.990
G1 X2235.050 Y1150.340
G1 X2186.180 Y1065.700
G1 X2088.440 Y1065.700
G1 X2039.570 Y1150.340
F150
G1 Z   3.000
G0 Z  15.000 
M9 M5

(* SHAPE Nr: 84 *)
G0 X1744.460 Y 821.500
M3 M8
G0 Z   3.000 
G1 Z  -1.500
F400
G1 X1744.460 Y 919.240
G1 X1829.100 Y 968.110
G1 X1913.740 Y 919.240
G1 X1913.740 Y 821.500
G1 X1829.100 Y 772.630
G1 X1744.460 Y 821.500
F150
G1 Z  -3.000
F400
G1 X1744.460 Y 919.240
G1 X1829.100 Y 968.110
G1 X1913.740 Y 919.240
G1 X1913.740 Y 821.500
G1 X1829.100 Y 772.630
G1 X1744.460 Y 821.500
F150
G1 Z   3.000
G0 Z  15.000 
M9 M5

(* SHAPE Nr: 85 *)
G0 X1560.470 Y 750.610
M3 M8
G0 Z   3.000 
G1 Z  -1.500
F400
G1 X1560.470 Y 848.350
G1 X1645.110 Y 897.220
G1 X1729.750 Y 848.350
G1 X1729.750 Y 750.610
G1 X1645.110 Y 701.740
G1 X1560.470 Y 750.610
F150
G1 Z  -3.000
F400
G1 X1560.470 Y 848.350
G1 X1645.110 Y 897.220
G1 X1729.750 Y 848.350
G1 X1729.750 Y 750.610
G1 X1645.110 Y 701.740
G1 X1560.470 Y 750.610
F150
G1 Z   3.000
G0 Z  15.000 
M9 M5

(* SHAPE Nr: 86 *)
G0 X1457.930 Y 903.880
M3 M8
G0 Z   3.000 
G1 Z  -1.500
F400
G1 X1457.930 Y1001.620
G1 X1542.570 Y1050.490
G1 X1627.210 Y1001.620
G1 X1627.210 Y 903.880
G1 X1542.570 Y 855.010
G1 X1457.930 Y 903.880
F150
G1 Z  -3.000
F400
G1 X1457.930 Y1001.620
G1 X1542.570 Y1050.490
G1 X1627.210 Y1001.620
G1 X1627.210 Y 903.880
G1 X1542.570 Y 855.010
G1 X1457.930 Y 903.880
F150
G1 Z   3.000
G0 Z  15.000 
M9 M5

(* SHAPE Nr: 87 *)
G0 X1641.920 Y1029.090
M3 M8
G0 Z   3.000 
G1 Z  -1.500
F400
G1 X1641.920 Y1126.830
G1 X1726.560 Y1175.700
G1 X1811.200 Y1126.830
G1 X1811.200 Y1029.090
G1 X1726.560 Y 980.220
G1 X1641.920 Y1029.090
F150
G1 Z  -3.000
F400
G1 X1641.920 Y1126.830
G1 X1726.560 Y1175.700
G1 X1811.200 Y1126.830
G1 X1811.200 Y1029.090
G1 X1726.560 Y 980.220
G1 X1641.920 Y1029.090
F150
G1 Z   3.000
G0 Z  15.000 
M9 M5

(* SHAPE Nr: 88 *)
G0 X1566.900 Y1198.260
M3 M8
G0 Z   3.000 
G1 Z  -1.500
F400
G1 X1566.900 Y1296.000
G1 X1651.540 Y1344.870
G1 X1736.180 Y1296.000
G1 X1736.180 Y1198.260
G1 X1651.540 Y1149.390
G1 X1566.900 Y1198.260
F150
G1 Z  -3.000
F400
G1 X1566.900 Y1296.000
G1 X1651.540 Y1344.870
G1 X1736.180 Y1296.000
G1 X1736.180 Y1198.260
G1 X1651.540 Y1149.390
G1 X1566.900 Y1198.260
F150
G1 Z   3.000
G0 Z  15.000 
M9 M5

(* SHAPE Nr: 89 *)
G0 X1629.490 Y1374.600
M3 M8
G0 Z   3.000 
G1 Z  -1.500
F400
G1 X1629.490 Y1472.340
G1 X1714.130 Y1521.210
G1 X1798.770 Y1472.340
G1 X1798.770 Y1374.600
G1 X1714.130 Y1325.730
G1 X1629.490 Y1374.600
F150
G1 Z  -3.000
F400
G1 X1629.490 Y1472.340
G1 X1714.130 Y1521.210
G1 X1798.770 Y1472.340
G1 X1798.770 Y1374.600
G1 X1714.130 Y1325.730
G1 X1629.490 Y1374.600
F150
G1 Z   3.000
G0 Z  15.000 
M9 M5

(* SHAPE Nr: 90 *)
G0 X1755.830 Y1523.420
M3 M8
G0 Z   3.000 
G1 Z  -1.500
F400
G1 X1755.830 Y1621.160
G1 X1840.470 Y1670.030
G1 X1925.110 Y1621.160
G1 X1925.110 Y1523.420
G1 X1840.470 Y1474.550
G1 X1755.830 Y1523.420
F150
G1 Z  -3.000
F400
G1 X1755.830 Y1621.160
G1 X1840.470 Y1670.030
G1 X1925.110 Y1621.160
G1 X1925.110 Y1523.420
G1 X1840.470 Y1474.550
G1 X1755.830 Y1523.420
F150
G1 Z   3.000
G0 Z  15.000 
M9 M5

(* SHAPE Nr: 91 *)
G0 X1571.800 Y1553.760
M3 M8
G0 Z   3.000 
G1 Z  -1.500
F400
G1 X1571.800 Y1651.500
G1 X1656.440 Y1700.370
G1 X1741.080 Y1651.500
G1 X1741.080 Y1553.760
G1 X1656.440 Y1504.890
G1 X1571.800 Y1553.760
F150
G1 Z  -3.000
F400
G1 X1571.800 Y1651.500
G1 X1656.440 Y1700.370
G1 X1741.080 Y1651.500
G1 X1741.080 Y1553.760
G1 X1656.440 Y1504.890
G1 X1571.800 Y1553.760
F150
G1 Z   3.000
G0 Z  15.000 
M9 M5

(* SHAPE Nr: 92 *)
G0 X1698.070 Y1702.550
M3 M8
G0 Z   3.000 
G1 Z  -1.500
F400
G1 X1698.070 Y1800.290
G1 X1782.710 Y1849.160
G1 X1867.350 Y1800.290
G1 X1867.350 Y1702.550
G1 X1782.710 Y1653.680
G1 X1698.070 Y1702.550
F150
G1 Z  -3.000
F400
G1 X1698.070 Y1800.290
G1 X1782.710 Y1849.160
G1 X1867.350 Y1800.290
G1 X1867.350 Y1702.550
G1 X1782.710 Y1653.680
G1 X1698.070 Y1702.550
F150
G1 Z   3.000
G0 Z  15.000 
M9 M5

(* SHAPE Nr: 93 *)
G0 X1571.950 Y1842.220
M3 M8
G0 Z   3.000 
G1 Z  -1.500
F400
G1 X1571.950 Y1939.960
G1 X1656.590 Y1988.830
G1 X1741.230 Y1939.960
G1 X1741.230 Y1842.220
G1 X1656.590 Y1793.350
G1 X1571.950 Y1842.220
F150
G1 Z  -3.000
F400
G1 X1571.950 Y1939.960
G1 X1656.590 Y1988.830
G1 X1741.230 Y1939.960
G1 X1741.230 Y1842.220
G1 X1656.590 Y1793.350
G1 X1571.950 Y1842.220
F150
G1 Z   3.000
G0 Z  15.000 
M9 M5

(* SHAPE Nr: 94 *)
G0 X1414.620 Y1870.710
M3 M8
G0 Z   3.000 
G1 Z  -1.500
F400
G1 X1365.750 Y1955.350
G1 X1414.620 Y2040.000
G1 X1512.360 Y2040.000
G1 X1561.230 Y1955.350
G1 X1512.360 Y1870.710
G1 X1414.620 Y1870.710
F150
G1 Z  -3.000
F400
G1 X1365.750 Y1955.350
G1 X1414.620 Y2040.000
G1 X1512.360 Y2040.000
G1 X1561.230 Y1955.350
G1 X1512.360 Y1870.710
G1 X1414.620 Y1870.710
F150
G1 Z   3.000
G0 Z  15.000 
M9 M5

(* SHAPE Nr: 95 *)
G0 X1755.940 Y1893.380
M3 M8
G0 Z   3.000 
G1 Z  -1.500
F400
G1 X1755.940 Y1991.120
G1 X1840.580 Y2039.990
G1 X1925.220 Y1991.120
G1 X1925.220 Y1893.380
G1 X1840.580 Y1844.510
G1 X1755.940 Y1893.380
F150
G1 Z  -3.000
F400
G1 X1755.940 Y1991.120
G1 X1840.580 Y2039.990
G1 X1925.220 Y1991.120
G1 X1925.220 Y1893.380
G1 X1840.580 Y1844.510
G1 X1755.940 Y1893.380
F150
G1 Z   3.000
G0 Z  15.000 
M9 M5

(* SHAPE Nr: 96 *)
G0 X1939.930 Y1893.380
M3 M8
G0 Z   3.000 
G1 Z  -1.500
F400
G1 X1939.930 Y1991.120
G1 X2024.570 Y2039.990
G1 X2109.210 Y1991.120
G1 X2109.210 Y1893.380
G1 X2024.570 Y1844.510
G1 X1939.930 Y1893.380
F150
G1 Z  -3.000
F400
G1 X1939.930 Y1991.120
G1 X2024.570 Y2039.990
G1 X2109.210 Y1991.120
G1 X2109.210 Y1893.380
G1 X2024.570 Y1844.510
G1 X1939.930 Y1893.380
F150
G1 Z   3.000
G0 Z  15.000 
M9 M5

(* SHAPE Nr: 97 *)
G0 X2124.970 Y1893.380
M3 M8
G0 Z   3.000 
G1 Z  -1.500
F400
G1 X2124.970 Y1991.120
G1 X2209.610 Y2039.990
G1 X2294.250 Y1991.120
G1 X2294.250 Y1893.380
G1 X2209.610 Y1844.510
G1 X2124.970 Y1893.380
F150
G1 Z  -3.000
F400
G1 X2124.970 Y1991.120
G1 X2209.610 Y2039.990
G1 X2294.250 Y1991.120
G1 X2294.250 Y1893.380
G1 X2209.610 Y1844.510
G1 X2124.970 Y1893.380
F150
G1 Z   3.000
G0 Z  15.000 
M9 M5

(* SHAPE Nr: 104 *)
G0 X2096.770 Y1697.180
M3 M8
G0 Z   3.000 
G1 Z  -1.500
F400
G1 X2096.770 Y1794.920
G1 X2181.410 Y1843.790
G1 X2266.050 Y1794.920
G1 X2266.050 Y1697.180
G1 X2181.410 Y1648.310
G1 X2096.770 Y1697.180
F150
G1 Z  -3.000
F400
G1 X2096.770 Y1794.920
G1 X2181.410 Y1843.790
G1 X2266.050 Y1794.920
G1 X2266.050 Y1697.180
G1 X2181.410 Y1648.310
G1 X2096.770 Y1697.180
F150
G1 Z   3.000
G0 Z  15.000 
M9 M5

(* SHAPE Nr: 105 *)
G0 X1933.190 Y1658.260
M3 M8
G0 Z   3.000 
G1 Z  -1.500
F400
G1 X1884.320 Y1742.900
G1 X1933.190 Y1827.550
G1 X2030.930 Y1827.550
G1 X2079.800 Y1742.900
G1 X2030.930 Y1658.260
G1 X1933.190 Y1658.260
F150
G1 Z  -3.000
F400
G1 X1884.320 Y1742.900
G1 X1933.190 Y1827.550
G1 X2030.930 Y1827.550
G1 X2079.800 Y1742.900
G1 X2030.930 Y1658.260
G1 X1933.190 Y1658.260
F150
G1 Z   3.000
G0 Z  15.000 
M9 M5

(* SHAPE Nr: 118 *)
G0 X1712.530 Y 625.930
M3 M8
G0 Z   3.000 
G1 Z  -1.500
F400
G1 X1712.530 Y 723.670
G1 X1797.170 Y 772.540
G1 X1881.810 Y 723.670
G1 X1881.810 Y 625.930
G1 X1797.170 Y 577.060
G1 X1712.530 Y 625.930
F150
G1 Z  -3.000
F400
G1 X1712.530 Y 723.670
G1 X1797.170 Y 772.540
G1 X1881.810 Y 723.670
G1 X1881.810 Y 625.930
G1 X1797.170 Y 577.060
G1 X1712.530 Y 625.930
F150
G1 Z   3.000
G0 Z  15.000 
M9 M5

(*** LAYER: BORDER_D0_T132_RK1_A0_W0_EM1_RI1_ID0007 ***)

(* SHAPE Nr: 29 *)
G0 X 224.100 Y1337.530
M3 M8
G0 Z   3.000 
G1 Z  -1.500
F400
G1 X 246.050 Y1405.070
G1 X 188.600 Y1446.810
G1 X 259.610 Y1446.810
G1 X 281.550 Y1514.340
G1 X 303.500 Y1446.810
G1 X 374.510 Y1446.810
G1 X 317.060 Y1405.070
G1 X 339.000 Y1337.530
G1 X 281.550 Y1379.270
G1 X 224.100 Y1337.530
F150
G1 Z  -3.000
F400
G1 X 246.050 Y1405.070
G1 X 188.600 Y1446.810
G1 X 259.610 Y1446.810
G1 X 281.550 Y1514.340
G1 X 303.500 Y1446.810
G1 X 374.510 Y1446.810
G1 X 317.060 Y1405.070
G1 X 339.000 Y1337.530
G1 X 281.550 Y1379.270
G1 X 224.100 Y1337.530
F150
G1 Z   3.000
G0 Z  15.000 
M9 M5

(* SHAPE Nr: 30 *)
G0 X 222.430 Y1119.510
M3 M8
G0 Z   3.000 
G1 Z  -1.500
F400
G1 X 222.430 Y1190.520
G1 X 154.900 Y1212.460
G1 X 222.430 Y1234.410
G1 X 222.430 Y1305.420
G1 X 264.170 Y1247.970
G1 X 331.710 Y1269.910
G1 X 289.970 Y1212.460
G1 X 331.710 Y1155.010
G1 X 264.170 Y1176.960
G1 X 222.430 Y1119.510
F150
G1 Z  -3.000
F400
G1 X 222.430 Y1190.520
G1 X 154.900 Y1212.460
G1 X 222.430 Y1234.410
G1 X 222.430 Y1305.420
G1 X 264.170 Y1247.970
G1 X 331.710 Y1269.910
G1 X 289.970 Y1212.460
G1 X 331.710 Y1155.010
G1 X 264.170 Y1176.960
G1 X 222.430 Y1119.510
F150
G1 Z   3.000
G0 Z  15.000 
M9 M5

(* SHAPE Nr: 31 *)
G0 X 246.790 Y 961.770
M3 M8
G0 Z   3.000 
G1 Z  -1.500
F400
G1 X 268.740 Y1029.310
G1 X 211.290 Y1071.050
G1 X 282.300 Y1071.050
G1 X 304.240 Y1138.580
G1 X 326.190 Y1071.050
G1 X 397.200 Y1071.050
G1 X 339.750 Y1029.310
G1 X 361.690 Y 961.770
G1 X 304.240 Y1003.510
G1 X 246.790 Y 961.770
F150
G1 Z  -3.000
F400
G1 X 268.740 Y1029.310
G1 X 211.290 Y1071.050
G1 X 282.300 Y1071.050
G1 X 304.240 Y1138.580
G1 X 326.190 Y1071.050
G1 X 397.200 Y1071.050
G1 X 339.750 Y1029.310
G1 X 361.690 Y 961.770
G1 X 304.240 Y1003.510
G1 X 246.790 Y 961.770
F150
G1 Z   3.000
G0 Z  15.000 
M9 M5

(* SHAPE Nr: 32 *)
G0 X 448.240 Y 961.970
M3 M8
G0 Z   3.000 
G1 Z  -1.500
F400
G1 X 470.190 Y1029.510
G1 X 412.740 Y1071.250
G1 X 483.750 Y1071.250
G1 X 505.690 Y1138.780
G1 X 527.640 Y1071.250
G1 X 598.650 Y1071.250
G1 X 541.200 Y1029.510
G1 X 563.140 Y 961.970
G1 X 505.690 Y1003.710
G1 X 448.240 Y 961.970
F150
G1 Z  -3.000
F400
G1 X 470.190 Y1029.510
G1 X 412.740 Y1071.250
G1 X 483.750 Y1071.250
G1 X 505.690 Y1138.780
G1 X 527.640 Y1071.250
G1 X 598.650 Y1071.250
G1 X 541.200 Y1029.510
G1 X 563.140 Y 961.970
G1 X 505.690 Y1003.710
G1 X 448.240 Y 961.970
F150
G1 Z   3.000
G0 Z  15.000 
M9 M5

(* SHAPE Nr: 34 *)
G0 X 521.240 Y 730.380
M3 M8
G0 Z   3.000 
G1 Z  -1.500
F400
G1 X 578.690 Y 772.120
G1 X 556.750 Y 839.660
G1 X 614.200 Y 797.920
G1 X 671.650 Y 839.660
G1 X 649.700 Y 772.120
G1 X 707.150 Y 730.380
G1 X 636.140 Y 730.380
G1 X 614.200 Y 662.850
G1 X 592.250 Y 730.380
G1 X 521.240 Y 730.380
F150
G1 Z  -3.000
F400
G1 X 578.690 Y 772.120
G1 X 556.750 Y 839.660
G1 X 614.200 Y 797.920
G1 X 671.650 Y 839.660
G1 X 649.700 Y 772.120
G1 X 707.150 Y 730.380
G1 X 636.140 Y 730.380
G1 X 614.200 Y 662.850
G1 X 592.250 Y 730.380
G1 X 521.240 Y 730.380
F150
G1 Z   3.000
G0 Z  15.000 
M9 M5

(* SHAPE Nr: 37 *)
G0 X 237.030 Y 582.240
M3 M8
G0 Z   3.000 
G1 Z  -1.500
F400
G1 X 258.980 Y 649.780
G1 X 201.530 Y 691.520
G1 X 272.540 Y 691.520
G1 X 294.480 Y 759.050
G1 X 316.430 Y 691.520
G1 X 387.440 Y 691.520
G1 X 329.990 Y 649.780
G1 X 351.930 Y 582.240
G1 X 294.480 Y 623.980
G1 X 237.030 Y 582.240
F150
G1 Z  -3.000
F400
G1 X 258.980 Y 649.780
G1 X 201.530 Y 691.520
G1 X 272.540 Y 691.520
G1 X 294.480 Y 759.050
G1 X 316.430 Y 691.520
G1 X 387.440 Y 691.520
G1 X 329.990 Y 649.780
G1 X 351.930 Y 582.240
G1 X 294.480 Y 623.980
G1 X 237.030 Y 582.240
F150
G1 Z   3.000
G0 Z  15.000 
M9 M5

(* SHAPE Nr: 42 *)
G0 X 971.530 Y 653.930
M3 M8
G0 Z   3.000 
G1 Z  -1.500
F400
G1 X1028.980 Y 695.670
G1 X1007.040 Y 763.210
G1 X1064.490 Y 721.470
G1 X1121.940 Y 763.210
G1 X1099.990 Y 695.670
G1 X1157.440 Y 653.930
G1 X1086.430 Y 653.930
G1 X1064.490 Y 586.400
G1 X1042.540 Y 653.930
G1 X 971.530 Y 653.930
F150
G1 Z  -3.000
F400
G1 X1028.980 Y 695.670
G1 X1007.040 Y 763.210
G1 X1064.490 Y 721.470
G1 X1121.940 Y 763.210
G1 X1099.990 Y 695.670
G1 X1157.440 Y 653.930
G1 X1086.430 Y 653.930
G1 X1064.490 Y 586.400
G1 X1042.540 Y 653.930
G1 X 971.530 Y 653.930
F150
G1 Z   3.000
G0 Z  15.000 
M9 M5

(* SHAPE Nr: 65 *)
G0 X1817.060 Y 268.240
M3 M8
G0 Z   3.000 
G1 Z  -1.500
F400
G1 X1858.800 Y 325.690
G1 X1817.060 Y 383.140
G1 X1884.600 Y 361.190
G1 X1926.340 Y 418.640
G1 X1926.340 Y 347.630
G1 X1993.870 Y 325.690
G1 X1926.340 Y 303.740
G1 X1926.340 Y 232.730
G1 X1884.600 Y 290.180
G1 X1817.060 Y 268.240
F150
G1 Z  -3.000
F400
G1 X1858.800 Y 325.690
G1 X1817.060 Y 383.140
G1 X1884.600 Y 361.190
G1 X1926.340 Y 418.640
G1 X1926.340 Y 347.630
G1 X1993.870 Y 325.690
G1 X1926.340 Y 303.740
G1 X1926.340 Y 232.730
G1 X1884.600 Y 290.180
G1 X1817.060 Y 268.240
F150
G1 Z   3.000
G0 Z  15.000 
M9 M5

(* SHAPE Nr: 66 *)
G0 X1941.090 Y 428.500
M3 M8
G0 Z   3.000 
G1 Z  -1.500
F400
G1 X2008.620 Y 450.450
G1 X2008.620 Y 521.460
G1 X2050.360 Y 464.010
G1 X2117.900 Y 485.950
G1 X2076.160 Y 428.500
G1 X2117.900 Y 371.050
G1 X2050.360 Y 393.000
G1 X2008.620 Y 335.550
G1 X2008.620 Y 406.560
G1 X1941.090 Y 428.500
F150
G1 Z  -3.000
F400
G1 X2008.620 Y 450.450
G1 X2008.620 Y 521.460
G1 X2050.360 Y 464.010
G1 X2117.900 Y 485.950
G1 X2076.160 Y 428.500
G1 X2117.900 Y 371.050
G1 X2050.360 Y 393.000
G1 X2008.620 Y 335.550
G1 X2008.620 Y 406.560
G1 X1941.090 Y 428.500
F150
G1 Z   3.000
G0 Z  15.000 
M9 M5

(* SHAPE Nr: 68 *)
G0 X1958.440 Y 523.370
M3 M8
G0 Z   3.000 
G1 Z  -1.500
F400
G1 X2000.180 Y 580.820
G1 X1958.440 Y 638.270
G1 X2025.980 Y 616.320
G1 X2067.720 Y 673.770
G1 X2067.720 Y 602.760
G1 X2135.250 Y 580.820
G1 X2067.720 Y 558.870
G1 X2067.720 Y 487.860
G1 X2025.980 Y 545.310
G1 X1958.440 Y 523.370
F150
G1 Z  -3.000
F400
G1 X2000.180 Y 580.820
G1 X1958.440 Y 638.270
G1 X2025.980 Y 616.320
G1 X2067.720 Y 673.770
G1 X2067.720 Y 602.760
G1 X2135.250 Y 580.820
G1 X2067.720 Y 558.870
G1 X2067.720 Y 487.860
G1 X2025.980 Y 545.310
G1 X1958.440 Y 523.370
F150
G1 Z   3.000
G0 Z  15.000 
M9 M5

(* SHAPE Nr: 72 *)
G0 X2257.260 Y 890.590
M3 M8
G0 Z   3.000 
G1 Z  -1.500
F400
G1 X2314.710 Y 932.330
G1 X2292.770 Y 999.870
G1 X2350.220 Y 958.130
G1 X2407.670 Y 999.870
G1 X2385.720 Y 932.330
G1 X2443.170 Y 890.590
G1 X2372.160 Y 890.590
G1 X2350.220 Y 823.060
G1 X2328.270 Y 890.590
G1 X2257.260 Y 890.590
F150
G1 Z  -3.000
F400
G1 X2314.710 Y 932.330
G1 X2292.770 Y 999.870
G1 X2350.220 Y 958.130
G1 X2407.670 Y 999.870
G1 X2385.720 Y 932.330
G1 X2443.170 Y 890.590
G1 X2372.160 Y 890.590
G1 X2350.220 Y 823.060
G1 X2328.270 Y 890.590
G1 X2257.260 Y 890.590
F150
G1 Z   3.000
G0 Z  15.000 
M9 M5

(* SHAPE Nr: 73 *)
G0 X2348.140 Y1112.220
M3 M8
G0 Z   3.000 
G1 Z  -1.500
F400
G1 X2415.670 Y1134.170
G1 X2415.670 Y1205.180
G1 X2457.410 Y1147.730
G1 X2524.950 Y1169.670
G1 X2483.210 Y1112.220
G1 X2524.950 Y1054.770
G1 X2457.410 Y1076.720
G1 X2415.670 Y1019.270
G1 X2415.670 Y1090.280
G1 X2348.140 Y1112.220
F150
G1 Z  -3.000
F400
G1 X2415.670 Y1134.170
G1 X2415.670 Y1205.180
G1 X2457.410 Y1147.730
G1 X2524.950 Y1169.670
G1 X2483.210 Y1112.220
G1 X2524.950 Y1054.770
G1 X2457.410 Y1076.720
G1 X2415.670 Y1019.270
G1 X2415.670 Y1090.280
G1 X2348.140 Y1112.220
F150
G1 Z   3.000
G0 Z  15.000 
M9 M5

(* SHAPE Nr: 74 *)
G0 X2224.140 Y1087.430
M3 M8
G0 Z   3.000 
G1 Z  -1.500
F400
G1 X2265.880 Y1144.880
G1 X2224.140 Y1202.330
G1 X2291.680 Y1180.380
G1 X2333.420 Y1237.830
G1 X2333.420 Y1166.820
G1 X2400.950 Y1144.880
G1 X2333.420 Y1122.930
G1 X2333.420 Y1051.920
G1 X2291.680 Y1109.370
G1 X2224.140 Y1087.430
F150
G1 Z  -3.000
F400
G1 X2265.880 Y1144.880
G1 X2224.140 Y1202.330
G1 X2291.680 Y1180.380
G1 X2333.420 Y1237.830
G1 X2333.420 Y1166.820
G1 X2400.950 Y1144.880
G1 X2333.420 Y1122.930
G1 X2333.420 Y1051.920
G1 X2291.680 Y1109.370
G1 X2224.140 Y1087.430
F150
G1 Z   3.000
G0 Z  15.000 
M9 M5

(* SHAPE Nr: 75 *)
G0 X2333.860 Y1253.440
M3 M8
G0 Z   3.000 
G1 Z  -1.500
F400
G1 X2375.600 Y1310.890
G1 X2333.860 Y1368.340
G1 X2401.400 Y1346.390
G1 X2443.140 Y1403.840
G1 X2443.140 Y1332.830
G1 X2510.670 Y1310.890
G1 X2443.140 Y1288.940
G1 X2443.140 Y1217.930
G1 X2401.400 Y1275.380
G1 X2333.860 Y1253.440
F150
G1 Z  -3.000
F400
G1 X2375.600 Y1310.890
G1 X2333.860 Y1368.340
G1 X2401.400 Y1346.390
G1 X2443.140 Y1403.840
G1 X2443.140 Y1332.830
G1 X2510.670 Y1310.890
G1 X2443.140 Y1288.940
G1 X2443.140 Y1217.930
G1 X2401.400 Y1275.380
G1 X2333.860 Y1253.440
F150
G1 Z   3.000
G0 Z  15.000 
M9 M5

(* SHAPE Nr: 76 *)
G0 X2240.350 Y1450.550
M3 M8
G0 Z   3.000 
G1 Z  -1.500
F400
G1 X2307.880 Y1472.500
G1 X2307.880 Y1543.510
G1 X2349.620 Y1486.060
G1 X2417.160 Y1508.000
G1 X2375.420 Y1450.550
G1 X2417.160 Y1393.100
G1 X2349.620 Y1415.050
G1 X2307.880 Y1357.600
G1 X2307.880 Y1428.610
G1 X2240.350 Y1450.550
F150
G1 Z  -3.000
F400
G1 X2307.880 Y1472.500
G1 X2307.880 Y1543.510
G1 X2349.620 Y1486.060
G1 X2417.160 Y1508.000
G1 X2375.420 Y1450.550
G1 X2417.160 Y1393.100
G1 X2349.620 Y1415.050
G1 X2307.880 Y1357.600
G1 X2307.880 Y1428.610
G1 X2240.350 Y1450.550
F150
G1 Z   3.000
G0 Z  15.000 
M9 M5

(* SHAPE Nr: 98 *)
G0 X2309.710 Y1889.600
M3 M8
G0 Z   3.000 
G1 Z  -1.500
F400
G1 X2351.450 Y1947.050
G1 X2309.710 Y2004.500
G1 X2377.250 Y1982.550
G1 X2418.990 Y2040.000
G1 X2418.990 Y1968.990
G1 X2486.520 Y1947.050
G1 X2418.990 Y1925.100
G1 X2418.990 Y1854.090
G1 X2377.250 Y1911.540
G1 X2309.710 Y1889.600
F150
G1 Z  -3.000
F400
G1 X2351.450 Y1947.050
G1 X2309.710 Y2004.500
G1 X2377.250 Y1982.550
G1 X2418.990 Y2040.000
G1 X2418.990 Y1968.990
G1 X2486.520 Y1947.050
G1 X2418.990 Y1925.100
G1 X2418.990 Y1854.090
G1 X2377.250 Y1911.540
G1 X2309.710 Y1889.600
F150
G1 Z   3.000
G0 Z  15.000 
M9 M5

(* SHAPE Nr: 99 *)
G0 X2367.830 Y1707.110
M3 M8
G0 Z   3.000 
G1 Z  -1.500
F400
G1 X2367.830 Y1778.120
G1 X2300.300 Y1800.060
G1 X2367.830 Y1822.010
G1 X2367.830 Y1893.020
G1 X2409.570 Y1835.570
G1 X2477.110 Y1857.510
G1 X2435.370 Y1800.060
G1 X2477.110 Y1742.610
G1 X2409.570 Y1764.560
G1 X2367.830 Y1707.110
F150
G1 Z  -3.000
F400
G1 X2367.830 Y1778.120
G1 X2300.300 Y1800.060
G1 X2367.830 Y1822.010
G1 X2367.830 Y1893.020
G1 X2409.570 Y1835.570
G1 X2477.110 Y1857.510
G1 X2435.370 Y1800.060
G1 X2477.110 Y1742.610
G1 X2409.570 Y1764.560
G1 X2367.830 Y1707.110
F150
G1 Z   3.000
G0 Z  15.000 
M9 M5

(* SHAPE Nr: 100 *)
G0 X2311.330 Y1595.110
M3 M8
G0 Z   3.000 
G1 Z  -1.500
F400
G1 X2353.070 Y1652.560
G1 X2311.330 Y1710.010
G1 X2378.870 Y1688.060
G1 X2420.610 Y1745.510
G1 X2420.610 Y1674.500
G1 X2488.140 Y1652.560
G1 X2420.610 Y1630.610
G1 X2420.610 Y1559.600
G1 X2378.870 Y1617.050
G1 X2311.330 Y1595.110
F150
G1 Z  -3.000
F400
G1 X2353.070 Y1652.560
G1 X2311.330 Y1710.010
G1 X2378.870 Y1688.060
G1 X2420.610 Y1745.510
G1 X2420.610 Y1674.500
G1 X2488.140 Y1652.560
G1 X2420.610 Y1630.610
G1 X2420.610 Y1559.600
G1 X2378.870 Y1617.050
G1 X2311.330 Y1595.110
F150
G1 Z   3.000
G0 Z  15.000 
M9 M5

(* SHAPE Nr: 101 *)
G0 X2393.870 Y1535.420
M3 M8
G0 Z   3.000 
G1 Z  -1.500
F400
G1 X2461.400 Y1557.370
G1 X2461.400 Y1628.380
G1 X2503.140 Y1570.930
G1 X2570.680 Y1592.870
G1 X2528.940 Y1535.420
G1 X2570.680 Y1477.970
G1 X2503.140 Y1499.920
G1 X2461.400 Y1442.470
G1 X2461.400 Y1513.480
G1 X2393.870 Y1535.420
F150
G1 Z  -3.000
F400
G1 X2461.400 Y1557.370
G1 X2461.400 Y1628.380
G1 X2503.140 Y1570.930
G1 X2570.680 Y1592.870
G1 X2528.940 Y1535.420
G1 X2570.680 Y1477.970
G1 X2503.140 Y1499.920
G1 X2461.400 Y1442.470
G1 X2461.400 Y1513.480
G1 X2393.870 Y1535.420
F150
G1 Z   3.000
G0 Z  15.000 
M9 M5

(* SHAPE Nr: 102 *)
G0 X2457.910 Y1800.070
M3 M8
G0 Z   3.000 
G1 Z  -1.500
F400
G1 X2525.440 Y1822.020
G1 X2525.440 Y1893.030
G1 X2567.180 Y1835.580
G1 X2634.720 Y1857.520
G1 X2592.980 Y1800.070
G1 X2634.720 Y1742.620
G1 X2567.180 Y1764.570
G1 X2525.440 Y1707.120
G1 X2525.440 Y1778.130
G1 X2457.910 Y1800.070
F150
G1 Z  -3.000
F400
G1 X2525.440 Y1822.020
G1 X2525.440 Y1893.030
G1 X2567.180 Y1835.580
G1 X2634.720 Y1857.520
G1 X2592.980 Y1800.070
G1 X2634.720 Y1742.620
G1 X2567.180 Y1764.570
G1 X2525.440 Y1707.120
G1 X2525.440 Y1778.130
G1 X2457.910 Y1800.070
F150
G1 Z   3.000
G0 Z  15.000 
M9 M5

(* SHAPE Nr: 103 *)
G0 X2467.260 Y1889.600
M3 M8
G0 Z   3.000 
G1 Z  -1.500
F400
G1 X2509.000 Y1947.050
G1 X2467.260 Y2004.500
G1 X2534.800 Y1982.550
G1 X2576.540 Y2040.000
G1 X2576.540 Y1968.990
G1 X2644.070 Y1947.050
G1 X2576.540 Y1925.100
G1 X2576.540 Y1854.090
G1 X2534.800 Y1911.540
G1 X2467.260 Y1889.600
F150
G1 Z  -3.000
F400
G1 X2509.000 Y1947.050
G1 X2467.260 Y2004.500
G1 X2534.800 Y1982.550
G1 X2576.540 Y2040.000
G1 X2576.540 Y1968.990
G1 X2644.070 Y1947.050
G1 X2576.540 Y1925.100
G1 X2576.540 Y1854.090
G1 X2534.800 Y1911.540
G1 X2467.260 Y1889.600
F150
G1 Z   3.000
G0 Z  15.000 
M9 M5

(* SHAPE Nr: 106 *)
G0 X2549.460 Y1015.850
M3 M8
G0 Z   3.000 
G1 Z  -1.500
F400
G1 X2571.410 Y1083.390
G1 X2513.960 Y1125.130
G1 X2584.970 Y1125.130
G1 X2606.910 Y1192.660
G1 X2628.860 Y1125.130
G1 X2699.870 Y1125.130
G1 X2642.420 Y1083.390
G1 X2664.360 Y1015.850
G1 X2606.910 Y1057.590
G1 X2549.460 Y1015.850
F150
G1 Z  -3.000
F400
G1 X2571.410 Y1083.390
G1 X2513.960 Y1125.130
G1 X2584.970 Y1125.130
G1 X2606.910 Y1192.660
G1 X2628.860 Y1125.130
G1 X2699.870 Y1125.130
G1 X2642.420 Y1083.390
G1 X2664.360 Y1015.850
G1 X2606.910 Y1057.590
G1 X2549.460 Y1015.850
F150
G1 Z   3.000
G0 Z  15.000 
M9 M5

(* SHAPE Nr: 107 *)
G0 X2530.170 Y 936.560
M3 M8
G0 Z   3.000 
G1 Z  -1.500
F400
G1 X2597.700 Y 958.510
G1 X2597.700 Y1029.520
G1 X2639.440 Y 972.070
G1 X2706.980 Y 994.010
G1 X2665.240 Y 936.560
G1 X2706.980 Y 879.110
G1 X2639.440 Y 901.060
G1 X2597.700 Y 843.610
G1 X2597.700 Y 914.620
G1 X2530.170 Y 936.560
F150
G1 Z  -3.000
F400
G1 X2597.700 Y 958.510
G1 X2597.700 Y1029.520
G1 X2639.440 Y 972.070
G1 X2706.980 Y 994.010
G1 X2665.240 Y 936.560
G1 X2706.980 Y 879.110
G1 X2639.440 Y 901.060
G1 X2597.700 Y 843.610
G1 X2597.700 Y 914.620
G1 X2530.170 Y 936.560
F150
G1 Z   3.000
G0 Z  15.000 
M9 M5

(* SHAPE Nr: 108 *)
G0 X2575.470 Y 782.060
M3 M8
G0 Z   3.000 
G1 Z  -1.500
F400
G1 X2643.000 Y 804.010
G1 X2643.000 Y 875.020
G1 X2684.740 Y 817.570
G1 X2752.280 Y 839.510
G1 X2710.540 Y 782.060
G1 X2752.280 Y 724.610
G1 X2684.740 Y 746.560
G1 X2643.000 Y 689.110
G1 X2643.000 Y 760.120
G1 X2575.470 Y 782.060
F150
G1 Z  -3.000
F400
G1 X2643.000 Y 804.010
G1 X2643.000 Y 875.020
G1 X2684.740 Y 817.570
G1 X2752.280 Y 839.510
G1 X2710.540 Y 782.060
G1 X2752.280 Y 724.610
G1 X2684.740 Y 746.560
G1 X2643.000 Y 689.110
G1 X2643.000 Y 760.120
G1 X2575.470 Y 782.060
F150
G1 Z   3.000
G0 Z  15.000 
M9 M5

(* SHAPE Nr: 109 *)
G0 X2450.390 Y 607.400
M3 M8
G0 Z   3.000 
G1 Z  -1.500
F400
G1 X2517.920 Y 629.350
G1 X2517.920 Y 700.360
G1 X2559.660 Y 642.910
G1 X2627.200 Y 664.850
G1 X2585.460 Y 607.400
G1 X2627.200 Y 549.950
G1 X2559.660 Y 571.900
G1 X2517.920 Y 514.450
G1 X2517.920 Y 585.460
G1 X2450.390 Y 607.400
F150
G1 Z  -3.000
F400
G1 X2517.920 Y 629.350
G1 X2517.920 Y 700.360
G1 X2559.660 Y 642.910
G1 X2627.200 Y 664.850
G1 X2585.460 Y 607.400
G1 X2627.200 Y 549.950
G1 X2559.660 Y 571.900
G1 X2517.920 Y 514.450
G1 X2517.920 Y 585.460
G1 X2450.390 Y 607.400
F150
G1 Z   3.000
G0 Z  15.000 
M9 M5

(* SHAPE Nr: 110 *)
G0 X2393.180 Y 726.010
M3 M8
G0 Z   3.000 
G1 Z  -1.500
F400
G1 X2450.630 Y 767.750
G1 X2428.690 Y 835.290
G1 X2486.140 Y 793.550
G1 X2543.590 Y 835.290
G1 X2521.640 Y 767.750
G1 X2579.090 Y 726.010
G1 X2508.080 Y 726.010
G1 X2486.140 Y 658.480
G1 X2464.190 Y 726.010
G1 X2393.180 Y 726.010
F150
G1 Z  -3.000
F400
G1 X2450.630 Y 767.750
G1 X2428.690 Y 835.290
G1 X2486.140 Y 793.550
G1 X2543.590 Y 835.290
G1 X2521.640 Y 767.750
G1 X2579.090 Y 726.010
G1 X2508.080 Y 726.010
G1 X2486.140 Y 658.480
G1 X2464.190 Y 726.010
G1 X2393.180 Y 726.010
F150
G1 Z   3.000
G0 Z  15.000 
M9 M5

(* SHAPE Nr: 111 *)
G0 X2238.740 Y 663.150
M3 M8
G0 Z   3.000 
G1 Z  -1.500
F400
G1 X2296.190 Y 704.890
G1 X2274.250 Y 772.430
G1 X2331.700 Y 730.690
G1 X2389.150 Y 772.430
G1 X2367.200 Y 704.890
G1 X2424.650 Y 663.150
G1 X2353.640 Y 663.150
G1 X2331.700 Y 595.620
G1 X2309.750 Y 663.150
G1 X2238.740 Y 663.150
F150
G1 Z  -3.000
F400
G1 X2296.190 Y 704.890
G1 X2274.250 Y 772.430
G1 X2331.700 Y 730.690
G1 X2389.150 Y 772.430
G1 X2367.200 Y 704.890
G1 X2424.650 Y 663.150
G1 X2353.640 Y 663.150
G1 X2331.700 Y 595.620
G1 X2309.750 Y 663.150
G1 X2238.740 Y 663.150
F150
G1 Z   3.000
G0 Z  15.000 
M9 M5

(* SHAPE Nr: 112 *)
G0 X2258.560 Y 541.470
M3 M8
G0 Z   3.000 
G1 Z  -1.500
F400
G1 X2329.570 Y 541.470
G1 X2351.510 Y 609.000
G1 X2373.460 Y 541.470
G1 X2444.470 Y 541.470
G1 X2387.020 Y 499.730
G1 X2408.960 Y 432.190
G1 X2351.510 Y 473.930
G1 X2294.060 Y 432.190
G1 X2316.010 Y 499.730
G1 X2258.560 Y 541.470
F150
G1 Z  -3.000
F400
G1 X2329.570 Y 541.470
G1 X2351.510 Y 609.000
G1 X2373.460 Y 541.470
G1 X2444.470 Y 541.470
G1 X2387.020 Y 499.730
G1 X2408.960 Y 432.190
G1 X2351.510 Y 473.930
G1 X2294.060 Y 432.190
G1 X2316.010 Y 499.730
G1 X2258.560 Y 541.470
F150
G1 Z   3.000
G0 Z  15.000 
M9 M5

(* SHAPE Nr: 113 *)
G0 X2325.540 Y 287.960
M3 M8
G0 Z   3.000 
G1 Z  -1.500
F400
G1 X2367.280 Y 345.410
G1 X2325.540 Y 402.860
G1 X2393.080 Y 380.910
G1 X2434.820 Y 438.360
G1 X2434.820 Y 367.350
G1 X2502.350 Y 345.410
G1 X2434.820 Y 323.460
G1 X2434.820 Y 252.450
G1 X2393.080 Y 309.900
G1 X2325.540 Y 287.960
F150
G1 Z  -3.000
F400
G1 X2367.280 Y 345.410
G1 X2325.540 Y 402.860
G1 X2393.080 Y 380.910
G1 X2434.820 Y 438.360
G1 X2434.820 Y 367.350
G1 X2502.350 Y 345.410
G1 X2434.820 Y 323.460
G1 X2434.820 Y 252.450
G1 X2393.080 Y 309.900
G1 X2325.540 Y 287.960
F150
G1 Z   3.000
G0 Z  15.000 
M9 M5

(* SHAPE Nr: 114 *)
G0 X2463.730 Y 317.390
M3 M8
G0 Z   3.000 
G1 Z  -1.500
F400
G1 X2531.260 Y 339.340
G1 X2531.260 Y 410.350
G1 X2573.000 Y 352.900
G1 X2640.540 Y 374.840
G1 X2598.800 Y 317.390
G1 X2640.540 Y 259.940
G1 X2573.000 Y 281.890
G1 X2531.260 Y 224.440
G1 X2531.260 Y 295.450
G1 X2463.730 Y 317.390
F150
G1 Z  -3.000
F400
G1 X2531.260 Y 339.340
G1 X2531.260 Y 410.350
G1 X2573.000 Y 352.900
G1 X2640.540 Y 374.840
G1 X2598.800 Y 317.390
G1 X2640.540 Y 259.940
G1 X2573.000 Y 281.890
G1 X2531.260 Y 224.440
G1 X2531.260 Y 295.450
G1 X2463.730 Y 317.390
F150
G1 Z   3.000
G0 Z  15.000 
M9 M5

(* SHAPE Nr: 115 *)
G0 X2556.730 Y 427.940
M3 M8
G0 Z   3.000 
G1 Z  -1.500
F400
G1 X2598.470 Y 485.390
G1 X2556.730 Y 542.840
G1 X2624.270 Y 520.890
G1 X2666.010 Y 578.340
G1 X2666.010 Y 507.330
G1 X2733.540 Y 485.390
G1 X2666.010 Y 463.440
G1 X2666.010 Y 392.430
G1 X2624.270 Y 449.880
G1 X2556.730 Y 427.940
F150
G1 Z  -3.000
F400
G1 X2598.470 Y 485.390
G1 X2556.730 Y 542.840
G1 X2624.270 Y 520.890
G1 X2666.010 Y 578.340
G1 X2666.010 Y 507.330
G1 X2733.540 Y 485.390
G1 X2666.010 Y 463.440
G1 X2666.010 Y 392.430
G1 X2624.270 Y 449.880
G1 X2556.730 Y 427.940
F150
G1 Z   3.000
G0 Z  15.000 
M9 M5

(* SHAPE Nr: 116 *)
G0 X2096.530 Y 209.530
M3 M8
G0 Z   3.000 
G1 Z  -1.500
F400
G1 X2164.060 Y 231.480
G1 X2164.060 Y 302.490
G1 X2205.800 Y 245.040
G1 X2273.340 Y 266.980
G1 X2231.600 Y 209.530
G1 X2273.340 Y 152.080
G1 X2205.800 Y 174.030
G1 X2164.060 Y 116.580
G1 X2164.060 Y 187.590
G1 X2096.530 Y 209.530
F150
G1 Z  -3.000
F400
G1 X2164.060 Y 231.480
G1 X2164.060 Y 302.490
G1 X2205.800 Y 245.040
G1 X2273.340 Y 266.980
G1 X2231.600 Y 209.530
G1 X2273.340 Y 152.080
G1 X2205.800 Y 174.030
G1 X2164.060 Y 116.580
G1 X2164.060 Y 187.590
G1 X2096.530 Y 209.530
F150
G1 Z   3.000
G0 Z  15.000 
M9 M5

(* SHAPE Nr: 117 *)
G0 X1972.530 Y 184.740
M3 M8
G0 Z   3.000 
G1 Z  -1.500
F400
G1 X2014.270 Y 242.190
G1 X1972.530 Y 299.640
G1 X2040.070 Y 277.690
G1 X2081.810 Y 335.140
G1 X2081.810 Y 264.130
G1 X2149.340 Y 242.190
G1 X2081.810 Y 220.240
G1 X2081.810 Y 149.230
G1 X2040.070 Y 206.680
G1 X1972.530 Y 184.740
F150
G1 Z  -3.000
F400
G1 X2014.270 Y 242.190
G1 X1972.530 Y 299.640
G1 X2040.070 Y 277.690
G1 X2081.810 Y 335.140
G1 X2081.810 Y 264.130
G1 X2149.340 Y 242.190
G1 X2081.810 Y 220.240
G1 X2081.810 Y 149.230
G1 X2040.070 Y 206.680
G1 X1972.530 Y 184.740
F150
G1 Z   3.000
G0 Z  15.000 
M9 M5

(* SHAPE Nr: 119 *)
G0 X 908.590 Y1190.680
M3 M8
G0 Z   3.000 
G1 Z  -1.500
F400
G1 X 950.330 Y1248.130
G1 X 908.590 Y1305.580
G1 X 976.130 Y1283.630
G1 X1017.870 Y1341.080
G1 X1017.870 Y1270.070
G1 X1085.400 Y1248.130
G1 X1017.870 Y1226.180
G1 X1017.870 Y1155.170
G1 X 976.130 Y1212.620
G1 X 908.590 Y1190.680
F150
G1 Z  -3.000
F400
G1 X 950.330 Y1248.130
G1 X 908.590 Y1305.580
G1 X 976.130 Y1283.630
G1 X1017.870 Y1341.080
G1 X1017.870 Y1270.070
G1 X1085.400 Y1248.130
G1 X1017.870 Y1226.180
G1 X1017.870 Y1155.170
G1 X 976.130 Y1212.620
G1 X 908.590 Y1190.680
F150
G1 Z   3.000
G0 Z  15.000 
M9 M5

(* SHAPE Nr: 120 *)
G0 X 446.110 Y1345.530
M3 M8
G0 Z   3.000 
G1 Z  -1.500
F400
G1 X 424.160 Y1413.060
G1 X 353.150 Y1413.060
G1 X 410.600 Y1454.800
G1 X 388.660 Y1522.340
G1 X 446.110 Y1480.600
G1 X 503.560 Y1522.340
G1 X 481.610 Y1454.800
G1 X 539.060 Y1413.060
G1 X 468.050 Y1413.060
G1 X 446.110 Y1345.530
F150
G1 Z  -3.000
F400
G1 X 424.160 Y1413.060
G1 X 353.150 Y1413.060
G1 X 410.600 Y1454.800
G1 X 388.660 Y1522.340
G1 X 446.110 Y1480.600
G1 X 503.560 Y1522.340
G1 X 481.610 Y1454.800
G1 X 539.060 Y1413.060
G1 X 468.050 Y1413.060
G1 X 446.110 Y1345.530
F150
G1 Z   3.000
G0 Z  15.000 
M9 M5

(* SHAPE Nr: 121 *)
G0 X 674.590 Y 582.620
M3 M8
G0 Z   3.000 
G1 Z  -1.500
F400
G1 X 696.540 Y 650.160
G1 X 639.090 Y 691.900
G1 X 710.100 Y 691.900
G1 X 732.040 Y 759.430
G1 X 753.990 Y 691.900
G1 X 825.000 Y 691.900
G1 X 767.550 Y 650.160
G1 X 789.490 Y 582.620
G1 X 732.040 Y 624.360
G1 X 674.590 Y 582.620
F150
G1 Z  -3.000
F400
G1 X 696.540 Y 650.160
G1 X 639.090 Y 691.900
G1 X 710.100 Y 691.900
G1 X 732.040 Y 759.430
G1 X 753.990 Y 691.900
G1 X 825.000 Y 691.900
G1 X 767.550 Y 650.160
G1 X 789.490 Y 582.620
G1 X 732.040 Y 624.360
G1 X 674.590 Y 582.620
F150
G1 Z   3.000
G0 Z  15.000 
M9 M5

(*** LAYER: BORDER_D0_T132_RK1_A0_W0_EM1_RI1_ID0011 ***)

(* SHAPE Nr: 44 *)
G0 X 843.130 Y 661.080
M3 M8
G0 Z   3.000 
G1 Z  -1.500
F400
G1 X 843.130 Y 717.510
G1 X 794.260 Y 745.720
G1 X 843.130 Y 773.940
G1 X 843.130 Y 830.370
G1 X 892.000 Y 802.160
G1 X 940.870 Y 830.370
G1 X 940.870 Y 773.940
G1 X 989.740 Y 745.720
G1 X 940.870 Y 717.510
G1 X 940.870 Y 661.080
G1 X 892.000 Y 689.300
G1 X 843.130 Y 661.080
F150
G1 Z  -3.000
F400
G1 X 843.130 Y 717.510
G1 X 794.260 Y 745.720
G1 X 843.130 Y 773.940
G1 X 843.130 Y 830.370
G1 X 892.000 Y 802.160
G1 X 940.870 Y 830.370
G1 X 940.870 Y 773.940
G1 X 989.740 Y 745.720
G1 X 940.870 Y 717.510
G1 X 940.870 Y 661.080
G1 X 892.000 Y 689.300
G1 X 843.130 Y 661.080
F150
G1 Z   3.000
G0 Z  15.000 
M9 M5

(*** LAYER: BORDER_D0_T132_RK1_A0_W0_EM1_RI1_ID0020 ***)

(* SHAPE Nr: 123 *)
G0 X2658.760 Y1548.120
M3 M8
G0 Z   3.000 
G1 Z  -1.500
F400
G1 X2658.760 Y1794.060
G1 X2658.760 Y2040.000
G2 X2675.730 Y2036.260 I  -0.189 J -41.227
G2 X2692.190 Y2025.170 I -25.634 J -55.807
G2 X2707.630 Y2007.050 I -72.417 J -77.344
G2 X2721.590 Y1982.460 I-146.917 J -99.664
G2 X2733.630 Y1952.150 I-246.893 J-115.619
G2 X2743.400 Y1917.030 I-361.196 J-119.400
G2 X2750.610 Y1878.180 I-472.487 J-107.781
G2 X2755.010 Y1836.770 I-561.472 J -80.598
G2 X2756.500 Y1794.060 I-611.416 J -42.711
G2 X2755.010 Y1751.350 I-612.906 J   0.001
G2 X2750.610 Y1709.940 I-565.872 J  39.188
G2 X2743.400 Y1671.090 I-479.697 J  68.931
G2 X2733.630 Y1635.970 I-370.966 J  84.280
G2 X2721.590 Y1605.660 I-258.933 J  85.309
G2 X2707.630 Y1581.070 I-160.877 J  75.074
G2 X2692.190 Y1562.950 I -87.857 J  59.224
G2 X2675.730 Y1551.860 I -42.094 J  44.717
G2 X2658.760 Y1548.120 I -17.159 J  37.487
F150
G1 Z  -3.000
F400
G1 X2658.760 Y1794.060
G1 X2658.760 Y2040.000
G2 X2675.730 Y2036.260 I  -0.189 J -41.227
G2 X2692.190 Y2025.170 I -25.634 J -55.807
G2 X2707.630 Y2007.050 I -72.417 J -77.344
G2 X2721.590 Y1982.460 I-146.917 J -99.664
G2 X2733.630 Y1952.150 I-246.893 J-115.619
G2 X2743.400 Y1917.030 I-361.196 J-119.400
G2 X2750.610 Y1878.180 I-472.487 J-107.781
G2 X2755.010 Y1836.770 I-561.472 J -80.598
G2 X2756.500 Y1794.060 I-611.416 J -42.711
G2 X2755.010 Y1751.350 I-612.906 J   0.001
G2 X2750.610 Y1709.940 I-565.872 J  39.188
G2 X2743.400 Y1671.090 I-479.697 J  68.931
G2 X2733.630 Y1635.970 I-370.966 J  84.280
G2 X2721.590 Y1605.660 I-258.933 J  85.309
G2 X2707.630 Y1581.070 I-160.877 J  75.074
G2 X2692.190 Y1562.950 I -87.857 J  59.224
G2 X2675.730 Y1551.860 I -42.094 J  44.717
G2 X2658.760 Y1548.120 I -17.159 J  37.487
F150
G1 Z   3.000
G0 Z  15.000 
M9 M5

(* SHAPE Nr: 124 *)
G0 X2701.410 Y1164.830
M3 M8
G0 Z   3.000 
G1 Z  -1.500
F400
G2 X2689.370 Y1195.140 I 246.893 J 115.619
G2 X2679.600 Y1230.260 I 361.196 J 119.400
G2 X2672.390 Y1269.110 I 472.487 J 107.781
G2 X2667.990 Y1310.520 I 561.472 J  80.598
G2 X2666.500 Y1353.230 I 611.451 J  42.712
G2 X2667.990 Y1395.940 I 612.906 J  -0.001
G2 X2672.390 Y1437.350 I 565.872 J -39.188
G2 X2679.600 Y1476.200 I 479.697 J -68.931
G2 X2689.370 Y1511.320 I 370.966 J -84.280
G2 X2701.410 Y1541.630 I 258.933 J -85.309
G2 X2715.370 Y1566.220 I 160.877 J -75.074
G2 X2730.810 Y1584.340 I  87.857 J -59.224
G2 X2747.270 Y1595.430 I  42.094 J -44.717
G2 X2764.240 Y1599.170 I  17.159 J -37.487
G1 X2764.240 Y1353.230
G1 X2764.240 Y1107.290
G2 X2747.270 Y1111.030 I   0.189 J  41.227
G2 X2730.810 Y1122.120 I  25.634 J  55.807
G2 X2715.370 Y1140.240 I  72.418 J  77.345
G2 X2701.410 Y1164.830 I 146.913 J  99.662
F150
G1 Z  -3.000
F400
G2 X2689.370 Y1195.140 I 246.893 J 115.619
G2 X2679.600 Y1230.260 I 361.196 J 119.400
G2 X2672.390 Y1269.110 I 472.487 J 107.781
G2 X2667.990 Y1310.520 I 561.472 J  80.598
G2 X2666.500 Y1353.230 I 611.451 J  42.712
G2 X2667.990 Y1395.940 I 612.906 J  -0.001
G2 X2672.390 Y1437.350 I 565.872 J -39.188
G2 X2679.600 Y1476.200 I 479.697 J -68.931
G2 X2689.370 Y1511.320 I 370.966 J -84.280
G2 X2701.410 Y1541.630 I 258.933 J -85.309
G2 X2715.370 Y1566.220 I 160.877 J -75.074
G2 X2730.810 Y1584.340 I  87.857 J -59.224
G2 X2747.270 Y1595.430 I  42.094 J -44.717
G2 X2764.240 Y1599.170 I  17.159 J -37.487
G1 X2764.240 Y1353.230
G1 X2764.240 Y1107.290
G2 X2747.270 Y1111.030 I   0.189 J  41.227
G2 X2730.810 Y1122.120 I  25.634 J  55.807
G2 X2715.370 Y1140.240 I  72.418 J  77.345
G2 X2701.410 Y1164.830 I 146.913 J  99.662
F150
G1 Z   3.000
G0 Z  15.000 
M9 M5

(* SHAPE Nr: 125 *)
G0 X 534.630 Y1326.660
M3 M8
G0 Z   3.000 
G1 Z  -1.500
F400
G2 X 510.040 Y1340.620 I  75.072 J 160.873
G2 X 491.920 Y1356.060 I  59.225 J  87.858
G2 X 480.830 Y1372.520 I  44.717 J  42.094
G2 X 477.090 Y1389.490 I  37.487 J  17.159
G1 X 723.030 Y1389.490
G1 X 968.970 Y1389.490
G2 X 965.230 Y1372.520 I -41.227 J   0.189
G2 X 954.140 Y1356.060 I -55.807 J  25.634
G2 X 936.020 Y1340.620 I -77.345 J  72.418
G2 X 911.430 Y1326.660 I -99.664 J 146.917
G2 X 881.120 Y1314.620 I-115.619 J 246.893
G2 X 846.000 Y1304.850 I-119.400 J 361.196
G2 X 807.150 Y1297.640 I-107.781 J 472.487
G2 X 765.740 Y1293.240 I -80.598 J 561.472
G2 X 723.030 Y1291.750 I -42.711 J 611.416
G2 X 680.320 Y1293.240 I   0.001 J 612.906
G2 X 638.910 Y1297.640 I  39.188 J 565.872
G2 X 600.060 Y1304.850 I  68.931 J 479.697
G2 X 564.940 Y1314.620 I  84.280 J 370.966
G2 X 534.630 Y1326.660 I  85.309 J 258.933
F150
G1 Z  -3.000
F400
G2 X 510.040 Y1340.620 I  75.072 J 160.873
G2 X 491.920 Y1356.060 I  59.225 J  87.858
G2 X 480.830 Y1372.520 I  44.717 J  42.094
G2 X 477.090 Y1389.490 I  37.487 J  17.159
G1 X 723.030 Y1389.490
G1 X 968.970 Y1389.490
G2 X 965.230 Y1372.520 I -41.227 J   0.189
G2 X 954.140 Y1356.060 I -55.807 J  25.634
G2 X 936.020 Y1340.620 I -77.345 J  72.418
G2 X 911.430 Y1326.660 I -99.664 J 146.917
G2 X 881.120 Y1314.620 I-115.619 J 246.893
G2 X 846.000 Y1304.850 I-119.400 J 361.196
G2 X 807.150 Y1297.640 I-107.781 J 472.487
G2 X 765.740 Y1293.240 I -80.598 J 561.472
G2 X 723.030 Y1291.750 I -42.711 J 611.416
G2 X 680.320 Y1293.240 I   0.001 J 612.906
G2 X 638.910 Y1297.640 I  39.188 J 565.872
G2 X 600.060 Y1304.850 I  68.931 J 479.697
G2 X 564.940 Y1314.620 I  84.280 J 370.966
G2 X 534.630 Y1326.660 I  85.309 J 258.933
F150
G1 Z   3.000
G0 Z  15.000 
M9 M5

(* SHAPE Nr: 126 *)
G0 X 423.430 Y1174.000
M3 M8
G0 Z   3.000 
G1 Z  -1.500
F400
G2 X 393.120 Y1186.040 I  85.309 J 258.933
G2 X 368.530 Y1200.000 I  75.074 J 160.877
G2 X 350.410 Y1215.440 I  59.225 J  87.858
G2 X 339.320 Y1231.900 I  44.717 J  42.094
G2 X 335.580 Y1248.870 I  37.487 J  17.159
G1 X 581.520 Y1248.870
G1 X 827.460 Y1248.870
G2 X 823.720 Y1231.900 I -41.227 J   0.189
G2 X 812.630 Y1215.440 I -55.807 J  25.634
G2 X 794.510 Y1200.000 I -77.345 J  72.418
G2 X 769.920 Y1186.040 I -99.664 J 146.917
G2 X 739.610 Y1174.000 I-115.619 J 246.893
G2 X 704.490 Y1164.230 I-119.400 J 361.196
G2 X 665.640 Y1157.020 I-107.781 J 472.487
G2 X 624.230 Y1152.620 I -80.598 J 561.472
G2 X 581.520 Y1151.130 I -42.711 J 611.416
G2 X 538.810 Y1152.620 I   0.001 J 612.906
G2 X 497.400 Y1157.020 I  39.188 J 565.872
G2 X 458.550 Y1164.230 I  68.931 J 479.697
G2 X 423.430 Y1174.000 I  84.280 J 370.966
F150
G1 Z  -3.000
F400
G2 X 393.120 Y1186.040 I  85.309 J 258.933
G2 X 368.530 Y1200.000 I  75.074 J 160.877
G2 X 350.410 Y1215.440 I  59.225 J  87.858
G2 X 339.320 Y1231.900 I  44.717 J  42.094
G2 X 335.580 Y1248.870 I  37.487 J  17.159
G1 X 581.520 Y1248.870
G1 X 827.460 Y1248.870
G2 X 823.720 Y1231.900 I -41.227 J   0.189
G2 X 812.630 Y1215.440 I -55.807 J  25.634
G2 X 794.510 Y1200.000 I -77.345 J  72.418
G2 X 769.920 Y1186.040 I -99.664 J 146.917
G2 X 739.610 Y1174.000 I-115.619 J 246.893
G2 X 704.490 Y1164.230 I-119.400 J 361.196
G2 X 665.640 Y1157.020 I-107.781 J 472.487
G2 X 624.230 Y1152.620 I -80.598 J 561.472
G2 X 581.520 Y1151.130 I -42.711 J 611.416
G2 X 538.810 Y1152.620 I   0.001 J 612.906
G2 X 497.400 Y1157.020 I  39.188 J 565.872
G2 X 458.550 Y1164.230 I  68.931 J 479.697
G2 X 423.430 Y1174.000 I  84.280 J 370.966
F150
G1 Z   3.000
G0 Z  15.000 
M9 M5

(* SHAPE Nr: 127 *)
G0 X 636.640 Y1087.760
M3 M8
G0 Z   3.000 
G1 Z  -1.500
F400
G2 X 618.520 Y1103.200 I  59.225 J  87.858
G2 X 607.430 Y1119.660 I  44.717 J  42.094
G2 X 603.690 Y1136.630 I  37.487 J  17.159
G1 X 849.630 Y1136.630
G1 X1095.570 Y1136.630
G2 X1091.830 Y1119.660 I -41.227 J   0.189
G2 X1080.740 Y1103.200 I -55.807 J  25.634
G2 X1062.620 Y1087.760 I -77.345 J  72.418
G2 X1038.030 Y1073.800 I -99.664 J 146.917
G2 X1007.720 Y1061.760 I-115.619 J 246.893
G2 X 972.600 Y1051.990 I-119.400 J 361.196
G2 X 933.750 Y1044.780 I-107.781 J 472.487
G2 X 892.340 Y1040.380 I -80.598 J 561.472
G2 X 849.630 Y1038.890 I -42.711 J 611.416
G2 X 806.920 Y1040.380 I   0.001 J 612.906
G2 X 765.510 Y1044.780 I  39.188 J 565.872
G2 X 726.660 Y1051.990 I  68.931 J 479.697
G2 X 691.540 Y1061.760 I  84.280 J 370.966
G2 X 661.230 Y1073.800 I  85.309 J 258.933
G2 X 636.640 Y1087.760 I  75.074 J 160.877
F150
G1 Z  -3.000
F400
G2 X 618.520 Y1103.200 I  59.225 J  87.858
G2 X 607.430 Y1119.660 I  44.717 J  42.094
G2 X 603.690 Y1136.630 I  37.487 J  17.159
G1 X 849.630 Y1136.630
G1 X1095.570 Y1136.630
G2 X1091.830 Y1119.660 I -41.227 J   0.189
G2 X1080.740 Y1103.200 I -55.807 J  25.634
G2 X1062.620 Y1087.760 I -77.345 J  72.418
G2 X1038.030 Y1073.800 I -99.664 J 146.917
G2 X1007.720 Y1061.760 I-115.619 J 246.893
G2 X 972.600 Y1051.990 I-119.400 J 361.196
G2 X 933.750 Y1044.780 I-107.781 J 472.487
G2 X 892.340 Y1040.380 I -80.598 J 561.472
G2 X 849.630 Y1038.890 I -42.711 J 611.416
G2 X 806.920 Y1040.380 I   0.001 J 612.906
G2 X 765.510 Y1044.780 I  39.188 J 565.872
G2 X 726.660 Y1051.990 I  68.931 J 479.697
G2 X 691.540 Y1061.760 I  84.280 J 370.966
G2 X 661.230 Y1073.800 I  85.309 J 258.933
G2 X 636.640 Y1087.760 I  75.074 J 160.877
F150
G1 Z   3.000
G0 Z  15.000 
M9 M5

(* SHAPE Nr: 128 *)
G0 X 205.960 Y1732.080
M3 M8
G0 Z   3.000 
G1 Z  -1.500
F400
G2 X 209.700 Y1749.050 I  41.227 J  -0.189
G2 X 220.790 Y1765.510 I  55.807 J -25.634
G2 X 238.910 Y1780.950 I  77.345 J -72.418
G2 X 263.500 Y1794.910 I  99.664 J-146.917
G2 X 293.810 Y1806.950 I 115.619 J-246.893
G2 X 328.930 Y1816.720 I 119.400 J-361.196
G2 X 367.780 Y1823.930 I 107.781 J-472.487
G2 X 409.190 Y1828.330 I  80.598 J-561.472
G2 X 451.900 Y1829.820 I  42.711 J-611.416
G2 X 494.610 Y1828.330 I  -0.001 J-612.906
G2 X 536.020 Y1823.930 I -39.188 J-565.872
G2 X 574.870 Y1816.720 I -68.931 J-479.697
G2 X 609.990 Y1806.950 I -84.280 J-370.966
G2 X 640.300 Y1794.910 I -85.309 J-258.933
G2 X 664.890 Y1780.950 I -75.074 J-160.877
G2 X 683.010 Y1765.510 I -59.225 J -87.858
G2 X 694.100 Y1749.050 I -44.717 J -42.094
G2 X 697.840 Y1732.080 I -37.487 J -17.159
G1 X 451.900 Y1732.080
G1 X 205.960 Y1732.080
F150
G1 Z  -3.000
F400
G2 X 209.700 Y1749.050 I  41.227 J  -0.189
G2 X 220.790 Y1765.510 I  55.807 J -25.634
G2 X 238.910 Y1780.950 I  77.345 J -72.418
G2 X 263.500 Y1794.910 I  99.664 J-146.917
G2 X 293.810 Y1806.950 I 115.619 J-246.893
G2 X 328.930 Y1816.720 I 119.400 J-361.196
G2 X 367.780 Y1823.930 I 107.781 J-472.487
G2 X 409.190 Y1828.330 I  80.598 J-561.472
G2 X 451.900 Y1829.820 I  42.711 J-611.416
G2 X 494.610 Y1828.330 I  -0.001 J-612.906
G2 X 536.020 Y1823.930 I -39.188 J-565.872
G2 X 574.870 Y1816.720 I -68.931 J-479.697
G2 X 609.990 Y1806.950 I -84.280 J-370.966
G2 X 640.300 Y1794.910 I -85.309 J-258.933
G2 X 664.890 Y1780.950 I -75.074 J-160.877
G2 X 683.010 Y1765.510 I -59.225 J -87.858
G2 X 694.100 Y1749.050 I -44.717 J -42.094
G2 X 697.840 Y1732.080 I -37.487 J -17.159
G1 X 451.900 Y1732.080
G1 X 205.960 Y1732.080
F150
G1 Z   3.000
G0 Z  15.000 
M9 M5

(* SHAPE Nr: 129 *)
G0 X 714.190 Y1766.990
M3 M8
G0 Z   3.000 
G1 Z  -1.500
F400
G2 X 689.600 Y1780.950 I  75.074 J 160.877
G2 X 671.480 Y1796.390 I  59.224 J  87.857
G2 X 660.390 Y1812.850 I  44.717 J  42.094
G2 X 656.650 Y1829.820 I  37.486 J  17.159
G1 X 902.590 Y1829.820
G1 X1148.530 Y1829.820
G2 X1144.790 Y1812.850 I -41.226 J   0.189
G2 X1133.700 Y1796.390 I -55.807 J  25.634
G2 X1115.580 Y1780.950 I -77.344 J  72.417
G2 X1090.990 Y1766.990 I -99.664 J 146.917
G2 X1060.680 Y1754.950 I-115.619 J 246.893
G2 X1025.560 Y1745.180 I-119.400 J 361.196
G2 X 986.710 Y1737.970 I-107.781 J 472.487
G2 X 945.300 Y1733.570 I -80.598 J 561.472
G2 X 902.590 Y1732.080 I -42.711 J 611.416
G2 X 859.880 Y1733.570 I   0.001 J 612.906
G2 X 818.470 Y1737.970 I  39.188 J 565.872
G2 X 779.620 Y1745.180 I  68.931 J 479.697
G2 X 744.500 Y1754.950 I  84.280 J 370.966
G2 X 714.190 Y1766.990 I  85.309 J 258.933
F150
G1 Z  -3.000
F400
G2 X 689.600 Y1780.950 I  75.074 J 160.877
G2 X 671.480 Y1796.390 I  59.224 J  87.857
G2 X 660.390 Y1812.850 I  44.717 J  42.094
G2 X 656.650 Y1829.820 I  37.486 J  17.159
G1 X 902.590 Y1829.820
G1 X1148.530 Y1829.820
G2 X1144.790 Y1812.850 I -41.226 J   0.189
G2 X1133.700 Y1796.390 I -55.807 J  25.634
G2 X1115.580 Y1780.950 I -77.344 J  72.417
G2 X1090.990 Y1766.990 I -99.664 J 146.917
G2 X1060.680 Y1754.950 I-115.619 J 246.893
G2 X1025.560 Y1745.180 I-119.400 J 361.196
G2 X 986.710 Y1737.970 I-107.781 J 472.487
G2 X 945.300 Y1733.570 I -80.598 J 561.472
G2 X 902.590 Y1732.080 I -42.711 J 611.416
G2 X 859.880 Y1733.570 I   0.001 J 612.906
G2 X 818.470 Y1737.970 I  39.188 J 565.872
