(Generated with: DXF2GCODE, Version: REMOVED, Date: $Date$)
(Created from file: )
(Output format description: G-CODE for LinuxCNC)
(Time: Thu Sep 13 16:00:25 2018)
G21 (Units in millimeters)
G90 (Absolute programming)
G64 (Default cutting) G17 (XY plane) G40 (Cancel radius comp.) G49 (Cancel length comp.)
G0 Z  15.000 

(*** LAYER: FRAME_Z18 ***)
T1 M6
S6000

(* SHAPE Nr: 49 *)
G0 X   0.000 Y   0.000
M3 M8
G0 Z   3.000 
F150
G1 Z  -1.500
F400
G1 X   0.000 Y2050.000
G1 X2800.000 Y2050.000
G1 X2800.000 Y   0.000
G1 X   0.000 Y   0.000
F150
G1 Z  -3.000
F400
G1 X   0.000 Y2050.000
G1 X2800.000 Y2050.000
G1 X2800.000 Y   0.000
G1 X   0.000 Y   0.000
F150
G1 Z   3.000
G0 Z  15.000 
M9 M5

(*** LAYER: BORDER_D0_T132_RK1_A0_W0_EM1_RI1_ID0015 ***)

(* SHAPE Nr: 0 *)
G0 X  10.000 Y 114.300
M3 M8
G0 Z   3.000 
G1 Z  -1.500
F400
G1 X  71.490 Y 133.850
G1 X  71.490 Y 192.490
G1 X  10.000 Y 212.040
G1 X 378.910 Y 260.910
G1 X 501.880 Y 228.330
G1 X 501.880 Y 163.170
G1 X 501.880 Y  98.010
G1 X 378.910 Y  65.430
G1 X  10.000 Y 114.300
F150
G1 Z  -3.000
F400
G1 X  71.490 Y 133.850
G1 X  71.490 Y 192.490
G1 X  10.000 Y 212.040
G1 X 378.910 Y 260.910
G1 X 501.880 Y 228.330
G1 X 501.880 Y 163.170
G1 X 501.880 Y  98.010
G1 X 378.910 Y  65.430
G1 X  10.000 Y 114.300
F150
G1 Z   3.000
G0 Z  15.000 
M9 M5

(* SHAPE Nr: 1 *)
G0 X 517.560 Y 191.260
M3 M8
G0 Z   3.000 
G1 Z  -1.500
F400
G1 X 517.560 Y 256.420
G1 X 517.560 Y 321.580
G1 X 640.530 Y 354.160
G1 X1009.440 Y 305.290
G1 X 947.950 Y 285.740
G1 X 947.950 Y 227.100
G1 X1009.440 Y 207.550
G1 X 640.530 Y 158.680
G1 X 517.560 Y 191.260
F150
G1 Z  -3.000
F400
G1 X 517.560 Y 256.420
G1 X 517.560 Y 321.580
G1 X 640.530 Y 354.160
G1 X1009.440 Y 305.290
G1 X 947.950 Y 285.740
G1 X 947.950 Y 227.100
G1 X1009.440 Y 207.550
G1 X 640.530 Y 158.680
G1 X 517.560 Y 191.260
F150
G1 Z   3.000
G0 Z  15.000 
M9 M5

(* SHAPE Nr: 2 *)
G0 X  10.000 Y 275.830
M3 M8
G0 Z   3.000 
G1 Z  -1.500
F400
G1 X  10.000 Y 340.990
G1 X  10.000 Y 406.150
G1 X 132.970 Y 438.730
G1 X 501.880 Y 389.860
G1 X 440.390 Y 370.310
G1 X 440.390 Y 311.670
G1 X 501.880 Y 292.120
G1 X 132.970 Y 243.250
G1 X  10.000 Y 275.830
F150
G1 Z  -3.000
F400
G1 X  10.000 Y 340.990
G1 X  10.000 Y 406.150
G1 X 132.970 Y 438.730
G1 X 501.880 Y 389.860
G1 X 440.390 Y 370.310
G1 X 440.390 Y 311.670
G1 X 501.880 Y 292.120
G1 X 132.970 Y 243.250
G1 X  10.000 Y 275.830
F150
G1 Z   3.000
G0 Z  15.000 
M9 M5

(* SHAPE Nr: 3 *)
G0 X 517.060 Y 385.380
M3 M8
G0 Z   3.000 
G1 Z  -1.500
F400
G1 X 578.550 Y 404.930
G1 X 578.550 Y 463.570
G1 X 517.060 Y 483.120
G1 X 885.970 Y 531.990
G1 X1008.940 Y 499.410
G1 X1008.940 Y 434.250
G1 X1008.940 Y 369.090
G1 X 885.970 Y 336.510
G1 X 517.060 Y 385.380
F150
G1 Z  -3.000
F400
G1 X 578.550 Y 404.930
G1 X 578.550 Y 463.570
G1 X 517.060 Y 483.120
G1 X 885.970 Y 531.990
G1 X1008.940 Y 499.410
G1 X1008.940 Y 434.250
G1 X1008.940 Y 369.090
G1 X 885.970 Y 336.510
G1 X 517.060 Y 385.380
F150
G1 Z   3.000
G0 Z  15.000 
M9 M5

(* SHAPE Nr: 17 *)
G0 X2430.920 Y1548.120
M3 M8
G0 Z   3.000 
G1 Z  -1.500
F400
G1 X2382.050 Y1917.030
G1 X2414.630 Y2040.000
G1 X2479.790 Y2040.000
G1 X2544.950 Y2040.000
G1 X2577.530 Y1917.030
G1 X2528.660 Y1548.120
G1 X2509.110 Y1609.610
G1 X2450.470 Y1609.610
G1 X2430.920 Y1548.120
F150
G1 Z  -3.000
F400
G1 X2382.050 Y1917.030
G1 X2414.630 Y2040.000
G1 X2479.790 Y2040.000
G1 X2544.950 Y2040.000
G1 X2577.530 Y1917.030
G1 X2528.660 Y1548.120
G1 X2509.110 Y1609.610
G1 X2450.470 Y1609.610
G1 X2430.920 Y1548.120
F150
G1 Z   3.000
G0 Z  15.000 
M9 M5

(* SHAPE Nr: 18 *)
G0 X2426.410 Y1040.560
M3 M8
G0 Z   3.000 
G1 Z  -1.500
F400
G1 X2377.540 Y1409.470
G1 X2410.120 Y1532.440
G1 X2475.280 Y1532.440
G1 X2540.440 Y1532.440
G1 X2573.020 Y1409.470
G1 X2524.150 Y1040.560
G1 X2504.600 Y1102.050
G1 X2445.960 Y1102.050
G1 X2426.410 Y1040.560
F150
G1 Z  -3.000
F400
G1 X2377.540 Y1409.470
G1 X2410.120 Y1532.440
G1 X2475.280 Y1532.440
G1 X2540.440 Y1532.440
G1 X2573.020 Y1409.470
G1 X2524.150 Y1040.560
G1 X2504.600 Y1102.050
G1 X2445.960 Y1102.050
G1 X2426.410 Y1040.560
F150
G1 Z   3.000
G0 Z  15.000 
M9 M5

(* SHAPE Nr: 19 *)
G0 X2466.050 Y 533.000
M3 M8
G0 Z   3.000 
G1 Z  -1.500
F400
G1 X2417.180 Y 901.910
G1 X2449.760 Y1024.880
G1 X2514.920 Y1024.880
G1 X2580.080 Y1024.880
G1 X2612.660 Y 901.910
G1 X2563.790 Y 533.000
G1 X2544.240 Y 594.490
G1 X2485.600 Y 594.490
G1 X2466.050 Y 533.000
F150
G1 Z  -3.000
F400
G1 X2417.180 Y 901.910
G1 X2449.760 Y1024.880
G1 X2514.920 Y1024.880
G1 X2580.080 Y1024.880
G1 X2612.660 Y 901.910
G1 X2563.790 Y 533.000
G1 X2544.240 Y 594.490
G1 X2485.600 Y 594.490
G1 X2466.050 Y 533.000
F150
G1 Z   3.000
G0 Z  15.000 
M9 M5

(* SHAPE Nr: 20 *)
G0 X2430.000 Y 394.350
M3 M8
G0 Z   3.000 
G1 Z  -1.500
F400
G1 X2462.580 Y 517.320
G1 X2527.740 Y 517.320
G1 X2592.900 Y 517.320
G1 X2625.480 Y 394.350
G1 X2576.610 Y  25.440
G1 X2557.060 Y  86.930
G1 X2498.420 Y  86.930
G1 X2478.870 Y  25.440
G1 X2430.000 Y 394.350
F150
G1 Z  -3.000
F400
G1 X2462.580 Y 517.320
G1 X2527.740 Y 517.320
G1 X2592.900 Y 517.320
G1 X2625.480 Y 394.350
G1 X2576.610 Y  25.440
G1 X2557.060 Y  86.930
G1 X2498.420 Y  86.930
G1 X2478.870 Y  25.440
G1 X2430.000 Y 394.350
F150
G1 Z   3.000
G0 Z  15.000 
M9 M5

(* SHAPE Nr: 21 *)
G0 X2254.240 Y 132.970
M3 M8
G0 Z   3.000 
G1 Z  -1.500
F400
G1 X2303.110 Y 501.880
G1 X2322.660 Y 440.390
G1 X2381.300 Y 440.390
G1 X2400.850 Y 501.880
G1 X2449.720 Y 132.970
G1 X2417.140 Y  10.000
G1 X2351.980 Y  10.000
G1 X2286.820 Y  10.000
G1 X2254.240 Y 132.970
F150
G1 Z  -3.000
F400
G1 X2303.110 Y 501.880
G1 X2322.660 Y 440.390
G1 X2381.300 Y 440.390
G1 X2400.850 Y 501.880
G1 X2449.720 Y 132.970
G1 X2417.140 Y  10.000
G1 X2351.980 Y  10.000
G1 X2286.820 Y  10.000
G1 X2254.240 Y 132.970
F150
G1 Z   3.000
G0 Z  15.000 
M9 M5

(* SHAPE Nr: 22 *)
G0 X1750.300 Y  56.760
M3 M8
G0 Z   3.000 
G1 Z  -1.500
F400
G1 X1750.300 Y 121.920
G1 X1750.300 Y 187.080
G1 X1873.270 Y 219.660
G1 X2242.180 Y 170.790
G1 X2180.690 Y 151.240
G1 X2180.690 Y  92.600
G1 X2242.180 Y  73.050
G1 X1873.270 Y  24.180
G1 X1750.300 Y  56.760
F150
G1 Z  -3.000
F400
G1 X1750.300 Y 121.920
G1 X1750.300 Y 187.080
G1 X1873.270 Y 219.660
G1 X2242.180 Y 170.790
G1 X2180.690 Y 151.240
G1 X2180.690 Y  92.600
G1 X2242.180 Y  73.050
G1 X1873.270 Y  24.180
G1 X1750.300 Y  56.760
F150
G1 Z   3.000
G0 Z  15.000 
M9 M5

(* SHAPE Nr: 23 *)
G0 X1243.420 Y 168.040
M3 M8
G0 Z   3.000 
G1 Z  -1.500
F400
G1 X1243.420 Y 233.200
G1 X1243.420 Y 298.360
G1 X1366.390 Y 330.940
G1 X1735.300 Y 282.070
G1 X1673.810 Y 262.520
G1 X1673.810 Y 203.880
G1 X1735.300 Y 184.330
G1 X1366.390 Y 135.460
G1 X1243.420 Y 168.040
F150
G1 Z  -3.000
F400
G1 X1243.420 Y 233.200
G1 X1243.420 Y 298.360
G1 X1366.390 Y 330.940
G1 X1735.300 Y 282.070
G1 X1673.810 Y 262.520
G1 X1673.810 Y 203.880
G1 X1735.300 Y 184.330
G1 X1366.390 Y 135.460
G1 X1243.420 Y 168.040
F150
G1 Z   3.000
G0 Z  15.000 
M9 M5

(* SHAPE Nr: 24 *)
G0 X 736.840 Y  58.870
M3 M8
G0 Z   3.000 
G1 Z  -1.500
F400
G1 X 798.330 Y  78.420
G1 X 798.330 Y 137.060
G1 X 736.840 Y 156.610
G1 X1105.750 Y 205.480
G1 X1228.720 Y 172.900
G1 X1228.720 Y 107.740
G1 X1228.720 Y  42.580
G1 X1105.750 Y  10.000
G1 X 736.840 Y  58.870
F150
G1 Z  -3.000
F400
G1 X 798.330 Y  78.420
G1 X 798.330 Y 137.060
G1 X 736.840 Y 156.610
G1 X1105.750 Y 205.480
G1 X1228.720 Y 172.900
G1 X1228.720 Y 107.740
G1 X1228.720 Y  42.580
G1 X1105.750 Y  10.000
G1 X 736.840 Y  58.870
F150
G1 Z   3.000
G0 Z  15.000 
M9 M5

(* SHAPE Nr: 25 *)
G0 X1247.110 Y 361.570
M3 M8
G0 Z   3.000 
G1 Z  -1.500
F400
G1 X1308.600 Y 381.120
G1 X1308.600 Y 439.760
G1 X1247.110 Y 459.310
G1 X1616.020 Y 508.180
G1 X1738.990 Y 475.600
G1 X1738.990 Y 410.440
G1 X1738.990 Y 345.280
G1 X1616.020 Y 312.700
G1 X1247.110 Y 361.570
F150
G1 Z  -3.000
F400
G1 X1308.600 Y 381.120
G1 X1308.600 Y 439.760
G1 X1247.110 Y 459.310
G1 X1616.020 Y 508.180
G1 X1738.990 Y 475.600
G1 X1738.990 Y 410.440
G1 X1738.990 Y 345.280
G1 X1616.020 Y 312.700
G1 X1247.110 Y 361.570
F150
G1 Z   3.000
G0 Z  15.000 
M9 M5

(* SHAPE Nr: 26 *)
G0 X1754.020 Y 250.610
M3 M8
G0 Z   3.000 
G1 Z  -1.500
F400
G1 X1815.510 Y 270.160
G1 X1815.510 Y 328.800
G1 X1754.020 Y 348.350
G1 X2122.930 Y 397.220
G1 X2245.900 Y 364.640
G1 X2245.900 Y 299.480
G1 X2245.900 Y 234.320
G1 X2122.930 Y 201.740
G1 X1754.020 Y 250.610
F150
G1 Z  -3.000
F400
G1 X1815.510 Y 270.160
G1 X1815.510 Y 328.800
G1 X1754.020 Y 348.350
G1 X2122.930 Y 397.220
G1 X2245.900 Y 364.640
G1 X2245.900 Y 299.480
G1 X2245.900 Y 234.320
G1 X2122.930 Y 201.740
G1 X1754.020 Y 250.610
F150
G1 Z   3.000
G0 Z  15.000 
M9 M5

(* SHAPE Nr: 28 *)
G0 X2587.900 Y1040.560
M3 M8
G0 Z   3.000 
G1 Z  -1.500
F400
G1 X2555.320 Y1163.530
G1 X2604.190 Y1532.440
G1 X2623.740 Y1470.950
G1 X2682.380 Y1470.950
G1 X2701.930 Y1532.440
G1 X2750.800 Y1163.530
G1 X2718.220 Y1040.560
G1 X2653.060 Y1040.560
G1 X2587.900 Y1040.560
F150
G1 Z  -3.000
F400
G1 X2555.320 Y1163.530
G1 X2604.190 Y1532.440
G1 X2623.740 Y1470.950
G1 X2682.380 Y1470.950
G1 X2701.930 Y1532.440
G1 X2750.800 Y1163.530
G1 X2718.220 Y1040.560
G1 X2653.060 Y1040.560
G1 X2587.900 Y1040.560
F150
G1 Z   3.000
G0 Z  15.000 
M9 M5

(* SHAPE Nr: 29 *)
G0 X2592.430 Y1548.120
M3 M8
G0 Z   3.000 
G1 Z  -1.500
F400
G1 X2559.850 Y1671.090
G1 X2608.720 Y2040.000
G1 X2628.270 Y1978.510
G1 X2686.910 Y1978.510
G1 X2706.460 Y2040.000
G1 X2755.330 Y1671.090
G1 X2722.750 Y1548.120
G1 X2657.590 Y1548.120
G1 X2592.430 Y1548.120
F150
G1 Z  -3.000
F400
G1 X2559.850 Y1671.090
G1 X2608.720 Y2040.000
G1 X2628.270 Y1978.510
G1 X2686.910 Y1978.510
G1 X2706.460 Y2040.000
G1 X2755.330 Y1671.090
G1 X2722.750 Y1548.120
G1 X2657.590 Y1548.120
G1 X2592.430 Y1548.120
F150
G1 Z   3.000
G0 Z  15.000 
M9 M5

(*** LAYER: BORDER_D0_T132_RK1_A0_W0_EM1_RI1_ID0025 ***)

(* SHAPE Nr: 4 *)
G0 X1012.860 Y 349.940
M3 M8
G0 Z   3.000 
G1 Z  -1.500
F400
G1 X1105.810 Y 417.470
G1 X1198.770 Y 349.940
G1 X1163.260 Y 240.660
G1 X1048.360 Y 240.660
G1 X1012.860 Y 349.940
F150
G1 Z  -3.000
F400
G1 X1105.810 Y 417.470
G1 X1198.770 Y 349.940
G1 X1163.260 Y 240.660
G1 X1048.360 Y 240.660
G1 X1012.860 Y 349.940
F150
G1 Z   3.000
G0 Z  15.000 
M9 M5

(* SHAPE Nr: 6 *)
G0 X1617.340 Y1109.960
M3 M8
G0 Z   3.000 
G1 Z  -1.500
F400
G1 X1549.810 Y1202.910
G1 X1617.340 Y1295.870
G1 X1726.620 Y1260.360
G1 X1726.620 Y1145.460
G1 X1617.340 Y1109.960
F150
G1 Z  -3.000
F400
G1 X1549.810 Y1202.910
G1 X1617.340 Y1295.870
G1 X1726.620 Y1260.360
G1 X1726.620 Y1145.460
G1 X1617.340 Y1109.960
F150
G1 Z   3.000
G0 Z  15.000 
M9 M5

(* SHAPE Nr: 7 *)
G0 X1440.290 Y1263.170
M3 M8
G0 Z   3.000 
G1 Z  -1.500
F400
G1 X1440.290 Y1378.070
G1 X1549.570 Y1413.570
G1 X1617.100 Y1320.620
G1 X1549.570 Y1227.660
G1 X1440.290 Y1263.170
F150
G1 Z  -3.000
F400
G1 X1440.290 Y1378.070
G1 X1549.570 Y1413.570
G1 X1617.100 Y1320.620
G1 X1549.570 Y1227.660
G1 X1440.290 Y1263.170
F150
G1 Z   3.000
G0 Z  15.000 
M9 M5

(* SHAPE Nr: 9 *)
G0 X1399.610 Y1930.720
M3 M8
G0 Z   3.000 
G1 Z  -1.500
F400
G1 X1435.120 Y2040.000
G1 X1550.020 Y2040.000
G1 X1585.520 Y1930.720
G1 X1492.570 Y1863.190
G1 X1399.610 Y1930.720
F150
G1 Z  -3.000
F400
G1 X1435.120 Y2040.000
G1 X1550.020 Y2040.000
G1 X1585.520 Y1930.720
G1 X1492.570 Y1863.190
G1 X1399.610 Y1930.720
F150
G1 Z   3.000
G0 Z  15.000 
M9 M5

(* SHAPE Nr: 11 *)
G0 X 651.880 Y1242.200
M3 M8
G0 Z   3.000 
G1 Z  -1.500
F400
G1 X 616.380 Y1351.480
G1 X 709.330 Y1419.010
G1 X 802.290 Y1351.480
G1 X 766.780 Y1242.200
G1 X 651.880 Y1242.200
F150
G1 Z  -3.000
F400
G1 X 616.380 Y1351.480
G1 X 709.330 Y1419.010
G1 X 802.290 Y1351.480
G1 X 766.780 Y1242.200
G1 X 651.880 Y1242.200
F150
G1 Z   3.000
G0 Z  15.000 
M9 M5

(* SHAPE Nr: 12 *)
G0 X 825.040 Y1107.040
M3 M8
G0 Z   3.000 
G1 Z  -1.500
F400
G1 X 757.510 Y1199.990
G1 X 825.040 Y1292.950
G1 X 934.320 Y1257.440
G1 X 934.320 Y1142.540
G1 X 825.040 Y1107.040
F150
G1 Z  -3.000
F400
G1 X 757.510 Y1199.990
G1 X 825.040 Y1292.950
G1 X 934.320 Y1257.440
G1 X 934.320 Y1142.540
G1 X 825.040 Y1107.040
F150
G1 Z   3.000
G0 Z  15.000 
M9 M5

(* SHAPE Nr: 14 *)
G0 X 119.280 Y1131.400
M3 M8
G0 Z   3.000 
G1 Z  -1.500
F400
G1 X  10.000 Y1166.910
G1 X  10.000 Y1281.810
G1 X 119.280 Y1317.310
G1 X 186.810 Y1224.360
G1 X 119.280 Y1131.400
F150
G1 Z  -3.000
F400
G1 X  10.000 Y1166.910
G1 X  10.000 Y1281.810
G1 X 119.280 Y1317.310
G1 X 186.810 Y1224.360
G1 X 119.280 Y1131.400
F150
G1 Z   3.000
G0 Z  15.000 
M9 M5

(* SHAPE Nr: 16 *)
G0 X 689.110 Y1863.190
M3 M8
G0 Z   3.000 
G1 Z  -1.500
F400
G1 X 596.150 Y1930.720
G1 X 631.660 Y2040.000
G1 X 746.560 Y2040.000
G1 X 782.060 Y1930.720
G1 X 689.110 Y1863.190
F150
G1 Z  -3.000
F400
G1 X 596.150 Y1930.720
G1 X 631.660 Y2040.000
G1 X 746.560 Y2040.000
G1 X 782.060 Y1930.720
G1 X 689.110 Y1863.190
F150
G1 Z   3.000
G0 Z  15.000 
M9 M5

(*** LAYER: BORDER_D0_T132_RK1_A0_W0_EM1_RI1_ID0026 ***)

(* SHAPE Nr: 5 *)
G0 X 813.470 Y 846.190
M3 M8
G0 Z   3.000 
G1 Z  -1.500
F400
G1 X1113.420 Y1259.040
G1 X1598.760 Y1101.340
G1 X1598.760 Y 591.030
G1 X1113.420 Y 433.330
G1 X 813.470 Y 846.190
F150
G1 Z  -3.000
F400
G1 X1113.420 Y1259.040
G1 X1598.760 Y1101.340
G1 X1598.760 Y 591.030
G1 X1113.420 Y 433.330
G1 X 813.470 Y 846.190
F150
G1 Z   3.000
G0 Z  15.000 
M9 M5

(* SHAPE Nr: 8 *)
G0 X1616.930 Y1371.990
M3 M8
G0 Z   3.000 
G1 Z  -1.500
F400
G1 X1616.930 Y1882.300
G1 X2102.270 Y2040.000
G1 X2402.220 Y1627.140
G1 X2102.270 Y1214.290
G1 X1616.930 Y1371.990
F150
G1 Z  -3.000
F400
G1 X1616.930 Y1882.300
G1 X2102.270 Y2040.000
G1 X2402.220 Y1627.140
G1 X2102.270 Y1214.290
G1 X1616.930 Y1371.990
F150
G1 Z   3.000
G0 Z  15.000 
M9 M5

(* SHAPE Nr: 10 *)
G0 X 813.470 Y1371.990
M3 M8
G0 Z   3.000 
G1 Z  -1.500
F400
G1 X 813.470 Y1882.300
G1 X1298.810 Y2040.000
G1 X1598.760 Y1627.140
G1 X1298.810 Y1214.290
G1 X 813.470 Y1371.990
F150
G1 Z  -3.000
F400
G1 X 813.470 Y1882.300
G1 X1298.810 Y2040.000
G1 X1598.760 Y1627.140
G1 X1298.810 Y1214.290
G1 X 813.470 Y1371.990
F150
G1 Z   3.000
G0 Z  15.000 
M9 M5

(* SHAPE Nr: 13 *)
G0 X 309.950 Y 433.330
M3 M8
G0 Z   3.000 
G1 Z  -1.500
F400
G1 X  10.000 Y 846.190
G1 X 309.950 Y1259.040
G1 X 795.290 Y1101.340
G1 X 795.290 Y 591.030
G1 X 309.950 Y 433.330
F150
G1 Z  -3.000
F400
G1 X  10.000 Y 846.190
G1 X 309.950 Y1259.040
G1 X 795.290 Y1101.340
G1 X 795.290 Y 591.030
G1 X 309.950 Y 433.330
F150
G1 Z   3.000
G0 Z  15.000 
M9 M5

(* SHAPE Nr: 15 *)
G0 X 495.340 Y1214.290
M3 M8
G0 Z   3.000 
G1 Z  -1.500
F400
G1 X  10.000 Y1371.990
G1 X  10.000 Y1882.300
G1 X 495.340 Y2040.000
G1 X 795.290 Y1627.140
G1 X 495.340 Y1214.290
F150
G1 Z  -3.000
F400
G1 X  10.000 Y1371.990
G1 X  10.000 Y1882.300
G1 X 495.340 Y2040.000
G1 X 795.290 Y1627.140
G1 X 495.340 Y1214.290
F150
G1 Z   3.000
G0 Z  15.000 
M9 M5

(* SHAPE Nr: 27 *)
G0 X1616.930 Y 846.180
M3 M8
G0 Z   3.000 
G1 Z  -1.500
F400
G1 X1916.880 Y1259.030
G1 X2402.220 Y1101.330
G1 X2402.220 Y 591.020
G1 X1916.880 Y 433.320
G1 X1616.930 Y 846.180
F150
G1 Z  -3.000
F400
G1 X1916.880 Y1259.030
G1 X2402.220 Y1101.330
G1 X2402.220 Y 591.020
G1 X1916.880 Y 433.320
G1 X1616.930 Y 846.180
F150
G1 Z   3.000
G0 Z  15.000 
M9 M5

(*** LAYER: BORDER_D0_T132_RK1_A0_W0_EM1_RI1_ID0020 ***)

(* SHAPE Nr: 30 *)
G0 X2629.350 Y 217.470
M3 M8
G0 Z   3.000 
G1 Z  -1.500
F400
G2 X2627.860 Y 260.180 I 611.451 J  42.712
G2 X2629.350 Y 302.890 I 612.906 J  -0.001
G2 X2633.750 Y 344.300 I 565.872 J -39.188
G2 X2640.960 Y 383.150 I 479.697 J -68.931
G2 X2650.730 Y 418.270 I 370.966 J -84.280
G2 X2662.770 Y 448.580 I 258.933 J -85.309
G2 X2676.730 Y 473.170 I 160.873 J -75.072
G2 X2692.170 Y 491.290 I  87.858 J -59.225
G2 X2708.630 Y 502.380 I  42.094 J -44.717
G2 X2725.600 Y 506.120 I  17.159 J -37.487
G1 X2725.600 Y 260.180
G1 X2725.600 Y  14.240
G2 X2708.630 Y  17.980 I   0.189 J  41.227
G2 X2692.170 Y  29.070 I  25.634 J  55.807
G2 X2676.730 Y  47.190 I  72.418 J  77.345
G2 X2662.770 Y  71.780 I 146.913 J  99.662
G2 X2650.730 Y 102.090 I 246.893 J 115.619
G2 X2640.960 Y 137.210 I 361.196 J 119.400
G2 X2633.750 Y 176.060 I 472.487 J 107.781
G2 X2629.350 Y 217.470 I 561.472 J  80.598
F150
G1 Z  -3.000
F400
G2 X2627.860 Y 260.180 I 611.451 J  42.712
G2 X2629.350 Y 302.890 I 612.906 J  -0.001
G2 X2633.750 Y 344.300 I 565.872 J -39.188
G2 X2640.960 Y 383.150 I 479.697 J -68.931
G2 X2650.730 Y 418.270 I 370.966 J -84.280
G2 X2662.770 Y 448.580 I 258.933 J -85.309
G2 X2676.730 Y 473.170 I 160.873 J -75.072
G2 X2692.170 Y 491.290 I  87.858 J -59.225
G2 X2708.630 Y 502.380 I  42.094 J -44.717
G2 X2725.600 Y 506.120 I  17.159 J -37.487
G1 X2725.600 Y 260.180
G1 X2725.600 Y  14.240
G2 X2708.630 Y  17.980 I   0.189 J  41.227
G2 X2692.170 Y  29.070 I  25.634 J  55.807
G2 X2676.730 Y  47.190 I  72.418 J  77.345
G2 X2662.770 Y  71.780 I 146.913 J  99.662
G2 X2650.730 Y 102.090 I 246.893 J 115.619
G2 X2640.960 Y 137.210 I 361.196 J 119.400
G2 X2633.750 Y 176.060 I 472.487 J 107.781
G2 X2629.350 Y 217.470 I 561.472 J  80.598
F150
G1 Z   3.000
G0 Z  15.000 
M9 M5

(* SHAPE Nr: 31 *)
G0 X2627.610 Y 533.950
M3 M8
G0 Z   3.000 
G1 Z  -1.500
F400
G1 X2627.610 Y 779.890
G1 X2627.610 Y1025.830
G2 X2644.580 Y1022.090 I  -0.189 J -41.227
G2 X2661.040 Y1011.000 I -25.634 J -55.807
G2 X2676.480 Y 992.880 I -72.417 J -77.344
G2 X2690.440 Y 968.290 I-146.917 J -99.664
G2 X2702.480 Y 937.980 I-246.893 J-115.619
G2 X2712.250 Y 902.860 I-361.196 J-119.400
G2 X2719.460 Y 864.010 I-472.487 J-107.781
G2 X2723.860 Y 822.600 I-561.472 J -80.598
G2 X2725.350 Y 779.890 I-611.416 J -42.711
G2 X2723.860 Y 737.180 I-612.906 J   0.001
G2 X2719.460 Y 695.770 I-565.872 J  39.188
G2 X2712.250 Y 656.920 I-479.697 J  68.931
G2 X2702.480 Y 621.800 I-370.966 J  84.280
G2 X2690.440 Y 591.490 I-258.933 J  85.309
G2 X2676.480 Y 566.900 I-160.877 J  75.074
G2 X2661.040 Y 548.780 I -87.857 J  59.224
G2 X2644.580 Y 537.690 I -42.094 J  44.717
G2 X2627.610 Y 533.950 I -17.159 J  37.487
F150
G1 Z  -3.000
F400
G1 X2627.610 Y 779.890
G1 X2627.610 Y1025.830
G2 X2644.580 Y1022.090 I  -0.189 J -41.227
G2 X2661.040 Y1011.000 I -25.634 J -55.807
G2 X2676.480 Y 992.880 I -72.417 J -77.344
G2 X2690.440 Y 968.290 I-146.917 J -99.664
G2 X2702.480 Y 937.980 I-246.893 J-115.619
G2 X2712.250 Y 902.860 I-361.196 J-119.400
G2 X2719.460 Y 864.010 I-472.487 J-107.781
G2 X2723.860 Y 822.600 I-561.472 J -80.598
G2 X2725.350 Y 779.890 I-611.416 J -42.711
G2 X2723.860 Y 737.180 I-612.906 J   0.001
G2 X2719.460 Y 695.770 I-565.872 J  39.188
G2 X2712.250 Y 656.920 I-479.697 J  68.931
G2 X2702.480 Y 621.800 I-370.966 J  84.280
G2 X2690.440 Y 591.490 I-258.933 J  85.309
G2 X2676.480 Y 566.900 I-160.877 J  75.074
G2 X2661.040 Y 548.780 I -87.857 J  59.224
G2 X2644.580 Y 537.690 I -42.094 J  44.717
G2 X2627.610 Y 533.950 I -17.159 J  37.487
F150
G1 Z   3.000
G0 Z  15.000 
M9 M5

(* SHAPE Nr: 38 *)
G0 X1242.390 Y  21.980
M3 M8
G0 Z   3.000 
G1 Z  -1.500
F400
G2 X1246.130 Y  38.950 I  41.227 J  -0.189
G2 X1257.220 Y  55.410 I  55.807 J -25.634
G2 X1275.340 Y  70.850 I  77.345 J -72.418
G2 X1299.930 Y  84.810 I  99.664 J-146.917
G2 X1330.240 Y  96.850 I 115.619 J-246.893
G2 X1365.360 Y 106.620 I 119.400 J-361.196
G2 X1404.210 Y 113.830 I 107.781 J-472.487
G2 X1445.620 Y 118.230 I  80.598 J-561.472
G2 X1488.330 Y 119.720 I  42.711 J-611.416
G2 X1531.040 Y 118.230 I  -0.001 J-612.906
G2 X1572.450 Y 113.830 I -39.188 J-565.872
G2 X1611.300 Y 106.620 I -68.931 J-479.697
G2 X1646.420 Y  96.850 I -84.280 J-370.966
G2 X1676.730 Y  84.810 I -85.309 J-258.933
G2 X1701.320 Y  70.850 I -75.074 J-160.877
G2 X1719.440 Y  55.410 I -59.224 J -87.857
G2 X1730.530 Y  38.950 I -44.717 J -42.094
G2 X1734.270 Y  21.980 I -37.487 J -17.159
G1 X1488.330 Y  21.980
G1 X1242.390 Y  21.980
F150
G1 Z  -3.000
F400
G2 X1246.130 Y  38.950 I  41.227 J  -0.189
G2 X1257.220 Y  55.410 I  55.807 J -25.634
G2 X1275.340 Y  70.850 I  77.345 J -72.418
G2 X1299.930 Y  84.810 I  99.664 J-146.917
G2 X1330.240 Y  96.850 I 115.619 J-246.893
G2 X1365.360 Y 106.620 I 119.400 J-361.196
G2 X1404.210 Y 113.830 I 107.781 J-472.487
G2 X1445.620 Y 118.230 I  80.598 J-561.472
G2 X1488.330 Y 119.720 I  42.711 J-611.416
G2 X1531.040 Y 118.230 I  -0.001 J-612.906
G2 X1572.450 Y 113.830 I -39.188 J-565.872
G2 X1611.300 Y 106.620 I -68.931 J-479.697
G2 X1646.420 Y  96.850 I -84.280 J-370.966
G2 X1676.730 Y  84.810 I -85.309 J-258.933
G2 X1701.320 Y  70.850 I -75.074 J-160.877
G2 X1719.440 Y  55.410 I -59.224 J -87.857
G2 X1730.530 Y  38.950 I -44.717 J -42.094
G2 X1734.270 Y  21.980 I -37.487 J -17.159
G1 X1488.330 Y  21.980
G1 X1242.390 Y  21.980
F150
G1 Z   3.000
G0 Z  15.000 
M9 M5

(*** LAYER: BORDER_D0_T132_RK1_A0_W0_EM1_RI1_ID0013 ***)

(* SHAPE Nr: 32 *)
G0 X2263.050 Y1844.520
M3 M8
G0 Z   3.000 
G1 Z  -1.500
F400
G2 X2263.050 Y2040.000 I 130.352 J  97.740
G1 X2312.210 Y2040.000
G3 X2312.210 Y1844.520 I  81.189 J -97.740
G1 X2287.630 Y1844.520
G1 X2263.050 Y1844.520
F150
G1 Z  -3.000
F400
G2 X2263.050 Y2040.000 I 130.352 J  97.740
G1 X2312.210 Y2040.000
G3 X2312.210 Y1844.520 I  81.189 J -97.740
G1 X2287.630 Y1844.520
G1 X2263.050 Y1844.520
F150
G1 Z   3.000
G0 Z  15.000 
M9 M5

(* SHAPE Nr: 33 *)
G0 X2255.080 Y1202.340
M3 M8
G0 Z   3.000 
G1 Z  -1.500
F400
G3 X2255.080 Y1397.820 I -81.189 J  97.740
G1 X2279.660 Y1397.820
G1 X2304.240 Y1397.820
G2 X2304.240 Y1202.340 I-130.352 J -97.740
G1 X2255.080 Y1202.340
F150
G1 Z  -3.000
F400
G3 X2255.080 Y1397.820 I -81.189 J  97.740
G1 X2279.660 Y1397.820
G1 X2304.240 Y1397.820
G2 X2304.240 Y1202.340 I-130.352 J -97.740
G1 X2255.080 Y1202.340
F150
G1 Z   3.000
G0 Z  15.000 
M9 M5

(* SHAPE Nr: 34 *)
G0 X  10.000 Y1990.840
M3 M8
G0 Z   3.000 
G1 Z  -1.500
F400
G1 X  10.000 Y2040.000
G3 X 205.480 Y2040.000 I  97.740 J  81.189
G1 X 205.480 Y2015.420
G1 X 205.480 Y1990.840
G2 X  10.000 Y1990.840 I -97.740 J 130.352
F150
G1 Z  -3.000
F400
G1 X  10.000 Y2040.000
G3 X 205.480 Y2040.000 I  97.740 J  81.189
G1 X 205.480 Y2015.420
G1 X 205.480 Y1990.840
G2 X  10.000 Y1990.840 I -97.740 J 130.352
F150
G1 Z   3.000
G0 Z  15.000 
M9 M5

(* SHAPE Nr: 35 *)
G0 X 779.660 Y1990.840
M3 M8
G0 Z   3.000 
G1 Z  -1.500
F400
G1 X 779.660 Y2040.000
G3 X 975.140 Y2040.000 I  97.740 J  81.189
G1 X 975.140 Y2015.420
G1 X 975.140 Y1990.840
G2 X 779.660 Y1990.840 I -97.740 J 130.352
F150
G1 Z  -3.000
F400
G1 X 779.660 Y2040.000
G3 X 975.140 Y2040.000 I  97.740 J  81.189
G1 X 975.140 Y2015.420
G1 X 975.140 Y1990.840
G2 X 779.660 Y1990.840 I -97.740 J 130.352
F150
G1 Z   3.000
G0 Z  15.000 
M9 M5

(* SHAPE Nr: 36 *)
G0 X 516.570 Y  61.960
M3 M8
G0 Z   3.000 
G1 Z  -1.500
F400
G1 X 516.570 Y  86.540
G1 X 516.570 Y 111.120
G2 X 712.050 Y 111.120 I  97.740 J-130.352
G1 X 712.050 Y  61.960
G3 X 516.570 Y  61.960 I -97.740 J -81.189
F150
G1 Z  -3.000
F400
G1 X 516.570 Y  86.540
G1 X 516.570 Y 111.120
G2 X 712.050 Y 111.120 I  97.740 J-130.352
G1 X 712.050 Y  61.960
G3 X 516.570 Y  61.960 I -97.740 J -81.189
F150
G1 Z   3.000
G0 Z  15.000 
M9 M5

(* SHAPE Nr: 37 *)
G0 X1583.160 Y1990.840
M3 M8
G0 Z   3.000 
G1 Z  -1.500
F400
G1 X1583.160 Y2040.000
G3 X1778.640 Y2040.000 I  97.740 J  81.189
G1 X1778.640 Y2015.420
G1 X1778.640 Y1990.840
G2 X1583.160 Y1990.840 I -97.740 J 130.352
F150
G1 Z  -3.000
F400
G1 X1583.160 Y2040.000
G3 X1778.640 Y2040.000 I  97.740 J  81.189
G1 X1778.640 Y2015.420
G1 X1778.640 Y1990.840
G2 X1583.160 Y1990.840 I -97.740 J 130.352
F150
G1 Z   3.000
G0 Z  15.000 
M9 M5

(*** LAYER: BORDER_D0_T132.1_RK1_A0_W0_EM1 ***)

(* SHAPE Nr: 39 *)
G0 X  10.000 Y 275.830
M3 M8
G0 Z   3.000 
G1 Z  -1.500
F400
G1 X  10.000 Y 406.150
G1 X 132.970 Y 438.730
G1 X 501.880 Y 389.860
G1 X 440.390 Y 370.310
G1 X 440.390 Y 311.660
G1 X 501.880 Y 292.120
G1 X 132.970 Y 243.250
G1 X  10.000 Y 275.830
F150
G1 Z  -3.000
F400
G1 X  10.000 Y 406.150
G1 X 132.970 Y 438.730
G1 X 501.880 Y 389.860
G1 X 440.390 Y 370.310
G1 X 440.390 Y 311.660
G1 X 501.880 Y 292.120
G1 X 132.970 Y 243.250
G1 X  10.000 Y 275.830
F150
G1 Z   3.000
G0 Z  15.000 
M9 M5

(* SHAPE Nr: 40 *)
G0 X2629.340 Y 217.470
M3 M8
G0 Z   3.000 
G1 Z  -1.500
F400
G2 X2627.860 Y 260.170 I 611.348 J  42.565
G2 X2629.340 Y 302.880 I 612.971 J   0.140
G2 X2633.750 Y 344.290 I 565.877 J -39.324
G2 X2640.950 Y 383.140 I 479.668 J -68.804
G2 X2650.720 Y 418.260 I 370.996 J -84.288
G2 X2662.770 Y 448.580 I 258.980 J -85.371
G2 X2676.730 Y 473.170 I 160.893 J -75.083
G2 X2692.170 Y 491.280 I  87.817 J -59.233
G2 X2708.630 Y 502.380 I  42.123 J -44.710
G2 X2725.600 Y 506.110 I  17.135 J -37.489
G1 X2725.600 Y  14.230
G2 X2708.630 Y  17.970 I   0.188 J  41.224
G2 X2692.170 Y  29.070 I  25.663 J  55.810
G2 X2676.730 Y  47.190 I  72.421 J  77.348
G2 X2662.770 Y  71.770 I 146.870 J  99.668
G2 X2650.720 Y 102.090 I 246.930 J 115.691
G2 X2640.950 Y 137.210 I 361.226 J 119.408
G2 X2633.750 Y 176.060 I 472.468 J 107.654
G2 X2629.340 Y 217.470 I 561.467 J  80.734
F150
G1 Z  -3.000
F400
G2 X2627.860 Y 260.170 I 611.348 J  42.565
G2 X2629.340 Y 302.880 I 612.971 J   0.140
G2 X2633.750 Y 344.290 I 565.877 J -39.324
G2 X2640.950 Y 383.140 I 479.668 J -68.804
G2 X2650.720 Y 418.260 I 370.996 J -84.288
G2 X2662.770 Y 448.580 I 258.980 J -85.371
G2 X2676.730 Y 473.170 I 160.893 J -75.083
G2 X2692.170 Y 491.280 I  87.817 J -59.233
G2 X2708.630 Y 502.380 I  42.123 J -44.710
G2 X2725.600 Y 506.110 I  17.135 J -37.489
G1 X2725.600 Y  14.230
G2 X2708.630 Y  17.970 I   0.188 J  41.224
G2 X2692.170 Y  29.070 I  25.663 J  55.810
G2 X2676.730 Y  47.190 I  72.421 J  77.348
G2 X2662.770 Y  71.770 I 146.870 J  99.668
G2 X2650.720 Y 102.090 I 246.930 J 115.691
G2 X2640.950 Y 137.210 I 361.226 J 119.408
G2 X2633.750 Y 176.060 I 472.468 J 107.654
G2 X2629.340 Y 217.470 I 561.467 J  80.734
F150
G1 Z   3.000
G0 Z  15.000 
M9 M5

(* SHAPE Nr: 41 *)
G0 X2263.050 Y1844.520
M3 M8
G0 Z   3.000 
G1 Z  -1.500
F400
G2 X2263.050 Y2040.000 I 130.352 J  97.740
G1 X2312.210 Y2040.000
G3 X2312.210 Y1844.520 I  81.189 J -97.740
G1 X2263.050 Y1844.520
F150
G1 Z  -3.000
F400
G2 X2263.050 Y2040.000 I 130.352 J  97.740
G1 X2312.210 Y2040.000
G3 X2312.210 Y1844.520 I  81.189 J -97.740
G1 X2263.050 Y1844.520
F150
G1 Z   3.000
G0 Z  15.000 
M9 M5

(* SHAPE Nr: 42 *)
G0 X  10.000 Y1990.840
M3 M8
G0 Z   3.000 
G1 Z  -1.500
F400
G1 X  10.000 Y2040.000
G3 X 205.480 Y2040.000 I  97.740 J  81.189
G1 X 205.480 Y1990.840
G2 X  10.000 Y1990.840 I -97.740 J 130.352
F150
G1 Z  -3.000
F400
G1 X  10.000 Y2040.000
G3 X 205.480 Y2040.000 I  97.740 J  81.189
G1 X 205.480 Y1990.840
G2 X  10.000 Y1990.840 I -97.740 J 130.352
F150
G1 Z   3.000
G0 Z  15.000 
M9 M5

(* SHAPE Nr: 43 *)
G0 X 516.570 Y  61.960
M3 M8
G0 Z   3.000 
G1 Z  -1.500
F400
G1 X 516.570 Y 111.120
G2 X 712.050 Y 111.120 I  97.740 J-130.352
G1 X 712.050 Y  61.960
G3 X 516.570 Y  61.960 I -97.740 J -81.189
F150
G1 Z  -3.000
F400
G1 X 516.570 Y 111.120
G2 X 712.050 Y 111.120 I  97.740 J-130.352
G1 X 712.050 Y  61.960
G3 X 516.570 Y  61.960 I -97.740 J -81.189
F150
G1 Z   3.000
G0 Z  15.000 
M9 M5

(* SHAPE Nr: 44 *)
G0 X1242.390 Y  21.980
M3 M8
G0 Z   3.000 
G1 Z  -1.500
F400
G2 X1246.130 Y  38.950 I  41.224 J  -0.188
G2 X1257.230 Y  55.410 I  55.810 J -25.663
G2 X1275.340 Y  70.850 I  77.342 J -72.375
G2 X1299.930 Y  84.810 I  99.673 J-146.933
G2 X1330.250 Y  96.850 I 115.604 J-246.926
G2 X1365.360 Y 106.620 I 119.403 J-361.122
G2 X1404.220 Y 113.820 I 107.659 J-472.591
G2 X1445.630 Y 118.230 I  80.734 J-561.467
G2 X1488.330 Y 119.720 I  42.709 J-611.343
G2 X1531.040 Y 118.230 I  -0.004 J-612.976
G2 X1572.450 Y 113.820 I -39.324 J-565.877
G2 X1611.300 Y 106.620 I -68.804 J-479.668
G2 X1646.420 Y  96.850 I -84.288 J-370.996
G2 X1676.730 Y  84.810 I -85.293 J-258.891
G2 X1701.320 Y  70.850 I -75.083 J-160.893
G2 X1719.440 Y  55.410 I -59.227 J -87.859
G2 X1730.540 Y  38.950 I -44.710 J -42.123
G2 X1734.270 Y  21.980 I -37.489 J -17.135
G1 X1242.390 Y  21.980
F150
G1 Z  -3.000
F400
G2 X1246.130 Y  38.950 I  41.224 J  -0.188
G2 X1257.230 Y  55.410 I  55.810 J -25.663
G2 X1275.340 Y  70.850 I  77.342 J -72.375
G2 X1299.930 Y  84.810 I  99.673 J-146.933
G2 X1330.250 Y  96.850 I 115.604 J-246.926
G2 X1365.360 Y 106.620 I 119.403 J-361.122
G2 X1404.220 Y 113.820 I 107.659 J-472.591
G2 X1445.630 Y 118.230 I  80.734 J-561.467
G2 X1488.330 Y 119.720 I  42.709 J-611.343
G2 X1531.040 Y 118.230 I  -0.004 J-612.976
G2 X1572.450 Y 113.820 I -39.324 J-565.877
G2 X1611.300 Y 106.620 I -68.804 J-479.668
G2 X1646.420 Y  96.850 I -84.288 J-370.996
G2 X1676.730 Y  84.810 I -85.293 J-258.891
G2 X1701.320 Y  70.850 I -75.083 J-160.893
G2 X1719.440 Y  55.410 I -59.227 J -87.859
G2 X1730.540 Y  38.950 I -44.710 J -42.123
G2 X1734.270 Y  21.980 I -37.489 J -17.135
G1 X1242.390 Y  21.980
F150
G1 Z   3.000
G0 Z  15.000 
M9 M5

(* SHAPE Nr: 45 *)
G0 X1583.160 Y1990.840
M3 M8
G0 Z   3.000 
G1 Z  -1.500
F400
G1 X1583.160 Y2040.000
G3 X1778.640 Y2040.000 I  97.740 J  81.189
G1 X1778.640 Y1990.840
G2 X1583.160 Y1990.840 I -97.740 J 130.352
F150
G1 Z  -3.000
F400
G1 X1583.160 Y2040.000
G3 X1778.640 Y2040.000 I  97.740 J  81.189
G1 X1778.640 Y1990.840
G2 X1583.160 Y1990.840 I -97.740 J 130.352
F150
G1 Z   3.000
G0 Z  15.000 
M9 M5

(* SHAPE Nr: 46 *)
G0 X 779.660 Y1990.840
M3 M8
G0 Z   3.000 
G1 Z  -1.500
F400
G1 X 779.660 Y2040.000
G3 X 975.140 Y2040.000 I  97.740 J  81.189
G1 X 975.140 Y1990.840
G2 X 779.660 Y1990.840 I -97.740 J 130.352
F150
G1 Z  -3.000
F400
G1 X 779.660 Y2040.000
G3 X 975.140 Y2040.000 I  97.740 J  81.189
G1 X 975.140 Y1990.840
G2 X 779.660 Y1990.840 I -97.740 J 130.352
F150
G1 Z   3.000
G0 Z  15.000 
M9 M5

(* SHAPE Nr: 47 *)
G0 X2255.080 Y1202.340
M3 M8
G0 Z   3.000 
G1 Z  -1.500
F400
G3 X2255.080 Y1397.820 I -81.189 J  97.740
G1 X2304.250 Y1397.820
G2 X2304.250 Y1202.340 I-130.352 J -97.740
G1 X2255.080 Y1202.340
F150
G1 Z  -3.000
F400
G3 X2255.080 Y1397.820 I -81.189 J  97.740
G1 X2304.250 Y1397.820
G2 X2304.250 Y1202.340 I-130.352 J -97.740
G1 X2255.080 Y1202.340
F150
G1 Z   3.000
G0 Z  15.000 
M9 M5

(* SHAPE Nr: 48 *)
G0 X2627.610 Y 533.950
M3 M8
G0 Z   3.000 
G1 Z  -1.500
F400
G1 X2627.610 Y1025.830
G2 X2644.580 Y1022.100 I  -0.165 J -41.219
G2 X2661.040 Y1011.000 I -25.663 J -55.810
G2 X2676.480 Y 992.880 I -72.421 J -77.348
G2 X2690.440 Y 968.290 I-146.933 J -99.673
G2 X2702.490 Y 937.980 I-246.838 J-115.683
G2 X2712.260 Y 902.860 I-361.226 J-119.408
G2 X2719.460 Y 864.010 I-472.468 J-107.654
G2 X2723.870 Y 822.600 I-561.467 J -80.734
G2 X2725.350 Y 779.890 I-611.491 J -42.570
G2 X2723.870 Y 737.190 I-612.828 J  -0.135
G2 X2719.460 Y 695.780 I-565.877 J  39.324
G2 X2712.260 Y 656.920 I-479.791 J  68.799
G2 X2702.490 Y 621.810 I-370.892 J  84.293
G2 X2690.440 Y 591.490 I-258.971 J  85.368
G2 X2676.480 Y 566.900 I-160.893 J  75.083
G2 X2661.040 Y 548.790 I -87.817 J  59.233
G2 X2644.580 Y 537.690 I -42.123 J  44.710
G2 X2627.610 Y 533.950 I -17.158 J  37.484
F150
G1 Z  -3.000
F400
G1 X2627.610 Y1025.830
G2 X2644.580 Y1022.100 I  -0.165 J -41.219
G2 X2661.040 Y1011.000 I -25.663 J -55.810
G2 X2676.480 Y 992.880 I -72.421 J -77.348
G2 X2690.440 Y 968.290 I-146.933 J -99.673
G2 X2702.490 Y 937.980 I-246.838 J-115.683
G2 X2712.260 Y 902.860 I-361.226 J-119.408
G2 X2719.460 Y 864.010 I-472.468 J-107.654
G2 X2723.870 Y 822.600 I-561.467 J -80.734
G2 X2725.350 Y 779.890 I-611.491 J -42.570
G2 X2723.870 Y 737.190 I-612.828 J  -0.135
G2 X2719.460 Y 695.780 I-565.877 J  39.324
G2 X2712.260 Y 656.920 I-479.791 J  68.799
G2 X2702.490 Y 621.810 I-370.892 J  84.293
G2 X2690.440 Y 591.490 I-258.971 J  85.368
G2 X2676.480 Y 566.900 I-160.893 J  75.083
G2 X2661.040 Y 548.790 I -87.817 J  59.233
G2 X2644.580 Y 537.690 I -42.123 J  44.710
G2 X2627.610 Y 533.950 I -17.158 J  37.484
F150
G1 Z   3.000
G0 Z  15.000 
M9 M5

(* SHAPE Nr: 50 *)
G0 X -14.700 Y 114.300
M3 M8
G0 Z   3.000 
G1 Z  -1.500
F400
G1 X  10.000 Y 114.300
G1 X  71.490 Y 133.850
G1 X  71.490 Y 192.490
G1 X  10.000 Y 212.040
G1 X 378.910 Y 260.910
G1 X 501.880 Y 228.330
F150
G1 Z  -3.000
F400
G1 X 378.910 Y 260.910
G1 X  10.000 Y 212.040
G1 X  71.490 Y 192.490
G1 X  71.490 Y 133.850
G1 X  10.000 Y 114.300
G1 X -14.700 Y 114.300
F150
G1 Z   3.000
G0 Z  15.000 
M9 M5

(* SHAPE Nr: 51 *)
G0 X 517.060 Y 385.380
M3 M8
G0 Z   3.000 
G1 Z  -1.500
F400
G1 X 578.550 Y 404.930
G1 X 578.550 Y 463.580
G1 X 517.060 Y 483.120
G1 X 885.970 Y 531.990
G1 X1008.940 Y 499.410
G1 X1008.940 Y 369.090
G1 X 885.970 Y 336.510
F150
G1 Z  -3.000
F400
G1 X1008.940 Y 369.090
G1 X1008.940 Y 499.410
G1 X 885.970 Y 531.990
G1 X 517.060 Y 483.120
G1 X 578.550 Y 463.580
G1 X 578.550 Y 404.930
G1 X 517.060 Y 385.380
F150
G1 Z   3.000
G0 Z  15.000 
M9 M5

(* SHAPE Nr: 52 *)
G0 X1105.810 Y 417.470
M3 M8
G0 Z   3.000 
G1 Z  -1.500
F400
G1 X1012.860 Y 349.930
F150
G1 Z  -3.000
F400
G1 X1105.810 Y 417.470
F150
G1 Z   3.000
G0 Z  15.000 
M9 M5

(* SHAPE Nr: 53 *)
G0 X1113.420 Y 433.330
M3 M8
G0 Z   3.000 
G1 Z  -1.500
F400
G1 X 813.460 Y 846.180
G1 X1113.420 Y1259.040
G1 X1598.760 Y1101.340
F150
G1 Z  -3.000
F400
G1 X1113.420 Y1259.040
G1 X 813.460 Y 846.180
G1 X1113.420 Y 433.330
F150
G1 Z   3.000
G0 Z  15.000 
M9 M5

(* SHAPE Nr: 54 *)
G0 X1617.340 Y1109.960
M3 M8
G0 Z   3.000 
G1 Z  -1.500
F400
G1 X1549.810 Y1202.920
G1 X1617.340 Y1295.880
G1 X1625.120 Y1306.580
G1 X1613.230 Y1315.220
G1 X1549.570 Y1227.660
G1 X1440.290 Y1263.160
G1 X1440.290 Y1378.060
G1 X1549.570 Y1413.570
G1 X1617.100 Y1320.610
F150
G1 Z  -3.000
F400
G1 X1549.570 Y1413.570
G1 X1440.290 Y1378.060
G1 X1440.290 Y1263.160
G1 X1549.570 Y1227.660
G1 X1613.230 Y1315.220
G1 X1625.120 Y1306.580
G1 X1617.340 Y1295.880
G1 X1549.810 Y1202.920
G1 X1617.340 Y1109.960
F150
G1 Z   3.000
G0 Z  15.000 
M9 M5

(* SHAPE Nr: 55 *)
G0 X1616.930 Y1371.990
M3 M8
G0 Z   3.000 
G1 Z  -1.500
F400
G1 X1616.930 Y1926.400
G1 X1596.230 Y1938.500
G1 X1585.530 Y1930.720
G1 X1492.570 Y1863.190
G1 X1481.870 Y1855.410
G1 X1598.760 Y1627.150
G1 X1298.800 Y1214.290
G1 X 813.460 Y1371.990
G1 X 800.880 Y1376.080
G1 X 796.340 Y1362.100
G1 X 802.290 Y1351.480
G1 X 766.780 Y1242.200
G1 X 638.660 Y1242.200
G1 X 638.660 Y1227.500
G1 X 749.730 Y1189.300
G1 X 757.510 Y1200.000
G1 X 825.050 Y1292.960
G1 X 934.320 Y1257.450
G1 X 934.320 Y1142.550
G1 X 825.050 Y1107.040
G1 X 809.990 Y1114.570
G1 X 795.290 Y1114.570
G1 X 795.290 Y 591.020
G1 X 309.960 Y 433.330
G1 X  10.000 Y 846.180
G1 X 309.960 Y1259.040
F150
G1 Z  -3.000
F400
G1 X  10.000 Y 846.180
G1 X 309.960 Y 433.330
G1 X 795.290 Y 591.020
G1 X 795.290 Y1114.570
G1 X 809.990 Y1114.570
G1 X 825.050 Y1107.040
G1 X 934.320 Y1142.550
G1 X 934.320 Y1257.450
G1 X 825.050 Y1292.960
G1 X 757.510 Y1200.000
G1 X 749.730 Y1189.300
G1 X 638.660 Y1227.500
G1 X 638.660 Y1242.200
G1 X 766.780 Y1242.200
G1 X 802.290 Y1351.480
G1 X 796.340 Y1362.100
G1 X 800.880 Y1376.080
G1 X 813.460 Y1371.990
G1 X1298.800 Y1214.290
G1 X1598.760 Y1627.150
G1 X1481.870 Y1855.410
G1 X1492.570 Y1863.190
G1 X1585.530 Y1930.720
G1 X1596.230 Y1938.500
G1 X1616.930 Y1926.400
G1 X1616.930 Y1371.990
F150
G1 Z   3.000
G0 Z  15.000 
M9 M5

(* SHAPE Nr: 56 *)
G0 X 186.810 Y1224.350
M3 M8
G0 Z   3.000 
G1 Z  -1.500
F400
G1 X 119.280 Y1131.390
G1 X  10.000 Y1166.900
G1 X  10.000 Y1281.800
G1 X  10.000 Y1325.900
G1 X  10.000 Y1358.760
G1 X  10.000 Y1882.300
G1 X 495.340 Y2040.000
G1 X 746.560 Y2040.000
G1 X 782.060 Y1930.720
G1 X 689.110 Y1863.190
G1 X 596.150 Y1930.720
G1 X 631.660 Y2040.000
G1 X2493.290 Y2040.000
G1 X2541.560 Y2052.790
G1 X2544.950 Y2040.000
G1 X2577.530 Y1917.030
G1 X2528.660 Y1548.120
G1 X2526.930 Y1535.010
G1 X2540.440 Y1532.440
G1 X2573.020 Y1409.470
G1 X2524.150 Y1040.560
G1 X2522.410 Y1027.450
G1 X2536.990 Y1025.520
G1 X2580.080 Y1024.880
G1 X2612.660 Y 901.910
G1 X2563.790 Y 533.000
G1 X2562.050 Y 519.890
G1 X2576.620 Y 517.960
G1 X2592.900 Y 517.320
G1 X2625.480 Y 394.350
G1 X2576.600 Y  25.440
G1 X2557.060 Y  86.930
G1 X2498.410 Y  86.930
G1 X2478.860 Y  25.440
G1 X2417.140 Y  10.000
G1 X2286.820 Y  10.000
G1 X2254.240 Y 132.970
G1 X2303.110 Y 501.880
G1 X2304.840 Y 514.990
G1 X2290.270 Y 516.930
G1 X2242.180 Y 170.790
G1 X2180.700 Y 151.250
G1 X2180.700 Y  92.600
G1 X2242.180 Y  73.050
G1 X1873.270 Y  24.180
G1 X1750.300 Y  56.760
G1 X1750.300 Y 200.310
G1 X1735.600 Y 200.310
G1 X1735.300 Y 184.330
G1 X1366.390 Y 135.460
G1 X1243.420 Y 168.040
G1 X1243.420 Y 186.130
G1 X1228.720 Y 186.130
G1 X1228.720 Y  42.580
G1 X1105.750 Y  10.000
G1 X 736.840 Y  58.870
G1 X 798.330 Y  78.420
G1 X 798.330 Y 137.060
G1 X 736.840 Y 156.610
G1 X1105.750 Y 205.480
G1 X1228.720 Y 172.900
F150
G1 Z  -3.000
F400
G1 X1105.750 Y 205.480
G1 X 736.840 Y 156.610
G1 X 798.330 Y 137.060
G1 X 798.330 Y  78.420
G1 X 736.840 Y  58.870
G1 X1105.750 Y  10.000
G1 X1228.720 Y  42.580
G1 X1228.720 Y 186.130
G1 X1243.420 Y 186.130
G1 X1243.420 Y 168.040
G1 X1366.390 Y 135.460
G1 X1735.300 Y 184.330
G1 X1735.600 Y 200.310
G1 X1750.300 Y 200.310
G1 X1750.300 Y  56.760
G1 X1873.270 Y  24.180
G1 X2242.180 Y  73.050
G1 X2180.700 Y  92.600
G1 X2180.700 Y 151.250
G1 X2242.180 Y 170.790
G1 X2290.270 Y 516.930
G1 X2304.840 Y 514.990
G1 X2303.110 Y 501.880
G1 X2254.240 Y 132.970
G1 X2286.820 Y  10.000
G1 X2417.140 Y  10.000
G1 X2478.860 Y  25.440
G1 X2498.410 Y  86.930
G1 X2557.060 Y  86.930
G1 X2576.600 Y  25.440
G1 X2625.480 Y 394.350
G1 X2592.900 Y 517.320
G1 X2576.620 Y 517.960
G1 X2562.050 Y 519.890
G1 X2563.790 Y 533.000
G1 X2612.660 Y 901.910
G1 X2580.080 Y1024.880
G1 X2536.990 Y1025.520
G1 X2522.410 Y1027.450
G1 X2524.150 Y1040.560
G1 X2573.020 Y1409.470
G1 X2540.440 Y1532.440
G1 X2526.930 Y1535.010
G1 X2528.660 Y1548.120
G1 X2577.530 Y1917.030
G1 X2544.950 Y2040.000
G1 X2541.560 Y2052.790
G1 X2493.290 Y2040.000
G1 X 631.660 Y2040.000
G1 X 596.150 Y1930.720
G1 X 689.110 Y1863.190
G1 X 782.060 Y1930.720
G1 X 746.560 Y2040.000
G1 X 495.340 Y2040.000
G1 X  10.000 Y1882.300
G1 X  10.000 Y1358.760
G1 X  10.000 Y1325.900
G1 X  10.000 Y1281.800
G1 X  10.000 Y1166.900
G1 X 119.280 Y1131.390
G1 X 186.810 Y1224.350
F150
G1 Z   3.000
G0 Z  15.000 
M9 M5

(* SHAPE Nr: 57 *)
G0 X2122.940 Y 397.220
M3 M8
G0 Z   3.000 
G1 Z  -1.500
F400
G1 X2245.910 Y 364.640
G1 X2245.910 Y 234.320
G1 X2122.940 Y 201.740
G1 X1754.030 Y 250.610
G1 X1753.690 Y 488.830
G1 X1738.990 Y 488.830
G1 X1738.990 Y 345.280
G1 X1616.020 Y 312.700
G1 X1247.110 Y 361.570
G1 X1308.600 Y 381.120
G1 X1308.600 Y 439.770
G1 X1247.110 Y 459.310
G1 X1616.020 Y 508.180
G1 X1738.990 Y 475.600
F150
G1 Z  -3.000
F400
G1 X1616.020 Y 508.180
G1 X1247.110 Y 459.310
G1 X1308.600 Y 439.770
G1 X1308.600 Y 381.120
G1 X1247.110 Y 361.570
G1 X1616.020 Y 312.700
G1 X1738.990 Y 345.280
G1 X1738.990 Y 488.830
G1 X1753.690 Y 488.830
G1 X1754.030 Y 250.610
G1 X2122.940 Y 201.740
G1 X2245.910 Y 234.320
G1 X2245.910 Y 364.640
G1 X2122.940 Y 397.220
F150
G1 Z   3.000
G0 Z  15.000 
M9 M5

(* SHAPE Nr: 58 *)
G0 X1754.030 Y 250.610
M3 M8
G0 Z   3.000 
G1 Z  -1.500
F400
G1 X1815.510 Y 270.160
G1 X1815.510 Y 328.800
G1 X1754.030 Y 348.350
G1 X2122.940 Y 397.220
G1 X2136.050 Y 398.960
G1 X2134.120 Y 413.530
G1 X1916.880 Y 433.330
G1 X1616.930 Y 846.180
G1 X1916.880 Y1259.030
G1 X2402.220 Y1101.340
G1 X2402.220 Y 591.020
F150
G1 Z  -3.000
F400
G1 X2402.220 Y1101.340
G1 X1916.880 Y1259.030
G1 X1616.930 Y 846.180
G1 X1916.880 Y 433.330
G1 X2134.120 Y 413.530
G1 X2136.050 Y 398.960
G1 X2122.940 Y 397.220
G1 X1754.030 Y 348.350
G1 X1815.510 Y 328.800
G1 X1815.510 Y 270.160
G1 X1754.030 Y 250.610
F150
G1 Z   3.000
G0 Z  15.000 
M9 M5

(* SHAPE Nr: 59 *)
G0 X2587.900 Y1040.560
M3 M8
G0 Z   3.000 
G1 Z  -1.500
F400
G1 X2555.320 Y1163.530
G1 X2604.190 Y1532.440
G1 X2605.920 Y1545.560
G1 X2592.430 Y1548.120
G1 X2559.850 Y1671.090
G1 X2608.720 Y2040.000
G1 X2628.270 Y1978.520
G1 X2686.910 Y1978.520
G1 X2706.460 Y2040.000
G1 X2755.330 Y1671.090
G1 X2722.750 Y1548.120
G1 X2579.200 Y1548.120
G1 X2579.200 Y1533.420
G1 X2604.190 Y1532.440
G1 X2623.740 Y1470.960
G1 X2682.380 Y1470.960
G1 X2701.930 Y1532.440
G1 X2750.800 Y1163.530
G1 X2718.220 Y1040.560
G1 X2402.220 Y1040.560
G1 X2402.220 Y 591.020
G1 X1916.880 Y 433.330
F150
G1 Z  -3.000
F400
G1 X2402.220 Y 591.020
G1 X2402.220 Y1040.560
G1 X2718.220 Y1040.560
G1 X2750.800 Y1163.530
G1 X2701.930 Y1532.440
G1 X2682.380 Y1470.960
G1 X2623.740 Y1470.960
G1 X2604.190 Y1532.440
G1 X2579.200 Y1533.420
G1 X2579.200 Y1548.120
G1 X2722.750 Y1548.120
G1 X2755.330 Y1671.090
G1 X2706.460 Y2040.000
G1 X2686.910 Y1978.520
G1 X2628.270 Y1978.520
G1 X2608.720 Y2040.000
G1 X2559.850 Y1671.090
G1 X2592.430 Y1548.120
G1 X2605.920 Y1545.560
G1 X2604.190 Y1532.440
G1 X2555.320 Y1163.530
G1 X2587.900 Y1040.560
F150
G1 Z   3.000
G0 Z  15.000 
M9 M5

(* SHAPE Nr: 60 *)
G0 X1243.420 Y 168.040
M3 M8
G0 Z   3.000 
G1 Z  -1.500
F400
G1 X1243.420 Y 298.360
G1 X1366.390 Y 330.940
G1 X1735.300 Y 282.070
G1 X1673.820 Y 262.520
G1 X1673.820 Y 203.880
G1 X1735.300 Y 184.330
F150
G1 Z  -3.000
F400
G1 X1673.820 Y 203.880
G1 X1673.820 Y 262.520
G1 X1735.300 Y 282.070
G1 X1366.390 Y 330.940
G1 X1243.420 Y 298.360
G1 X1243.420 Y 168.040
F150
G1 Z   3.000
G0 Z  15.000 
M9 M5

(* SHAPE Nr: 61 *)
G0 X1750.300 Y 187.080
M3 M8
G0 Z   3.000 
G1 Z  -1.500
F400
G1 X1873.270 Y 219.660
G1 X2255.300 Y 169.060
G1 X2303.110 Y 501.880
G1 X2322.650 Y 440.390
G1 X2381.300 Y 440.390
G1 X2400.850 Y 501.880
G1 X2449.720 Y 132.970
G1 X2417.140 Y  10.000
F150
G1 Z  -3.000
F400
G1 X2449.720 Y 132.970
G1 X2400.850 Y 501.880
G1 X2381.300 Y 440.390
G1 X2322.650 Y 440.390
G1 X2303.110 Y 501.880
G1 X2255.300 Y 169.060
G1 X1873.270 Y 219.660
G1 X1750.300 Y 187.080
F150
G1 Z   3.000
G0 Z  15.000 
M9 M5

(* SHAPE Nr: 62 *)
G0 X  10.000 Y1371.990
M3 M8
G0 Z   3.000 
G1 Z  -1.500
F400
G1 X 495.340 Y1214.290
G1 X 795.290 Y1627.150
G1 X 495.340 Y2040.000
G1 X 487.560 Y2050.700
G1 X 499.450 Y2059.340
G1 X2558.180 Y2054.700
G1 X2558.180 Y2040.000
G1 X2414.630 Y2040.000
G1 X2382.050 Y1917.030
G1 X2430.920 Y1548.120
G1 X2450.470 Y1609.600
G1 X2509.110 Y1609.600
G1 X2528.660 Y1548.120
G1 X2553.670 Y1547.140
G1 X2553.670 Y1532.440
G1 X2410.120 Y1532.440
G1 X2377.540 Y1409.470
G1 X2426.410 Y1040.560
G1 X2445.960 Y1102.050
G1 X2504.600 Y1102.050
G1 X2524.150 Y1040.560
G1 X2593.310 Y1039.580
G1 X2593.310 Y1024.880
G1 X2449.760 Y1024.880
G1 X2417.180 Y 901.910
G1 X2466.050 Y 533.000
G1 X2485.590 Y 594.490
G1 X2544.240 Y 594.490
G1 X2563.790 Y 533.000
G1 X2606.130 Y 532.020
G1 X2606.130 Y 517.320
G1 X2462.570 Y 517.320
G1 X2430.000 Y 394.350
G1 X2478.860 Y  25.440
F150
G1 Z  -3.000
F400
G1 X2430.000 Y 394.350
G1 X2462.570 Y 517.320
G1 X2606.130 Y 517.320
G1 X2606.130 Y 532.020
G1 X2563.790 Y 533.000
G1 X2544.240 Y 594.490
G1 X2485.590 Y 594.490
G1 X2466.050 Y 533.000
G1 X2417.180 Y 901.910
G1 X2449.760 Y1024.880
G1 X2593.310 Y1024.880
G1 X2593.310 Y1039.580
G1 X2524.150 Y1040.560
G1 X2504.600 Y1102.050
G1 X2445.960 Y1102.050
G1 X2426.410 Y1040.560
G1 X2377.540 Y1409.470
G1 X2410.120 Y1532.440
G1 X2553.670 Y1532.440
G1 X2553.670 Y1547.140
G1 X2528.660 Y1548.120
G1 X2509.110 Y1609.600
G1 X2450.470 Y1609.600
G1 X2430.920 Y1548.120
G1 X2382.050 Y1917.030
G1 X2414.630 Y2040.000
G1 X2558.180 Y2040.000
G1 X2558.180 Y2054.700
G1 X 499.450 Y2059.340
G1 X 487.560 Y2050.700
G1 X 495.340 Y2040.000
G1 X 795.290 Y1627.150
G1 X 495.340 Y1214.290
G1 X  10.000 Y1371.990
F150
G1 Z   3.000
G0 Z  15.000 
M9 M5

(* SHAPE Nr: 63 *)
G0 X  10.000 Y1281.800
M3 M8
G0 Z   3.000 
G1 Z  -1.500
F400
G1 X 119.280 Y1317.310
G1 X 194.590 Y1213.650
G1 X 309.960 Y1259.040
G1 X 795.290 Y1101.340
F150
G1 Z  -3.000
F400
G1 X 309.960 Y1259.040
G1 X 194.590 Y1213.650
G1 X 119.280 Y1317.310
G1 X  10.000 Y1281.800
F150
G1 Z   3.000
G0 Z  15.000 
M9 M5

(* SHAPE Nr: 64 *)
G0 X 825.050 Y1107.040
M3 M8
G0 Z   3.000 
G1 Z  -1.500
F400
G1 X 749.730 Y1210.700
G1 X 651.890 Y1242.200
G1 X 616.380 Y1351.480
G1 X 709.340 Y1419.010
G1 X 802.290 Y1351.480
F150
G1 Z  -3.000
F400
G1 X 709.340 Y1419.010
G1 X 616.380 Y1351.480
G1 X 651.890 Y1242.200
G1 X 749.730 Y1210.700
G1 X 825.050 Y1107.040
F150
G1 Z   3.000
G0 Z  15.000 
M9 M5

(* SHAPE Nr: 65 *)
G0 X 813.460 Y1371.990
M3 M8
G0 Z   3.000 
G1 Z  -1.500
F400
G1 X 813.460 Y1882.300
G1 X1298.800 Y2040.000
G1 X1598.760 Y1627.150
F150
G1 Z  -3.000
F400
G1 X1298.800 Y2040.000
G1 X 813.460 Y1882.300
G1 X 813.460 Y1371.990
F150
G1 Z   3.000
G0 Z  15.000 
M9 M5

(* SHAPE Nr: 66 *)
G0 X1492.570 Y1863.190
M3 M8
G0 Z   3.000 
G1 Z  -1.500
F400
G1 X1399.610 Y1930.720
G1 X1435.120 Y2040.000
G1 X1550.020 Y2040.000
G1 X1585.530 Y1930.720
G1 X1604.350 Y1878.220
G1 X1616.930 Y1882.300
G1 X2102.270 Y2040.000
G1 X2402.220 Y1627.150
G1 X2102.270 Y1214.290
G1 X1604.350 Y1376.080
G1 X1599.800 Y1362.100
G1 X1617.100 Y1320.610
G1 X1541.790 Y1216.950
G1 X1553.680 Y1208.310
G1 X1617.340 Y1295.880
G1 X1726.620 Y1260.370
G1 X1726.620 Y1145.470
G1 X1617.340 Y1109.960
G1 X1613.020 Y1115.910
G1 X1598.760 Y1114.570
G1 X1598.760 Y 591.020
G1 X1113.420 Y 433.330
G1 X1103.750 Y 437.140
G1 X1095.110 Y 425.250
G1 X1105.810 Y 417.470
G1 X1198.770 Y 349.930
G1 X1163.260 Y 240.660
G1 X1048.360 Y 240.660
G1 X1008.770 Y 362.520
G1 X 885.970 Y 336.510
G1 X 503.950 Y 387.120
G1 X 502.020 Y 372.550
G1 X 502.860 Y 178.030
G1 X 517.560 Y 178.030
G1 X 517.560 Y 321.580
G1 X 640.530 Y 354.160
G1 X1009.440 Y 305.290
G1 X 947.950 Y 285.750
G1 X 947.950 Y 227.100
G1 X1009.440 Y 207.550
G1 X 640.530 Y 158.680
G1 X 517.560 Y 191.260
G1 X 516.580 Y 241.560
G1 X 501.880 Y 241.560
G1 X 501.880 Y  98.010
G1 X 378.910 Y  65.430
G1 X  10.000 Y 114.300
F150
G1 Z  -3.000
F400
G1 X 378.910 Y  65.430
G1 X 501.880 Y  98.010
G1 X 501.880 Y 241.560
G1 X 516.580 Y 241.560
G1 X 517.560 Y 191.260
G1 X 640.530 Y 158.680
G1 X1009.440 Y 207.550
G1 X 947.950 Y 227.100
G1 X 947.950 Y 285.750
G1 X1009.440 Y 305.290
G1 X 640.530 Y 354.160
G1 X 517.560 Y 321.580
G1 X 517.560 Y 178.030
G1 X 502.860 Y 178.030
G1 X 502.020 Y 372.550
G1 X 503.950 Y 387.120
G1 X 885.970 Y 336.510
G1 X1008.770 Y 362.520
G1 X1048.360 Y 240.660
G1 X1163.260 Y 240.660
G1 X1198.770 Y 349.930
G1 X1105.810 Y 417.470
G1 X1095.110 Y 425.250
G1 X1103.750 Y 437.140
G1 X1113.420 Y 433.330
G1 X1598.760 Y 591.020
G1 X1598.760 Y1114.570
G1 X1613.020 Y1115.910
G1 X1617.340 Y1109.960
G1 X1726.620 Y1145.470
G1 X1726.620 Y1260.370
G1 X1617.340 Y1295.880
G1 X1553.680 Y1208.310
G1 X1541.790 Y1216.950
G1 X1617.100 Y1320.610
G1 X1599.800 Y1362.100
G1 X1604.350 Y1376.080
G1 X2102.270 Y1214.290
G1 X2402.220 Y1627.150
G1 X2102.270 Y2040.000
G1 X1616.930 Y1882.300
G1 X1604.350 Y1878.220
G1 X1585.530 Y1930.720
G1 X1550.020 Y2040.000
G1 X1435.120 Y2040.000
G1 X1399.610 Y1930.720
G1 X1492.570 Y1863.190
F150
G1 Z   3.000
G0 Z  15.000 
M9 M5
G0 X   0.000 Y   0.000
M2 (Program end)