(Generated with: DXF2GCODE, Version: REMOVED, Date: $Date$)
(Created from file: )
(Output format description: G-CODE for LinuxCNC)
(Time: Thu Sep 13 16:00:46 2018)
G21 (Units in millimeters)
G90 (Absolute programming)
G64 (Default cutting) G17 (XY plane) G40 (Cancel radius comp.) G49 (Cancel length comp.)
G0 Z  15.000 

(*** LAYER: FRAME_Z18 ***)
T1 M6
S6000

(* SHAPE Nr: 47 *)
G0 X   0.000 Y   0.000
M3 M8
G0 Z   3.000 
F150
G1 Z  -1.500
F400
G1 X   0.000 Y2050.000
G1 X2800.000 Y2050.000
G1 X2800.000 Y   0.000
G1 X   0.000 Y   0.000
F150
G1 Z  -3.000
F400
G1 X   0.000 Y2050.000
G1 X2800.000 Y2050.000
G1 X2800.000 Y   0.000
G1 X   0.000 Y   0.000
F150
G1 Z   3.000
G0 Z  15.000 
M9 M5

(*** LAYER: BORDER_D0_T132_RK1_A0_W0_EM1_RI1_ID0003 ***)

(* SHAPE Nr: 0 *)
G0 X  77.540 Y  96.930
M3 M8
G0 Z   3.000 
G1 Z  -1.500
F400
G1 X  28.670 Y 132.440
G1 X  10.000 Y 189.890
G1 X  28.670 Y 247.340
G1 X  77.540 Y 282.840
G1 X 137.940 Y 282.840
G1 X 186.810 Y 247.340
G1 X 205.480 Y 189.890
G1 X 186.810 Y 132.440
G1 X 137.940 Y  96.930
G1 X  77.540 Y  96.930
F150
G1 Z  -3.000
F400
G1 X  28.670 Y 132.440
G1 X  10.000 Y 189.890
G1 X  28.670 Y 247.340
G1 X  77.540 Y 282.840
G1 X 137.940 Y 282.840
G1 X 186.810 Y 247.340
G1 X 205.480 Y 189.890
G1 X 186.810 Y 132.440
G1 X 137.940 Y  96.930
G1 X  77.540 Y  96.930
F150
G1 Z   3.000
G0 Z  15.000 
M9 M5

(* SHAPE Nr: 10 *)
G0 X 955.470 Y1854.090
M3 M8
G0 Z   3.000 
G1 Z  -1.500
F400
G1 X 906.600 Y1889.600
G1 X 887.930 Y1947.050
G1 X 906.600 Y2004.500
G1 X 955.470 Y2040.000
G1 X1015.870 Y2040.000
G1 X1064.740 Y2004.500
G1 X1083.410 Y1947.050
G1 X1064.740 Y1889.600
G1 X1015.870 Y1854.090
G1 X 955.470 Y1854.090
F150
G1 Z  -3.000
F400
G1 X 906.600 Y1889.600
G1 X 887.930 Y1947.050
G1 X 906.600 Y2004.500
G1 X 955.470 Y2040.000
G1 X1015.870 Y2040.000
G1 X1064.740 Y2004.500
G1 X1083.410 Y1947.050
G1 X1064.740 Y1889.600
G1 X1015.870 Y1854.090
G1 X 955.470 Y1854.090
F150
G1 Z   3.000
G0 Z  15.000 
M9 M5

(* SHAPE Nr: 13 *)
G0 X 839.890 Y1017.560
M3 M8
G0 Z   3.000 
G1 Z  -1.500
F400
G1 X 821.220 Y1075.010
G1 X 839.890 Y1132.460
G1 X 888.760 Y1167.960
G1 X 949.160 Y1167.960
G1 X 998.030 Y1132.460
G1 X1016.700 Y1075.010
G1 X 998.030 Y1017.560
G1 X 949.160 Y 982.050
G1 X 888.760 Y 982.050
G1 X 839.890 Y1017.560
F150
G1 Z  -3.000
F400
G1 X 821.220 Y1075.010
G1 X 839.890 Y1132.460
G1 X 888.760 Y1167.960
G1 X 949.160 Y1167.960
G1 X 998.030 Y1132.460
G1 X1016.700 Y1075.010
G1 X 998.030 Y1017.560
G1 X 949.160 Y 982.050
G1 X 888.760 Y 982.050
G1 X 839.890 Y1017.560
F150
G1 Z   3.000
G0 Z  15.000 
M9 M5

(* SHAPE Nr: 16 *)
G0 X1225.440 Y 218.360
M3 M8
G0 Z   3.000 
G1 Z  -1.500
F400
G1 X1244.110 Y 275.810
G1 X1292.980 Y 311.310
G1 X1353.380 Y 311.310
G1 X1402.250 Y 275.810
G1 X1420.920 Y 218.360
G1 X1402.250 Y 160.910
G1 X1353.380 Y 125.400
G1 X1292.980 Y 125.400
G1 X1244.110 Y 160.910
G1 X1225.440 Y 218.360
F150
G1 Z  -3.000
F400
G1 X1244.110 Y 275.810
G1 X1292.980 Y 311.310
G1 X1353.380 Y 311.310
G1 X1402.250 Y 275.810
G1 X1420.920 Y 218.360
G1 X1402.250 Y 160.910
G1 X1353.380 Y 125.400
G1 X1292.980 Y 125.400
G1 X1244.110 Y 160.910
G1 X1225.440 Y 218.360
F150
G1 Z   3.000
G0 Z  15.000 
M9 M5

(* SHAPE Nr: 19 *)
G0 X 566.660 Y 176.220
M3 M8
G0 Z   3.000 
G1 Z  -1.500
F400
G1 X 585.330 Y 233.670
G1 X 634.200 Y 269.170
G1 X 694.600 Y 269.170
G1 X 743.470 Y 233.670
G1 X 762.140 Y 176.220
G1 X 743.470 Y 118.770
G1 X 694.600 Y  83.260
G1 X 634.200 Y  83.260
G1 X 585.330 Y 118.770
G1 X 566.660 Y 176.220
F150
G1 Z  -3.000
F400
G1 X 585.330 Y 233.670
G1 X 634.200 Y 269.170
G1 X 694.600 Y 269.170
G1 X 743.470 Y 233.670
G1 X 762.140 Y 176.220
G1 X 743.470 Y 118.770
G1 X 694.600 Y  83.260
G1 X 634.200 Y  83.260
G1 X 585.330 Y 118.770
G1 X 566.660 Y 176.220
F150
G1 Z   3.000
G0 Z  15.000 
M9 M5

(* SHAPE Nr: 26 *)
G0 X2529.830 Y 204.890
M3 M8
G0 Z   3.000 
G1 Z  -1.500
F400
G1 X2548.500 Y 262.340
G1 X2597.370 Y 297.840
G1 X2657.770 Y 297.840
G1 X2706.640 Y 262.340
G1 X2725.310 Y 204.890
G1 X2706.640 Y 147.440
G1 X2657.770 Y 111.930
G1 X2597.370 Y 111.930
G1 X2548.500 Y 147.440
G1 X2529.830 Y 204.890
F150
G1 Z  -3.000
F400
G1 X2548.500 Y 262.340
G1 X2597.370 Y 297.840
G1 X2657.770 Y 297.840
G1 X2706.640 Y 262.340
G1 X2725.310 Y 204.890
G1 X2706.640 Y 147.440
G1 X2657.770 Y 111.930
G1 X2597.370 Y 111.930
G1 X2548.500 Y 147.440
G1 X2529.830 Y 204.890
F150
G1 Z   3.000
G0 Z  15.000 
M9 M5

(* SHAPE Nr: 27 *)
G0 X2134.660 Y 475.010
M3 M8
G0 Z   3.000 
G1 Z  -1.500
F400
G1 X2153.330 Y 532.460
G1 X2202.200 Y 567.960
G1 X2262.600 Y 567.960
G1 X2311.470 Y 532.460
G1 X2330.140 Y 475.010
G1 X2311.470 Y 417.560
G1 X2262.600 Y 382.050
G1 X2202.200 Y 382.050
G1 X2153.330 Y 417.560
G1 X2134.660 Y 475.010
F150
G1 Z  -3.000
F400
G1 X2153.330 Y 532.460
G1 X2202.200 Y 567.960
G1 X2262.600 Y 567.960
G1 X2311.470 Y 532.460
G1 X2330.140 Y 475.010
G1 X2311.470 Y 417.560
G1 X2262.600 Y 382.050
G1 X2202.200 Y 382.050
G1 X2153.330 Y 417.560
G1 X2134.660 Y 475.010
F150
G1 Z   3.000
G0 Z  15.000 
M9 M5

(*** LAYER: BORDER_D0_T132_RK1_A0_W0_EM1_RI1_ID0015 ***)

(* SHAPE Nr: 1 *)
G0 X 250.290 Y  29.060
M3 M8
G0 Z   3.000 
G1 Z  -1.500
F400
G1 X 217.710 Y 152.030
G1 X 266.580 Y 520.940
G1 X 286.130 Y 459.450
G1 X 344.770 Y 459.450
G1 X 364.320 Y 520.940
G1 X 413.190 Y 152.030
G1 X 380.610 Y  29.060
G1 X 315.450 Y  29.060
G1 X 250.290 Y  29.060
F150
G1 Z  -3.000
F400
G1 X 217.710 Y 152.030
G1 X 266.580 Y 520.940
G1 X 286.130 Y 459.450
G1 X 344.770 Y 459.450
G1 X 364.320 Y 520.940
G1 X 413.190 Y 152.030
G1 X 380.610 Y  29.060
G1 X 315.450 Y  29.060
G1 X 250.290 Y  29.060
F150
G1 Z   3.000
G0 Z  15.000 
M9 M5

(* SHAPE Nr: 20 *)
G0 X 439.180 Y  68.450
M3 M8
G0 Z   3.000 
G1 Z  -1.500
F400
G1 X 390.310 Y 437.360
G1 X 422.890 Y 560.330
G1 X 488.050 Y 560.330
G1 X 553.210 Y 560.330
G1 X 585.790 Y 437.360
G1 X 536.920 Y  68.450
G1 X 517.370 Y 129.940
G1 X 458.730 Y 129.940
G1 X 439.180 Y  68.450
F150
G1 Z  -3.000
F400
G1 X 390.310 Y 437.360
G1 X 422.890 Y 560.330
G1 X 488.050 Y 560.330
G1 X 553.210 Y 560.330
G1 X 585.790 Y 437.360
G1 X 536.920 Y  68.450
G1 X 517.370 Y 129.940
G1 X 458.730 Y 129.940
G1 X 439.180 Y  68.450
F150
G1 Z   3.000
G0 Z  15.000 
M9 M5

(* SHAPE Nr: 21 *)
G0 X  42.580 Y 297.540
M3 M8
G0 Z   3.000 
G1 Z  -1.500
F400
G1 X  10.000 Y 420.510
G1 X  58.870 Y 789.420
G1 X  78.420 Y 727.930
G1 X 137.060 Y 727.930
G1 X 156.610 Y 789.420
G1 X 205.480 Y 420.510
G1 X 172.900 Y 297.540
G1 X 107.740 Y 297.540
G1 X  42.580 Y 297.540
F150
G1 Z  -3.000
F400
G1 X  10.000 Y 420.510
G1 X  58.870 Y 789.420
G1 X  78.420 Y 727.930
G1 X 137.060 Y 727.930
G1 X 156.610 Y 789.420
G1 X 205.480 Y 420.510
G1 X 172.900 Y 297.540
G1 X 107.740 Y 297.540
G1 X  42.580 Y 297.540
F150
G1 Z   3.000
G0 Z  15.000 
M9 M5

(* SHAPE Nr: 22 *)
G0 X1304.640 Y 829.760
M3 M8
G0 Z   3.000 
G1 Z  -1.500
F400
G1 X1255.770 Y1198.670
G1 X1288.350 Y1321.640
G1 X1353.510 Y1321.640
G1 X1418.670 Y1321.640
G1 X1451.250 Y1198.670
G1 X1402.380 Y 829.760
G1 X1382.830 Y 891.250
G1 X1324.190 Y 891.250
G1 X1304.640 Y 829.760
F150
G1 Z  -3.000
F400
G1 X1255.770 Y1198.670
G1 X1288.350 Y1321.640
G1 X1353.510 Y1321.640
G1 X1418.670 Y1321.640
G1 X1451.250 Y1198.670
G1 X1402.380 Y 829.760
G1 X1382.830 Y 891.250
G1 X1324.190 Y 891.250
G1 X1304.640 Y 829.760
F150
G1 Z   3.000
G0 Z  15.000 
M9 M5

(* SHAPE Nr: 23 *)
G0 X1466.230 Y1123.380
M3 M8
G0 Z   3.000 
G1 Z  -1.500
F400
G1 X1466.230 Y1188.540
G1 X1466.230 Y1253.700
G1 X1589.200 Y1286.280
G1 X1958.110 Y1237.410
G1 X1896.620 Y1217.860
G1 X1896.620 Y1159.220
G1 X1958.110 Y1139.670
G1 X1589.200 Y1090.800
G1 X1466.230 Y1123.380
F150
G1 Z  -3.000
F400
G1 X1466.230 Y1188.540
G1 X1466.230 Y1253.700
G1 X1589.200 Y1286.280
G1 X1958.110 Y1237.410
G1 X1896.620 Y1217.860
G1 X1896.620 Y1159.220
G1 X1958.110 Y1139.670
G1 X1589.200 Y1090.800
G1 X1466.230 Y1123.380
F150
G1 Z   3.000
G0 Z  15.000 
M9 M5

(* SHAPE Nr: 25 *)
G0 X2023.220 Y 224.080
M3 M8
G0 Z   3.000 
G1 Z  -1.500
F400
G1 X2084.710 Y 243.630
G1 X2084.710 Y 302.270
G1 X2023.220 Y 321.820
G1 X2392.130 Y 370.690
G1 X2515.100 Y 338.110
G1 X2515.100 Y 272.950
G1 X2515.100 Y 207.790
G1 X2392.130 Y 175.210
G1 X2023.220 Y 224.080
F150
G1 Z  -3.000
F400
G1 X2084.710 Y 243.630
G1 X2084.710 Y 302.270
G1 X2023.220 Y 321.820
G1 X2392.130 Y 370.690
G1 X2515.100 Y 338.110
G1 X2515.100 Y 272.950
G1 X2515.100 Y 207.790
G1 X2392.130 Y 175.210
G1 X2023.220 Y 224.080
F150
G1 Z   3.000
G0 Z  15.000 
M9 M5

(* SHAPE Nr: 32 *)
G0 X2152.340 Y1877.100
M3 M8
G0 Z   3.000 
G1 Z  -1.500
F400
G1 X2152.340 Y1942.260
G1 X2152.340 Y2007.420
G1 X2275.310 Y2040.000
G1 X2644.220 Y1991.130
G1 X2582.730 Y1971.580
G1 X2582.730 Y1912.940
G1 X2644.220 Y1893.390
G1 X2275.310 Y1844.520
G1 X2152.340 Y1877.100
F150
G1 Z  -3.000
F400
G1 X2152.340 Y1942.260
G1 X2152.340 Y2007.420
G1 X2275.310 Y2040.000
G1 X2644.220 Y1991.130
G1 X2582.730 Y1971.580
G1 X2582.730 Y1912.940
G1 X2644.220 Y1893.390
G1 X2275.310 Y1844.520
G1 X2152.340 Y1877.100
F150
G1 Z   3.000
G0 Z  15.000 
M9 M5

(*** LAYER: BORDER_D0_T132_RK1_A0_W0_EM1_RI1_ID0012 ***)

(* SHAPE Nr: 2 *)
G0 X 227.050 Y 519.260
M3 M8
G0 Z   3.000 
G1 Z  -1.500
F400
G1 X 227.050 Y 769.890
G1 X  10.000 Y 895.200
G1 X 227.050 Y1020.520
G1 X 227.050 Y1271.140
G1 X 444.100 Y1145.830
G1 X 661.150 Y1271.140
G1 X 661.150 Y1020.520
G1 X 878.200 Y 895.200
G1 X 661.150 Y 769.890
G1 X 661.150 Y 519.260
G1 X 444.100 Y 644.570
G1 X 227.050 Y 519.260
F150
G1 Z  -3.000
F400
G1 X 227.050 Y 769.890
G1 X  10.000 Y 895.200
G1 X 227.050 Y1020.520
G1 X 227.050 Y1271.140
G1 X 444.100 Y1145.830
G1 X 661.150 Y1271.140
G1 X 661.150 Y1020.520
G1 X 878.200 Y 895.200
G1 X 661.150 Y 769.890
G1 X 661.150 Y 519.260
G1 X 444.100 Y 644.570
G1 X 227.050 Y 519.260
F150
G1 Z   3.000
G0 Z  15.000 
M9 M5

(* SHAPE Nr: 3 *)
G0 X 227.050 Y1288.120
M3 M8
G0 Z   3.000 
G1 Z  -1.500
F400
G1 X 227.050 Y1538.750
G1 X  10.000 Y1664.060
G1 X 227.050 Y1789.380
G1 X 227.050 Y2040.000
G1 X 444.100 Y1914.690
G1 X 661.150 Y2040.000
G1 X 661.150 Y1789.380
G1 X 878.200 Y1664.060
G1 X 661.150 Y1538.750
G1 X 661.150 Y1288.120
G1 X 444.100 Y1413.430
G1 X 227.050 Y1288.120
F150
G1 Z  -3.000
F400
G1 X 227.050 Y1538.750
G1 X  10.000 Y1664.060
G1 X 227.050 Y1789.380
G1 X 227.050 Y2040.000
G1 X 444.100 Y1914.690
G1 X 661.150 Y2040.000
G1 X 661.150 Y1789.380
G1 X 878.200 Y1664.060
G1 X 661.150 Y1538.750
G1 X 661.150 Y1288.120
G1 X 444.100 Y1413.430
G1 X 227.050 Y1288.120
F150
G1 Z   3.000
G0 Z  15.000 
M9 M5

(* SHAPE Nr: 11 *)
G0 X 806.080 Y1388.850
M3 M8
G0 Z   3.000 
G1 Z  -1.500
F400
G1 X 931.390 Y1605.900
G1 X 806.080 Y1822.950
G1 X1056.710 Y1822.950
G1 X1182.020 Y2040.000
G1 X1307.340 Y1822.950
G1 X1557.960 Y1822.950
G1 X1432.650 Y1605.900
G1 X1557.960 Y1388.850
G1 X1307.340 Y1388.850
G1 X1182.020 Y1171.800
G1 X1056.710 Y1388.850
G1 X 806.080 Y1388.850
F150
G1 Z  -3.000
F400
G1 X 931.390 Y1605.900
G1 X 806.080 Y1822.950
G1 X1056.710 Y1822.950
G1 X1182.020 Y2040.000
G1 X1307.340 Y1822.950
G1 X1557.960 Y1822.950
G1 X1432.650 Y1605.900
G1 X1557.960 Y1388.850
G1 X1307.340 Y1388.850
G1 X1182.020 Y1171.800
G1 X1056.710 Y1388.850
G1 X 806.080 Y1388.850
F150
G1 Z   3.000
G0 Z  15.000 
M9 M5

(* SHAPE Nr: 15 *)
G0 X 678.300 Y 326.050
M3 M8
G0 Z   3.000 
G1 Z  -1.500
F400
G1 X 803.610 Y 543.100
G1 X 678.300 Y 760.150
G1 X 928.930 Y 760.150
G1 X1054.240 Y 977.200
G1 X1179.560 Y 760.150
G1 X1430.180 Y 760.150
G1 X1304.870 Y 543.100
G1 X1430.180 Y 326.050
G1 X1179.560 Y 326.050
G1 X1054.240 Y 109.000
G1 X 928.930 Y 326.050
G1 X 678.300 Y 326.050
F150
G1 Z  -3.000
F400
G1 X 803.610 Y 543.100
G1 X 678.300 Y 760.150
G1 X 928.930 Y 760.150
G1 X1054.240 Y 977.200
G1 X1179.560 Y 760.150
G1 X1430.180 Y 760.150
G1 X1304.870 Y 543.100
G1 X1430.180 Y 326.050
G1 X1179.560 Y 326.050
G1 X1054.240 Y 109.000
G1 X 928.930 Y 326.050
G1 X 678.300 Y 326.050
F150
G1 Z   3.000
G0 Z  15.000 
M9 M5

(* SHAPE Nr: 24 *)
G0 X1356.350 Y 598.320
M3 M8
G0 Z   3.000 
G1 Z  -1.500
F400
G1 X1573.400 Y 723.640
G1 X1573.400 Y 974.260
G1 X1790.450 Y 848.950
G1 X2007.500 Y 974.260
G1 X2007.500 Y 723.640
G1 X2224.550 Y 598.320
G1 X2007.500 Y 473.010
G1 X2007.500 Y 222.380
G1 X1790.450 Y 347.690
G1 X1573.400 Y 222.380
G1 X1573.400 Y 473.010
G1 X1356.350 Y 598.320
F150
G1 Z  -3.000
F400
G1 X1573.400 Y 723.640
G1 X1573.400 Y 974.260
G1 X1790.450 Y 848.950
G1 X2007.500 Y 974.260
G1 X2007.500 Y 723.640
G1 X2224.550 Y 598.320
G1 X2007.500 Y 473.010
G1 X2007.500 Y 222.380
G1 X1790.450 Y 347.690
G1 X1573.400 Y 222.380
G1 X1573.400 Y 473.010
G1 X1356.350 Y 598.320
F150
G1 Z   3.000
G0 Z  15.000 
M9 M5

(* SHAPE Nr: 29 *)
G0 X1703.510 Y1288.120
M3 M8
G0 Z   3.000 
G1 Z  -1.500
F400
G1 X1703.510 Y1538.750
G1 X1486.460 Y1664.060
G1 X1703.510 Y1789.380
G1 X1703.510 Y2040.000
G1 X1920.560 Y1914.690
G1 X2137.610 Y2040.000
G1 X2137.610 Y1789.380
G1 X2354.660 Y1664.060
G1 X2137.610 Y1538.750
G1 X2137.610 Y1288.120
G1 X1920.560 Y1413.430
G1 X1703.510 Y1288.120
F150
G1 Z  -3.000
F400
G1 X1703.510 Y1538.750
G1 X1486.460 Y1664.060
G1 X1703.510 Y1789.380
G1 X1703.510 Y2040.000
G1 X1920.560 Y1914.690
G1 X2137.610 Y2040.000
G1 X2137.610 Y1789.380
G1 X2354.660 Y1664.060
G1 X2137.610 Y1538.750
G1 X2137.610 Y1288.120
G1 X1920.560 Y1413.430
G1 X1703.510 Y1288.120
F150
G1 Z   3.000
G0 Z  15.000 
M9 M5

(*** LAYER: BORDER_D0_T132_RK1_A0_W0_EM1_RI1_ID0009 ***)

(* SHAPE Nr: 4 *)
G0 X 427.160 Y1187.250
M3 M8
G0 Z   3.000 
G1 Z  -1.500
F400
G1 X 406.900 Y1249.890
G1 X 342.520 Y1236.120
G1 X 386.630 Y1284.990
G1 X 342.520 Y1333.860
G1 X 406.900 Y1320.090
G1 X 427.160 Y1382.730
G1 X 447.430 Y1320.090
G1 X 511.800 Y1333.860
G1 X 467.700 Y1284.990
G1 X 511.800 Y1236.120
G1 X 447.430 Y1249.890
G1 X 427.160 Y1187.250
F150
G1 Z  -3.000
F400
G1 X 406.900 Y1249.890
G1 X 342.520 Y1236.120
G1 X 386.630 Y1284.990
G1 X 342.520 Y1333.860
G1 X 406.900 Y1320.090
G1 X 427.160 Y1382.730
G1 X 447.430 Y1320.090
G1 X 511.800 Y1333.860
G1 X 467.700 Y1284.990
G1 X 511.800 Y1236.120
G1 X 447.430 Y1249.890
G1 X 427.160 Y1187.250
F150
G1 Z   3.000
G0 Z  15.000 
M9 M5

(* SHAPE Nr: 6 *)
G0 X  94.640 Y 973.850
M3 M8
G0 Z   3.000 
G1 Z  -1.500
F400
G1 X  74.380 Y1036.490
G1 X  10.000 Y1022.720
G1 X  54.110 Y1071.590
G1 X  10.000 Y1120.460
G1 X  74.380 Y1106.690
G1 X  94.640 Y1169.330
G1 X 114.910 Y1106.690
G1 X 179.280 Y1120.460
G1 X 135.180 Y1071.590
G1 X 179.280 Y1022.720
G1 X 114.910 Y1036.490
G1 X  94.640 Y 973.850
F150
G1 Z  -3.000
F400
G1 X  74.380 Y1036.490
G1 X  10.000 Y1022.720
G1 X  54.110 Y1071.590
G1 X  10.000 Y1120.460
G1 X  74.380 Y1106.690
G1 X  94.640 Y1169.330
G1 X 114.910 Y1106.690
G1 X 179.280 Y1120.460
G1 X 135.180 Y1071.590
G1 X 179.280 Y1022.720
G1 X 114.910 Y1036.490
G1 X  94.640 Y 973.850
F150
G1 Z   3.000
G0 Z  15.000 
M9 M5

(* SHAPE Nr: 7 *)
G0 X  94.640 Y1398.780
M3 M8
G0 Z   3.000 
G1 Z  -1.500
F400
G1 X  74.380 Y1461.420
G1 X  10.000 Y1447.650
G1 X  54.110 Y1496.520
G1 X  10.000 Y1545.390
G1 X  74.380 Y1531.620
G1 X  94.640 Y1594.260
G1 X 114.910 Y1531.620
G1 X 179.280 Y1545.390
G1 X 135.180 Y1496.520
G1 X 179.280 Y1447.650
G1 X 114.910 Y1461.420
G1 X  94.640 Y1398.780
F150
G1 Z  -3.000
F400
G1 X  74.380 Y1461.420
G1 X  10.000 Y1447.650
G1 X  54.110 Y1496.520
G1 X  10.000 Y1545.390
G1 X  74.380 Y1531.620
G1 X  94.640 Y1594.260
G1 X 114.910 Y1531.620
G1 X 179.280 Y1545.390
G1 X 135.180 Y1496.520
G1 X 179.280 Y1447.650
G1 X 114.910 Y1461.420
G1 X  94.640 Y1398.780
F150
G1 Z   3.000
G0 Z  15.000 
M9 M5

(* SHAPE Nr: 12 *)
G0 X1029.840 Y1057.860
M3 M8
G0 Z   3.000 
G1 Z  -1.500
F400
G1 X1073.950 Y1106.730
G1 X1029.840 Y1155.600
G1 X1094.220 Y1141.830
G1 X1114.480 Y1204.470
G1 X1134.750 Y1141.830
G1 X1199.120 Y1155.600
G1 X1155.020 Y1106.730
G1 X1199.120 Y1057.860
G1 X1134.750 Y1071.630
G1 X1114.480 Y1008.990
G1 X1094.220 Y1071.630
G1 X1029.840 Y1057.860
F150
G1 Z  -3.000
F400
G1 X1073.950 Y1106.730
G1 X1029.840 Y1155.600
G1 X1094.220 Y1141.830
G1 X1114.480 Y1204.470
G1 X1134.750 Y1141.830
G1 X1199.120 Y1155.600
G1 X1155.020 Y1106.730
G1 X1199.120 Y1057.860
G1 X1134.750 Y1071.630
G1 X1114.480 Y1008.990
G1 X1094.220 Y1071.630
G1 X1029.840 Y1057.860
F150
G1 Z   3.000
G0 Z  15.000 
M9 M5

(* SHAPE Nr: 17 *)
G0 X1070.430 Y 100.860
M3 M8
G0 Z   3.000 
G1 Z  -1.500
F400
G1 X1133.070 Y 121.130
G1 X1119.300 Y 185.510
G1 X1168.170 Y 141.400
G1 X1217.040 Y 185.510
G1 X1203.270 Y 121.130
G1 X1265.910 Y 100.860
G1 X1203.270 Y  80.600
G1 X1217.040 Y  16.220
G1 X1168.170 Y  60.330
G1 X1119.300 Y  16.220
G1 X1133.070 Y  80.600
G1 X1070.430 Y 100.860
F150
G1 Z  -3.000
F400
G1 X1133.070 Y 121.130
G1 X1119.300 Y 185.510
G1 X1168.170 Y 141.400
G1 X1217.040 Y 185.510
G1 X1203.270 Y 121.130
G1 X1265.910 Y 100.860
G1 X1203.270 Y  80.600
G1 X1217.040 Y  16.220
G1 X1168.170 Y  60.330
G1 X1119.300 Y  16.220
G1 X1133.070 Y  80.600
G1 X1070.430 Y 100.860
F150
G1 Z   3.000
G0 Z  15.000 
M9 M5

(* SHAPE Nr: 28 *)
G0 X1943.980 Y1183.490
M3 M8
G0 Z   3.000 
G1 Z  -1.500
F400
G1 X1988.090 Y1232.360
G1 X1943.980 Y1281.230
G1 X2008.360 Y1267.460
G1 X2028.620 Y1330.100
G1 X2048.890 Y1267.460
G1 X2113.260 Y1281.230
G1 X2069.160 Y1232.360
G1 X2113.260 Y1183.490
G1 X2048.890 Y1197.260
G1 X2028.620 Y1134.620
G1 X2008.360 Y1197.260
G1 X1943.980 Y1183.490
F150
G1 Z  -3.000
F400
G1 X1988.090 Y1232.360
G1 X1943.980 Y1281.230
G1 X2008.360 Y1267.460
G1 X2028.620 Y1330.100
G1 X2048.890 Y1267.460
G1 X2113.260 Y1281.230
G1 X2069.160 Y1232.360
G1 X2113.260 Y1183.490
G1 X2048.890 Y1197.260
G1 X2028.620 Y1134.620
G1 X2008.360 Y1197.260
G1 X1943.980 Y1183.490
F150
G1 Z   3.000
G0 Z  15.000 
M9 M5

(* SHAPE Nr: 31 *)
G0 X1300.690 Y1870.710
M3 M8
G0 Z   3.000 
G1 Z  -1.500
F400
G1 X1314.460 Y1935.090
G1 X1251.820 Y1955.350
G1 X1314.460 Y1975.620
G1 X1300.690 Y2040.000
G1 X1349.560 Y1995.890
G1 X1398.430 Y2040.000
G1 X1384.660 Y1975.620
G1 X1447.300 Y1955.350
G1 X1384.660 Y1935.090
G1 X1398.430 Y1870.710
G1 X1349.560 Y1914.820
G1 X1300.690 Y1870.710
F150
G1 Z  -3.000
F400
G1 X1314.460 Y1935.090
G1 X1251.820 Y1955.350
G1 X1314.460 Y1975.620
G1 X1300.690 Y2040.000
G1 X1349.560 Y1995.890
G1 X1398.430 Y2040.000
G1 X1384.660 Y1975.620
G1 X1447.300 Y1955.350
G1 X1384.660 Y1935.090
G1 X1398.430 Y1870.710
G1 X1349.560 Y1914.820
G1 X1300.690 Y1870.710
F150
G1 Z   3.000
G0 Z  15.000 
M9 M5

(*** LAYER: BORDER_D0_T132_RK1_A0_W0_EM1_RI1_ID0023 ***)

(* SHAPE Nr: 5 *)
G0 X  94.640 Y1186.290
M3 M8
G0 Z   3.000 
G1 Z  -1.500
F400
G1 X  10.000 Y1235.160
G1 X  10.000 Y1332.900
G1 X  94.640 Y1381.770
G1 X 179.280 Y1332.900
G1 X 179.280 Y1235.160
G1 X  94.640 Y1186.290
F150
G1 Z  -3.000
F400
G1 X  10.000 Y1235.160
G1 X  10.000 Y1332.900
G1 X  94.640 Y1381.770
G1 X 179.280 Y1332.900
G1 X 179.280 Y1235.160
G1 X  94.640 Y1186.290
F150
G1 Z   3.000
G0 Z  15.000 
M9 M5

(* SHAPE Nr: 8 *)
G0 X  94.640 Y1844.510
M3 M8
G0 Z   3.000 
G1 Z  -1.500
F400
G1 X  10.000 Y1893.380
G1 X  10.000 Y1991.120
G1 X  94.640 Y2039.990
G1 X 179.280 Y1991.120
G1 X 179.280 Y1893.380
G1 X  94.640 Y1844.510
F150
G1 Z  -3.000
F400
G1 X  10.000 Y1893.380
G1 X  10.000 Y1991.120
G1 X  94.640 Y2039.990
G1 X 179.280 Y1991.120
G1 X 179.280 Y1893.380
G1 X  94.640 Y1844.510
F150
G1 Z   3.000
G0 Z  15.000 
M9 M5

(* SHAPE Nr: 9 *)
G0 X 727.040 Y1870.710
M3 M8
G0 Z   3.000 
G1 Z  -1.500
F400
G1 X 678.170 Y1955.350
G1 X 727.040 Y2040.000
G1 X 824.780 Y2040.000
G1 X 873.650 Y1955.350
G1 X 824.780 Y1870.710
G1 X 727.040 Y1870.710
F150
G1 Z  -3.000
F400
G1 X 678.170 Y1955.350
G1 X 727.040 Y2040.000
G1 X 824.780 Y2040.000
G1 X 873.650 Y1955.350
G1 X 824.780 Y1870.710
G1 X 727.040 Y1870.710
F150
G1 Z   3.000
G0 Z  15.000 
M9 M5

(* SHAPE Nr: 14 *)
G0 X 788.360 Y1225.220
M3 M8
G0 Z   3.000 
G1 Z  -1.500
F400
G1 X 788.360 Y1322.960
G1 X 873.000 Y1371.830
G1 X 957.640 Y1322.960
G1 X 957.640 Y1225.220
G1 X 873.000 Y1176.350
G1 X 788.360 Y1225.220
F150
G1 Z  -3.000
F400
G1 X 788.360 Y1322.960
G1 X 873.000 Y1371.830
G1 X 957.640 Y1322.960
G1 X 957.640 Y1225.220
G1 X 873.000 Y1176.350
G1 X 788.360 Y1225.220
F150
G1 Z   3.000
G0 Z  15.000 
M9 M5

(*** LAYER: BORDER_D0_T132_RK1_A0_W0_EM1_RI1_ID0011 ***)

(* SHAPE Nr: 18 *)
G0 X 763.840 Y 129.130
M3 M8
G0 Z   3.000 
G1 Z  -1.500
F400
G1 X 792.060 Y 178.000
G1 X 763.840 Y 226.870
G1 X 820.270 Y 226.870
G1 X 848.480 Y 275.740
G1 X 876.700 Y 226.870
G1 X 933.120 Y 226.870
G1 X 904.920 Y 178.000
G1 X 933.120 Y 129.130
G1 X 876.700 Y 129.130
G1 X 848.480 Y  80.260
G1 X 820.270 Y 129.130
G1 X 763.840 Y 129.130
F150
G1 Z  -3.000
F400
G1 X 792.060 Y 178.000
G1 X 763.840 Y 226.870
G1 X 820.270 Y 226.870
G1 X 848.480 Y 275.740
G1 X 876.700 Y 226.870
G1 X 933.120 Y 226.870
G1 X 904.920 Y 178.000
G1 X 933.120 Y 129.130
G1 X 876.700 Y 129.130
G1 X 848.480 Y  80.260
G1 X 820.270 Y 129.130
G1 X 763.840 Y 129.130
F150
G1 Z   3.000
G0 Z  15.000 
M9 M5

(*** LAYER: BORDER_D0_T132_RK1_A0_W0_EM1_RI1_ID0001 ***)

(* SHAPE Nr: 30 *)
G0 X1487.520 Y1863.190
M3 M8
G0 Z   3.000 
G1 Z  -1.500
F400
G1 X1507.910 Y1915.330
G1 X1452.010 Y1912.050
G1 X1499.170 Y1942.260
G1 X1452.010 Y1972.450
G1 X1507.910 Y1969.180
G1 X1487.520 Y2021.320
G1 X1530.810 Y1985.810
G1 X1544.970 Y2040.000
G1 X1559.120 Y1985.810
G1 X1602.420 Y2021.320
G1 X1582.020 Y1969.180
G1 X1637.920 Y1972.450
G1 X1590.770 Y1942.260
G1 X1637.920 Y1912.050
G1 X1582.020 Y1915.330
G1 X1602.420 Y1863.190
G1 X1559.120 Y1898.690
G1 X1544.970 Y1844.520
G1 X1530.810 Y1898.690
G1 X1487.520 Y1863.190
F150
G1 Z  -3.000
F400
G1 X1507.910 Y1915.330
G1 X1452.010 Y1912.050
G1 X1499.170 Y1942.260
G1 X1452.010 Y1972.450
G1 X1507.910 Y1969.180
G1 X1487.520 Y2021.320
G1 X1530.810 Y1985.810
G1 X1544.970 Y2040.000
G1 X1559.120 Y1985.810
G1 X1602.420 Y2021.320
G1 X1582.020 Y1969.180
G1 X1637.920 Y1972.450
G1 X1590.770 Y1942.260
G1 X1637.920 Y1912.050
G1 X1582.020 Y1915.330
G1 X1602.420 Y1863.190
G1 X1559.120 Y1898.690
G1 X1544.970 Y1844.520
G1 X1530.810 Y1898.690
G1 X1487.520 Y1863.190
F150
G1 Z   3.000
G0 Z  15.000 
M9 M5

(*** LAYER: BORDER_D0_T132_RK1_A0_W0_EM1_RI1_ID0007 ***)

(* SHAPE Nr: 33 *)
G0 X2609.810 Y1947.040
M3 M8
G0 Z   3.000 
G1 Z  -1.500
F400
G1 X2677.340 Y1968.990
G1 X2677.340 Y2040.000
G1 X2719.080 Y1982.550
G1 X2786.620 Y2004.490
G1 X2744.880 Y1947.040
G1 X2786.620 Y1889.590
G1 X2719.080 Y1911.540
G1 X2677.340 Y1854.090
G1 X2677.340 Y1925.100
G1 X2609.810 Y1947.040
F150
G1 Z  -3.000
F400
G1 X2677.340 Y1968.990
G1 X2677.340 Y2040.000
G1 X2719.080 Y1982.550
G1 X2786.620 Y2004.490
G1 X2744.880 Y1947.040
G1 X2786.620 Y1889.590
G1 X2719.080 Y1911.540
G1 X2677.340 Y1854.090
G1 X2677.340 Y1925.100
G1 X2609.810 Y1947.040
F150
G1 Z   3.000
G0 Z  15.000 
M9 M5

(*** LAYER: BORDER_D0_T132_RK1_A0_W0_EM1_RI1_ID0019 ***)

(* SHAPE Nr: 34 *)
G0 X2286.500 Y 699.080
M3 M8
G0 Z   3.000 
G1 Z  -1.500
F400
G2 X2254.520 Y 821.190 I1077.138 J 347.340
G2 X2234.930 Y 951.330 I1256.951 J 255.754
G2 X2228.340 Y1085.550 I1358.961 J 133.995
G2 X2234.930 Y1219.770 I1365.551 J   0.225
G2 X2254.520 Y1349.910 I1276.541 J-125.614
G2 X2286.500 Y1472.030 I1109.129 J-225.204
G2 X2329.900 Y1582.390 I 893.432 J-287.636
G2 X2383.410 Y1677.660 I 665.040 J-310.869
G2 X2445.390 Y1754.940 I 456.030 J-302.250
G2 X2513.970 Y1811.890 I 287.293 J-276.195
G2 X2587.060 Y1846.760 I 164.043 J-249.810
G2 X2662.440 Y1858.500 I  75.689 J-238.112
G1 X2662.440 Y1085.550
G1 X2662.440 Y 312.600
G2 X2587.060 Y 324.340 I   0.309 J 249.852
G2 X2513.970 Y 359.220 I  90.982 J 284.669
G2 X2445.390 Y 416.160 I 218.686 J 333.161
G2 X2383.410 Y 493.440 I 394.050 J 379.530
G2 X2329.900 Y 588.710 I 611.530 J 406.139
G2 X2286.500 Y 699.080 I 850.056 J 397.979
F150
G1 Z  -3.000
F400
G2 X2254.520 Y 821.190 I1077.138 J 347.340
G2 X2234.930 Y 951.330 I1256.951 J 255.754
G2 X2228.340 Y1085.550 I1358.961 J 133.995
G2 X2234.930 Y1219.770 I1365.551 J   0.225
G2 X2254.520 Y1349.910 I1276.541 J-125.614
G2 X2286.500 Y1472.030 I1109.129 J-225.204
G2 X2329.900 Y1582.390 I 893.432 J-287.636
G2 X2383.410 Y1677.660 I 665.040 J-310.869
G2 X2445.390 Y1754.940 I 456.030 J-302.250
G2 X2513.970 Y1811.890 I 287.293 J-276.195
G2 X2587.060 Y1846.760 I 164.043 J-249.810
G2 X2662.440 Y1858.500 I  75.689 J-238.112
G1 X2662.440 Y1085.550
G1 X2662.440 Y 312.600
G2 X2587.060 Y 324.340 I   0.309 J 249.852
G2 X2513.970 Y 359.220 I  90.982 J 284.669
G2 X2445.390 Y 416.160 I 218.686 J 333.161
G2 X2383.410 Y 493.440 I 394.050 J 379.530
G2 X2329.900 Y 588.710 I 611.530 J 406.139
G2 X2286.500 Y 699.080 I 850.056 J 397.979
F150
G1 Z   3.000
G0 Z  15.000 
M9 M5

(*** LAYER: BORDER_D0_T132_RK1_A0_W0_EM1_RI1_ID0020 ***)

(* SHAPE Nr: 35 *)
G0 X 740.200 Y1103.200
M3 M8
G0 Z   3.000 
G1 Z  -1.500
F400
G2 X 724.760 Y1121.320 I  72.417 J  77.344
G2 X 710.800 Y1145.910 I 146.913 J  99.662
G2 X 698.760 Y1176.220 I 246.893 J 115.619
G2 X 688.990 Y1211.340 I 361.196 J 119.400
G2 X 681.780 Y1250.190 I 472.487 J 107.781
G2 X 677.380 Y1291.600 I 561.472 J  80.598
G2 X 675.890 Y1334.310 I 611.416 J  42.711
G2 X 677.380 Y1377.020 I 612.941 J  -0.002
G2 X 681.780 Y1418.430 I 565.872 J -39.188
G2 X 688.990 Y1457.280 I 479.697 J -68.931
G2 X 698.760 Y1492.400 I 370.966 J -84.280
G2 X 710.800 Y1522.710 I 258.933 J -85.309
G2 X 724.760 Y1547.300 I 160.873 J -75.072
G2 X 740.200 Y1565.420 I  87.858 J -59.225
G2 X 756.660 Y1576.510 I  42.094 J -44.717
G2 X 773.630 Y1580.250 I  17.159 J -37.487
G1 X 773.630 Y1334.310
G1 X 773.630 Y1088.370
G2 X 756.660 Y1092.110 I   0.189 J  41.227
G2 X 740.200 Y1103.200 I  25.634 J  55.807
F150
G1 Z  -3.000
F400
G2 X 724.760 Y1121.320 I  72.417 J  77.344
G2 X 710.800 Y1145.910 I 146.913 J  99.662
G2 X 698.760 Y1176.220 I 246.893 J 115.619
G2 X 688.990 Y1211.340 I 361.196 J 119.400
G2 X 681.780 Y1250.190 I 472.487 J 107.781
G2 X 677.380 Y1291.600 I 561.472 J  80.598
G2 X 675.890 Y1334.310 I 611.416 J  42.711
G2 X 677.380 Y1377.020 I 612.941 J  -0.002
G2 X 681.780 Y1418.430 I 565.872 J -39.188
G2 X 688.990 Y1457.280 I 479.697 J -68.931
G2 X 698.760 Y1492.400 I 370.966 J -84.280
G2 X 710.800 Y1522.710 I 258.933 J -85.309
G2 X 724.760 Y1547.300 I 160.873 J -75.072
G2 X 740.200 Y1565.420 I  87.858 J -59.225
G2 X 756.660 Y1576.510 I  42.094 J -44.717
G2 X 773.630 Y1580.250 I  17.159 J -37.487
G1 X 773.630 Y1334.310
G1 X 773.630 Y1088.370
G2 X 756.660 Y1092.110 I   0.189 J  41.227
G2 X 740.200 Y1103.200 I  25.634 J  55.807
F150
G1 Z   3.000
G0 Z  15.000 
M9 M5

(* SHAPE Nr: 37 *)
G0 X1465.370 Y1042.430
M3 M8
G0 Z   3.000 
G1 Z  -1.500
F400
G2 X1454.280 Y1058.890 I  44.717 J  42.094
G2 X1450.540 Y1075.860 I  37.487 J  17.159
G1 X1696.480 Y1075.860
G1 X1942.420 Y1075.860
G2 X1938.680 Y1058.890 I -41.227 J   0.189
G2 X1927.590 Y1042.430 I -55.807 J  25.634
G2 X1909.470 Y1026.990 I -77.345 J  72.418
G2 X1884.880 Y1013.030 I -99.664 J 146.917
G2 X1854.570 Y1000.990 I-115.619 J 246.893
G2 X1819.450 Y 991.220 I-119.400 J 361.196
G2 X1780.600 Y 984.010 I-107.781 J 472.487
G2 X1739.190 Y 979.610 I -80.598 J 561.472
G2 X1696.480 Y 978.120 I -42.711 J 611.416
G2 X1653.770 Y 979.610 I   0.001 J 612.906
G2 X1612.360 Y 984.010 I  39.188 J 565.872
G2 X1573.510 Y 991.220 I  68.931 J 479.697
G2 X1538.390 Y1000.990 I  84.280 J 370.966
G2 X1508.080 Y1013.030 I  85.309 J 258.933
G2 X1483.490 Y1026.990 I  75.074 J 160.877
G2 X1465.370 Y1042.430 I  59.225 J  87.858
F150
G1 Z  -3.000
F400
G2 X1454.280 Y1058.890 I  44.717 J  42.094
G2 X1450.540 Y1075.860 I  37.487 J  17.159
G1 X1696.480 Y1075.860
G1 X1942.420 Y1075.860
G2 X1938.680 Y1058.890 I -41.227 J   0.189
G2 X1927.590 Y1042.430 I -55.807 J  25.634
G2 X1909.470 Y1026.990 I -77.345 J  72.418
G2 X1884.880 Y1013.030 I -99.664 J 146.917
G2 X1854.570 Y1000.990 I-115.619 J 246.893
G2 X1819.450 Y 991.220 I-119.400 J 361.196
G2 X1780.600 Y 984.010 I-107.781 J 472.487
G2 X1739.190 Y 979.610 I -80.598 J 561.472
G2 X1696.480 Y 978.120 I -42.711 J 611.416
G2 X1653.770 Y 979.610 I   0.001 J 612.906
G2 X1612.360 Y 984.010 I  39.188 J 565.872
G2 X1573.510 Y 991.220 I  68.931 J 479.697
G2 X1538.390 Y1000.990 I  84.280 J 370.966
G2 X1508.080 Y1013.030 I  85.309 J 258.933
G2 X1483.490 Y1026.990 I  75.074 J 160.877
G2 X1465.370 Y1042.430 I  59.225 J  87.858
F150
G1 Z   3.000
G0 Z  15.000 
M9 M5

(* SHAPE Nr: 38 *)
G0 X2063.460 Y 766.910
M3 M8
G0 Z   3.000 
G1 Z  -1.500
F400
G2 X2053.690 Y 802.030 I 361.196 J 119.400
G2 X2046.480 Y 840.880 I 472.487 J 107.781
G2 X2042.080 Y 882.290 I 561.472 J  80.598
G2 X2040.590 Y 925.000 I 611.451 J  42.712
G2 X2042.080 Y 967.710 I 612.906 J  -0.001
G2 X2046.480 Y1009.120 I 565.872 J -39.188
G2 X2053.690 Y1047.970 I 479.697 J -68.931
G2 X2063.460 Y1083.090 I 370.966 J -84.280
G2 X2075.500 Y1113.400 I 258.933 J -85.309
G2 X2089.460 Y1137.990 I 160.877 J -75.074
G2 X2104.900 Y1156.110 I  87.858 J -59.225
G2 X2121.360 Y1167.200 I  42.094 J -44.717
G2 X2138.330 Y1170.940 I  17.159 J -37.486
G1 X2138.330 Y 925.000
G1 X2138.330 Y 679.060
G2 X2121.360 Y 682.800 I   0.189 J  41.226
G2 X2104.900 Y 693.890 I  25.634 J  55.807
G2 X2089.460 Y 712.010 I  72.418 J  77.345
G2 X2075.500 Y 736.600 I 146.917 J  99.664
G2 X2063.460 Y 766.910 I 246.893 J 115.619
F150
G1 Z  -3.000
F400
G2 X2053.690 Y 802.030 I 361.196 J 119.400
G2 X2046.480 Y 840.880 I 472.487 J 107.781
G2 X2042.080 Y 882.290 I 561.472 J  80.598
G2 X2040.590 Y 925.000 I 611.451 J  42.712
G2 X2042.080 Y 967.710 I 612.906 J  -0.001
G2 X2046.480 Y1009.120 I 565.872 J -39.188
G2 X2053.690 Y1047.970 I 479.697 J -68.931
G2 X2063.460 Y1083.090 I 370.966 J -84.280
G2 X2075.500 Y1113.400 I 258.933 J -85.309
G2 X2089.460 Y1137.990 I 160.877 J -75.074
G2 X2104.900 Y1156.110 I  87.858 J -59.225
G2 X2121.360 Y1167.200 I  42.094 J -44.717
G2 X2138.330 Y1170.940 I  17.159 J -37.486
G1 X2138.330 Y 925.000
G1 X2138.330 Y 679.060
G2 X2121.360 Y 682.800 I   0.189 J  41.226
G2 X2104.900 Y 693.890 I  25.634 J  55.807
G2 X2089.460 Y 712.010 I  72.418 J  77.345
G2 X2075.500 Y 736.600 I 146.917 J  99.664
G2 X2063.460 Y 766.910 I 246.893 J 115.619
F150
G1 Z   3.000
G0 Z  15.000 
M9 M5

(* SHAPE Nr: 39 *)
G0 X1979.420 Y  51.130
M3 M8
G0 Z   3.000 
G1 Z  -1.500
F400
G2 X1983.160 Y  68.100 I  41.227 J  -0.189
G2 X1994.250 Y  84.560 I  55.807 J -25.634
G2 X2012.370 Y 100.000 I  77.345 J -72.418
G2 X2036.960 Y 113.960 I  99.664 J-146.917
G2 X2067.270 Y 126.000 I 115.619 J-246.893
G2 X2102.390 Y 135.770 I 119.400 J-361.196
G2 X2141.240 Y 142.980 I 107.781 J-472.487
G2 X2182.650 Y 147.380 I  80.598 J-561.472
G2 X2225.360 Y 148.870 I  42.711 J-611.416
G2 X2268.070 Y 147.380 I  -0.001 J-612.906
G2 X2309.480 Y 142.980 I -39.188 J-565.872
G2 X2348.330 Y 135.770 I -68.931 J-479.697
G2 X2383.450 Y 126.000 I -84.280 J-370.966
G2 X2413.760 Y 113.960 I -85.309 J-258.933
G2 X2438.350 Y 100.000 I -75.072 J-160.873
G2 X2456.470 Y  84.560 I -59.225 J -87.858
G2 X2467.560 Y  68.100 I -44.717 J -42.094
G2 X2471.300 Y  51.130 I -37.487 J -17.159
G1 X2225.360 Y  51.130
G1 X1979.420 Y  51.130
F150
G1 Z  -3.000
F400
G2 X1983.160 Y  68.100 I  41.227 J  -0.189
G2 X1994.250 Y  84.560 I  55.807 J -25.634
G2 X2012.370 Y 100.000 I  77.345 J -72.418
G2 X2036.960 Y 113.960 I  99.664 J-146.917
G2 X2067.270 Y 126.000 I 115.619 J-246.893
G2 X2102.390 Y 135.770 I 119.400 J-361.196
G2 X2141.240 Y 142.980 I 107.781 J-472.487
G2 X2182.650 Y 147.380 I  80.598 J-561.472
G2 X2225.360 Y 148.870 I  42.711 J-611.416
G2 X2268.070 Y 147.380 I  -0.001 J-612.906
G2 X2309.480 Y 142.980 I -39.188 J-565.872
G2 X2348.330 Y 135.770 I -68.931 J-479.697
G2 X2383.450 Y 126.000 I -84.280 J-370.966
G2 X2413.760 Y 113.960 I -85.309 J-258.933
G2 X2438.350 Y 100.000 I -75.072 J-160.873
G2 X2456.470 Y  84.560 I -59.225 J -87.858
G2 X2467.560 Y  68.100 I -44.717 J -42.094
G2 X2471.300 Y  51.130 I -37.487 J -17.159
G1 X2225.360 Y  51.130
G1 X1979.420 Y  51.130
F150
G1 Z   3.000
G0 Z  15.000 
M9 M5

(*** LAYER: BORDER_D0_T132_RK1_A0_W0_EM1_RI1_ID0018 ***)

(* SHAPE Nr: 36 *)
G0 X1530.180 Y 150.000
M3 M8
G0 Z   3.000 
G1 Z  -1.500
F400
G2 X1533.920 Y 166.970 I  41.227 J  -0.189
G2 X1545.010 Y 183.430 I  55.807 J -25.634
G2 X1563.130 Y 198.870 I  77.345 J -72.418
G2 X1587.720 Y 212.830 I  99.664 J-146.917
G2 X1618.030 Y 224.870 I 115.619 J-246.893
G2 X1653.150 Y 234.640 I 119.400 J-361.196
G2 X1692.000 Y 241.850 I 107.781 J-472.487
G2 X1733.410 Y 246.250 I  80.598 J-561.472
G2 X1776.120 Y 247.740 I  42.711 J-611.416
G2 X1818.830 Y 246.250 I  -0.001 J-612.906
G2 X1860.240 Y 241.850 I -39.188 J-565.872
G2 X1899.090 Y 234.640 I -68.931 J-479.697
G2 X1934.210 Y 224.870 I -84.280 J-370.966
G2 X1964.520 Y 212.830 I -85.309 J-258.933
G2 X1989.110 Y 198.870 I -75.074 J-160.877
G2 X2007.230 Y 183.430 I -59.224 J -87.857
G2 X2018.320 Y 166.970 I -44.717 J -42.094
G2 X2022.060 Y 150.000 I -37.487 J -17.159
G2 X2018.320 Y 133.030 I -41.227 J   0.189
G2 X2007.230 Y 116.570 I -55.807 J  25.634
G2 X1989.110 Y 101.130 I -77.345 J  72.418
G2 X1964.520 Y  87.170 I -99.664 J 146.917
G2 X1934.210 Y  75.130 I-115.619 J 246.893
G2 X1899.090 Y  65.360 I-119.400 J 361.196
G2 X1860.240 Y  58.150 I-107.781 J 472.487
G2 X1818.830 Y  53.750 I -80.598 J 561.472
G2 X1776.120 Y  52.260 I -42.712 J 611.451
G2 X1733.410 Y  53.750 I   0.002 J 612.941
G2 X1692.000 Y  58.150 I  39.188 J 565.872
G2 X1653.150 Y  65.360 I  68.931 J 479.697
G2 X1618.030 Y  75.130 I  84.280 J 370.966
G2 X1587.720 Y  87.170 I  85.309 J 258.933
G2 X1563.130 Y 101.130 I  75.074 J 160.877
G2 X1545.010 Y 116.570 I  59.225 J  87.858
G2 X1533.920 Y 133.030 I  44.717 J  42.094
G2 X1530.180 Y 150.000 I  37.487 J  17.159
F150
G1 Z  -3.000
F400
G2 X1533.920 Y 166.970 I  41.227 J  -0.189
G2 X1545.010 Y 183.430 I  55.807 J -25.634
G2 X1563.130 Y 198.870 I  77.345 J -72.418
G2 X1587.720 Y 212.830 I  99.664 J-146.917
G2 X1618.030 Y 224.870 I 115.619 J-246.893
G2 X1653.150 Y 234.640 I 119.400 J-361.196
G2 X1692.000 Y 241.850 I 107.781 J-472.487
G2 X1733.410 Y 246.250 I  80.598 J-561.472
G2 X1776.120 Y 247.740 I  42.711 J-611.416
G2 X1818.830 Y 246.250 I  -0.001 J-612.906
G2 X1860.240 Y 241.850 I -39.188 J-565.872
G2 X1899.090 Y 234.640 I -68.931 J-479.697
G2 X1934.210 Y 224.870 I -84.280 J-370.966
G2 X1964.520 Y 212.830 I -85.309 J-258.933
G2 X1989.110 Y 198.870 I -75.074 J-160.877
G2 X2007.230 Y 183.430 I -59.224 J -87.857
G2 X2018.320 Y 166.970 I -44.717 J -42.094
G2 X2022.060 Y 150.000 I -37.487 J -17.159
G2 X2018.320 Y 133.030 I -41.227 J   0.189
G2 X2007.230 Y 116.570 I -55.807 J  25.634
G2 X1989.110 Y 101.130 I -77.345 J  72.418
G2 X1964.520 Y  87.170 I -99.664 J 146.917
G2 X1934.210 Y  75.130 I-115.619 J 246.893
G2 X1899.090 Y  65.360 I-119.400 J 361.196
G2 X1860.240 Y  58.150 I-107.781 J 472.487
G2 X1818.830 Y  53.750 I -80.598 J 561.472
G2 X1776.120 Y  52.260 I -42.712 J 611.451
G2 X1733.410 Y  53.750 I   0.002 J 612.941
G2 X1692.000 Y  58.150 I  39.188 J 565.872
G2 X1653.150 Y  65.360 I  68.931 J 479.697
G2 X1618.030 Y  75.130 I  84.280 J 370.966
G2 X1587.720 Y  87.170 I  85.309 J 258.933
G2 X1563.130 Y 101.130 I  75.074 J 160.877
G2 X1545.010 Y 116.570 I  59.225 J  87.858
G2 X1533.920 Y 133.030 I  44.717 J  42.094
G2 X1530.180 Y 150.000 I  37.487 J  17.159
F150
G1 Z   3.000
G0 Z  15.000 
M9 M5

(*** LAYER: BORDER_D0_T132.1_RK1_A0_W0_EM1 ***)

(* SHAPE Nr: 40 *)
G0 X1530.180 Y 150.000
M3 M8
G0 Z   3.000 
G1 Z  -1.500
F400
G2 X1533.920 Y 166.970 I  41.224 J  -0.188
G2 X1545.010 Y 183.430 I  55.805 J -25.633
G2 X1563.130 Y 198.870 I  77.348 J -72.421
G2 X1587.720 Y 212.830 I  99.673 J-146.933
G2 X1618.040 Y 224.870 I 115.604 J-246.926
G2 X1653.150 Y 234.650 I 119.507 J-361.117
G2 X1692.010 Y 241.850 I 107.659 J-472.591
G2 X1733.420 Y 246.260 I  80.734 J-561.467
G2 X1776.120 Y 247.740 I  42.565 J-611.348
G2 X1818.830 Y 246.260 I   0.140 J-612.971
G2 X1860.240 Y 241.850 I -39.324 J-565.877
G2 X1899.090 Y 234.650 I -68.804 J-479.668
G2 X1934.210 Y 224.870 I -84.392 J-371.001
G2 X1964.520 Y 212.830 I -85.293 J-258.891
G2 X1989.110 Y 198.870 I -75.083 J-160.893
G2 X2007.230 Y 183.430 I -59.228 J -87.861
G2 X2018.330 Y 166.970 I -44.710 J -42.123
G2 X2022.060 Y 150.000 I -37.489 J -17.135
G2 X2018.330 Y 133.030 I -41.219 J   0.165
G2 X2007.230 Y 116.570 I -55.810 J  25.663
G2 X1989.110 Y 101.130 I -77.348 J  72.421
G2 X1964.520 Y  87.170 I -99.671 J 146.929
G2 X1934.210 Y  75.130 I-115.599 J 246.843
G2 X1899.090 Y  65.360 I-119.408 J 361.226
G2 X1860.240 Y  58.150 I-107.776 J 472.463
G2 X1818.830 Y  53.740 I -80.734 J 561.467
G2 X1776.120 Y  52.260 I -42.570 J 611.491
G2 X1733.420 Y  53.740 I  -0.135 J 612.828
G2 X1692.010 Y  58.150 I  39.324 J 565.877
G2 X1653.150 Y  65.360 I  68.921 J 479.796
G2 X1618.040 Y  75.130 I  84.293 J 370.892
G2 X1587.720 Y  87.170 I  85.284 J 258.966
G2 X1563.130 Y 101.130 I  75.083 J 160.893
G2 X1545.010 Y 116.570 I  59.228 J  87.861
G2 X1533.920 Y 133.030 I  44.715 J  42.093
G2 X1530.180 Y 150.000 I  37.484 J  17.158
F150
G1 Z  -3.000
F400
G2 X1533.920 Y 166.970 I  41.224 J  -0.188
G2 X1545.010 Y 183.430 I  55.805 J -25.633
G2 X1563.130 Y 198.870 I  77.348 J -72.421
G2 X1587.720 Y 212.830 I  99.673 J-146.933
G2 X1618.040 Y 224.870 I 115.604 J-246.926
G2 X1653.150 Y 234.650 I 119.507 J-361.117
G2 X1692.010 Y 241.850 I 107.659 J-472.591
G2 X1733.420 Y 246.260 I  80.734 J-561.467
G2 X1776.120 Y 247.740 I  42.565 J-611.348
G2 X1818.830 Y 246.260 I   0.140 J-612.971
G2 X1860.240 Y 241.850 I -39.324 J-565.877
G2 X1899.090 Y 234.650 I -68.804 J-479.668
G2 X1934.210 Y 224.870 I -84.392 J-371.001
G2 X1964.520 Y 212.830 I -85.293 J-258.891
G2 X1989.110 Y 198.870 I -75.083 J-160.893
G2 X2007.230 Y 183.430 I -59.228 J -87.861
G2 X2018.330 Y 166.970 I -44.710 J -42.123
G2 X2022.060 Y 150.000 I -37.489 J -17.135
G2 X2018.330 Y 133.030 I -41.219 J   0.165
G2 X2007.230 Y 116.570 I -55.810 J  25.663
G2 X1989.110 Y 101.130 I -77.348 J  72.421
G2 X1964.520 Y  87.170 I -99.671 J 146.929
G2 X1934.210 Y  75.130 I-115.599 J 246.843
G2 X1899.090 Y  65.360 I-119.408 J 361.226
G2 X1860.240 Y  58.150 I-107.776 J 472.463
G2 X1818.830 Y  53.740 I -80.734 J 561.467
G2 X1776.120 Y  52.260 I -42.570 J 611.491
G2 X1733.420 Y  53.740 I  -0.135 J 612.828
G2 X1692.010 Y  58.150 I  39.324 J 565.877
G2 X1653.150 Y  65.360 I  68.921 J 479.796
G2 X1618.040 Y  75.130 I  84.293 J 370.892
G2 X1587.720 Y  87.170 I  85.284 J 258.966
G2 X1563.130 Y 101.130 I  75.083 J 160.893
G2 X1545.010 Y 116.570 I  59.228 J  87.861
G2 X1533.920 Y 133.030 I  44.715 J  42.093
G2 X1530.180 Y 150.000 I  37.484 J  17.158
F150
G1 Z   3.000
G0 Z  15.000 
M9 M5

(* SHAPE Nr: 41 *)
G0 X2063.450 Y 766.910
M3 M8
G0 Z   3.000 
G1 Z  -1.500
F400
G2 X2053.680 Y 802.030 I 361.226 J 119.408
G2 X2046.480 Y 840.880 I 472.468 J 107.654
G2 X2042.070 Y 882.290 I 561.467 J  80.734
G2 X2040.580 Y 925.000 I 611.486 J  42.714
G2 X2042.070 Y 967.710 I 612.976 J  -0.004
G2 X2046.480 Y1009.120 I 565.877 J -39.324
G2 X2053.680 Y1047.970 I 479.668 J -68.804
G2 X2063.450 Y1083.090 I 370.996 J -84.288
G2 X2075.500 Y1113.400 I 258.896 J -85.376
G2 X2089.460 Y1137.990 I 160.893 J -75.083
G2 X2104.900 Y1156.110 I  87.861 J -59.228
G2 X2121.350 Y1167.200 I  42.088 J -44.684
G2 X2138.320 Y1170.940 I  17.158 J -37.484
G1 X2138.320 Y 679.060
G2 X2121.350 Y 682.800 I   0.188 J  41.224
G2 X2104.900 Y 693.890 I  25.638 J  55.774
G2 X2089.460 Y 712.010 I  72.421 J  77.348
G2 X2075.500 Y 736.600 I 146.933 J  99.673
G2 X2063.450 Y 766.910 I 246.838 J 115.683
F150
G1 Z  -3.000
F400
G2 X2053.680 Y 802.030 I 361.226 J 119.408
G2 X2046.480 Y 840.880 I 472.468 J 107.654
G2 X2042.070 Y 882.290 I 561.467 J  80.734
G2 X2040.580 Y 925.000 I 611.486 J  42.714
G2 X2042.070 Y 967.710 I 612.976 J  -0.004
G2 X2046.480 Y1009.120 I 565.877 J -39.324
G2 X2053.680 Y1047.970 I 479.668 J -68.804
G2 X2063.450 Y1083.090 I 370.996 J -84.288
G2 X2075.500 Y1113.400 I 258.896 J -85.376
G2 X2089.460 Y1137.990 I 160.893 J -75.083
G2 X2104.900 Y1156.110 I  87.861 J -59.228
G2 X2121.350 Y1167.200 I  42.088 J -44.684
G2 X2138.320 Y1170.940 I  17.158 J -37.484
G1 X2138.320 Y 679.060
G2 X2121.350 Y 682.800 I   0.188 J  41.224
G2 X2104.900 Y 693.890 I  25.638 J  55.774
G2 X2089.460 Y 712.010 I  72.421 J  77.348
G2 X2075.500 Y 736.600 I 146.933 J  99.673
G2 X2063.450 Y 766.910 I 246.838 J 115.683
F150
G1 Z   3.000
G0 Z  15.000 
M9 M5

(* SHAPE Nr: 42 *)
G0 X1979.420 Y  51.130
M3 M8
G0 Z   3.000 
G1 Z  -1.500
F400
G2 X1983.160 Y  68.100 I  41.224 J  -0.188
G2 X1994.260 Y  84.560 I  55.810 J -25.663
G2 X2012.370 Y 100.000 I  77.342 J -72.375
G2 X2036.960 Y 113.960 I  99.673 J-146.933
G2 X2067.280 Y 126.000 I 115.604 J-246.926
G2 X2102.390 Y 135.770 I 119.403 J-361.122
G2 X2141.250 Y 142.980 I 107.781 J-472.586
G2 X2182.660 Y 147.380 I  80.598 J-561.472
G2 X2225.360 Y 148.870 I  42.709 J-611.343
G2 X2268.070 Y 147.380 I  -0.004 J-612.976
G2 X2309.480 Y 142.980 I -39.188 J-565.872
G2 X2348.330 Y 135.770 I -68.926 J-479.673
G2 X2383.450 Y 126.000 I -84.288 J-370.996
G2 X2413.760 Y 113.960 I -85.289 J-258.883
G2 X2438.350 Y 100.000 I -75.081 J-160.889
G2 X2456.470 Y  84.560 I -59.228 J -87.861
G2 X2467.570 Y  68.100 I -44.710 J -42.123
G2 X2471.300 Y  51.130 I -37.489 J -17.135
G1 X1979.420 Y  51.130
F150
G1 Z  -3.000
F400
G2 X1983.160 Y  68.100 I  41.224 J  -0.188
G2 X1994.260 Y  84.560 I  55.810 J -25.663
G2 X2012.370 Y 100.000 I  77.342 J -72.375
G2 X2036.960 Y 113.960 I  99.673 J-146.933
G2 X2067.280 Y 126.000 I 115.604 J-246.926
G2 X2102.390 Y 135.770 I 119.403 J-361.122
G2 X2141.250 Y 142.980 I 107.781 J-472.586
G2 X2182.660 Y 147.380 I  80.598 J-561.472
G2 X2225.360 Y 148.870 I  42.709 J-611.343
G2 X2268.070 Y 147.380 I  -0.004 J-612.976
G2 X2309.480 Y 142.980 I -39.188 J-565.872
G2 X2348.330 Y 135.770 I -68.926 J-479.673
G2 X2383.450 Y 126.000 I -84.288 J-370.996
G2 X2413.760 Y 113.960 I -85.289 J-258.883
G2 X2438.350 Y 100.000 I -75.081 J-160.889
G2 X2456.470 Y  84.560 I -59.228 J -87.861
G2 X2467.570 Y  68.100 I -44.710 J -42.123
G2 X2471.300 Y  51.130 I -37.489 J -17.135
G1 X1979.420 Y  51.130
F150
G1 Z   3.000
G0 Z  15.000 
M9 M5

(* SHAPE Nr: 43 *)
G0 X1465.380 Y1042.440
M3 M8
G0 Z   3.000 
G1 Z  -1.500
F400
G2 X1454.280 Y1058.890 I  44.680 J  42.119
G2 X1450.540 Y1075.860 I  37.484 J  17.158
G1 X1942.420 Y1075.860
G2 X1938.690 Y1058.890 I -41.219 J   0.165
G2 X1927.590 Y1042.440 I -55.780 J  25.669
G2 X1909.470 Y1026.990 I -77.392 J  72.416
G2 X1884.890 Y1013.040 I -99.605 J 146.875
G2 X1854.570 Y1000.990 I-115.688 J 246.921
G2 X1819.450 Y 991.220 I-119.408 J 361.226
G2 X1780.600 Y 984.020 I-107.654 J 472.468
G2 X1739.190 Y 979.610 I -80.734 J 561.467
G2 X1696.480 Y 978.120 I -42.714 J 611.486
G2 X1653.780 Y 979.610 I   0.009 J 612.833
G2 X1612.370 Y 984.020 I  39.324 J 565.877
G2 X1573.510 Y 991.220 I  68.799 J 479.791
G2 X1538.400 Y1000.990 I  84.293 J 370.892
G2 X1508.080 Y1013.040 I  85.368 J 258.971
G2 X1483.490 Y1026.990 I  75.020 J 160.888
G2 X1465.380 Y1042.440 I  59.276 J  87.820
F150
G1 Z  -3.000
F400
G2 X1454.280 Y1058.890 I  44.680 J  42.119
G2 X1450.540 Y1075.860 I  37.484 J  17.158
G1 X1942.420 Y1075.860
G2 X1938.690 Y1058.890 I -41.219 J   0.165
G2 X1927.590 Y1042.440 I -55.780 J  25.669
G2 X1909.470 Y1026.990 I -77.392 J  72.416
G2 X1884.890 Y1013.040 I -99.605 J 146.875
G2 X1854.570 Y1000.990 I-115.688 J 246.921
G2 X1819.450 Y 991.220 I-119.408 J 361.226
G2 X1780.600 Y 984.020 I-107.654 J 472.468
G2 X1739.190 Y 979.610 I -80.734 J 561.467
G2 X1696.480 Y 978.120 I -42.714 J 611.486
G2 X1653.780 Y 979.610 I   0.009 J 612.833
G2 X1612.370 Y 984.020 I  39.324 J 565.877
G2 X1573.510 Y 991.220 I  68.799 J 479.791
G2 X1538.400 Y1000.990 I  84.293 J 370.892
G2 X1508.080 Y1013.040 I  85.368 J 258.971
G2 X1483.490 Y1026.990 I  75.020 J 160.888
G2 X1465.380 Y1042.440 I  59.276 J  87.820
F150
G1 Z   3.000
G0 Z  15.000 
M9 M5

(* SHAPE Nr: 44 *)
G0 X 740.200 Y1103.200
M3 M8
G0 Z   3.000 
G1 Z  -1.500
F400
G2 X 724.760 Y1121.320 I  72.419 J  77.347
G2 X 710.800 Y1145.910 I 146.933 J  99.673
G2 X 698.750 Y1176.220 I 246.838 J 115.683
G2 X 688.980 Y1211.340 I 361.226 J 119.408
G2 X 681.780 Y1250.190 I 472.468 J 107.654
G2 X 677.370 Y1291.600 I 561.467 J  80.734
G2 X 675.890 Y1334.310 I 611.491 J  42.570
G2 X 677.370 Y1377.010 I 612.828 J   0.135
G2 X 681.780 Y1418.420 I 565.877 J -39.324
G2 X 688.980 Y1457.280 I 479.791 J -68.799
G2 X 698.750 Y1492.390 I 370.892 J -84.293
G2 X 710.800 Y1522.710 I 258.971 J -85.368
G2 X 724.760 Y1547.300 I 160.893 J -75.083
G2 X 740.200 Y1565.420 I  87.859 J -59.227
G2 X 756.650 Y1576.510 I  42.088 J -44.684
G2 X 773.630 Y1580.250 I  17.163 J -37.507
G1 X 773.630 Y1088.370
G2 X 756.650 Y1092.100 I   0.160 J  41.242
G2 X 740.200 Y1103.200 I  25.668 J  55.779
F150
G1 Z  -3.000
F400
G2 X 724.760 Y1121.320 I  72.419 J  77.347
G2 X 710.800 Y1145.910 I 146.933 J  99.673
G2 X 698.750 Y1176.220 I 246.838 J 115.683
G2 X 688.980 Y1211.340 I 361.226 J 119.408
G2 X 681.780 Y1250.190 I 472.468 J 107.654
G2 X 677.370 Y1291.600 I 561.467 J  80.734
G2 X 675.890 Y1334.310 I 611.491 J  42.570
G2 X 677.370 Y1377.010 I 612.828 J   0.135
G2 X 681.780 Y1418.420 I 565.877 J -39.324
G2 X 688.980 Y1457.280 I 479.791 J -68.799
G2 X 698.750 Y1492.390 I 370.892 J -84.293
G2 X 710.800 Y1522.710 I 258.971 J -85.368
G2 X 724.760 Y1547.300 I 160.893 J -75.083
G2 X 740.200 Y1565.420 I  87.859 J -59.227
G2 X 756.650 Y1576.510 I  42.088 J -44.684
G2 X 773.630 Y1580.250 I  17.163 J -37.507
G1 X 773.630 Y1088.370
G2 X 756.650 Y1092.100 I   0.160 J  41.242
G2 X 740.200 Y1103.200 I  25.668 J  55.779
F150
G1 Z   3.000
G0 Z  15.000 
M9 M5

(* SHAPE Nr: 45 *)
G0 X 806.080 Y1388.850
M3 M8
G0 Z   3.000 
G1 Z  -1.500
F400
G1 X 931.390 Y1605.900
G1 X 806.080 Y1822.950
G1 X1056.710 Y1822.950
G1 X1182.020 Y2040.000
G1 X1307.330 Y1822.950
G1 X1557.960 Y1822.950
G1 X1432.650 Y1605.900
G1 X1557.960 Y1388.850
G1 X1307.330 Y1388.850
G1 X1182.020 Y1171.800
G1 X1056.710 Y1388.850
G1 X 806.080 Y1388.850
F150
G1 Z  -3.000
F400
G1 X 931.390 Y1605.900
G1 X 806.080 Y1822.950
G1 X1056.710 Y1822.950
G1 X1182.020 Y2040.000
G1 X1307.330 Y1822.950
G1 X1557.960 Y1822.950
G1 X1432.650 Y1605.900
G1 X1557.960 Y1388.850
G1 X1307.330 Y1388.850
G1 X1182.020 Y1171.800
G1 X1056.710 Y1388.850
G1 X 806.080 Y1388.850
F150
G1 Z   3.000
G0 Z  15.000 
M9 M5

(* SHAPE Nr: 46 *)
G0 X  94.640 Y1186.300
M3 M8
G0 Z   3.000 
G1 Z  -1.500
F400
G1 X  10.000 Y1235.170
G1 X  10.000 Y1332.910
G1 X  94.640 Y1381.780
G1 X 179.290 Y1332.910
G1 X 179.290 Y1235.170
G1 X  94.640 Y1186.300
F150
G1 Z  -3.000
F400
G1 X  10.000 Y1235.170
G1 X  10.000 Y1332.910
G1 X  94.640 Y1381.780
G1 X 179.290 Y1332.910
G1 X 179.290 Y1235.170
G1 X  94.640 Y1186.300
F150
G1 Z   3.000
G0 Z  15.000 
M9 M5

(* SHAPE Nr: 48 *)
G0 X -14.700 Y 189.880
M3 M8
G0 Z   3.000 
G1 Z  -1.500
F400
G1 X  10.000 Y 189.880
G1 X  28.670 Y 247.340
G1 X  77.540 Y 282.840
G1 X 137.940 Y 282.840
G1 X 186.810 Y 247.340
G1 X 205.480 Y 189.880
G1 X 186.810 Y 132.430
G1 X 182.730 Y 119.850
G1 X 239.470 Y  12.510
G1 X 253.680 Y  16.270
G1 X 250.290 Y  29.060
G1 X 217.710 Y 152.030
G1 X 266.580 Y 520.940
G1 X 286.130 Y 459.450
G1 X 344.770 Y 459.450
G1 X 364.320 Y 520.940
G1 X 413.190 Y 152.030
G1 X 380.610 Y  29.060
G1 X 250.290 Y  29.060
G1 X 206.160 Y 128.320
G1 X 197.520 Y 140.210
G1 X 186.810 Y 132.430
G1 X 137.940 Y  96.930
G1 X  77.540 Y  96.930
G1 X  28.670 Y 132.430
G1 X  10.000 Y 189.880
F150
G1 Z  -3.000
F400
G1 X  28.670 Y 132.430
G1 X  77.540 Y  96.930
G1 X 137.940 Y  96.930
G1 X 186.810 Y 132.430
G1 X 197.520 Y 140.210
G1 X 206.160 Y 128.320
G1 X 250.290 Y  29.060
G1 X 380.610 Y  29.060
G1 X 413.190 Y 152.030
G1 X 364.320 Y 520.940
G1 X 344.770 Y 459.450
G1 X 286.130 Y 459.450
G1 X 266.580 Y 520.940
G1 X 217.710 Y 152.030
G1 X 250.290 Y  29.060
G1 X 253.680 Y  16.270
G1 X 239.470 Y  12.510
G1 X 182.730 Y 119.850
G1 X 186.810 Y 132.430
G1 X 205.480 Y 189.880
G1 X 186.810 Y 247.340
G1 X 137.940 Y 282.840
G1 X  77.540 Y 282.840
G1 X  28.670 Y 247.340
G1 X  10.000 Y 189.880
G1 X -14.700 Y 189.880
F150
G1 Z   3.000
G0 Z  15.000 
M9 M5

(* SHAPE Nr: 49 *)
G0 X 661.150 Y1288.120
M3 M8
G0 Z   3.000 
G1 Z  -1.500
F400
G1 X 444.100 Y1413.430
G1 X 227.050 Y1288.120
G1 X 227.050 Y1538.740
G1 X  10.000 Y1664.060
G1 X 227.050 Y1789.370
G1 X 227.050 Y2040.000
G1 X 444.100 Y1914.690
G1 X 661.150 Y2040.000
G1 X 661.150 Y1789.370
G1 X 878.200 Y1664.060
G1 X 661.150 Y1538.740
G1 X 661.150 Y1020.510
G1 X 878.200 Y 895.200
G1 X 661.150 Y 769.890
G1 X 661.150 Y 519.260
G1 X 444.100 Y 644.570
G1 X 227.050 Y 519.260
G1 X 227.050 Y 769.890
G1 X  10.000 Y 895.200
G1 X 227.050 Y1020.510
G1 X 227.050 Y1271.140
G1 X 444.100 Y1145.830
G1 X 661.150 Y1271.140
F150
G1 Z  -3.000
F400
G1 X 444.100 Y1145.830
G1 X 227.050 Y1271.140
G1 X 227.050 Y1020.510
G1 X  10.000 Y 895.200
G1 X 227.050 Y 769.890
G1 X 227.050 Y 519.260
G1 X 444.100 Y 644.570
G1 X 661.150 Y 519.260
G1 X 661.150 Y 769.890
G1 X 878.200 Y 895.200
G1 X 661.150 Y1020.510
G1 X 661.150 Y1538.740
G1 X 878.200 Y1664.060
G1 X 661.150 Y1789.370
G1 X 661.150 Y2040.000
G1 X 444.100 Y1914.690
G1 X 227.050 Y2040.000
G1 X 227.050 Y1789.370
G1 X  10.000 Y1664.060
G1 X 227.050 Y1538.740
G1 X 227.050 Y1288.120
G1 X 444.100 Y1413.430
G1 X 661.150 Y1288.120
F150
G1 Z   3.000
G0 Z  15.000 
M9 M5

(* SHAPE Nr: 50 *)
G0 X 427.160 Y1187.260
M3 M8
G0 Z   3.000 
G1 Z  -1.500
F400
G1 X 406.900 Y1249.900
G1 X 342.520 Y1236.130
G1 X 386.630 Y1285.000
G1 X 342.520 Y1333.870
G1 X 406.900 Y1320.100
G1 X 427.160 Y1382.740
G1 X 447.430 Y1320.100
G1 X 511.810 Y1333.870
G1 X 467.700 Y1285.000
G1 X 511.810 Y1236.130
G1 X 447.430 Y1249.900
G1 X 427.160 Y1187.260
F150
G1 Z  -3.000
F400
G1 X 406.900 Y1249.900
G1 X 342.520 Y1236.130
G1 X 386.630 Y1285.000
G1 X 342.520 Y1333.870
G1 X 406.900 Y1320.100
G1 X 427.160 Y1382.740
G1 X 447.430 Y1320.100
G1 X 511.810 Y1333.870
G1 X 467.700 Y1285.000
G1 X 511.810 Y1236.130
G1 X 447.430 Y1249.900
G1 X 427.160 Y1187.260
F150
G1 Z   3.000
G0 Z  15.000 
M9 M5

(* SHAPE Nr: 51 *)
G0 X 906.600 Y1889.590
M3 M8
G0 Z   3.000 
G1 Z  -1.500
F400
G1 X 887.930 Y1947.040
G1 X 906.600 Y2004.490
G1 X 955.470 Y2040.000
G1 X1015.870 Y2040.000
G1 X1064.740 Y2004.490
G1 X1083.410 Y1947.040
G1 X1064.740 Y1889.590
G1 X1015.870 Y1854.090
G1 X 955.470 Y1854.090
G1 X 895.890 Y1897.370
G1 X 824.780 Y1870.710
G1 X 727.040 Y1870.710
G1 X 678.170 Y1955.350
G1 X 727.040 Y2040.000
G1 X 838.010 Y2040.000
G1 X 838.010 Y2054.700
G1 X  90.540 Y2059.340
G1 X  83.190 Y2046.610
G1 X  94.640 Y2040.000
G1 X 179.290 Y1991.130
G1 X 179.290 Y1893.390
G1 X  94.640 Y1844.520
G1 X  -1.460 Y1900.010
G1 X  -8.810 Y1887.270
G1 X  -2.940 Y1548.170
G1 X  10.000 Y1545.400
G1 X  74.380 Y1531.630
G1 X  94.640 Y1594.270
G1 X 114.910 Y1531.630
G1 X 179.290 Y1545.400
G1 X 135.180 Y1496.530
G1 X 179.290 Y1447.660
G1 X 179.290 Y1120.460
G1 X 135.180 Y1071.590
G1 X 179.290 Y1022.720
G1 X 114.910 Y1036.490
G1 X  94.640 Y 973.850
G1 X  74.380 Y1036.490
G1 X  10.000 Y1022.720
G1 X  54.110 Y1071.590
G1 X  10.000 Y1120.460
G1 X  74.380 Y1106.690
G1 X  94.640 Y1169.330
G1 X 114.910 Y1106.690
G1 X 179.290 Y1120.460
G1 X 222.410 Y1129.690
G1 X 192.230 Y1444.890
G1 X 179.290 Y1447.660
G1 X 114.910 Y1461.430
G1 X  94.640 Y1398.790
G1 X  74.380 Y1461.430
G1 X  10.000 Y1447.660
G1 X  54.110 Y1496.530
G1 X  10.000 Y1545.400
G1 X  10.000 Y1991.130
G1 X  94.640 Y2040.000
G1 X 824.780 Y2040.000
G1 X 873.650 Y1955.350
G1 X 824.780 Y1870.710
F150
G1 Z  -3.000
F400
G1 X 873.650 Y1955.350
G1 X 824.780 Y2040.000
G1 X  94.640 Y2040.000
G1 X  10.000 Y1991.130
G1 X  10.000 Y1545.400
G1 X  54.110 Y1496.530
G1 X  10.000 Y1447.660
G1 X  74.380 Y1461.430
G1 X  94.640 Y1398.790
G1 X 114.910 Y1461.430
G1 X 179.290 Y1447.660
G1 X 192.230 Y1444.890
G1 X 222.410 Y1129.690
G1 X 179.290 Y1120.460
G1 X 114.910 Y1106.690
G1 X  94.640 Y1169.330
G1 X  74.380 Y1106.690
G1 X  10.000 Y1120.460
G1 X  54.110 Y1071.590
G1 X  10.000 Y1022.720
G1 X  74.380 Y1036.490
G1 X  94.640 Y 973.850
G1 X 114.910 Y1036.490
G1 X 179.290 Y1022.720
G1 X 135.180 Y1071.590
G1 X 179.290 Y1120.460
G1 X 179.290 Y1447.660
G1 X 135.180 Y1496.530
G1 X 179.290 Y1545.400
G1 X 114.910 Y1531.630
G1 X  94.640 Y1594.270
G1 X  74.380 Y1531.630
G1 X  10.000 Y1545.400
G1 X  -2.940 Y1548.170
G1 X  -8.810 Y1887.270
G1 X  -1.460 Y1900.010
G1 X  94.640 Y1844.520
G1 X 179.290 Y1893.390
G1 X 179.290 Y1991.130
G1 X  94.640 Y2040.000
G1 X  83.190 Y2046.610
G1 X  90.540 Y2059.340
G1 X 838.010 Y2054.700
G1 X 838.010 Y2040.000
G1 X 727.040 Y2040.000
G1 X 678.170 Y1955.350
G1 X 727.040 Y1870.710
G1 X 824.780 Y1870.710
G1 X 895.890 Y1897.370
G1 X 955.470 Y1854.090
G1 X1015.870 Y1854.090
G1 X1064.740 Y1889.590
G1 X1083.410 Y1947.040
G1 X1064.740 Y2004.490
G1 X1015.870 Y2040.000
G1 X 955.470 Y2040.000
G1 X 906.600 Y2004.490
G1 X 887.930 Y1947.040
G1 X 906.600 Y1889.590
F150
G1 Z   3.000
G0 Z  15.000 
M9 M5

(* SHAPE Nr: 52 *)
G0 X 839.890 Y1017.550
M3 M8
G0 Z   3.000 
G1 Z  -1.500
F400
G1 X 821.220 Y1075.000
G1 X 839.890 Y1132.450
G1 X 888.760 Y1167.960
G1 X 949.160 Y1167.960
G1 X1008.740 Y1124.670
G1 X1017.380 Y1136.570
G1 X1029.840 Y1155.610
G1 X1094.210 Y1141.840
G1 X1114.480 Y1204.480
G1 X1134.750 Y1141.840
G1 X1199.130 Y1155.610
G1 X1155.010 Y1106.740
G1 X1199.130 Y1057.870
G1 X1134.750 Y1071.640
G1 X1114.480 Y1009.000
G1 X1094.210 Y1071.640
G1 X1029.840 Y1057.870
G1 X1073.950 Y1106.740
G1 X1029.840 Y1155.610
G1 X 972.340 Y1336.190
G1 X 957.640 Y1336.190
G1 X 957.640 Y1225.220
G1 X 873.000 Y1176.350
G1 X 788.350 Y1225.220
G1 X 788.350 Y1322.960
G1 X 873.000 Y1371.830
G1 X 957.640 Y1322.960
G1 X 993.950 Y1145.030
G1 X 998.030 Y1132.450
G1 X1016.700 Y1075.000
G1 X 998.030 Y1017.550
G1 X 949.160 Y 982.040
G1 X 888.760 Y 982.040
G1 X 839.890 Y1017.550
F150
G1 Z  -3.000
F400
G1 X 821.220 Y1075.000
G1 X 839.890 Y1132.450
G1 X 888.760 Y1167.960
G1 X 949.160 Y1167.960
G1 X1008.740 Y1124.670
G1 X1017.380 Y1136.570
G1 X1029.840 Y1155.610
G1 X1094.210 Y1141.840
G1 X1114.480 Y1204.480
G1 X1134.750 Y1141.840
G1 X1199.130 Y1155.610
G1 X1155.010 Y1106.740
G1 X1199.130 Y1057.870
G1 X1134.750 Y1071.640
G1 X1114.480 Y1009.000
G1 X1094.210 Y1071.640
G1 X1029.840 Y1057.870
G1 X1073.950 Y1106.740
G1 X1029.840 Y1155.610
G1 X 972.340 Y1336.190
G1 X 957.640 Y1336.190
G1 X 957.640 Y1225.220
G1 X 873.000 Y1176.350
G1 X 788.350 Y1225.220
G1 X 788.350 Y1322.960
G1 X 873.000 Y1371.830
G1 X 957.640 Y1322.960
G1 X 993.950 Y1145.030
G1 X 998.030 Y1132.450
G1 X1016.700 Y1075.000
G1 X 998.030 Y1017.550
G1 X 949.160 Y 982.040
G1 X 888.760 Y 982.040
G1 X 839.890 Y1017.550
F150
G1 Z   3.000
G0 Z  15.000 
M9 M5

(* SHAPE Nr: 53 *)
G0 X1402.260 Y 275.800
M3 M8
G0 Z   3.000 
G1 Z  -1.500
F400
G1 X1420.920 Y 218.350
G1 X1402.260 Y 160.900
G1 X1353.390 Y 125.390
G1 X1279.750 Y 125.390
G1 X1265.910 Y 100.870
G1 X1203.280 Y  80.600
G1 X1217.040 Y  16.220
G1 X1168.170 Y  60.340
G1 X1119.300 Y  16.220
G1 X 946.350 Y 129.140
G1 X 876.690 Y 129.140
G1 X 848.480 Y  80.270
G1 X 820.260 Y 129.140
G1 X 763.830 Y 129.140
G1 X 792.050 Y 178.010
G1 X 763.830 Y 226.880
F150
G1 Z  -3.000
F400
G1 X 792.050 Y 178.010
G1 X 763.830 Y 129.140
G1 X 820.260 Y 129.140
G1 X 848.480 Y  80.270
G1 X 876.690 Y 129.140
G1 X 946.350 Y 129.140
G1 X1119.300 Y  16.220
G1 X1168.170 Y  60.340
G1 X1217.040 Y  16.220
G1 X1203.280 Y  80.600
G1 X1265.910 Y 100.870
G1 X1279.750 Y 125.390
G1 X1353.390 Y 125.390
G1 X1402.260 Y 160.900
G1 X1420.920 Y 218.350
G1 X1402.260 Y 275.800
F150
G1 Z   3.000
G0 Z  15.000 
M9 M5

(* SHAPE Nr: 54 *)
G0 X 743.470 Y 233.660
M3 M8
G0 Z   3.000 
G1 Z  -1.500
F400
G1 X 762.140 Y 176.210
G1 X 743.470 Y 118.760
G1 X 694.600 Y  83.260
G1 X 536.920 Y  68.440
G1 X 517.370 Y 129.930
G1 X 458.730 Y 129.930
G1 X 439.180 Y  68.440
G1 X 390.310 Y 437.360
G1 X 422.890 Y 560.330
G1 X 553.210 Y 560.330
G1 X 585.790 Y 437.360
G1 X 535.180 Y  55.330
G1 X 549.750 Y  53.400
G1 X 707.830 Y  68.560
G1 X 707.830 Y  83.260
G1 X 634.190 Y  83.260
G1 X 585.320 Y 118.760
G1 X 566.660 Y 176.210
G1 X 585.320 Y 233.660
G1 X 634.190 Y 269.170
G1 X 694.600 Y 269.170
G1 X 754.170 Y 225.890
G1 X 763.830 Y 226.880
G1 X 820.260 Y 226.880
G1 X 848.480 Y 275.750
G1 X 876.690 Y 226.880
G1 X 933.120 Y 226.880
G1 X 904.910 Y 178.010
G1 X 939.740 Y 117.680
G1 X1110.080 Y -26.900
G1 X1119.300 Y  16.220
G1 X1133.070 Y  80.600
G1 X1070.430 Y 100.870
G1 X1133.070 Y 121.130
G1 X1119.300 Y 185.510
G1 X1168.170 Y 141.400
G1 X1217.040 Y 185.510
G1 X1203.280 Y 121.130
G1 X1307.870 Y  87.290
G1 X1303.680 Y 117.620
G1 X1292.980 Y 125.390
G1 X1244.110 Y 160.900
G1 X1225.440 Y 218.350
G1 X1244.110 Y 275.800
G1 X1292.980 Y 311.310
G1 X1353.390 Y 311.310
G1 X1412.960 Y 268.020
G1 X1421.600 Y 279.920
G1 X1443.410 Y 311.350
G1 X1443.410 Y 326.050
G1 X1179.550 Y 326.050
G1 X1054.240 Y 109.000
G1 X 928.930 Y 326.050
G1 X 678.300 Y 326.050
G1 X 803.610 Y 543.100
G1 X 678.300 Y 760.150
G1 X 928.930 Y 760.150
G1 X1054.240 Y 977.200
G1 X1179.550 Y 760.150
G1 X1430.180 Y 760.150
G1 X1304.870 Y 543.100
G1 X1430.180 Y 326.050
F150
G1 Z  -3.000
F400
G1 X1304.870 Y 543.100
G1 X1430.180 Y 760.150
G1 X1179.550 Y 760.150
G1 X1054.240 Y 977.200
G1 X 928.930 Y 760.150
G1 X 678.300 Y 760.150
G1 X 803.610 Y 543.100
G1 X 678.300 Y 326.050
G1 X 928.930 Y 326.050
G1 X1054.240 Y 109.000
G1 X1179.550 Y 326.050
G1 X1443.410 Y 326.050
G1 X1443.410 Y 311.350
G1 X1421.600 Y 279.920
G1 X1412.960 Y 268.020
G1 X1353.390 Y 311.310
G1 X1292.980 Y 311.310
G1 X1244.110 Y 275.800
G1 X1225.440 Y 218.350
G1 X1244.110 Y 160.900
G1 X1292.980 Y 125.390
G1 X1303.680 Y 117.620
G1 X1307.870 Y  87.290
G1 X1203.280 Y 121.130
G1 X1217.040 Y 185.510
G1 X1168.170 Y 141.400
G1 X1119.300 Y 185.510
G1 X1133.070 Y 121.130
G1 X1070.430 Y 100.870
G1 X1133.070 Y  80.600
G1 X1119.300 Y  16.220
G1 X1110.080 Y -26.900
G1 X 939.740 Y 117.680
G1 X 904.910 Y 178.010
G1 X 933.120 Y 226.880
G1 X 876.690 Y 226.880
G1 X 848.480 Y 275.750
G1 X 820.260 Y 226.880
G1 X 763.830 Y 226.880
G1 X 754.170 Y 225.890
G1 X 694.600 Y 269.170
G1 X 634.190 Y 269.170
G1 X 585.320 Y 233.660
G1 X 566.660 Y 176.210
G1 X 585.320 Y 118.760
G1 X 634.190 Y  83.260
G1 X 707.830 Y  83.260
G1 X 707.830 Y  68.560
G1 X 549.750 Y  53.400
G1 X 535.180 Y  55.330
G1 X 585.790 Y 437.360
G1 X 553.210 Y 560.330
G1 X 422.890 Y 560.330
G1 X 390.310 Y 437.360
G1 X 439.180 Y  68.440
G1 X 458.730 Y 129.930
G1 X 517.370 Y 129.930
G1 X 536.920 Y  68.440
G1 X 694.600 Y  83.260
G1 X 743.470 Y 118.760
G1 X 762.140 Y 176.210
G1 X 743.470 Y 233.660
F150
G1 Z   3.000
G0 Z  15.000 
M9 M5

(* SHAPE Nr: 55 *)
G0 X  42.580 Y 297.540
M3 M8
G0 Z   3.000 
G1 Z  -1.500
F400
G1 X  10.000 Y 420.510
G1 X  58.870 Y 789.420
G1 X  78.420 Y 727.940
G1 X 137.060 Y 727.940
G1 X 156.610 Y 789.420
G1 X 205.480 Y 420.510
G1 X 172.900 Y 297.540
G1 X  42.580 Y 297.540
F150
G1 Z  -3.000
F400
G1 X  10.000 Y 420.510
G1 X  58.870 Y 789.420
G1 X  78.420 Y 727.940
G1 X 137.060 Y 727.940
G1 X 156.610 Y 789.420
G1 X 205.480 Y 420.510
G1 X 172.900 Y 297.540
G1 X  42.580 Y 297.540
F150
G1 Z   3.000
G0 Z  15.000 
M9 M5

(* SHAPE Nr: 56 *)
G0 X1304.640 Y 829.760
M3 M8
G0 Z   3.000 
G1 Z  -1.500
F400
G1 X1255.770 Y1198.670
G1 X1288.350 Y1321.640
G1 X1434.540 Y1321.640
G1 X1453.440 Y1250.310
G1 X1466.230 Y1253.700
G1 X1589.200 Y1286.280
G1 X1958.110 Y1237.410
G1 X1896.620 Y1217.860
G1 X1896.620 Y1159.220
G1 X1958.110 Y1139.670
G1 X1589.200 Y1090.800
G1 X1466.230 Y1123.380
G1 X1466.230 Y1266.930
G1 X1429.490 Y1338.200
G1 X1415.290 Y1334.430
G1 X1418.670 Y1321.640
G1 X1451.250 Y1198.670
G1 X1402.380 Y 829.760
G1 X1382.840 Y 891.250
G1 X1324.190 Y 891.250
G1 X1304.640 Y 829.760
F150
G1 Z  -3.000
F400
G1 X1255.770 Y1198.670
G1 X1288.350 Y1321.640
G1 X1434.540 Y1321.640
G1 X1453.440 Y1250.310
G1 X1466.230 Y1253.700
G1 X1589.200 Y1286.280
G1 X1958.110 Y1237.410
G1 X1896.620 Y1217.860
G1 X1896.620 Y1159.220
G1 X1958.110 Y1139.670
G1 X1589.200 Y1090.800
G1 X1466.230 Y1123.380
G1 X1466.230 Y1266.930
G1 X1429.490 Y1338.200
G1 X1415.290 Y1334.430
G1 X1418.670 Y1321.640
G1 X1451.250 Y1198.670
G1 X1402.380 Y 829.760
G1 X1382.840 Y 891.250
G1 X1324.190 Y 891.250
G1 X1304.640 Y 829.760
F150
G1 Z   3.000
G0 Z  15.000 
M9 M5

(* SHAPE Nr: 57 *)
G0 X2548.500 Y 147.430
M3 M8
G0 Z   3.000 
G1 Z  -1.500
F400
G1 X2529.830 Y 204.880
G1 X2548.500 Y 262.330
G1 X2597.370 Y 297.840
G1 X2657.770 Y 297.840
G1 X2706.640 Y 262.330
G1 X2725.310 Y 204.880
G1 X2706.640 Y 147.430
G1 X2657.770 Y 111.930
G1 X2597.370 Y 111.930
G1 X2537.790 Y 155.210
G1 X2392.130 Y 175.210
G1 X2023.220 Y 224.090
G1 X2084.710 Y 243.630
G1 X2084.710 Y 302.280
G1 X2023.220 Y 321.830
G1 X2392.130 Y 370.700
G1 X2515.100 Y 338.110
G1 X2515.100 Y 207.790
G1 X2392.130 Y 175.210
G1 X2007.500 Y 222.380
G1 X1790.450 Y 347.690
G1 X1573.400 Y 222.380
G1 X1573.400 Y 473.000
G1 X1356.350 Y 598.320
G1 X1573.400 Y 723.630
G1 X1573.400 Y 974.260
G1 X1790.450 Y 848.950
G1 X2007.500 Y 974.260
G1 X2007.500 Y 723.630
G1 X2224.550 Y 598.320
G1 X2007.500 Y 473.000
G1 X2007.500 Y 222.380
F150
G1 Z  -3.000
F400
G1 X2007.500 Y 473.000
G1 X2224.550 Y 598.320
G1 X2007.500 Y 723.630
G1 X2007.500 Y 974.260
G1 X1790.450 Y 848.950
G1 X1573.400 Y 974.260
G1 X1573.400 Y 723.630
G1 X1356.350 Y 598.320
G1 X1573.400 Y 473.000
G1 X1573.400 Y 222.380
G1 X1790.450 Y 347.690
G1 X2007.500 Y 222.380
G1 X2392.130 Y 175.210
G1 X2515.100 Y 207.790
G1 X2515.100 Y 338.110
G1 X2392.130 Y 370.700
G1 X2023.220 Y 321.830
G1 X2084.710 Y 302.280
G1 X2084.710 Y 243.630
G1 X2023.220 Y 224.090
G1 X2392.130 Y 175.210
G1 X2537.790 Y 155.210
G1 X2597.370 Y 111.930
G1 X2657.770 Y 111.930
G1 X2706.640 Y 147.430
G1 X2725.310 Y 204.880
G1 X2706.640 Y 262.330
G1 X2657.770 Y 297.840
G1 X2597.370 Y 297.840
G1 X2548.500 Y 262.330
G1 X2529.830 Y 204.880
G1 X2548.500 Y 147.430
F150
G1 Z   3.000
G0 Z  15.000 
M9 M5

(* SHAPE Nr: 58 *)
G0 X2134.660 Y 475.000
M3 M8
G0 Z   3.000 
G1 Z  -1.500
F400
G1 X2153.330 Y 532.450
G1 X2202.200 Y 567.960
G1 X2262.610 Y 567.960
G1 X2311.480 Y 532.450
G1 X2330.140 Y 475.000
G1 X2311.480 Y 417.550
G1 X2262.610 Y 382.040
G1 X2202.200 Y 382.040
G1 X2153.330 Y 417.550
G1 X2134.660 Y 475.000
F150
G1 Z  -3.000
F400
G1 X2153.330 Y 532.450
G1 X2202.200 Y 567.960
G1 X2262.610 Y 567.960
G1 X2311.480 Y 532.450
G1 X2330.140 Y 475.000
G1 X2311.480 Y 417.550
G1 X2262.610 Y 382.040
G1 X2202.200 Y 382.040
G1 X2153.330 Y 417.550
G1 X2134.660 Y 475.000
F150
G1 Z   3.000
G0 Z  15.000 
M9 M5

(* SHAPE Nr: 59 *)
G0 X2113.260 Y1183.490
M3 M8
G0 Z   3.000 
G1 Z  -1.500
F400
G1 X2048.880 Y1197.260
G1 X2028.620 Y1134.620
G1 X2008.350 Y1197.260
G1 X1943.970 Y1183.490
G1 X1988.080 Y1232.360
G1 X1943.970 Y1281.230
G1 X2008.350 Y1267.460
G1 X2028.620 Y1330.100
G1 X2048.880 Y1267.460
G1 X2113.260 Y1281.230
G1 X2069.150 Y1232.360
G1 X2113.260 Y1183.490
G1 X2122.130 Y1173.670
G1 X2133.040 Y1183.520
G1 X2149.070 Y1281.500
G1 X2137.610 Y1288.120
G1 X1920.560 Y1413.430
G1 X1703.510 Y1288.120
G1 X1703.510 Y1538.740
G1 X1486.460 Y1664.060
G1 X1703.510 Y1789.370
G1 X1703.510 Y2040.000
F150
G1 Z  -3.000
F400
G1 X1703.510 Y1789.370
G1 X1486.460 Y1664.060
G1 X1703.510 Y1538.740
G1 X1703.510 Y1288.120
G1 X1920.560 Y1413.430
G1 X2137.610 Y1288.120
G1 X2149.070 Y1281.500
G1 X2133.040 Y1183.520
G1 X2122.130 Y1173.670
G1 X2113.260 Y1183.490
G1 X2069.150 Y1232.360
G1 X2113.260 Y1281.230
G1 X2048.880 Y1267.460
G1 X2028.620 Y1330.100
G1 X2008.350 Y1267.460
G1 X1943.970 Y1281.230
G1 X1988.080 Y1232.360
G1 X1943.970 Y1183.490
G1 X2008.350 Y1197.260
G1 X2028.620 Y1134.620
G1 X2048.880 Y1197.260
G1 X2113.260 Y1183.490
F150
G1 Z   3.000
G0 Z  15.000 
M9 M5

(* SHAPE Nr: 60 *)
G0 X1637.920 Y1912.060
M3 M8
G0 Z   3.000 
G1 Z  -1.500
F400
G1 X1582.010 Y1915.340
G1 X1602.410 Y1863.190
G1 X1559.110 Y1898.700
G1 X1544.960 Y1844.520
G1 X1530.810 Y1898.700
G1 X1487.510 Y1863.190
G1 X1398.430 Y1870.710
G1 X1349.560 Y1914.820
G1 X1300.690 Y1870.710
G1 X1314.460 Y1935.090
G1 X1251.820 Y1955.350
G1 X1314.460 Y1975.620
G1 X1300.690 Y2040.000
G1 X1349.560 Y1995.890
G1 X1398.430 Y2040.000
G1 X1384.660 Y1975.620
G1 X1447.300 Y1955.350
G1 X1384.660 Y1935.090
G1 X1401.190 Y1857.770
G1 X1482.690 Y1850.870
G1 X1487.510 Y1863.190
G1 X1507.910 Y1915.340
G1 X1452.000 Y1912.060
G1 X1499.160 Y1942.260
G1 X1452.000 Y1972.460
G1 X1507.910 Y1969.180
G1 X1487.510 Y2021.330
G1 X1530.810 Y1985.820
G1 X1544.960 Y2040.000
G1 X1559.110 Y1985.820
G1 X1602.410 Y2021.330
G1 X1582.010 Y1969.180
G1 X1637.920 Y1972.460
G1 X1590.760 Y1942.260
G1 X1649.060 Y1904.920
G1 X1656.980 Y1917.300
G1 X1703.510 Y2040.000
G1 X1920.560 Y1914.690
G1 X2137.610 Y2040.000
G1 X2137.610 Y1789.370
G1 X2354.660 Y1664.060
G1 X2137.610 Y1538.740
G1 X2137.610 Y1288.120
F150
G1 Z  -3.000
F400
G1 X2137.610 Y1538.740
G1 X2354.660 Y1664.060
G1 X2137.610 Y1789.370
G1 X2137.610 Y2040.000
G1 X1920.560 Y1914.690
G1 X1703.510 Y2040.000
G1 X1656.980 Y1917.300
G1 X1649.060 Y1904.920
G1 X1590.760 Y1942.260
G1 X1637.920 Y1972.460
G1 X1582.010 Y1969.180
G1 X1602.410 Y2021.330
G1 X1559.110 Y1985.820
G1 X1544.960 Y2040.000
G1 X1530.810 Y1985.820
G1 X1487.510 Y2021.330
G1 X1507.910 Y1969.180
G1 X1452.000 Y1972.460
G1 X1499.160 Y1942.260
G1 X1452.000 Y1912.060
G1 X1507.910 Y1915.340
G1 X1487.510 Y1863.190
G1 X1482.690 Y1850.870
G1 X1401.190 Y1857.770
G1 X1384.660 Y1935.090
G1 X1447.300 Y1955.350
G1 X1384.660 Y1975.620
G1 X1398.430 Y2040.000
G1 X1349.560 Y1995.890
G1 X1300.690 Y2040.000
G1 X1314.460 Y1975.620
G1 X1251.820 Y1955.350
G1 X1314.460 Y1935.090
G1 X1300.690 Y1870.710
G1 X1349.560 Y1914.820
G1 X1398.430 Y1870.710
G1 X1487.510 Y1863.190
G1 X1530.810 Y1898.700
G1 X1544.960 Y1844.520
G1 X1559.110 Y1898.700
G1 X1602.410 Y1863.190
G1 X1582.010 Y1915.340
G1 X1637.920 Y1912.060
F150
G1 Z   3.000
G0 Z  15.000 
M9 M5

(* SHAPE Nr: 61 *)
G0 X2152.340 Y1877.100
M3 M8
G0 Z   3.000 
G1 Z  -1.500
F400
G1 X2152.340 Y2007.420
G1 X2275.310 Y2040.000
G1 X2644.220 Y1991.130
G1 X2582.730 Y1971.580
G1 X2582.730 Y1912.940
G1 X2644.220 Y1893.390
G1 X2275.310 Y1844.520
G1 X2152.340 Y1877.100
F150
G1 Z  -3.000
F400
G1 X2152.340 Y2007.420
G1 X2275.310 Y2040.000
G1 X2644.220 Y1991.130
G1 X2582.730 Y1971.580
G1 X2582.730 Y1912.940
G1 X2644.220 Y1893.390
G1 X2275.310 Y1844.520
G1 X2152.340 Y1877.100
F150
G1 Z   3.000
G0 Z  15.000 
M9 M5

(* SHAPE Nr: 62 *)
G0 X2677.350 Y1854.090
M3 M8
G0 Z   3.000 
G1 Z  -1.500
F400
G1 X2677.350 Y1925.100
G1 X2609.810 Y1947.040
G1 X2677.350 Y1968.990
G1 X2677.350 Y2040.000
G1 X2719.090 Y1982.550
G1 X2786.620 Y2004.490
G1 X2744.880 Y1947.040
G1 X2786.620 Y1889.590
G1 X2719.090 Y1911.540
G1 X2677.350 Y1854.090
G1 X2677.300 Y1871.730
G1 X2662.600 Y1871.730
G1 X2662.600 Y 312.600
G2 X2587.220 Y 324.340 I   0.308 J 249.845
G2 X2514.130 Y 359.210 I  90.951 J 284.676
G2 X2445.550 Y 416.150 I 218.686 J 333.161
G2 X2383.560 Y 493.430 I 394.036 J 379.578
G2 X2330.060 Y 588.710 I 611.602 J 406.077
G2 X2286.660 Y 699.070 I 849.977 J 397.974
G2 X2254.680 Y 821.180 I1077.138 J 347.340
G2 X2235.090 Y 951.330 I1257.048 J 255.759
G2 X2228.500 Y1085.550 I1358.961 J 133.995
G2 X2235.090 Y1219.770 I1365.551 J   0.225
G2 X2254.680 Y1349.910 I1276.541 J-125.614
G2 X2286.660 Y1472.020 I1109.118 J-225.230
G2 X2330.060 Y1582.390 I 893.456 J-287.609
G2 X2383.560 Y1677.660 I 665.035 J-310.802
G2 X2445.550 Y1754.940 I 456.026 J-302.298
G2 X2514.130 Y1811.880 I 287.266 J-276.221
G2 X2587.220 Y1846.760 I 164.078 J-249.801
G2 X2662.600 Y1858.500 I  75.688 J-238.105
F150
G1 Z  -3.000
F400
G3 X2587.220 Y1846.760 I   0.308 J-249.845
G3 X2514.130 Y1811.880 I  90.988 J-284.681
G3 X2445.550 Y1754.940 I 218.686 J-333.161
G3 X2383.560 Y1677.660 I 394.036 J-379.578
G3 X2330.060 Y1582.390 I 611.535 J-406.072
G3 X2286.660 Y1472.020 I 850.056 J-397.979
G3 X2254.680 Y1349.910 I1077.138 J-347.340
G3 X2235.090 Y1219.770 I1256.951 J-255.754
G3 X2228.500 Y1085.550 I1358.961 J-133.995
G3 X2235.090 Y 951.330 I1365.551 J  -0.225
G3 X2254.680 Y 821.180 I1276.638 J 125.609
G3 X2286.660 Y 699.070 I1109.118 J 225.230
G3 X2330.060 Y 588.710 I 893.377 J 287.614
G3 X2383.560 Y 493.430 I 665.102 J 310.797
G3 X2445.550 Y 416.150 I 456.026 J 302.298
G3 X2514.130 Y 359.210 I 287.266 J 276.221
G3 X2587.220 Y 324.340 I 164.041 J 249.806
G3 X2662.600 Y 312.600 I  75.688 J 238.105
G1 X2662.600 Y1871.730
G1 X2677.300 Y1871.730
G1 X2677.350 Y1854.090
G1 X2719.090 Y1911.540
G1 X2786.620 Y1889.590
G1 X2744.880 Y1947.040
G1 X2786.620 Y2004.490
G1 X2719.090 Y1982.550
G1 X2677.350 Y2040.000
G1 X2677.350 Y1968.990
G1 X2609.810 Y1947.040
G1 X2677.350 Y1925.100
G1 X2677.350 Y1854.090
F150
G1 Z   3.000
G0 Z  15.000 
M9 M5
G0 X   0.000 Y   0.000
M2 (Program end)