(Generated with: DXF2GCODE, Version: REMOVED, Date: $Date$)
(Created from file: )
(Output format description: G-CODE for LinuxCNC)
(Time: Thu Sep 13 16:00:58 2018)
G21 (Units in millimeters)
G90 (Absolute programming)
G64 (Default cutting) G17 (XY plane) G40 (Cancel radius comp.) G49 (Cancel length comp.)
G0 Z  15.000 

(*** LAYER: FRAME_Z18 ***)
T1 M6
S6000

(* SHAPE Nr: 123 *)
G0 X   0.000 Y   0.000
M3 M8
G0 Z   3.000 
F150
G1 Z  -1.500
F400
G1 X   0.000 Y2050.000
G1 X2800.000 Y2050.000
G1 X2800.000 Y   0.000
G1 X   0.000 Y   0.000
F150
G1 Z  -3.000
F400
G1 X   0.000 Y2050.000
G1 X2800.000 Y2050.000
G1 X2800.000 Y   0.000
G1 X   0.000 Y   0.000
F150
G1 Z   3.000
G0 Z  15.000 
M9 M5

(*** LAYER: BORDER_D0_T132_RK1_A0_W0_EM1_RI1_ID0025 ***)

(* SHAPE Nr: 0 *)
G0 X  10.000 Y  69.150
M3 M8
G0 Z   3.000 
G1 Z  -1.500
F400
G1 X  10.000 Y 184.050
G1 X 119.280 Y 219.550
G1 X 186.810 Y 126.600
G1 X 119.280 Y  33.640
G1 X  10.000 Y  69.150
F150
G1 Z  -3.000
F400
G1 X  10.000 Y 184.050
G1 X 119.280 Y 219.550
G1 X 186.810 Y 126.600
G1 X 119.280 Y  33.640
G1 X  10.000 Y  69.150
F150
G1 Z   3.000
G0 Z  15.000 
M9 M5

(* SHAPE Nr: 1 *)
G0 X 204.980 Y 115.510
M3 M8
G0 Z   3.000 
G1 Z  -1.500
F400
G1 X 204.980 Y 230.410
G1 X 314.260 Y 265.910
G1 X 381.790 Y 172.960
G1 X 314.260 Y  80.000
G1 X 204.980 Y 115.510
F150
G1 Z  -3.000
F400
G1 X 204.980 Y 230.410
G1 X 314.260 Y 265.910
G1 X 381.790 Y 172.960
G1 X 314.260 Y  80.000
G1 X 204.980 Y 115.510
F150
G1 Z   3.000
G0 Z  15.000 
M9 M5

(* SHAPE Nr: 2 *)
G0 X 396.550 Y  53.350
M3 M8
G0 Z   3.000 
G1 Z  -1.500
F400
G1 X 396.550 Y 168.250
G1 X 505.830 Y 203.750
G1 X 573.360 Y 110.800
G1 X 505.830 Y  17.840
G1 X 396.550 Y  53.350
F150
G1 Z  -3.000
F400
G1 X 396.550 Y 168.250
G1 X 505.830 Y 203.750
G1 X 573.360 Y 110.800
G1 X 505.830 Y  17.840
G1 X 396.550 Y  53.350
F150
G1 Z   3.000
G0 Z  15.000 
M9 M5

(* SHAPE Nr: 3 *)
G0 X 573.250 Y 182.090
M3 M8
G0 Z   3.000 
G1 Z  -1.500
F400
G1 X 666.200 Y 249.620
G1 X 759.160 Y 182.090
G1 X 723.650 Y  72.810
G1 X 608.750 Y  72.810
G1 X 573.250 Y 182.090
F150
G1 Z  -3.000
F400
G1 X 666.200 Y 249.620
G1 X 759.160 Y 182.090
G1 X 723.650 Y  72.810
G1 X 608.750 Y  72.810
G1 X 573.250 Y 182.090
F150
G1 Z   3.000
G0 Z  15.000 
M9 M5

(* SHAPE Nr: 4 *)
G0 X 685.540 Y 275.800
M3 M8
G0 Z   3.000 
G1 Z  -1.500
F400
G1 X 685.540 Y 390.700
G1 X 794.820 Y 426.200
G1 X 862.350 Y 333.250
G1 X 794.820 Y 240.290
G1 X 685.540 Y 275.800
F150
G1 Z  -3.000
F400
G1 X 685.540 Y 390.700
G1 X 794.820 Y 426.200
G1 X 862.350 Y 333.250
G1 X 794.820 Y 240.290
G1 X 685.540 Y 275.800
F150
G1 Z   3.000
G0 Z  15.000 
M9 M5

(* SHAPE Nr: 5 *)
G0 X 567.890 Y 439.780
M3 M8
G0 Z   3.000 
G1 Z  -1.500
F400
G1 X 567.890 Y 554.680
G1 X 677.170 Y 590.180
G1 X 744.700 Y 497.230
G1 X 677.170 Y 404.270
G1 X 567.890 Y 439.780
F150
G1 Z  -3.000
F400
G1 X 567.890 Y 554.680
G1 X 677.170 Y 590.180
G1 X 744.700 Y 497.230
G1 X 677.170 Y 404.270
G1 X 567.890 Y 439.780
F150
G1 Z   3.000
G0 Z  15.000 
M9 M5

(* SHAPE Nr: 6 *)
G0 X 759.470 Y 503.990
M3 M8
G0 Z   3.000 
G1 Z  -1.500
F400
G1 X 759.470 Y 618.890
G1 X 868.750 Y 654.390
G1 X 936.280 Y 561.440
G1 X 868.750 Y 468.480
G1 X 759.470 Y 503.990
F150
G1 Z  -3.000
F400
G1 X 759.470 Y 618.890
G1 X 868.750 Y 654.390
G1 X 936.280 Y 561.440
G1 X 868.750 Y 468.480
G1 X 759.470 Y 503.990
F150
G1 Z   3.000
G0 Z  15.000 
M9 M5

(* SHAPE Nr: 7 *)
G0 X 787.030 Y 700.060
M3 M8
G0 Z   3.000 
G1 Z  -1.500
F400
G1 X 787.030 Y 814.960
G1 X 896.310 Y 850.460
G1 X 963.840 Y 757.510
G1 X 896.310 Y 664.550
G1 X 787.030 Y 700.060
F150
G1 Z  -3.000
F400
G1 X 787.030 Y 814.960
G1 X 896.310 Y 850.460
G1 X 963.840 Y 757.510
G1 X 896.310 Y 664.550
G1 X 787.030 Y 700.060
F150
G1 Z   3.000
G0 Z  15.000 
M9 M5

(* SHAPE Nr: 8 *)
G0 X 784.450 Y 902.290
M3 M8
G0 Z   3.000 
G1 Z  -1.500
F400
G1 X 784.450 Y1017.190
G1 X 893.730 Y1052.690
G1 X 961.260 Y 959.740
G1 X 893.730 Y 866.780
G1 X 784.450 Y 902.290
F150
G1 Z  -3.000
F400
G1 X 784.450 Y1017.190
G1 X 893.730 Y1052.690
G1 X 961.260 Y 959.740
G1 X 893.730 Y 866.780
G1 X 784.450 Y 902.290
F150
G1 Z   3.000
G0 Z  15.000 
M9 M5

(* SHAPE Nr: 9 *)
G0 X 907.800 Y1084.060
M3 M8
G0 Z   3.000 
G1 Z  -1.500
F400
G1 X 907.800 Y1198.960
G1 X1017.080 Y1234.460
G1 X1084.610 Y1141.510
G1 X1017.080 Y1048.550
G1 X 907.800 Y1084.060
F150
G1 Z  -3.000
F400
G1 X 907.800 Y1198.960
G1 X1017.080 Y1234.460
G1 X1084.610 Y1141.510
G1 X1017.080 Y1048.550
G1 X 907.800 Y1084.060
F150
G1 Z   3.000
G0 Z  15.000 
M9 M5

(* SHAPE Nr: 10 *)
G0 X 712.810 Y1084.060
M3 M8
G0 Z   3.000 
G1 Z  -1.500
F400
G1 X 712.810 Y1198.960
G1 X 822.090 Y1234.460
G1 X 889.620 Y1141.510
G1 X 822.090 Y1048.550
G1 X 712.810 Y1084.060
F150
G1 Z  -3.000
F400
G1 X 712.810 Y1198.960
G1 X 822.090 Y1234.460
G1 X 889.620 Y1141.510
G1 X 822.090 Y1048.550
G1 X 712.810 Y1084.060
F150
G1 Z   3.000
G0 Z  15.000 
M9 M5

(* SHAPE Nr: 11 *)
G0 X 587.490 Y 901.600
M3 M8
G0 Z   3.000 
G1 Z  -1.500
F400
G1 X 587.490 Y1016.500
G1 X 696.770 Y1052.000
G1 X 764.300 Y 959.050
G1 X 696.770 Y 866.090
G1 X 587.490 Y 901.600
F150
G1 Z  -3.000
F400
G1 X 587.490 Y1016.500
G1 X 696.770 Y1052.000
G1 X 764.300 Y 959.050
G1 X 696.770 Y 866.090
G1 X 587.490 Y 901.600
F150
G1 Z   3.000
G0 Z  15.000 
M9 M5

(* SHAPE Nr: 13 *)
G0 X 399.440 Y 698.550
M3 M8
G0 Z   3.000 
G1 Z  -1.500
F400
G1 X 399.440 Y 813.450
G1 X 508.720 Y 848.950
G1 X 576.250 Y 756.000
G1 X 508.720 Y 663.040
G1 X 399.440 Y 698.550
F150
G1 Z  -3.000
F400
G1 X 399.440 Y 813.450
G1 X 508.720 Y 848.950
G1 X 576.250 Y 756.000
G1 X 508.720 Y 663.040
G1 X 399.440 Y 698.550
F150
G1 Z   3.000
G0 Z  15.000 
M9 M5

(* SHAPE Nr: 14 *)
G0 X 591.540 Y 637.120
M3 M8
G0 Z   3.000 
G1 Z  -1.500
F400
G1 X 591.540 Y 752.020
G1 X 700.820 Y 787.520
G1 X 768.350 Y 694.570
G1 X 700.820 Y 601.610
G1 X 591.540 Y 637.120
F150
G1 Z  -3.000
F400
G1 X 591.540 Y 752.020
G1 X 700.820 Y 787.520
G1 X 768.350 Y 694.570
G1 X 700.820 Y 601.610
G1 X 591.540 Y 637.120
F150
G1 Z   3.000
G0 Z  15.000 
M9 M5

(* SHAPE Nr: 15 *)
G0 X 372.890 Y 418.890
M3 M8
G0 Z   3.000 
G1 Z  -1.500
F400
G1 X 372.890 Y 533.790
G1 X 482.170 Y 569.290
G1 X 549.700 Y 476.340
G1 X 482.170 Y 383.380
G1 X 372.890 Y 418.890
F150
G1 Z  -3.000
F400
G1 X 372.890 Y 533.790
G1 X 482.170 Y 569.290
G1 X 549.700 Y 476.340
G1 X 482.170 Y 383.380
G1 X 372.890 Y 418.890
F150
G1 Z   3.000
G0 Z  15.000 
M9 M5

(* SHAPE Nr: 16 *)
G0 X 204.220 Y 317.130
M3 M8
G0 Z   3.000 
G1 Z  -1.500
F400
G1 X 204.220 Y 432.030
G1 X 313.500 Y 467.530
G1 X 381.030 Y 374.580
G1 X 313.500 Y 281.620
G1 X 204.220 Y 317.130
F150
G1 Z  -3.000
F400
G1 X 204.220 Y 432.030
G1 X 313.500 Y 467.530
G1 X 381.030 Y 374.580
G1 X 313.500 Y 281.620
G1 X 204.220 Y 317.130
F150
G1 Z   3.000
G0 Z  15.000 
M9 M5

(* SHAPE Nr: 17 *)
G0 X 204.220 Y 518.560
M3 M8
G0 Z   3.000 
G1 Z  -1.500
F400
G1 X 204.220 Y 633.460
G1 X 313.500 Y 668.960
G1 X 381.030 Y 576.010
G1 X 313.500 Y 483.050
G1 X 204.220 Y 518.560
F150
G1 Z  -3.000
F400
G1 X 204.220 Y 633.460
G1 X 313.500 Y 668.960
G1 X 381.030 Y 576.010
G1 X 313.500 Y 483.050
G1 X 204.220 Y 518.560
F150
G1 Z   3.000
G0 Z  15.000 
M9 M5

(* SHAPE Nr: 18 *)
G0 X 204.410 Y 719.990
M3 M8
G0 Z   3.000 
G1 Z  -1.500
F400
G1 X 204.410 Y 834.890
G1 X 313.690 Y 870.390
G1 X 381.220 Y 777.440
G1 X 313.690 Y 684.480
G1 X 204.410 Y 719.990
F150
G1 Z  -3.000
F400
G1 X 204.410 Y 834.890
G1 X 313.690 Y 870.390
G1 X 381.220 Y 777.440
G1 X 313.690 Y 684.480
G1 X 204.410 Y 719.990
F150
G1 Z   3.000
G0 Z  15.000 
M9 M5

(* SHAPE Nr: 19 *)
G0 X 313.790 Y 885.890
M3 M8
G0 Z   3.000 
G1 Z  -1.500
F400
G1 X 204.510 Y 921.400
G1 X 204.510 Y1036.300
G1 X 313.790 Y1071.800
G1 X 381.320 Y 978.850
G1 X 313.790 Y 885.890
F150
G1 Z  -3.000
F400
G1 X 204.510 Y 921.400
G1 X 204.510 Y1036.300
G1 X 313.790 Y1071.800
G1 X 381.320 Y 978.850
G1 X 313.790 Y 885.890
F150
G1 Z   3.000
G0 Z  15.000 
M9 M5

(* SHAPE Nr: 20 *)
G0 X 322.830 Y1084.380
M3 M8
G0 Z   3.000 
G1 Z  -1.500
F400
G1 X 322.830 Y1199.280
G1 X 432.110 Y1234.780
G1 X 499.640 Y1141.830
G1 X 432.110 Y1048.870
G1 X 322.830 Y1084.380
F150
G1 Z  -3.000
F400
G1 X 322.830 Y1199.280
G1 X 432.110 Y1234.780
G1 X 499.640 Y1141.830
G1 X 432.110 Y1048.870
G1 X 322.830 Y1084.380
F150
G1 Z   3.000
G0 Z  15.000 
M9 M5

(* SHAPE Nr: 21 *)
G0 X 517.830 Y1084.060
M3 M8
G0 Z   3.000 
G1 Z  -1.500
F400
G1 X 517.830 Y1198.960
G1 X 627.110 Y1234.460
G1 X 694.640 Y1141.510
G1 X 627.110 Y1048.550
G1 X 517.830 Y1084.060
F150
G1 Z  -3.000
F400
G1 X 517.830 Y1198.960
G1 X 627.110 Y1234.460
G1 X 694.640 Y1141.510
G1 X 627.110 Y1048.550
G1 X 517.830 Y1084.060
F150
G1 Z   3.000
G0 Z  15.000 
M9 M5

(* SHAPE Nr: 23 *)
G0 X1177.920 Y1090.490
M3 M8
G0 Z   3.000 
G1 Z  -1.500
F400
G1 X1177.920 Y1205.390
G1 X1287.200 Y1240.890
G1 X1354.730 Y1147.940
G1 X1287.200 Y1054.980
G1 X1177.920 Y1090.490
F150
G1 Z  -3.000
F400
G1 X1177.920 Y1205.390
G1 X1287.200 Y1240.890
G1 X1354.730 Y1147.940
G1 X1287.200 Y1054.980
G1 X1177.920 Y1090.490
F150
G1 Z   3.000
G0 Z  15.000 
M9 M5

(* SHAPE Nr: 24 *)
G0 X1178.740 Y 888.840
M3 M8
G0 Z   3.000 
G1 Z  -1.500
F400
G1 X1178.740 Y1003.740
G1 X1288.020 Y1039.240
G1 X1355.550 Y 946.290
G1 X1288.020 Y 853.330
G1 X1178.740 Y 888.840
F150
G1 Z  -3.000
F400
G1 X1178.740 Y1003.740
G1 X1288.020 Y1039.240
G1 X1355.550 Y 946.290
G1 X1288.020 Y 853.330
G1 X1178.740 Y 888.840
F150
G1 Z   3.000
G0 Z  15.000 
M9 M5

(* SHAPE Nr: 25 *)
G0 X1179.540 Y 687.210
M3 M8
G0 Z   3.000 
G1 Z  -1.500
F400
G1 X1179.540 Y 802.110
G1 X1288.820 Y 837.610
G1 X1356.350 Y 744.660
G1 X1288.820 Y 651.700
G1 X1179.540 Y 687.210
F150
G1 Z  -3.000
F400
G1 X1179.540 Y 802.110
G1 X1288.820 Y 837.610
G1 X1356.350 Y 744.660
G1 X1288.820 Y 651.700
G1 X1179.540 Y 687.210
F150
G1 Z   3.000
G0 Z  15.000 
M9 M5

(* SHAPE Nr: 26 *)
G0 X1374.040 Y 756.120
M3 M8
G0 Z   3.000 
G1 Z  -1.500
F400
G1 X1374.040 Y 871.020
G1 X1483.320 Y 906.520
G1 X1550.850 Y 813.570
G1 X1483.320 Y 720.610
G1 X1374.040 Y 756.120
F150
G1 Z  -3.000
F400
G1 X1374.040 Y 871.020
G1 X1483.320 Y 906.520
G1 X1550.850 Y 813.570
G1 X1483.320 Y 720.610
G1 X1374.040 Y 756.120
F150
G1 Z   3.000
G0 Z  15.000 
M9 M5

(* SHAPE Nr: 43 *)
G0 X1492.470 Y 403.560
M3 M8
G0 Z   3.000 
G1 Z  -1.500
F400
G1 X1492.470 Y 518.460
G1 X1601.750 Y 553.960
G1 X1669.280 Y 461.010
G1 X1601.750 Y 368.050
G1 X1492.470 Y 403.560
F150
G1 Z  -3.000
F400
G1 X1492.470 Y 518.460
G1 X1601.750 Y 553.960
G1 X1669.280 Y 461.010
G1 X1601.750 Y 368.050
G1 X1492.470 Y 403.560
F150
G1 Z   3.000
G0 Z  15.000 
M9 M5

(* SHAPE Nr: 44 *)
G0 X1297.500 Y 357.780
M3 M8
G0 Z   3.000 
G1 Z  -1.500
F400
G1 X1297.500 Y 472.680
G1 X1406.780 Y 508.180
G1 X1474.310 Y 415.230
G1 X1406.780 Y 322.270
G1 X1297.500 Y 357.780
F150
G1 Z  -3.000
F400
G1 X1297.500 Y 472.680
G1 X1406.780 Y 508.180
G1 X1474.310 Y 415.230
G1 X1406.780 Y 322.270
G1 X1297.500 Y 357.780
F150
G1 Z   3.000
G0 Z  15.000 
M9 M5

(* SHAPE Nr: 45 *)
G0 X1102.470 Y 302.190
M3 M8
G0 Z   3.000 
G1 Z  -1.500
F400
G1 X1102.470 Y 417.090
G1 X1211.750 Y 452.590
G1 X1279.280 Y 359.640
G1 X1211.750 Y 266.680
G1 X1102.470 Y 302.190
F150
G1 Z  -3.000
F400
G1 X1102.470 Y 417.090
G1 X1211.750 Y 452.590
G1 X1279.280 Y 359.640
G1 X1211.750 Y 266.680
G1 X1102.470 Y 302.190
F150
G1 Z   3.000
G0 Z  15.000 
M9 M5

(* SHAPE Nr: 46 *)
G0 X 974.850 Y 146.060
M3 M8
G0 Z   3.000 
G1 Z  -1.500
F400
G1 X 974.850 Y 260.960
G1 X1084.130 Y 296.460
G1 X1151.660 Y 203.510
G1 X1084.130 Y 110.550
G1 X 974.850 Y 146.060
F150
G1 Z  -3.000
F400
G1 X 974.850 Y 260.960
G1 X1084.130 Y 296.460
G1 X1151.660 Y 203.510
G1 X1084.130 Y 110.550
G1 X 974.850 Y 146.060
F150
G1 Z   3.000
G0 Z  15.000 
M9 M5

(* SHAPE Nr: 47 *)
G0 X 779.870 Y 101.410
M3 M8
G0 Z   3.000 
G1 Z  -1.500
F400
G1 X 779.870 Y 216.310
G1 X 889.150 Y 251.810
G1 X 956.680 Y 158.860
G1 X 889.150 Y  65.900
G1 X 779.870 Y 101.410
F150
G1 Z  -3.000
F400
G1 X 779.870 Y 216.310
G1 X 889.150 Y 251.810
G1 X 956.680 Y 158.860
G1 X 889.150 Y  65.900
G1 X 779.870 Y 101.410
F150
G1 Z   3.000
G0 Z  15.000 
M9 M5

(* SHAPE Nr: 48 *)
G0 X 880.540 Y 325.610
M3 M8
G0 Z   3.000 
G1 Z  -1.500
F400
G1 X 880.540 Y 440.510
G1 X 989.820 Y 476.010
G1 X1057.350 Y 383.060
G1 X 989.820 Y 290.100
G1 X 880.540 Y 325.610
F150
G1 Z  -3.000
F400
G1 X 880.540 Y 440.510
G1 X 989.820 Y 476.010
G1 X1057.350 Y 383.060
G1 X 989.820 Y 290.100
G1 X 880.540 Y 325.610
F150
G1 Z   3.000
G0 Z  15.000 
M9 M5

(* SHAPE Nr: 49 *)
G0 X 957.830 Y 505.520
M3 M8
G0 Z   3.000 
G1 Z  -1.500
F400
G1 X 957.830 Y 620.420
G1 X1067.110 Y 655.920
G1 X1134.640 Y 562.970
G1 X1067.110 Y 470.010
G1 X 957.830 Y 505.520
F150
G1 Z  -3.000
F400
G1 X 957.830 Y 620.420
G1 X1067.110 Y 655.920
G1 X1134.640 Y 562.970
G1 X1067.110 Y 470.010
G1 X 957.830 Y 505.520
F150
G1 Z   3.000
G0 Z  15.000 
M9 M5

(* SHAPE Nr: 50 *)
G0 X 984.340 Y 701.940
M3 M8
G0 Z   3.000 
G1 Z  -1.500
F400
G1 X 984.340 Y 816.840
G1 X1093.620 Y 852.340
G1 X1161.150 Y 759.390
G1 X1093.620 Y 666.430
G1 X 984.340 Y 701.940
F150
G1 Z  -3.000
F400
G1 X 984.340 Y 816.840
G1 X1093.620 Y 852.340
G1 X1161.150 Y 759.390
G1 X1093.620 Y 666.430
G1 X 984.340 Y 701.940
F150
G1 Z   3.000
G0 Z  15.000 
M9 M5

(* SHAPE Nr: 51 *)
G0 X 983.480 Y 903.620
M3 M8
G0 Z   3.000 
G1 Z  -1.500
F400
G1 X 983.480 Y1018.520
G1 X1092.760 Y1054.020
G1 X1160.290 Y 961.070
G1 X1092.760 Y 868.110
G1 X 983.480 Y 903.620
F150
G1 Z  -3.000
F400
G1 X 983.480 Y1018.520
G1 X1092.760 Y1054.020
G1 X1160.290 Y 961.070
G1 X1092.760 Y 868.110
G1 X 983.480 Y 903.620
F150
G1 Z   3.000
G0 Z  15.000 
M9 M5

(* SHAPE Nr: 52 *)
G0 X1405.180 Y1059.320
M3 M8
G0 Z   3.000 
G1 Z  -1.500
F400
G1 X1440.690 Y1168.600
G1 X1555.590 Y1168.600
G1 X1591.090 Y1059.320
G1 X1498.140 Y 991.790
G1 X1405.180 Y1059.320
F150
G1 Z  -3.000
F400
G1 X1440.690 Y1168.600
G1 X1555.590 Y1168.600
G1 X1591.090 Y1059.320
G1 X1498.140 Y 991.790
G1 X1405.180 Y1059.320
F150
G1 Z   3.000
G0 Z  15.000 
M9 M5

(* SHAPE Nr: 53 *)
G0 X1325.660 Y1221.240
M3 M8
G0 Z   3.000 
G1 Z  -1.500
F400
G1 X1325.660 Y1336.140
G1 X1434.940 Y1371.640
G1 X1502.470 Y1278.690
G1 X1434.940 Y1185.730
G1 X1325.660 Y1221.240
F150
G1 Z  -3.000
F400
G1 X1325.660 Y1336.140
G1 X1434.940 Y1371.640
G1 X1502.470 Y1278.690
G1 X1434.940 Y1185.730
G1 X1325.660 Y1221.240
F150
G1 Z   3.000
G0 Z  15.000 
M9 M5

(* SHAPE Nr: 54 *)
G0 X1580.540 Y1196.250
M3 M8
G0 Z   3.000 
G1 Z  -1.500
F400
G1 X1513.010 Y1289.200
G1 X1580.540 Y1382.160
G1 X1689.820 Y1346.650
G1 X1689.820 Y1231.750
G1 X1580.540 Y1196.250
F150
G1 Z  -3.000
F400
G1 X1513.010 Y1289.200
G1 X1580.540 Y1382.160
G1 X1689.820 Y1346.650
G1 X1689.820 Y1231.750
G1 X1580.540 Y1196.250
F150
G1 Z   3.000
G0 Z  15.000 
M9 M5

(* SHAPE Nr: 55 *)
G0 X1604.620 Y1073.700
M3 M8
G0 Z   3.000 
G1 Z  -1.500
F400
G1 X1604.620 Y1188.600
G1 X1713.900 Y1224.100
G1 X1781.430 Y1131.150
G1 X1713.900 Y1038.190
G1 X1604.620 Y1073.700
F150
G1 Z  -3.000
F400
G1 X1604.620 Y1188.600
G1 X1713.900 Y1224.100
G1 X1781.430 Y1131.150
G1 X1713.900 Y1038.190
G1 X1604.620 Y1073.700
F150
G1 Z   3.000
G0 Z  15.000 
M9 M5

(* SHAPE Nr: 57 *)
G0 X1832.400 Y1123.710
M3 M8
G0 Z   3.000 
G1 Z  -1.500
F400
G1 X1832.400 Y1238.610
G1 X1941.680 Y1274.110
G1 X2009.210 Y1181.160
G1 X1941.680 Y1088.200
G1 X1832.400 Y1123.710
F150
G1 Z  -3.000
F400
G1 X1832.400 Y1238.610
G1 X1941.680 Y1274.110
G1 X2009.210 Y1181.160
G1 X1941.680 Y1088.200
G1 X1832.400 Y1123.710
F150
G1 Z   3.000
G0 Z  15.000 
M9 M5

(* SHAPE Nr: 58 *)
G0 X1704.570 Y1279.510
M3 M8
G0 Z   3.000 
G1 Z  -1.500
F400
G1 X1704.570 Y1394.410
G1 X1813.850 Y1429.910
G1 X1881.380 Y1336.960
G1 X1813.850 Y1244.000
G1 X1704.570 Y1279.510
F150
G1 Z  -3.000
F400
G1 X1704.570 Y1394.410
G1 X1813.850 Y1429.910
G1 X1881.380 Y1336.960
G1 X1813.850 Y1244.000
G1 X1704.570 Y1279.510
F150
G1 Z   3.000
G0 Z  15.000 
M9 M5

(* SHAPE Nr: 59 *)
G0 X1722.910 Y1478.600
M3 M8
G0 Z   3.000 
G1 Z  -1.500
F400
G1 X1722.910 Y1593.500
G1 X1832.190 Y1629.000
G1 X1899.720 Y1536.050
G1 X1832.190 Y1443.090
G1 X1722.910 Y1478.600
F150
G1 Z  -3.000
F400
G1 X1722.910 Y1593.500
G1 X1832.190 Y1629.000
G1 X1899.720 Y1536.050
G1 X1832.190 Y1443.090
G1 X1722.910 Y1478.600
F150
G1 Z   3.000
G0 Z  15.000 
M9 M5

(* SHAPE Nr: 60 *)
G0 X1515.190 Y1418.890
M3 M8
G0 Z   3.000 
G1 Z  -1.500
F400
G1 X1515.190 Y1533.790
G1 X1624.470 Y1569.290
G1 X1692.000 Y1476.340
G1 X1624.470 Y1383.380
G1 X1515.190 Y1418.890
F150
G1 Z  -3.000
F400
G1 X1515.190 Y1533.790
G1 X1624.470 Y1569.290
G1 X1692.000 Y1476.340
G1 X1624.470 Y1383.380
G1 X1515.190 Y1418.890
F150
G1 Z   3.000
G0 Z  15.000 
M9 M5

(* SHAPE Nr: 61 *)
G0 X1478.990 Y1612.160
M3 M8
G0 Z   3.000 
G1 Z  -1.500
F400
G1 X1478.990 Y1727.060
G1 X1588.270 Y1762.560
G1 X1655.800 Y1669.610
G1 X1588.270 Y1576.650
G1 X1478.990 Y1612.160
F150
G1 Z  -3.000
F400
G1 X1478.990 Y1727.060
G1 X1588.270 Y1762.560
G1 X1655.800 Y1669.610
G1 X1588.270 Y1576.650
G1 X1478.990 Y1612.160
F150
G1 Z   3.000
G0 Z  15.000 
M9 M5

(* SHAPE Nr: 62 *)
G0 X1673.980 Y1667.730
M3 M8
G0 Z   3.000 
G1 Z  -1.500
F400
G1 X1673.980 Y1782.630
G1 X1783.260 Y1818.130
G1 X1850.790 Y1725.180
G1 X1783.260 Y1632.220
G1 X1673.980 Y1667.730
F150
G1 Z  -3.000
F400
G1 X1673.980 Y1782.630
G1 X1783.260 Y1818.130
G1 X1850.790 Y1725.180
G1 X1783.260 Y1632.220
G1 X1673.980 Y1667.730
F150
G1 Z   3.000
G0 Z  15.000 
M9 M5

(* SHAPE Nr: 63 *)
G0 X1846.220 Y1762.450
M3 M8
G0 Z   3.000 
G1 Z  -1.500
F400
G1 X1846.220 Y1877.350
G1 X1955.500 Y1912.850
G1 X2023.030 Y1819.900
G1 X1955.500 Y1726.940
G1 X1846.220 Y1762.450
F150
G1 Z  -3.000
F400
G1 X1846.220 Y1877.350
G1 X1955.500 Y1912.850
G1 X2023.030 Y1819.900
G1 X1955.500 Y1726.940
G1 X1846.220 Y1762.450
F150
G1 Z   3.000
G0 Z  15.000 
M9 M5

(* SHAPE Nr: 64 *)
G0 X1727.020 Y1854.090
M3 M8
G0 Z   3.000 
G1 Z  -1.500
F400
G1 X1659.490 Y1947.040
G1 X1727.020 Y2040.000
G1 X1836.300 Y2004.490
G1 X1836.300 Y1889.590
G1 X1727.020 Y1854.090
F150
G1 Z  -3.000
F400
G1 X1659.490 Y1947.040
G1 X1727.020 Y2040.000
G1 X1836.300 Y2004.490
G1 X1836.300 Y1889.590
G1 X1727.020 Y1854.090
F150
G1 Z   3.000
G0 Z  15.000 
M9 M5

(* SHAPE Nr: 65 *)
G0 X1528.810 Y1801.020
M3 M8
G0 Z   3.000 
G1 Z  -1.500
F400
G1 X1528.810 Y1915.920
G1 X1638.090 Y1951.420
G1 X1705.620 Y1858.470
G1 X1638.090 Y1765.510
G1 X1528.810 Y1801.020
F150
G1 Z  -3.000
F400
G1 X1528.810 Y1915.920
G1 X1638.090 Y1951.420
G1 X1705.620 Y1858.470
G1 X1638.090 Y1765.510
G1 X1528.810 Y1801.020
F150
G1 Z   3.000
G0 Z  15.000 
M9 M5

(* SHAPE Nr: 66 *)
G0 X1333.880 Y1930.720
M3 M8
G0 Z   3.000 
G1 Z  -1.500
F400
G1 X1369.390 Y2040.000
G1 X1484.290 Y2040.000
G1 X1519.790 Y1930.720
G1 X1426.840 Y1863.190
G1 X1333.880 Y1930.720
F150
G1 Z  -3.000
F400
G1 X1369.390 Y2040.000
G1 X1484.290 Y2040.000
G1 X1519.790 Y1930.720
G1 X1426.840 Y1863.190
G1 X1333.880 Y1930.720
F150
G1 Z   3.000
G0 Z  15.000 
M9 M5

(* SHAPE Nr: 67 *)
G0 X1284.010 Y1633.330
M3 M8
G0 Z   3.000 
G1 Z  -1.500
F400
G1 X1284.010 Y1748.230
G1 X1393.290 Y1783.730
G1 X1460.820 Y1690.780
G1 X1393.290 Y1597.820
G1 X1284.010 Y1633.330
F150
G1 Z  -3.000
F400
G1 X1284.010 Y1748.230
G1 X1393.290 Y1783.730
G1 X1460.820 Y1690.780
G1 X1393.290 Y1597.820
G1 X1284.010 Y1633.330
F150
G1 Z   3.000
G0 Z  15.000 
M9 M5

(* SHAPE Nr: 75 *)
G0 X  45.500 Y1175.400
M3 M8
G0 Z   3.000 
G1 Z  -1.500
F400
G1 X  10.000 Y1284.680
G1 X 102.950 Y1352.210
G1 X 195.910 Y1284.680
G1 X 160.400 Y1175.400
G1 X  45.500 Y1175.400
F150
G1 Z  -3.000
F400
G1 X  10.000 Y1284.680
G1 X 102.950 Y1352.210
G1 X 195.910 Y1284.680
G1 X 160.400 Y1175.400
G1 X  45.500 Y1175.400
F150
G1 Z   3.000
G0 Z  15.000 
M9 M5

(* SHAPE Nr: 76 *)
G0 X 102.960 Y 983.890
M3 M8
G0 Z   3.000 
G1 Z  -1.500
F400
G1 X  10.000 Y1051.420
G1 X  45.510 Y1160.700
G1 X 160.410 Y1160.700
G1 X 195.910 Y1051.420
G1 X 102.960 Y 983.890
F150
G1 Z  -3.000
F400
G1 X  10.000 Y1051.420
G1 X  45.510 Y1160.700
G1 X 160.410 Y1160.700
G1 X 195.910 Y1051.420
G1 X 102.960 Y 983.890
F150
G1 Z   3.000
G0 Z  15.000 
M9 M5

(* SHAPE Nr: 77 *)
G0 X 119.280 Y 785.080
M3 M8
G0 Z   3.000 
G1 Z  -1.500
F400
G1 X  10.000 Y 820.590
G1 X  10.000 Y 935.490
G1 X 119.280 Y 970.990
G1 X 186.810 Y 878.040
G1 X 119.280 Y 785.080
F150
G1 Z  -3.000
F400
G1 X  10.000 Y 820.590
G1 X  10.000 Y 935.490
G1 X 119.280 Y 970.990
G1 X 186.810 Y 878.040
G1 X 119.280 Y 785.080
F150
G1 Z   3.000
G0 Z  15.000 
M9 M5

(* SHAPE Nr: 78 *)
G0 X  77.530 Y 597.210
M3 M8
G0 Z   3.000 
G1 Z  -1.500
F400
G1 X  10.000 Y 690.160
G1 X  77.530 Y 783.120
G1 X 186.810 Y 747.610
G1 X 186.810 Y 632.710
G1 X  77.530 Y 597.210
F150
G1 Z  -3.000
F400
G1 X  10.000 Y 690.160
G1 X  77.530 Y 783.120
G1 X 186.810 Y 747.610
G1 X 186.810 Y 632.710
G1 X  77.530 Y 597.210
F150
G1 Z   3.000
G0 Z  15.000 
M9 M5

(* SHAPE Nr: 79 *)
G0 X 119.280 Y 409.350
M3 M8
G0 Z   3.000 
G1 Z  -1.500
F400
G1 X  10.000 Y 444.860
G1 X  10.000 Y 559.760
G1 X 119.280 Y 595.260
G1 X 186.810 Y 502.310
G1 X 119.280 Y 409.350
F150
G1 Z  -3.000
F400
G1 X  10.000 Y 444.860
G1 X  10.000 Y 559.760
G1 X 119.280 Y 595.260
G1 X 186.810 Y 502.310
G1 X 119.280 Y 409.350
F150
G1 Z   3.000
G0 Z  15.000 
M9 M5

(* SHAPE Nr: 80 *)
G0 X  77.530 Y 221.490
M3 M8
G0 Z   3.000 
G1 Z  -1.500
F400
G1 X  10.000 Y 314.440
G1 X  77.530 Y 407.400
G1 X 186.810 Y 371.890
G1 X 186.810 Y 256.990
G1 X  77.530 Y 221.490
F150
G1 Z  -3.000
F400
G1 X  10.000 Y 314.440
G1 X  77.530 Y 407.400
G1 X 186.810 Y 371.890
G1 X 186.810 Y 256.990
G1 X  77.530 Y 221.490
F150
G1 Z   3.000
G0 Z  15.000 
M9 M5

(* SHAPE Nr: 81 *)
G0 X 475.100 Y 247.070
M3 M8
G0 Z   3.000 
G1 Z  -1.500
F400
G1 X 475.100 Y 361.970
G1 X 584.380 Y 397.470
G1 X 651.910 Y 304.520
G1 X 584.380 Y 211.560
G1 X 475.100 Y 247.070
F150
G1 Z  -3.000
F400
G1 X 475.100 Y 361.970
G1 X 584.380 Y 397.470
G1 X 651.910 Y 304.520
G1 X 584.380 Y 211.560
G1 X 475.100 Y 247.070
F150
G1 Z   3.000
G0 Z  15.000 
M9 M5

(* SHAPE Nr: 82 *)
G0 X1173.210 Y 120.150
M3 M8
G0 Z   3.000 
G1 Z  -1.500
F400
G1 X1173.210 Y 235.050
G1 X1282.490 Y 270.550
G1 X1350.020 Y 177.600
G1 X1282.490 Y  84.640
G1 X1173.210 Y 120.150
F150
G1 Z  -3.000
F400
G1 X1173.210 Y 235.050
G1 X1282.490 Y 270.550
G1 X1350.020 Y 177.600
G1 X1282.490 Y  84.640
G1 X1173.210 Y 120.150
F150
G1 Z   3.000
G0 Z  15.000 
M9 M5

(* SHAPE Nr: 83 *)
G0 X1313.970 Y 102.950
M3 M8
G0 Z   3.000 
G1 Z  -1.500
F400
G1 X1381.500 Y 195.910
G1 X1490.780 Y 160.400
G1 X1490.780 Y  45.500
G1 X1381.500 Y  10.000
G1 X1313.970 Y 102.950
F150
G1 Z  -3.000
F400
G1 X1381.500 Y 195.910
G1 X1490.780 Y 160.400
G1 X1490.780 Y  45.500
G1 X1381.500 Y  10.000
G1 X1313.970 Y 102.950
F150
G1 Z   3.000
G0 Z  15.000 
M9 M5

(* SHAPE Nr: 84 *)
G0 X1425.640 Y 202.370
M3 M8
G0 Z   3.000 
G1 Z  -1.500
F400
G1 X1425.640 Y 317.270
G1 X1534.920 Y 352.770
G1 X1602.450 Y 259.820
G1 X1534.920 Y 166.860
G1 X1425.640 Y 202.370
F150
G1 Z  -3.000
F400
G1 X1425.640 Y 317.270
G1 X1534.920 Y 352.770
G1 X1602.450 Y 259.820
G1 X1534.920 Y 166.860
G1 X1425.640 Y 202.370
F150
G1 Z   3.000
G0 Z  15.000 
M9 M5

(* SHAPE Nr: 85 *)
G0 X1508.970 Y 106.090
M3 M8
G0 Z   3.000 
G1 Z  -1.500
F400
G1 X1576.500 Y 199.050
G1 X1685.780 Y 163.540
G1 X1685.780 Y  48.640
G1 X1576.500 Y  13.140
G1 X1508.970 Y 106.090
F150
G1 Z  -3.000
F400
G1 X1576.500 Y 199.050
G1 X1685.780 Y 163.540
G1 X1685.780 Y  48.640
G1 X1576.500 Y  13.140
G1 X1508.970 Y 106.090
F150
G1 Z   3.000
G0 Z  15.000 
M9 M5

(* SHAPE Nr: 115 *)
G0 X1527.420 Y 876.760
M3 M8
G0 Z   3.000 
G1 Z  -1.500
F400
G1 X1527.420 Y 991.660
G1 X1636.700 Y1027.160
G1 X1704.230 Y 934.210
G1 X1636.700 Y 841.250
G1 X1527.420 Y 876.760
F150
G1 Z  -3.000
F400
G1 X1527.420 Y 991.660
G1 X1636.700 Y1027.160
G1 X1704.230 Y 934.210
G1 X1636.700 Y 841.250
G1 X1527.420 Y 876.760
F150
G1 Z   3.000
G0 Z  15.000 
M9 M5

(* SHAPE Nr: 116 *)
G0 X1343.030 Y 561.180
M3 M8
G0 Z   3.000 
G1 Z  -1.500
F400
G1 X1343.030 Y 676.080
G1 X1452.310 Y 711.580
G1 X1519.840 Y 618.630
G1 X1452.310 Y 525.670
G1 X1343.030 Y 561.180
F150
G1 Z  -3.000
F400
G1 X1343.030 Y 676.080
G1 X1452.310 Y 711.580
G1 X1519.840 Y 618.630
G1 X1452.310 Y 525.670
G1 X1343.030 Y 561.180
F150
G1 Z   3.000
G0 Z  15.000 
M9 M5

(* SHAPE Nr: 117 *)
G0 X1153.100 Y 490.770
M3 M8
G0 Z   3.000 
G1 Z  -1.500
F400
G1 X1153.100 Y 605.670
G1 X1262.380 Y 641.170
G1 X1329.910 Y 548.220
G1 X1262.380 Y 455.260
G1 X1153.100 Y 490.770
F150
G1 Z  -3.000
F400
G1 X1153.100 Y 605.670
G1 X1262.380 Y 641.170
G1 X1329.910 Y 548.220
G1 X1262.380 Y 455.260
G1 X1153.100 Y 490.770
F150
G1 Z   3.000
G0 Z  15.000 
M9 M5

(*** LAYER: BORDER_D0_T132_RK1_A0_W0_EM1_RI1_ID0009 ***)

(* SHAPE Nr: 12 *)
G0 X 426.130 Y 857.620
M3 M8
G0 Z   3.000 
G1 Z  -1.500
F400
G1 X 439.900 Y 922.000
G1 X 377.260 Y 942.260
G1 X 439.900 Y 962.530
G1 X 426.130 Y1026.910
G1 X 475.000 Y 982.800
G1 X 523.870 Y1026.910
G1 X 510.100 Y 962.530
G1 X 572.740 Y 942.260
G1 X 510.100 Y 922.000
G1 X 523.870 Y 857.620
G1 X 475.000 Y 901.730
G1 X 426.130 Y 857.620
F150
G1 Z  -3.000
F400
G1 X 439.900 Y 922.000
G1 X 377.260 Y 942.260
G1 X 439.900 Y 962.530
G1 X 426.130 Y1026.910
G1 X 475.000 Y 982.800
G1 X 523.870 Y1026.910
G1 X 510.100 Y 962.530
G1 X 572.740 Y 942.260
G1 X 510.100 Y 922.000
G1 X 523.870 Y 857.620
G1 X 475.000 Y 901.730
G1 X 426.130 Y 857.620
F150
G1 Z   3.000
G0 Z  15.000 
M9 M5

(* SHAPE Nr: 41 *)
G0 X1755.210 Y 511.100
M3 M8
G0 Z   3.000 
G1 Z  -1.500
F400
G1 X1817.850 Y 531.370
G1 X1804.080 Y 595.750
G1 X1852.950 Y 551.640
G1 X1901.820 Y 595.750
G1 X1888.050 Y 531.370
G1 X1950.690 Y 511.100
G1 X1888.050 Y 490.840
G1 X1901.820 Y 426.460
G1 X1852.950 Y 470.570
G1 X1804.080 Y 426.460
G1 X1817.850 Y 490.840
G1 X1755.210 Y 511.100
F150
G1 Z  -3.000
F400
G1 X1817.850 Y 531.370
G1 X1804.080 Y 595.750
G1 X1852.950 Y 551.640
G1 X1901.820 Y 595.750
G1 X1888.050 Y 531.370
G1 X1950.690 Y 511.100
G1 X1888.050 Y 490.840
G1 X1901.820 Y 426.460
G1 X1852.950 Y 470.570
G1 X1804.080 Y 426.460
G1 X1817.850 Y 490.840
G1 X1755.210 Y 511.100
F150
G1 Z   3.000
G0 Z  15.000 
M9 M5

(*** LAYER: BORDER_D0_T132_RK1_A0_W0_EM1_RI1_ID0030 ***)

(* SHAPE Nr: 22 *)
G0 X 497.770 Y1251.770
M3 M8
G0 Z   3.000 
G1 Z  -1.500
F400
G2 X  10.000 Y1453.810 I -26.204 J 626.552
G1 X  54.350 Y1498.150
G3 X 497.770 Y1314.480 I 443.423 J 443.430
G1 X1269.300 Y1314.480
G1 X1269.300 Y1251.770
G1 X 497.770 Y1251.770
F150
G1 Z  -3.000
F400
G2 X  10.000 Y1453.810 I -26.204 J 626.552
G1 X  54.350 Y1498.150
G3 X 497.770 Y1314.480 I 443.423 J 443.430
G1 X1269.300 Y1314.480
G1 X1269.300 Y1251.770
G1 X 497.770 Y1251.770
F150
G1 Z   3.000
G0 Z  15.000 
M9 M5

(* SHAPE Nr: 68 *)
G0 X 497.770 Y1685.230
M3 M8
G0 Z   3.000 
G1 Z  -1.500
F400
G2 X  10.000 Y1887.270 I -26.204 J 626.552
G1 X  54.350 Y1931.610
G3 X 497.770 Y1747.940 I 443.423 J 443.430
G1 X1269.300 Y1747.940
G1 X1269.300 Y1685.230
G1 X 497.770 Y1685.230
F150
G1 Z  -3.000
F400
G2 X  10.000 Y1887.270 I -26.204 J 626.552
G1 X  54.350 Y1931.610
G3 X 497.770 Y1747.940 I 443.423 J 443.430
G1 X1269.300 Y1747.940
G1 X1269.300 Y1685.230
G1 X 497.770 Y1685.230
F150
G1 Z   3.000
G0 Z  15.000 
M9 M5

(* SHAPE Nr: 69 *)
G0 X 497.770 Y1576.870
M3 M8
G0 Z   3.000 
G1 Z  -1.500
F400
G2 X  10.000 Y1778.910 I -26.204 J 626.552
G1 X  54.350 Y1823.250
G3 X 497.770 Y1639.580 I 443.423 J 443.430
G1 X1269.300 Y1639.580
G1 X1269.300 Y1576.870
G1 X 497.770 Y1576.870
F150
G1 Z  -3.000
F400
G2 X  10.000 Y1778.910 I -26.204 J 626.552
G1 X  54.350 Y1823.250
G3 X 497.770 Y1639.580 I 443.423 J 443.430
G1 X1269.300 Y1639.580
G1 X1269.300 Y1576.870
G1 X 497.770 Y1576.870
F150
G1 Z   3.000
G0 Z  15.000 
M9 M5

(* SHAPE Nr: 70 *)
G0 X 497.770 Y1468.510
M3 M8
G0 Z   3.000 
G1 Z  -1.500
F400
G2 X  10.000 Y1670.550 I -26.204 J 626.552
G1 X  54.350 Y1714.890
G3 X 497.770 Y1531.220 I 443.423 J 443.430
G1 X1269.300 Y1531.220
G1 X1269.300 Y1468.510
G1 X 497.770 Y1468.510
F150
G1 Z  -3.000
F400
G2 X  10.000 Y1670.550 I -26.204 J 626.552
G1 X  54.350 Y1714.890
G3 X 497.770 Y1531.220 I 443.423 J 443.430
G1 X1269.300 Y1531.220
G1 X1269.300 Y1468.510
G1 X 497.770 Y1468.510
F150
G1 Z   3.000
G0 Z  15.000 
M9 M5

(* SHAPE Nr: 72 *)
G0 X 497.770 Y1360.160
M3 M8
G0 Z   3.000 
G1 Z  -1.500
F400
G2 X  10.000 Y1562.200 I -26.204 J 626.552
G1 X  54.350 Y1606.540
G3 X 497.770 Y1422.870 I 443.423 J 443.430
G1 X1269.300 Y1422.870
G1 X1269.300 Y1360.160
G1 X 497.770 Y1360.160
F150
G1 Z  -3.000
F400
G2 X  10.000 Y1562.200 I -26.204 J 626.552
G1 X  54.350 Y1606.540
G3 X 497.770 Y1422.870 I 443.423 J 443.430
G1 X1269.300 Y1422.870
G1 X1269.300 Y1360.160
G1 X 497.770 Y1360.160
F150
G1 Z   3.000
G0 Z  15.000 
M9 M5

(* SHAPE Nr: 73 *)
G0 X 497.770 Y1793.620
M3 M8
G0 Z   3.000 
G1 Z  -1.500
F400
G2 X  10.000 Y1995.660 I -26.204 J 626.552
G1 X  54.350 Y2040.000
G3 X 497.770 Y1856.330 I 443.423 J 443.430
G1 X1269.300 Y1856.330
G1 X1269.300 Y1793.620
G1 X 497.770 Y1793.620
F150
G1 Z  -3.000
F400
G2 X  10.000 Y1995.660 I -26.204 J 626.552
G1 X  54.350 Y2040.000
G3 X 497.770 Y1856.330 I 443.423 J 443.430
G1 X1269.300 Y1856.330
G1 X1269.300 Y1793.620
G1 X 497.770 Y1793.620
F150
G1 Z   3.000
G0 Z  15.000 
M9 M5

(* SHAPE Nr: 74 *)
G0 X 156.250 Y1976.750
M3 M8
G0 Z   3.000 
G1 Z  -1.500
F400
G1 X 156.250 Y2039.460
G1 X 927.790 Y2039.460
G2 X1415.550 Y1837.420 I  26.194 J-626.552
G1 X1371.210 Y1793.080
G3 X 927.790 Y1976.750 I-443.423 J-443.430
G1 X 156.250 Y1976.750
F150
G1 Z  -3.000
F400
G1 X 156.250 Y2039.460
G1 X 927.790 Y2039.460
G2 X1415.550 Y1837.420 I  26.194 J-626.552
G1 X1371.210 Y1793.080
G3 X 927.790 Y1976.750 I-443.423 J-443.430
G1 X 156.250 Y1976.750
F150
G1 Z   3.000
G0 Z  15.000 
M9 M5

(*** LAYER: BORDER_D0_T132_RK1_A0_W0_EM1_RI1_ID0011 ***)

(* SHAPE Nr: 27 *)
G0 X1520.160 Y 742.560
M3 M8
G0 Z   3.000 
G1 Z  -1.500
F400
G1 X1569.030 Y 770.780
G1 X1569.030 Y 827.210
G1 X1617.900 Y 799.000
G1 X1666.770 Y 827.210
G1 X1666.770 Y 770.780
G1 X1715.640 Y 742.560
G1 X1666.770 Y 714.350
G1 X1666.770 Y 657.920
G1 X1617.900 Y 686.140
G1 X1569.030 Y 657.920
G1 X1569.030 Y 714.350
G1 X1520.160 Y 742.560
F150
G1 Z  -3.000
F400
G1 X1569.030 Y 770.780
G1 X1569.030 Y 827.210
G1 X1617.900 Y 799.000
G1 X1666.770 Y 827.210
G1 X1666.770 Y 770.780
G1 X1715.640 Y 742.560
G1 X1666.770 Y 714.350
G1 X1666.770 Y 657.920
G1 X1617.900 Y 686.140
G1 X1569.030 Y 657.920
G1 X1569.030 Y 714.350
G1 X1520.160 Y 742.560
F150
G1 Z   3.000
G0 Z  15.000 
M9 M5

(* SHAPE Nr: 28 *)
G0 X1684.320 Y 782.610
M3 M8
G0 Z   3.000 
G1 Z  -1.500
F400
G1 X1712.540 Y 831.480
G1 X1684.320 Y 880.350
G1 X1740.750 Y 880.350
G1 X1768.960 Y 929.220
G1 X1797.180 Y 880.350
G1 X1853.600 Y 880.350
G1 X1825.400 Y 831.480
G1 X1853.600 Y 782.610
G1 X1797.180 Y 782.610
G1 X1768.960 Y 733.740
G1 X1740.750 Y 782.610
G1 X1684.320 Y 782.610
F150
G1 Z  -3.000
F400
G1 X1712.540 Y 831.480
G1 X1684.320 Y 880.350
G1 X1740.750 Y 880.350
G1 X1768.960 Y 929.220
G1 X1797.180 Y 880.350
G1 X1853.600 Y 880.350
G1 X1825.400 Y 831.480
G1 X1853.600 Y 782.610
G1 X1797.180 Y 782.610
G1 X1768.960 Y 733.740
G1 X1740.750 Y 782.610
G1 X1684.320 Y 782.610
F150
G1 Z   3.000
G0 Z  15.000 
M9 M5

(* SHAPE Nr: 29 *)
G0 X1857.170 Y 829.810
M3 M8
G0 Z   3.000 
G1 Z  -1.500
F400
G1 X1885.390 Y 878.680
G1 X1857.170 Y 927.550
G1 X1913.600 Y 927.550
G1 X1941.810 Y 976.420
G1 X1970.030 Y 927.550
G1 X2026.450 Y 927.550
G1 X1998.250 Y 878.680
G1 X2026.450 Y 829.810
G1 X1970.030 Y 829.810
G1 X1941.810 Y 780.940
G1 X1913.600 Y 829.810
G1 X1857.170 Y 829.810
F150
G1 Z  -3.000
F400
G1 X1885.390 Y 878.680
G1 X1857.170 Y 927.550
G1 X1913.600 Y 927.550
G1 X1941.810 Y 976.420
G1 X1970.030 Y 927.550
G1 X2026.450 Y 927.550
G1 X1998.250 Y 878.680
G1 X2026.450 Y 829.810
G1 X1970.030 Y 829.810
G1 X1941.810 Y 780.940
G1 X1913.600 Y 829.810
G1 X1857.170 Y 829.810
F150
G1 Z   3.000
G0 Z  15.000 
M9 M5

(* SHAPE Nr: 30 *)
G0 X1879.180 Y 643.050
M3 M8
G0 Z   3.000 
G1 Z  -1.500
F400
G1 X1907.400 Y 691.920
G1 X1879.180 Y 740.790
G1 X1935.610 Y 740.790
G1 X1963.820 Y 789.660
G1 X1992.040 Y 740.790
G1 X2048.460 Y 740.790
G1 X2020.260 Y 691.920
G1 X2048.460 Y 643.050
G1 X1992.040 Y 643.050
G1 X1963.820 Y 594.180
G1 X1935.610 Y 643.050
G1 X1879.180 Y 643.050
F150
G1 Z  -3.000
F400
G1 X1907.400 Y 691.920
G1 X1879.180 Y 740.790
G1 X1935.610 Y 740.790
G1 X1963.820 Y 789.660
G1 X1992.040 Y 740.790
G1 X2048.460 Y 740.790
G1 X2020.260 Y 691.920
G1 X2048.460 Y 643.050
G1 X1992.040 Y 643.050
G1 X1963.820 Y 594.180
G1 X1935.610 Y 643.050
G1 X1879.180 Y 643.050
F150
G1 Z   3.000
G0 Z  15.000 
M9 M5

(* SHAPE Nr: 31 *)
G0 X2000.380 Y 530.350
M3 M8
G0 Z   3.000 
G1 Z  -1.500
F400
G1 X2028.600 Y 579.220
G1 X2000.380 Y 628.090
G1 X2056.810 Y 628.090
G1 X2085.020 Y 676.960
G1 X2113.240 Y 628.090
G1 X2169.660 Y 628.090
G1 X2141.460 Y 579.220
G1 X2169.660 Y 530.350
G1 X2113.240 Y 530.350
G1 X2085.020 Y 481.480
G1 X2056.810 Y 530.350
G1 X2000.380 Y 530.350
F150
G1 Z  -3.000
F400
G1 X2028.600 Y 579.220
G1 X2000.380 Y 628.090
G1 X2056.810 Y 628.090
G1 X2085.020 Y 676.960
G1 X2113.240 Y 628.090
G1 X2169.660 Y 628.090
G1 X2141.460 Y 579.220
G1 X2169.660 Y 530.350
G1 X2113.240 Y 530.350
G1 X2085.020 Y 481.480
G1 X2056.810 Y 530.350
G1 X2000.380 Y 530.350
F150
G1 Z   3.000
G0 Z  15.000 
M9 M5

(* SHAPE Nr: 32 *)
G0 X2163.290 Y 489.880
M3 M8
G0 Z   3.000 
G1 Z  -1.500
F400
G1 X2191.510 Y 538.750
G1 X2163.290 Y 587.620
G1 X2219.720 Y 587.620
G1 X2247.930 Y 636.490
G1 X2276.150 Y 587.620
G1 X2332.570 Y 587.620
G1 X2304.370 Y 538.750
G1 X2332.570 Y 489.880
G1 X2276.150 Y 489.880
G1 X2247.930 Y 441.010
G1 X2219.720 Y 489.880
G1 X2163.290 Y 489.880
F150
G1 Z  -3.000
F400
G1 X2191.510 Y 538.750
G1 X2163.290 Y 587.620
G1 X2219.720 Y 587.620
G1 X2247.930 Y 636.490
G1 X2276.150 Y 587.620
G1 X2332.570 Y 587.620
G1 X2304.370 Y 538.750
G1 X2332.570 Y 489.880
G1 X2276.150 Y 489.880
G1 X2247.930 Y 441.010
G1 X2219.720 Y 489.880
G1 X2163.290 Y 489.880
F150
G1 Z   3.000
G0 Z  15.000 
M9 M5

(* SHAPE Nr: 33 *)
G0 X2273.950 Y 358.890
M3 M8
G0 Z   3.000 
G1 Z  -1.500
F400
G1 X2302.170 Y 407.760
G1 X2273.950 Y 456.630
G1 X2330.380 Y 456.630
G1 X2358.590 Y 505.500
G1 X2386.810 Y 456.630
G1 X2443.230 Y 456.630
G1 X2415.030 Y 407.760
G1 X2443.230 Y 358.890
G1 X2386.810 Y 358.890
G1 X2358.590 Y 310.020
G1 X2330.380 Y 358.890
G1 X2273.950 Y 358.890
F150
G1 Z  -3.000
F400
G1 X2302.170 Y 407.760
G1 X2273.950 Y 456.630
G1 X2330.380 Y 456.630
G1 X2358.590 Y 505.500
G1 X2386.810 Y 456.630
G1 X2443.230 Y 456.630
G1 X2415.030 Y 407.760
G1 X2443.230 Y 358.890
G1 X2386.810 Y 358.890
G1 X2358.590 Y 310.020
G1 X2330.380 Y 358.890
G1 X2273.950 Y 358.890
F150
G1 Z   3.000
G0 Z  15.000 
M9 M5

(* SHAPE Nr: 34 *)
G0 X2539.250 Y 315.610
M3 M8
G0 Z   3.000 
G1 Z  -1.500
F400
G1 X2588.120 Y 343.830
G1 X2588.120 Y 400.260
G1 X2636.990 Y 372.050
G1 X2685.860 Y 400.260
G1 X2685.860 Y 343.830
G1 X2734.730 Y 315.610
G1 X2685.860 Y 287.400
G1 X2685.860 Y 230.970
G1 X2636.990 Y 259.190
G1 X2588.120 Y 230.970
G1 X2588.120 Y 287.400
G1 X2539.250 Y 315.610
F150
G1 Z  -3.000
F400
G1 X2588.120 Y 343.830
G1 X2588.120 Y 400.260
G1 X2636.990 Y 372.050
G1 X2685.860 Y 400.260
G1 X2685.860 Y 343.830
G1 X2734.730 Y 315.610
G1 X2685.860 Y 287.400
G1 X2685.860 Y 230.970
G1 X2636.990 Y 259.190
G1 X2588.120 Y 230.970
G1 X2588.120 Y 287.400
G1 X2539.250 Y 315.610
F150
G1 Z   3.000
G0 Z  15.000 
M9 M5

(* SHAPE Nr: 35 *)
G0 X2470.100 Y 145.840
M3 M8
G0 Z   3.000 
G1 Z  -1.500
F400
G1 X2518.970 Y 174.060
G1 X2518.970 Y 230.490
G1 X2567.840 Y 202.280
G1 X2616.710 Y 230.490
G1 X2616.710 Y 174.060
G1 X2665.580 Y 145.840
G1 X2616.710 Y 117.630
G1 X2616.710 Y  61.200
G1 X2567.840 Y  89.420
G1 X2518.970 Y  61.200
G1 X2518.970 Y 117.630
G1 X2470.100 Y 145.840
F150
G1 Z  -3.000
F400
G1 X2518.970 Y 174.060
G1 X2518.970 Y 230.490
G1 X2567.840 Y 202.280
G1 X2616.710 Y 230.490
G1 X2616.710 Y 174.060
G1 X2665.580 Y 145.840
G1 X2616.710 Y 117.630
G1 X2616.710 Y  61.200
G1 X2567.840 Y  89.420
G1 X2518.970 Y  61.200
G1 X2518.970 Y 117.630
G1 X2470.100 Y 145.840
F150
G1 Z   3.000
G0 Z  15.000 
M9 M5

(* SHAPE Nr: 36 *)
G0 X2279.040 Y  96.470
M3 M8
G0 Z   3.000 
G1 Z  -1.500
F400
G1 X2327.910 Y 124.690
G1 X2327.910 Y 181.120
G1 X2376.780 Y 152.910
G1 X2425.650 Y 181.120
G1 X2425.650 Y 124.690
G1 X2474.520 Y  96.470
G1 X2425.650 Y  68.260
G1 X2425.650 Y  11.830
G1 X2376.780 Y  40.050
G1 X2327.910 Y  11.830
G1 X2327.910 Y  68.260
G1 X2279.040 Y  96.470
F150
G1 Z  -3.000
F400
G1 X2327.910 Y 124.690
G1 X2327.910 Y 181.120
G1 X2376.780 Y 152.910
G1 X2425.650 Y 181.120
G1 X2425.650 Y 124.690
G1 X2474.520 Y  96.470
G1 X2425.650 Y  68.260
G1 X2425.650 Y  11.830
G1 X2376.780 Y  40.050
G1 X2327.910 Y  11.830
G1 X2327.910 Y  68.260
G1 X2279.040 Y  96.470
F150
G1 Z   3.000
G0 Z  15.000 
M9 M5

(* SHAPE Nr: 37 *)
G0 X2117.690 Y 133.140
M3 M8
G0 Z   3.000 
G1 Z  -1.500
F400
G1 X2166.560 Y 161.360
G1 X2166.560 Y 217.790
G1 X2215.430 Y 189.580
G1 X2264.300 Y 217.790
G1 X2264.300 Y 161.360
G1 X2313.170 Y 133.140
G1 X2264.300 Y 104.930
G1 X2264.300 Y  48.500
G1 X2215.430 Y  76.720
G1 X2166.560 Y  48.500
G1 X2166.560 Y 104.930
G1 X2117.690 Y 133.140
F150
G1 Z  -3.000
F400
G1 X2166.560 Y 161.360
G1 X2166.560 Y 217.790
G1 X2215.430 Y 189.580
G1 X2264.300 Y 217.790
G1 X2264.300 Y 161.360
G1 X2313.170 Y 133.140
G1 X2264.300 Y 104.930
G1 X2264.300 Y  48.500
G1 X2215.430 Y  76.720
G1 X2166.560 Y  48.500
G1 X2166.560 Y 104.930
G1 X2117.690 Y 133.140
F150
G1 Z   3.000
G0 Z  15.000 
M9 M5

(* SHAPE Nr: 38 *)
G0 X1980.290 Y 171.160
M3 M8
G0 Z   3.000 
G1 Z  -1.500
F400
G1 X2008.510 Y 220.030
G1 X1980.290 Y 268.900
G1 X2036.720 Y 268.900
G1 X2064.930 Y 317.770
G1 X2093.150 Y 268.900
G1 X2149.570 Y 268.900
G1 X2121.370 Y 220.030
G1 X2149.570 Y 171.160
G1 X2093.150 Y 171.160
G1 X2064.930 Y 122.290
G1 X2036.720 Y 171.160
G1 X1980.290 Y 171.160
F150
G1 Z  -3.000
F400
G1 X2008.510 Y 220.030
G1 X1980.290 Y 268.900
G1 X2036.720 Y 268.900
G1 X2064.930 Y 317.770
G1 X2093.150 Y 268.900
G1 X2149.570 Y 268.900
G1 X2121.370 Y 220.030
G1 X2149.570 Y 171.160
G1 X2093.150 Y 171.160
G1 X2064.930 Y 122.290
G1 X2036.720 Y 171.160
G1 X1980.290 Y 171.160
F150
G1 Z   3.000
G0 Z  15.000 
M9 M5

(* SHAPE Nr: 39 *)
G0 X1802.270 Y 254.300
M3 M8
G0 Z   3.000 
G1 Z  -1.500
F400
G1 X1830.490 Y 303.170
G1 X1802.270 Y 352.040
G1 X1858.700 Y 352.040
G1 X1886.910 Y 400.910
G1 X1915.130 Y 352.040
G1 X1971.550 Y 352.040
G1 X1943.350 Y 303.170
G1 X1971.550 Y 254.300
G1 X1915.130 Y 254.300
G1 X1886.910 Y 205.430
G1 X1858.700 Y 254.300
G1 X1802.270 Y 254.300
F150
G1 Z  -3.000
F400
G1 X1830.490 Y 303.170
G1 X1802.270 Y 352.040
G1 X1858.700 Y 352.040
G1 X1886.910 Y 400.910
G1 X1915.130 Y 352.040
G1 X1971.550 Y 352.040
G1 X1943.350 Y 303.170
G1 X1971.550 Y 254.300
G1 X1915.130 Y 254.300
G1 X1886.910 Y 205.430
G1 X1858.700 Y 254.300
G1 X1802.270 Y 254.300
F150
G1 Z   3.000
G0 Z  15.000 
M9 M5

(* SHAPE Nr: 40 *)
G0 X1638.600 Y 390.050
M3 M8
G0 Z   3.000 
G1 Z  -1.500
F400
G1 X1687.470 Y 418.270
G1 X1687.470 Y 474.700
G1 X1736.340 Y 446.490
G1 X1785.210 Y 474.700
G1 X1785.210 Y 418.270
G1 X1834.080 Y 390.050
G1 X1785.210 Y 361.840
G1 X1785.210 Y 305.410
G1 X1736.340 Y 333.630
G1 X1687.470 Y 305.410
G1 X1687.470 Y 361.840
G1 X1638.600 Y 390.050
F150
G1 Z  -3.000
F400
G1 X1687.470 Y 418.270
G1 X1687.470 Y 474.700
G1 X1736.340 Y 446.490
G1 X1785.210 Y 474.700
G1 X1785.210 Y 418.270
G1 X1834.080 Y 390.050
G1 X1785.210 Y 361.840
G1 X1785.210 Y 305.410
G1 X1736.340 Y 333.630
G1 X1687.470 Y 305.410
G1 X1687.470 Y 361.840
G1 X1638.600 Y 390.050
F150
G1 Z   3.000
G0 Z  15.000 
M9 M5

(* SHAPE Nr: 42 *)
G0 X1629.180 Y 542.590
M3 M8
G0 Z   3.000 
G1 Z  -1.500
F400
G1 X1657.400 Y 591.460
G1 X1629.180 Y 640.330
G1 X1685.610 Y 640.330
G1 X1713.820 Y 689.200
G1 X1742.040 Y 640.330
G1 X1798.460 Y 640.330
G1 X1770.260 Y 591.460
G1 X1798.460 Y 542.590
G1 X1742.040 Y 542.590
G1 X1713.820 Y 493.720
G1 X1685.610 Y 542.590
G1 X1629.180 Y 542.590
F150
G1 Z  -3.000
F400
G1 X1657.400 Y 591.460
G1 X1629.180 Y 640.330
G1 X1685.610 Y 640.330
G1 X1713.820 Y 689.200
G1 X1742.040 Y 640.330
G1 X1798.460 Y 640.330
G1 X1770.260 Y 591.460
G1 X1798.460 Y 542.590
G1 X1742.040 Y 542.590
G1 X1713.820 Y 493.720
G1 X1685.610 Y 542.590
G1 X1629.180 Y 542.590
F150
G1 Z   3.000
G0 Z  15.000 
M9 M5

(* SHAPE Nr: 56 *)
G0 X1741.100 Y 951.440
M3 M8
G0 Z   3.000 
G1 Z  -1.500
F400
G1 X1769.320 Y1000.310
G1 X1741.100 Y1049.180
G1 X1797.530 Y1049.180
G1 X1825.740 Y1098.050
G1 X1853.960 Y1049.180
G1 X1910.380 Y1049.180
G1 X1882.180 Y1000.310
G1 X1910.380 Y 951.440
G1 X1853.960 Y 951.440
G1 X1825.740 Y 902.570
G1 X1797.530 Y 951.440
G1 X1741.100 Y 951.440
F150
G1 Z  -3.000
F400
G1 X1769.320 Y1000.310
G1 X1741.100 Y1049.180
G1 X1797.530 Y1049.180
G1 X1825.740 Y1098.050
G1 X1853.960 Y1049.180
G1 X1910.380 Y1049.180
G1 X1882.180 Y1000.310
G1 X1910.380 Y 951.440
G1 X1853.960 Y 951.440
G1 X1825.740 Y 902.570
G1 X1797.530 Y 951.440
G1 X1741.100 Y 951.440
F150
G1 Z   3.000
G0 Z  15.000 
M9 M5

(* SHAPE Nr: 86 *)
G0 X1700.480 Y 152.670
M3 M8
G0 Z   3.000 
G1 Z  -1.500
F400
G1 X1749.350 Y 180.890
G1 X1749.350 Y 237.320
G1 X1798.220 Y 209.110
G1 X1847.090 Y 237.320
G1 X1847.090 Y 180.890
G1 X1895.960 Y 152.670
G1 X1847.090 Y 124.460
G1 X1847.090 Y  68.030
G1 X1798.220 Y  96.250
G1 X1749.350 Y  68.030
G1 X1749.350 Y 124.460
G1 X1700.480 Y 152.670
F150
G1 Z  -3.000
F400
G1 X1749.350 Y 180.890
G1 X1749.350 Y 237.320
G1 X1798.220 Y 209.110
G1 X1847.090 Y 237.320
G1 X1847.090 Y 180.890
G1 X1895.960 Y 152.670
G1 X1847.090 Y 124.460
G1 X1847.090 Y  68.030
G1 X1798.220 Y  96.250
G1 X1749.350 Y  68.030
G1 X1749.350 Y 124.460
G1 X1700.480 Y 152.670
F150
G1 Z   3.000
G0 Z  15.000 
M9 M5

(* SHAPE Nr: 87 *)
G0 X1976.390 Y 399.160
M3 M8
G0 Z   3.000 
G1 Z  -1.500
F400
G1 X2025.260 Y 427.380
G1 X2025.260 Y 483.810
G1 X2074.130 Y 455.600
G1 X2123.000 Y 483.810
G1 X2123.000 Y 427.380
G1 X2171.870 Y 399.160
G1 X2123.000 Y 370.950
G1 X2123.000 Y 314.520
G1 X2074.130 Y 342.740
G1 X2025.260 Y 314.520
G1 X2025.260 Y 370.950
G1 X1976.390 Y 399.160
F150
G1 Z  -3.000
F400
G1 X2025.260 Y 427.380
G1 X2025.260 Y 483.810
G1 X2074.130 Y 455.600
G1 X2123.000 Y 483.810
G1 X2123.000 Y 427.380
G1 X2171.870 Y 399.160
G1 X2123.000 Y 370.950
G1 X2123.000 Y 314.520
G1 X2074.130 Y 342.740
G1 X2025.260 Y 314.520
G1 X2025.260 Y 370.950
G1 X1976.390 Y 399.160
F150
G1 Z   3.000
G0 Z  15.000 
M9 M5

(* SHAPE Nr: 88 *)
G0 X2043.150 Y 702.170
M3 M8
G0 Z   3.000 
G1 Z  -1.500
F400
G1 X2071.370 Y 751.040
G1 X2043.150 Y 799.910
G1 X2099.580 Y 799.910
G1 X2127.790 Y 848.780
G1 X2156.010 Y 799.910
G1 X2212.430 Y 799.910
G1 X2184.230 Y 751.040
G1 X2212.430 Y 702.170
G1 X2156.010 Y 702.170
G1 X2127.790 Y 653.300
G1 X2099.580 Y 702.170
G1 X2043.150 Y 702.170
F150
G1 Z  -3.000
F400
G1 X2071.370 Y 751.040
G1 X2043.150 Y 799.910
G1 X2099.580 Y 799.910
G1 X2127.790 Y 848.780
G1 X2156.010 Y 799.910
G1 X2212.430 Y 799.910
G1 X2184.230 Y 751.040
G1 X2212.430 Y 702.170
G1 X2156.010 Y 702.170
G1 X2127.790 Y 653.300
G1 X2099.580 Y 702.170
G1 X2043.150 Y 702.170
F150
G1 Z   3.000
G0 Z  15.000 
M9 M5

(* SHAPE Nr: 89 *)
G0 X2218.270 Y 682.810
M3 M8
G0 Z   3.000 
G1 Z  -1.500
F400
G1 X2246.490 Y 731.680
G1 X2218.270 Y 780.550
G1 X2274.700 Y 780.550
G1 X2302.910 Y 829.420
G1 X2331.130 Y 780.550
G1 X2387.550 Y 780.550
G1 X2359.350 Y 731.680
G1 X2387.550 Y 682.810
G1 X2331.130 Y 682.810
G1 X2302.910 Y 633.940
G1 X2274.700 Y 682.810
G1 X2218.270 Y 682.810
F150
G1 Z  -3.000
F400
G1 X2246.490 Y 731.680
G1 X2218.270 Y 780.550
G1 X2274.700 Y 780.550
G1 X2302.910 Y 829.420
G1 X2331.130 Y 780.550
G1 X2387.550 Y 780.550
G1 X2359.350 Y 731.680
G1 X2387.550 Y 682.810
G1 X2331.130 Y 682.810
G1 X2302.910 Y 633.940
G1 X2274.700 Y 682.810
G1 X2218.270 Y 682.810
F150
G1 Z   3.000
G0 Z  15.000 
M9 M5

(* SHAPE Nr: 90 *)
G0 X2416.420 Y 739.380
M3 M8
G0 Z   3.000 
G1 Z  -1.500
F400
G1 X2444.640 Y 788.250
G1 X2416.420 Y 837.120
G1 X2472.850 Y 837.120
G1 X2501.060 Y 885.990
G1 X2529.280 Y 837.120
G1 X2585.700 Y 837.120
G1 X2557.500 Y 788.250
G1 X2585.700 Y 739.380
G1 X2529.280 Y 739.380
G1 X2501.060 Y 690.510
G1 X2472.850 Y 739.380
G1 X2416.420 Y 739.380
F150
G1 Z  -3.000
F400
G1 X2444.640 Y 788.250
G1 X2416.420 Y 837.120
G1 X2472.850 Y 837.120
G1 X2501.060 Y 885.990
G1 X2529.280 Y 837.120
G1 X2585.700 Y 837.120
G1 X2557.500 Y 788.250
G1 X2585.700 Y 739.380
G1 X2529.280 Y 739.380
G1 X2501.060 Y 690.510
G1 X2472.850 Y 739.380
G1 X2416.420 Y 739.380
F150
G1 Z   3.000
G0 Z  15.000 
M9 M5

(* SHAPE Nr: 91 *)
G0 X2452.800 Y 577.500
M3 M8
G0 Z   3.000 
G1 Z  -1.500
F400
G1 X2481.020 Y 626.370
G1 X2452.800 Y 675.240
G1 X2509.230 Y 675.240
G1 X2537.440 Y 724.110
G1 X2565.660 Y 675.240
G1 X2622.080 Y 675.240
G1 X2593.880 Y 626.370
G1 X2622.080 Y 577.500
G1 X2565.660 Y 577.500
G1 X2537.440 Y 528.630
G1 X2509.230 Y 577.500
G1 X2452.800 Y 577.500
F150
G1 Z  -3.000
F400
G1 X2481.020 Y 626.370
G1 X2452.800 Y 675.240
G1 X2509.230 Y 675.240
G1 X2537.440 Y 724.110
G1 X2565.660 Y 675.240
G1 X2622.080 Y 675.240
G1 X2593.880 Y 626.370
G1 X2622.080 Y 577.500
G1 X2565.660 Y 577.500
G1 X2537.440 Y 528.630
G1 X2509.230 Y 577.500
G1 X2452.800 Y 577.500
F150
G1 Z   3.000
G0 Z  15.000 
M9 M5

(* SHAPE Nr: 92 *)
G0 X2563.800 Y 447.120
M3 M8
G0 Z   3.000 
G1 Z  -1.500
F400
G1 X2592.020 Y 495.990
G1 X2563.800 Y 544.860
G1 X2620.230 Y 544.860
G1 X2648.440 Y 593.730
G1 X2676.660 Y 544.860
G1 X2733.080 Y 544.860
G1 X2704.880 Y 495.990
G1 X2733.080 Y 447.120
G1 X2676.660 Y 447.120
G1 X2648.440 Y 398.250
G1 X2620.230 Y 447.120
G1 X2563.800 Y 447.120
F150
G1 Z  -3.000
F400
G1 X2592.020 Y 495.990
G1 X2563.800 Y 544.860
G1 X2620.230 Y 544.860
G1 X2648.440 Y 593.730
G1 X2676.660 Y 544.860
G1 X2733.080 Y 544.860
G1 X2704.880 Y 495.990
G1 X2733.080 Y 447.120
G1 X2676.660 Y 447.120
G1 X2648.440 Y 398.250
G1 X2620.230 Y 447.120
G1 X2563.800 Y 447.120
F150
G1 Z   3.000
G0 Z  15.000 
M9 M5

(* SHAPE Nr: 93 *)
G0 X2380.070 Y 901.300
M3 M8
G0 Z   3.000 
G1 Z  -1.500
F400
G1 X2408.290 Y 950.170
G1 X2380.070 Y 999.040
G1 X2436.500 Y 999.040
G1 X2464.710 Y1047.910
G1 X2492.930 Y 999.040
G1 X2549.350 Y 999.040
G1 X2521.150 Y 950.170
G1 X2549.350 Y 901.300
G1 X2492.930 Y 901.300
G1 X2464.710 Y 852.430
G1 X2436.500 Y 901.300
G1 X2380.070 Y 901.300
F150
G1 Z  -3.000
F400
G1 X2408.290 Y 950.170
G1 X2380.070 Y 999.040
G1 X2436.500 Y 999.040
G1 X2464.710 Y1047.910
G1 X2492.930 Y 999.040
G1 X2549.350 Y 999.040
G1 X2521.150 Y 950.170
G1 X2549.350 Y 901.300
G1 X2492.930 Y 901.300
G1 X2464.710 Y 852.430
G1 X2436.500 Y 901.300
G1 X2380.070 Y 901.300
F150
G1 Z   3.000
G0 Z  15.000 
M9 M5

(* SHAPE Nr: 95 *)
G0 X2097.070 Y 895.390
M3 M8
G0 Z   3.000 
G1 Z  -1.500
F400
G1 X2125.290 Y 944.260
G1 X2097.070 Y 993.130
G1 X2153.500 Y 993.130
G1 X2181.710 Y1042.000
G1 X2209.930 Y 993.130
G1 X2266.350 Y 993.130
G1 X2238.150 Y 944.260
G1 X2266.350 Y 895.390
G1 X2209.930 Y 895.390
G1 X2181.710 Y 846.520
G1 X2153.500 Y 895.390
G1 X2097.070 Y 895.390
F150
G1 Z  -3.000
F400
G1 X2125.290 Y 944.260
G1 X2097.070 Y 993.130
G1 X2153.500 Y 993.130
G1 X2181.710 Y1042.000
G1 X2209.930 Y 993.130
G1 X2266.350 Y 993.130
G1 X2238.150 Y 944.260
G1 X2266.350 Y 895.390
G1 X2209.930 Y 895.390
G1 X2181.710 Y 846.520
G1 X2153.500 Y 895.390
G1 X2097.070 Y 895.390
F150
G1 Z   3.000
G0 Z  15.000 
M9 M5

(* SHAPE Nr: 96 *)
G0 X1984.390 Y1022.850
M3 M8
G0 Z   3.000 
G1 Z  -1.500
F400
G1 X2012.610 Y1071.720
G1 X1984.390 Y1120.590
G1 X2040.820 Y1120.590
G1 X2069.030 Y1169.460
G1 X2097.250 Y1120.590
G1 X2153.670 Y1120.590
G1 X2125.470 Y1071.720
G1 X2153.670 Y1022.850
G1 X2097.250 Y1022.850
G1 X2069.030 Y 973.980
G1 X2040.820 Y1022.850
G1 X1984.390 Y1022.850
F150
G1 Z  -3.000
F400
G1 X2012.610 Y1071.720
G1 X1984.390 Y1120.590
G1 X2040.820 Y1120.590
G1 X2069.030 Y1169.460
G1 X2097.250 Y1120.590
G1 X2153.670 Y1120.590
G1 X2125.470 Y1071.720
G1 X2153.670 Y1022.850
G1 X2097.250 Y1022.850
G1 X2069.030 Y 973.980
G1 X2040.820 Y1022.850
G1 X1984.390 Y1022.850
F150
G1 Z   3.000
G0 Z  15.000 
M9 M5

(* SHAPE Nr: 97 *)
G0 X2003.580 Y1275.160
M3 M8
G0 Z   3.000 
G1 Z  -1.500
F400
G1 X2031.800 Y1324.030
G1 X2003.580 Y1372.900
G1 X2060.010 Y1372.900
G1 X2088.220 Y1421.770
G1 X2116.440 Y1372.900
G1 X2172.860 Y1372.900
G1 X2144.660 Y1324.030
G1 X2172.860 Y1275.160
G1 X2116.440 Y1275.160
G1 X2088.220 Y1226.290
G1 X2060.010 Y1275.160
G1 X2003.580 Y1275.160
F150
G1 Z  -3.000
F400
G1 X2031.800 Y1324.030
G1 X2003.580 Y1372.900
G1 X2060.010 Y1372.900
G1 X2088.220 Y1421.770
G1 X2116.440 Y1372.900
G1 X2172.860 Y1372.900
G1 X2144.660 Y1324.030
G1 X2172.860 Y1275.160
G1 X2116.440 Y1275.160
G1 X2088.220 Y1226.290
G1 X2060.010 Y1275.160
G1 X2003.580 Y1275.160
F150
G1 Z   3.000
G0 Z  15.000 
M9 M5

(* SHAPE Nr: 98 *)
G0 X1882.500 Y1388.120
M3 M8
G0 Z   3.000 
G1 Z  -1.500
F400
G1 X1910.720 Y1436.990
G1 X1882.500 Y1485.860
G1 X1938.930 Y1485.860
G1 X1967.140 Y1534.730
G1 X1995.360 Y1485.860
G1 X2051.780 Y1485.860
G1 X2023.580 Y1436.990
G1 X2051.780 Y1388.120
G1 X1995.360 Y1388.120
G1 X1967.140 Y1339.250
G1 X1938.930 Y1388.120
G1 X1882.500 Y1388.120
F150
G1 Z  -3.000
F400
G1 X1910.720 Y1436.990
G1 X1882.500 Y1485.860
G1 X1938.930 Y1485.860
G1 X1967.140 Y1534.730
G1 X1995.360 Y1485.860
G1 X2051.780 Y1485.860
G1 X2023.580 Y1436.990
G1 X2051.780 Y1388.120
G1 X1995.360 Y1388.120
G1 X1967.140 Y1339.250
G1 X1938.930 Y1388.120
G1 X1882.500 Y1388.120
F150
G1 Z   3.000
G0 Z  15.000 
M9 M5

(* SHAPE Nr: 99 *)
G0 X1909.570 Y1607.170
M3 M8
G0 Z   3.000 
G1 Z  -1.500
F400
G1 X1937.790 Y1656.040
G1 X1909.570 Y1704.910
G1 X1966.000 Y1704.910
G1 X1994.210 Y1753.780
G1 X2022.430 Y1704.910
G1 X2078.850 Y1704.910
G1 X2050.650 Y1656.040
G1 X2078.850 Y1607.170
G1 X2022.430 Y1607.170
G1 X1994.210 Y1558.300
G1 X1966.000 Y1607.170
G1 X1909.570 Y1607.170
F150
G1 Z  -3.000
F400
G1 X1937.790 Y1656.040
G1 X1909.570 Y1704.910
G1 X1966.000 Y1704.910
G1 X1994.210 Y1753.780
G1 X2022.430 Y1704.910
G1 X2078.850 Y1704.910
G1 X2050.650 Y1656.040
G1 X2078.850 Y1607.170
G1 X2022.430 Y1607.170
G1 X1994.210 Y1558.300
G1 X1966.000 Y1607.170
G1 X1909.570 Y1607.170
F150
G1 Z   3.000
G0 Z  15.000 
M9 M5

(* SHAPE Nr: 100 *)
G0 X2114.220 Y1760.000
M3 M8
G0 Z   3.000 
G1 Z  -1.500
F400
G1 X2142.440 Y1808.870
G1 X2114.220 Y1857.740
G1 X2170.650 Y1857.740
G1 X2198.860 Y1906.610
G1 X2227.080 Y1857.740
G1 X2283.500 Y1857.740
G1 X2255.300 Y1808.870
G1 X2283.500 Y1760.000
G1 X2227.080 Y1760.000
G1 X2198.860 Y1711.130
G1 X2170.650 Y1760.000
G1 X2114.220 Y1760.000
F150
G1 Z  -3.000
F400
G1 X2142.440 Y1808.870
G1 X2114.220 Y1857.740
G1 X2170.650 Y1857.740
G1 X2198.860 Y1906.610
G1 X2227.080 Y1857.740
G1 X2283.500 Y1857.740
G1 X2255.300 Y1808.870
G1 X2283.500 Y1760.000
G1 X2227.080 Y1760.000
G1 X2198.860 Y1711.130
G1 X2170.650 Y1760.000
G1 X2114.220 Y1760.000
F150
G1 Z   3.000
G0 Z  15.000 
M9 M5

(* SHAPE Nr: 101 *)
G0 X2006.980 Y1870.710
M3 M8
G0 Z   3.000 
G1 Z  -1.500
F400
G1 X2006.980 Y1927.140
G1 X1958.110 Y1955.350
G1 X2006.980 Y1983.570
G1 X2006.980 Y2040.000
G1 X2055.850 Y2011.790
G1 X2104.720 Y2040.000
G1 X2104.720 Y1983.570
G1 X2153.590 Y1955.350
G1 X2104.720 Y1927.140
G1 X2104.720 Y1870.710
G1 X2055.850 Y1898.930
G1 X2006.980 Y1870.710
F150
G1 Z  -3.000
F400
G1 X2006.980 Y1927.140
G1 X1958.110 Y1955.350
G1 X2006.980 Y1983.570
G1 X2006.980 Y2040.000
G1 X2055.850 Y2011.790
G1 X2104.720 Y2040.000
G1 X2104.720 Y1983.570
G1 X2153.590 Y1955.350
G1 X2104.720 Y1927.140
G1 X2104.720 Y1870.710
G1 X2055.850 Y1898.930
G1 X2006.980 Y1870.710
F150
G1 Z   3.000
G0 Z  15.000 
M9 M5

(* SHAPE Nr: 102 *)
G0 X2223.520 Y1893.380
M3 M8
G0 Z   3.000 
G1 Z  -1.500
F400
G1 X2251.740 Y1942.250
G1 X2223.520 Y1991.120
G1 X2279.950 Y1991.120
G1 X2308.160 Y2039.990
G1 X2336.380 Y1991.120
G1 X2392.800 Y1991.120
G1 X2364.600 Y1942.250
G1 X2392.800 Y1893.380
G1 X2336.380 Y1893.380
G1 X2308.160 Y1844.510
G1 X2279.950 Y1893.380
G1 X2223.520 Y1893.380
F150
G1 Z  -3.000
F400
G1 X2251.740 Y1942.250
G1 X2223.520 Y1991.120
G1 X2279.950 Y1991.120
G1 X2308.160 Y2039.990
G1 X2336.380 Y1991.120
G1 X2392.800 Y1991.120
G1 X2364.600 Y1942.250
G1 X2392.800 Y1893.380
G1 X2336.380 Y1893.380
G1 X2308.160 Y1844.510
G1 X2279.950 Y1893.380
G1 X2223.520 Y1893.380
F150
G1 Z   3.000
G0 Z  15.000 
M9 M5

(* SHAPE Nr: 103 *)
G0 X2409.810 Y1893.380
M3 M8
G0 Z   3.000 
G1 Z  -1.500
F400
G1 X2438.030 Y1942.250
G1 X2409.810 Y1991.120
G1 X2466.240 Y1991.120
G1 X2494.450 Y2039.990
G1 X2522.670 Y1991.120
G1 X2579.090 Y1991.120
G1 X2550.890 Y1942.250
G1 X2579.090 Y1893.380
G1 X2522.670 Y1893.380
G1 X2494.450 Y1844.510
G1 X2466.240 Y1893.380
G1 X2409.810 Y1893.380
F150
G1 Z  -3.000
F400
G1 X2438.030 Y1942.250
G1 X2409.810 Y1991.120
G1 X2466.240 Y1991.120
G1 X2494.450 Y2039.990
G1 X2522.670 Y1991.120
G1 X2579.090 Y1991.120
G1 X2550.890 Y1942.250
G1 X2579.090 Y1893.380
G1 X2522.670 Y1893.380
G1 X2494.450 Y1844.510
G1 X2466.240 Y1893.380
G1 X2409.810 Y1893.380
F150
G1 Z   3.000
G0 Z  15.000 
M9 M5

(* SHAPE Nr: 104 *)
G0 X2596.080 Y1893.380
M3 M8
G0 Z   3.000 
G1 Z  -1.500
F400
G1 X2624.300 Y1942.250
G1 X2596.080 Y1991.120
G1 X2652.510 Y1991.120
G1 X2680.720 Y2039.990
G1 X2708.940 Y1991.120
G1 X2765.360 Y1991.120
G1 X2737.160 Y1942.250
G1 X2765.360 Y1893.380
G1 X2708.940 Y1893.380
G1 X2680.720 Y1844.510
G1 X2652.510 Y1893.380
G1 X2596.080 Y1893.380
F150
G1 Z  -3.000
F400
G1 X2624.300 Y1942.250
G1 X2596.080 Y1991.120
G1 X2652.510 Y1991.120
G1 X2680.720 Y2039.990
G1 X2708.940 Y1991.120
G1 X2765.360 Y1991.120
G1 X2737.160 Y1942.250
G1 X2765.360 Y1893.380
G1 X2708.940 Y1893.380
G1 X2680.720 Y1844.510
G1 X2652.510 Y1893.380
G1 X2596.080 Y1893.380
F150
G1 Z   3.000
G0 Z  15.000 
M9 M5

(* SHAPE Nr: 105 *)
G0 X2470.340 Y1732.010
M3 M8
G0 Z   3.000 
G1 Z  -1.500
F400
G1 X2498.540 Y1780.880
G1 X2470.340 Y1829.740
G1 X2526.760 Y1829.740
G1 X2554.980 Y1878.610
G1 X2583.190 Y1829.740
G1 X2639.620 Y1829.740
G1 X2611.400 Y1780.880
G1 X2639.620 Y1732.010
G1 X2583.190 Y1732.010
G1 X2554.980 Y1683.140
G1 X2526.760 Y1732.010
G1 X2470.340 Y1732.010
F150
G1 Z  -3.000
F400
G1 X2498.540 Y1780.880
G1 X2470.340 Y1829.740
G1 X2526.760 Y1829.740
G1 X2554.980 Y1878.610
G1 X2583.190 Y1829.740
G1 X2639.620 Y1829.740
G1 X2611.400 Y1780.880
G1 X2639.620 Y1732.010
G1 X2583.190 Y1732.010
G1 X2554.980 Y1683.140
G1 X2526.760 Y1732.010
G1 X2470.340 Y1732.010
F150
G1 Z   3.000
G0 Z  15.000 
M9 M5

(* SHAPE Nr: 106 *)
G0 X2284.180 Y1731.760
M3 M8
G0 Z   3.000 
G1 Z  -1.500
F400
G1 X2312.400 Y1780.630
G1 X2284.180 Y1829.500
G1 X2340.610 Y1829.500
G1 X2368.820 Y1878.370
G1 X2397.040 Y1829.500
G1 X2453.460 Y1829.500
G1 X2425.260 Y1780.630
G1 X2453.460 Y1731.760
G1 X2397.040 Y1731.760
G1 X2368.820 Y1682.890
G1 X2340.610 Y1731.760
G1 X2284.180 Y1731.760
F150
G1 Z  -3.000
F400
G1 X2312.400 Y1780.630
G1 X2284.180 Y1829.500
G1 X2340.610 Y1829.500
G1 X2368.820 Y1878.370
G1 X2397.040 Y1829.500
G1 X2453.460 Y1829.500
G1 X2425.260 Y1780.630
G1 X2453.460 Y1731.760
G1 X2397.040 Y1731.760
G1 X2368.820 Y1682.890
G1 X2340.610 Y1731.760
G1 X2284.180 Y1731.760
F150
G1 Z   3.000
G0 Z  15.000 
M9 M5

(* SHAPE Nr: 107 *)
G0 X2320.580 Y1569.890
M3 M8
G0 Z   3.000 
G1 Z  -1.500
F400
G1 X2348.800 Y1618.760
G1 X2320.580 Y1667.630
G1 X2377.010 Y1667.630
G1 X2405.220 Y1716.500
G1 X2433.440 Y1667.630
G1 X2489.860 Y1667.630
G1 X2461.660 Y1618.760
G1 X2489.860 Y1569.890
G1 X2433.440 Y1569.890
G1 X2405.220 Y1521.020
G1 X2377.010 Y1569.890
G1 X2320.580 Y1569.890
F150
G1 Z  -3.000
F400
G1 X2348.800 Y1618.760
G1 X2320.580 Y1667.630
G1 X2377.010 Y1667.630
G1 X2405.220 Y1716.500
G1 X2433.440 Y1667.630
G1 X2489.860 Y1667.630
G1 X2461.660 Y1618.760
G1 X2489.860 Y1569.890
G1 X2433.440 Y1569.890
G1 X2405.220 Y1521.020
G1 X2377.010 Y1569.890
G1 X2320.580 Y1569.890
F150
G1 Z   3.000
G0 Z  15.000 
M9 M5

(* SHAPE Nr: 108 *)
G0 X2499.360 Y1556.900
M3 M8
G0 Z   3.000 
G1 Z  -1.500
F400
G1 X2527.580 Y1605.770
G1 X2499.360 Y1654.640
G1 X2555.790 Y1654.640
G1 X2584.000 Y1703.510
G1 X2612.220 Y1654.640
G1 X2668.640 Y1654.640
G1 X2640.440 Y1605.770
G1 X2668.640 Y1556.900
G1 X2612.220 Y1556.900
G1 X2584.000 Y1508.030
G1 X2555.790 Y1556.900
G1 X2499.360 Y1556.900
F150
G1 Z  -3.000
F400
G1 X2527.580 Y1605.770
G1 X2499.360 Y1654.640
G1 X2555.790 Y1654.640
G1 X2584.000 Y1703.510
G1 X2612.220 Y1654.640
G1 X2668.640 Y1654.640
G1 X2640.440 Y1605.770
G1 X2668.640 Y1556.900
G1 X2612.220 Y1556.900
G1 X2584.000 Y1508.030
G1 X2555.790 Y1556.900
G1 X2499.360 Y1556.900
F150
G1 Z   3.000
G0 Z  15.000 
M9 M5

(* SHAPE Nr: 109 *)
G0 X2516.690 Y1383.240
M3 M8
G0 Z   3.000 
G1 Z  -1.500
F400
G1 X2565.560 Y1411.460
G1 X2565.560 Y1467.890
G1 X2614.430 Y1439.680
G1 X2663.300 Y1467.890
G1 X2663.300 Y1411.460
G1 X2712.170 Y1383.240
G1 X2663.300 Y1355.030
G1 X2663.300 Y1298.600
G1 X2614.430 Y1326.820
G1 X2565.560 Y1298.600
G1 X2565.560 Y1355.030
G1 X2516.690 Y1383.240
F150
G1 Z  -3.000
F400
G1 X2565.560 Y1411.460
G1 X2565.560 Y1467.890
G1 X2614.430 Y1439.680
G1 X2663.300 Y1467.890
G1 X2663.300 Y1411.460
G1 X2712.170 Y1383.240
G1 X2663.300 Y1355.030
G1 X2663.300 Y1298.600
G1 X2614.430 Y1326.820
G1 X2565.560 Y1298.600
G1 X2565.560 Y1355.030
G1 X2516.690 Y1383.240
F150
G1 Z   3.000
G0 Z  15.000 
M9 M5

(* SHAPE Nr: 110 *)
G0 X2515.460 Y1152.290
M3 M8
G0 Z   3.000 
G1 Z  -1.500
F400
G1 X2543.680 Y1201.160
G1 X2515.460 Y1250.030
G1 X2571.890 Y1250.030
G1 X2600.100 Y1298.900
G1 X2628.320 Y1250.030
G1 X2684.740 Y1250.030
G1 X2656.540 Y1201.160
G1 X2684.740 Y1152.290
G1 X2628.320 Y1152.290
G1 X2600.100 Y1103.420
G1 X2571.890 Y1152.290
G1 X2515.460 Y1152.290
F150
G1 Z  -3.000
F400
G1 X2543.680 Y1201.160
G1 X2515.460 Y1250.030
G1 X2571.890 Y1250.030
G1 X2600.100 Y1298.900
G1 X2628.320 Y1250.030
G1 X2684.740 Y1250.030
G1 X2656.540 Y1201.160
G1 X2684.740 Y1152.290
G1 X2628.320 Y1152.290
G1 X2600.100 Y1103.420
G1 X2571.890 Y1152.290
G1 X2515.460 Y1152.290
F150
G1 Z   3.000
G0 Z  15.000 
M9 M5

(* SHAPE Nr: 111 *)
G0 X2339.810 Y1212.240
M3 M8
G0 Z   3.000 
G1 Z  -1.500
F400
G1 X2368.030 Y1261.110
G1 X2339.810 Y1309.980
G1 X2396.240 Y1309.980
G1 X2424.450 Y1358.850
G1 X2452.670 Y1309.980
G1 X2509.090 Y1309.980
G1 X2480.890 Y1261.110
G1 X2509.090 Y1212.240
G1 X2452.670 Y1212.240
G1 X2424.450 Y1163.370
G1 X2396.240 Y1212.240
G1 X2339.810 Y1212.240
F150
G1 Z  -3.000
F400
G1 X2368.030 Y1261.110
G1 X2339.810 Y1309.980
G1 X2396.240 Y1309.980
G1 X2424.450 Y1358.850
G1 X2452.670 Y1309.980
G1 X2509.090 Y1309.980
G1 X2480.890 Y1261.110
G1 X2509.090 Y1212.240
G1 X2452.670 Y1212.240
G1 X2424.450 Y1163.370
G1 X2396.240 Y1212.240
G1 X2339.810 Y1212.240
F150
G1 Z   3.000
G0 Z  15.000 
M9 M5

(* SHAPE Nr: 112 *)
G0 X2357.290 Y1408.550
M3 M8
G0 Z   3.000 
G1 Z  -1.500
F400
G1 X2385.510 Y1457.420
G1 X2357.290 Y1506.290
G1 X2413.720 Y1506.290
G1 X2441.930 Y1555.160
G1 X2470.150 Y1506.290
G1 X2526.570 Y1506.290
G1 X2498.370 Y1457.420
G1 X2526.570 Y1408.550
G1 X2470.150 Y1408.550
G1 X2441.930 Y1359.680
G1 X2413.720 Y1408.550
G1 X2357.290 Y1408.550
F150
G1 Z  -3.000
F400
G1 X2385.510 Y1457.420
G1 X2357.290 Y1506.290
G1 X2413.720 Y1506.290
G1 X2441.930 Y1555.160
G1 X2470.150 Y1506.290
G1 X2526.570 Y1506.290
G1 X2498.370 Y1457.420
G1 X2526.570 Y1408.550
G1 X2470.150 Y1408.550
G1 X2441.930 Y1359.680
G1 X2413.720 Y1408.550
G1 X2357.290 Y1408.550
F150
G1 Z   3.000
G0 Z  15.000 
M9 M5

(* SHAPE Nr: 113 *)
G0 X2173.240 Y1246.390
M3 M8
G0 Z   3.000 
G1 Z  -1.500
F400
G1 X2201.460 Y1295.260
G1 X2173.240 Y1344.130
G1 X2229.670 Y1344.130
G1 X2257.880 Y1393.000
G1 X2286.100 Y1344.130
G1 X2342.520 Y1344.130
G1 X2314.320 Y1295.260
G1 X2342.520 Y1246.390
G1 X2286.100 Y1246.390
G1 X2257.880 Y1197.520
G1 X2229.670 Y1246.390
G1 X2173.240 Y1246.390
F150
G1 Z  -3.000
F400
G1 X2201.460 Y1295.260
G1 X2173.240 Y1344.130
G1 X2229.670 Y1344.130
G1 X2257.880 Y1393.000
G1 X2286.100 Y1344.130
G1 X2342.520 Y1344.130
G1 X2314.320 Y1295.260
G1 X2342.520 Y1246.390
G1 X2286.100 Y1246.390
G1 X2257.880 Y1197.520
G1 X2229.670 Y1246.390
G1 X2173.240 Y1246.390
F150
G1 Z   3.000
G0 Z  15.000 
M9 M5

(* SHAPE Nr: 114 *)
G0 X2132.880 Y1567.410
M3 M8
G0 Z   3.000 
G1 Z  -1.500
F400
G1 X2161.100 Y1616.280
G1 X2132.880 Y1665.150
G1 X2189.310 Y1665.150
G1 X2217.520 Y1714.020
G1 X2245.740 Y1665.150
G1 X2302.160 Y1665.150
G1 X2273.960 Y1616.280
G1 X2302.160 Y1567.410
G1 X2245.740 Y1567.410
G1 X2217.520 Y1518.540
G1 X2189.310 Y1567.410
G1 X2132.880 Y1567.410
F150
G1 Z  -3.000
F400
G1 X2161.100 Y1616.280
G1 X2132.880 Y1665.150
G1 X2189.310 Y1665.150
G1 X2217.520 Y1714.020
G1 X2245.740 Y1665.150
G1 X2302.160 Y1665.150
G1 X2273.960 Y1616.280
G1 X2302.160 Y1567.410
G1 X2245.740 Y1567.410
G1 X2217.520 Y1518.540
G1 X2189.310 Y1567.410
G1 X2132.880 Y1567.410
F150
G1 Z   3.000
G0 Z  15.000 
M9 M5

(*** LAYER: BORDER_D0_T132_RK1_A0_W0_EM1_RI1_ID0007 ***)

(* SHAPE Nr: 71 *)
G0 X1331.200 Y1357.040
M3 M8
G0 Z   3.000 
G1 Z  -1.500
F400
G1 X1331.200 Y1428.050
G1 X1263.670 Y1449.990
G1 X1331.200 Y1471.940
G1 X1331.200 Y1542.950
G1 X1372.940 Y1485.500
G1 X1440.480 Y1507.440
G1 X1398.740 Y1449.990
G1 X1440.480 Y1392.540
G1 X1372.940 Y1414.490
G1 X1331.200 Y1357.040
F150
G1 Z  -3.000
F400
G1 X1331.200 Y1428.050
G1 X1263.670 Y1449.990
G1 X1331.200 Y1471.940
G1 X1331.200 Y1542.950
G1 X1372.940 Y1485.500
G1 X1440.480 Y1507.440
G1 X1398.740 Y1449.990
G1 X1440.480 Y1392.540
G1 X1372.940 Y1414.490
G1 X1331.200 Y1357.040
F150
G1 Z   3.000
G0 Z  15.000 
M9 M5

(* SHAPE Nr: 94 *)
G0 X2264.980 Y 936.600
M3 M8
G0 Z   3.000 
G1 Z  -1.500
F400
G1 X2286.930 Y1004.140
G1 X2229.480 Y1045.880
G1 X2300.490 Y1045.880
G1 X2322.430 Y1113.410
G1 X2344.380 Y1045.880
G1 X2415.390 Y1045.880
G1 X2357.940 Y1004.140
G1 X2379.880 Y 936.600
G1 X2322.430 Y 978.340
G1 X2264.980 Y 936.600
F150
G1 Z  -3.000
F400
G1 X2286.930 Y1004.140
G1 X2229.480 Y1045.880
G1 X2300.490 Y1045.880
G1 X2322.430 Y1113.410
G1 X2344.380 Y1045.880
G1 X2415.390 Y1045.880
G1 X2357.940 Y1004.140
G1 X2379.880 Y 936.600
G1 X2322.430 Y 978.340
G1 X2264.980 Y 936.600
F150
G1 Z   3.000
G0 Z  15.000 
M9 M5

(*** LAYER: BORDER_D0_T132.1_RK1_A0_W0_EM1 ***)

(* SHAPE Nr: 118 *)
G0 X2416.420 Y 739.380
M3 M8
G0 Z   3.000 
G1 Z  -1.500
F400
G1 X2444.630 Y 788.250
G1 X2416.420 Y 837.120
G1 X2472.850 Y 837.120
G1 X2501.060 Y 885.990
G1 X2529.280 Y 837.120
G1 X2585.710 Y 837.120
G1 X2557.490 Y 788.250
G1 X2585.710 Y 739.380
G1 X2529.280 Y 739.380
G1 X2501.060 Y 690.510
G1 X2472.850 Y 739.380
G1 X2416.420 Y 739.380
F150
G1 Z  -3.000
F400
G1 X2444.630 Y 788.250
G1 X2416.420 Y 837.120
G1 X2472.850 Y 837.120
G1 X2501.060 Y 885.990
G1 X2529.280 Y 837.120
G1 X2585.710 Y 837.120
G1 X2557.490 Y 788.250
G1 X2585.710 Y 739.380
G1 X2529.280 Y 739.380
G1 X2501.060 Y 690.510
G1 X2472.850 Y 739.380
G1 X2416.420 Y 739.380
F150
G1 Z   3.000
G0 Z  15.000 
M9 M5

(* SHAPE Nr: 119 *)
G0 X2357.280 Y1408.560
M3 M8
G0 Z   3.000 
G1 Z  -1.500
F400
G1 X2385.500 Y1457.430
G1 X2357.280 Y1506.300
G1 X2413.710 Y1506.300
G1 X2441.930 Y1555.170
G1 X2470.140 Y1506.300
G1 X2526.570 Y1506.300
G1 X2498.360 Y1457.430
G1 X2526.570 Y1408.560
G1 X2470.140 Y1408.560
G1 X2441.930 Y1359.690
G1 X2413.710 Y1408.560
G1 X2357.280 Y1408.560
F150
G1 Z  -3.000
F400
G1 X2385.500 Y1457.430
G1 X2357.280 Y1506.300
G1 X2413.710 Y1506.300
G1 X2441.930 Y1555.170
G1 X2470.140 Y1506.300
G1 X2526.570 Y1506.300
G1 X2498.360 Y1457.430
G1 X2526.570 Y1408.560
G1 X2470.140 Y1408.560
G1 X2441.930 Y1359.690
G1 X2413.710 Y1408.560
G1 X2357.280 Y1408.560
F150
G1 Z   3.000
G0 Z  15.000 
M9 M5

(* SHAPE Nr: 120 *)
G0 X2516.690 Y1383.250
M3 M8
G0 Z   3.000 
G1 Z  -1.500
F400
G1 X2565.560 Y1411.460
G1 X2565.560 Y1467.890
G1 X2614.430 Y1439.680
G1 X2663.300 Y1467.890
G1 X2663.300 Y1411.460
G1 X2712.170 Y1383.250
G1 X2663.300 Y1355.030
G1 X2663.300 Y1298.600
G1 X2614.430 Y1326.820
G1 X2565.560 Y1298.600
G1 X2565.560 Y1355.030
G1 X2516.690 Y1383.250
F150
G1 Z  -3.000
F400
G1 X2565.560 Y1411.460
G1 X2565.560 Y1467.890
G1 X2614.430 Y1439.680
G1 X2663.300 Y1467.890
G1 X2663.300 Y1411.460
G1 X2712.170 Y1383.250
G1 X2663.300 Y1355.030
G1 X2663.300 Y1298.600
G1 X2614.430 Y1326.820
G1 X2565.560 Y1298.600
G1 X2565.560 Y1355.030
G1 X2516.690 Y1383.250
F150
G1 Z   3.000
G0 Z  15.000 
M9 M5

(* SHAPE Nr: 121 *)
G0 X2320.580 Y1569.890
M3 M8
G0 Z   3.000 
G1 Z  -1.500
F400
G1 X2348.790 Y1618.760
G1 X2320.580 Y1667.630
G1 X2377.010 Y1667.630
G1 X2405.220 Y1716.500
G1 X2433.440 Y1667.630
G1 X2489.870 Y1667.630
G1 X2461.650 Y1618.760
G1 X2489.870 Y1569.890
G1 X2433.440 Y1569.890
G1 X2405.220 Y1521.020
G1 X2377.010 Y1569.890
G1 X2320.580 Y1569.890
F150
G1 Z  -3.000
F400
G1 X2348.790 Y1618.760
G1 X2320.580 Y1667.630
G1 X2377.010 Y1667.630
G1 X2405.220 Y1716.500
G1 X2433.440 Y1667.630
G1 X2489.870 Y1667.630
G1 X2461.650 Y1618.760
G1 X2489.870 Y1569.890
G1 X2433.440 Y1569.890
G1 X2405.220 Y1521.020
G1 X2377.010 Y1569.890
G1 X2320.580 Y1569.890
F150
G1 Z   3.000
G0 Z  15.000 
M9 M5

(* SHAPE Nr: 122 *)
G0 X  45.510 Y1175.400
M3 M8
G0 Z   3.000 
G1 Z  -1.500
F400
G1 X  10.000 Y1284.680
G1 X 102.960 Y1352.210
G1 X 195.910 Y1284.680
G1 X 160.400 Y1175.400
G1 X  45.510 Y1175.400
F150
G1 Z  -3.000
F400
G1 X  10.000 Y1284.680
G1 X 102.960 Y1352.210
G1 X 195.910 Y1284.680
G1 X 160.400 Y1175.400
G1 X  45.510 Y1175.400
F150
G1 Z   3.000
G0 Z  15.000 
M9 M5

(* SHAPE Nr: 124 *)
G0 X 893.720 Y1052.690
M3 M8
G0 Z   3.000 
G1 Z  -1.500
F400
G1 X 784.450 Y1017.190
G1 X 784.450 Y 902.290
G1 X 893.720 Y 866.780
G1 X 906.310 Y 862.690
G1 X 908.890 Y 854.550
G1 X 896.300 Y 850.470
G1 X 787.030 Y 814.960
G1 X 787.030 Y 686.830
G1 X 759.470 Y 618.890
G1 X 759.470 Y 490.760
G1 X 752.480 Y 486.520
G1 X 744.710 Y 497.220
G1 X 677.170 Y 590.180
G1 X 567.890 Y 554.670
G1 X 567.890 Y 439.770
G1 X 677.170 Y 404.260
G1 X 685.540 Y 403.930
G1 X 685.540 Y 262.570
G1 X 666.210 Y 249.620
G1 X 573.250 Y 182.080
G1 X 562.550 Y 174.310
G1 X 505.830 Y 203.760
G1 X 396.550 Y 168.250
G1 X 396.550 Y  40.120
G1 X 381.850 Y  40.120
G1 X 318.380 Y  60.650
G1 X 306.480 Y  69.290
G1 X 314.260 Y  80.000
G1 X 381.800 Y 172.950
G1 X 314.260 Y 265.910
G1 X 204.980 Y 230.400
G1 X 204.980 Y 102.270
G1 X 190.280 Y 102.270
G1 X 186.810 Y 126.600
G1 X 119.280 Y 219.550
G1 X  10.000 Y 184.040
G1 X  10.000 Y  54.440
G1 X -14.700 Y  54.440
F150
G1 Z  -3.000
F400
G1 X  10.000 Y  54.440
G1 X  10.000 Y 184.040
G1 X 119.280 Y 219.550
G1 X 186.810 Y 126.600
G1 X 190.280 Y 102.270
G1 X 204.980 Y 102.270
G1 X 204.980 Y 230.400
G1 X 314.260 Y 265.910
G1 X 381.800 Y 172.950
G1 X 314.260 Y  80.000
G1 X 306.480 Y  69.290
G1 X 318.380 Y  60.650
G1 X 381.850 Y  40.120
G1 X 396.550 Y  40.120
G1 X 396.550 Y 168.250
G1 X 505.830 Y 203.760
G1 X 562.550 Y 174.310
G1 X 573.250 Y 182.080
G1 X 666.210 Y 249.620
G1 X 685.540 Y 262.570
G1 X 685.540 Y 403.930
G1 X 677.170 Y 404.260
G1 X 567.890 Y 439.770
G1 X 567.890 Y 554.670
G1 X 677.170 Y 590.180
G1 X 744.710 Y 497.220
G1 X 752.480 Y 486.520
G1 X 759.470 Y 490.760
G1 X 759.470 Y 618.890
G1 X 787.030 Y 686.830
G1 X 787.030 Y 814.960
G1 X 896.300 Y 850.470
G1 X 908.890 Y 854.550
G1 X 906.310 Y 862.690
G1 X 893.720 Y 866.780
G1 X 784.450 Y 902.290
G1 X 784.450 Y1017.190
G1 X 893.720 Y1052.690
F150
G1 Z   3.000
G0 Z  15.000 
M9 M5

(* SHAPE Nr: 125 *)
G0 X 889.620 Y1141.510
M3 M8
G0 Z   3.000 
G1 Z  -1.500
F400
G1 X 822.080 Y1048.550
G1 X 712.810 Y1084.060
G1 X 700.230 Y1088.140
G1 X 695.680 Y1074.160
G1 X 764.300 Y 959.040
G1 X 696.760 Y 866.090
G1 X 587.480 Y 901.590
G1 X 574.900 Y 905.680
G1 X 523.870 Y 857.620
G1 X 475.000 Y 901.730
G1 X 426.130 Y 857.620
F150
G1 Z  -3.000
F400
G1 X 475.000 Y 901.730
G1 X 523.870 Y 857.620
G1 X 574.900 Y 905.680
G1 X 587.480 Y 901.590
G1 X 696.760 Y 866.090
G1 X 764.300 Y 959.040
G1 X 695.680 Y1074.160
G1 X 700.230 Y1088.140
G1 X 712.810 Y1084.060
G1 X 822.080 Y1048.550
G1 X 889.620 Y1141.510
F150
G1 Z   3.000
G0 Z  15.000 
M9 M5

(* SHAPE Nr: 126 *)
G0 X 399.430 Y 813.450
M3 M8
G0 Z   3.000 
G1 Z  -1.500
F400
G1 X 508.710 Y 848.950
G1 X 576.250 Y 755.990
G1 X 578.960 Y 747.920
G1 X 591.540 Y 752.010
G1 X 700.820 Y 787.520
G1 X 768.350 Y 694.560
G1 X 700.820 Y 601.600
G1 X 591.540 Y 637.110
F150
G1 Z  -3.000
F400
G1 X 700.820 Y 601.600
G1 X 768.350 Y 694.560
G1 X 700.820 Y 787.520
G1 X 591.540 Y 752.010
G1 X 578.960 Y 747.920
G1 X 576.250 Y 755.990
G1 X 508.710 Y 848.950
G1 X 399.430 Y 813.450
F150
G1 Z   3.000
G0 Z  15.000 
M9 M5

(* SHAPE Nr: 127 *)
G0 X 372.890 Y 533.790
M3 M8
G0 Z   3.000 
G1 Z  -1.500
F400
G1 X 482.160 Y 569.290
G1 X 549.700 Y 476.340
G1 X 482.160 Y 383.380
G1 X 388.810 Y 385.280
G1 X 381.040 Y 374.580
G1 X 313.500 Y 281.620
G1 X 204.220 Y 317.130
G1 X 204.220 Y 792.660
G1 X 191.830 Y 830.800
G1 X 204.410 Y 834.890
G1 X 313.690 Y 870.400
G1 X 326.270 Y 874.480
G1 X 321.730 Y 888.470
G1 X 313.780 Y 885.880
G1 X 204.510 Y 921.390
G1 X 204.510 Y1036.290
G1 X 313.780 Y1071.800
F150
G1 Z  -3.000
F400
G1 X 204.510 Y1036.290
G1 X 204.510 Y 921.390
G1 X 313.780 Y 885.880
G1 X 321.730 Y 888.470
G1 X 326.270 Y 874.480
G1 X 313.690 Y 870.400
G1 X 204.410 Y 834.890
G1 X 191.830 Y 830.800
G1 X 204.220 Y 792.660
G1 X 204.220 Y 317.130
G1 X 313.500 Y 281.620
G1 X 381.040 Y 374.580
G1 X 388.810 Y 385.280
G1 X 482.160 Y 383.380
G1 X 549.700 Y 476.340
G1 X 482.160 Y 569.290
G1 X 372.890 Y 533.790
F150
G1 Z   3.000
G0 Z  15.000 
M9 M5

(* SHAPE Nr: 128 *)
G0 X 322.830 Y1084.380
M3 M8
G0 Z   3.000 
G1 Z  -1.500
F400
G1 X 322.830 Y1199.280
G1 X 432.110 Y1234.780
G1 X 499.650 Y1141.830
G1 X 432.110 Y1048.870
G1 X 424.330 Y1038.170
G1 X 436.230 Y1029.530
G1 X 517.830 Y1070.830
G1 X 517.830 Y1198.960
G1 X 627.110 Y1234.460
G1 X 694.650 Y1141.510
G1 X 627.110 Y1048.550
G1 X 505.250 Y1088.140
G1 X 432.110 Y1048.870
G1 X 322.830 Y1084.380
G1 X 317.900 Y1091.140
G1 X 306.010 Y1082.500
G1 X 313.780 Y1071.800
G1 X 381.320 Y 978.840
G1 X 313.780 Y 885.880
F150
G1 Z  -3.000
F400
G1 X 381.320 Y 978.840
G1 X 313.780 Y1071.800
G1 X 306.010 Y1082.500
G1 X 317.900 Y1091.140
G1 X 322.830 Y1084.380
G1 X 432.110 Y1048.870
G1 X 505.250 Y1088.140
G1 X 627.110 Y1048.550
G1 X 694.650 Y1141.510
G1 X 627.110 Y1234.460
G1 X 517.830 Y1198.960
G1 X 517.830 Y1070.830
G1 X 436.230 Y1029.530
G1 X 424.330 Y1038.170
G1 X 432.110 Y1048.870
G1 X 499.650 Y1141.830
G1 X 432.110 Y1234.780
G1 X 322.830 Y1199.280
G1 X 322.830 Y1084.380
F150
G1 Z   3.000
G0 Z  15.000 
M9 M5

(* SHAPE Nr: 129 *)
G0 X1269.300 Y1251.780
M3 M8
G0 Z   3.000 
G1 Z  -1.500
F400
G1 X 497.770 Y1251.780
G2 X  10.000 Y1453.820 I -26.204 J 626.552
G1 X  54.340 Y1498.160
G3 X 497.770 Y1314.490 I 443.424 J 443.431
G1 X1269.300 Y1314.490
G1 X1269.300 Y1251.780
G1 X1160.790 Y1215.270
G1 X1165.330 Y1201.290
G1 X1177.920 Y1205.380
G1 X1287.190 Y1240.890
G1 X1354.730 Y1147.930
G1 X1287.190 Y1054.970
G1 X1177.920 Y1090.480
G1 X1165.330 Y1094.570
G1 X1160.790 Y1080.590
G1 X1164.040 Y 875.600
G1 X1178.740 Y 875.600
G1 X1178.740 Y1003.730
G1 X1288.020 Y1039.240
G1 X1355.550 Y 946.280
G1 X1288.020 Y 853.330
G1 X1178.740 Y 888.830
F150
G1 Z  -3.000
F400
G1 X1288.020 Y 853.330
G1 X1355.550 Y 946.280
G1 X1288.020 Y1039.240
G1 X1178.740 Y1003.730
G1 X1178.740 Y 875.600
G1 X1164.040 Y 875.600
G1 X1160.790 Y1080.590
G1 X1165.330 Y1094.570
G1 X1177.920 Y1090.480
G1 X1287.190 Y1054.970
G1 X1354.730 Y1147.930
G1 X1287.190 Y1240.890
G1 X1177.920 Y1205.380
G1 X1165.330 Y1201.290
G1 X1160.790 Y1215.270
G1 X1269.300 Y1251.780
G1 X1269.300 Y1314.490
G1 X 497.770 Y1314.490
G2 X  54.340 Y1498.160 I  -0.006 J 627.101
G1 X  10.000 Y1453.820
G3 X 497.770 Y1251.780 I 461.566 J 424.512
G1 X1269.300 Y1251.780
F150
G1 Z   3.000
G0 Z  15.000 
M9 M5

(* SHAPE Nr: 130 *)
G0 X1179.540 Y 687.200
M3 M8
G0 Z   3.000 
G1 Z  -1.500
F400
G1 X1179.540 Y 802.100
G1 X1288.810 Y 837.610
G1 X1356.350 Y 744.650
G1 X1364.120 Y 733.950
G1 X1491.360 Y 702.540
G1 X1495.900 Y 716.520
G1 X1483.320 Y 720.610
G1 X1374.040 Y 756.120
G1 X1374.040 Y 871.020
G1 X1483.320 Y 906.520
G1 X1550.850 Y 813.570
G1 X1483.320 Y 720.610
G1 X1364.120 Y 755.360
G1 X1356.350 Y 744.650
G1 X1288.810 Y 651.700
G1 X1179.540 Y 687.200
F150
G1 Z  -3.000
F400
G1 X1179.540 Y 802.100
G1 X1288.810 Y 837.610
G1 X1356.350 Y 744.650
G1 X1364.120 Y 733.950
G1 X1491.360 Y 702.540
G1 X1495.900 Y 716.520
G1 X1483.320 Y 720.610
G1 X1374.040 Y 756.120
G1 X1374.040 Y 871.020
G1 X1483.320 Y 906.520
G1 X1550.850 Y 813.570
G1 X1483.320 Y 720.610
G1 X1364.120 Y 755.360
G1 X1356.350 Y 744.650
G1 X1288.810 Y 651.700
G1 X1179.540 Y 687.200
F150
G1 Z   3.000
G0 Z  15.000 
M9 M5

(* SHAPE Nr: 131 *)
G0 X1768.960 Y 733.750
M3 M8
G0 Z   3.000 
G1 Z  -1.500
F400
G1 X1740.750 Y 782.620
G1 X1684.320 Y 782.620
G1 X1712.530 Y 831.490
G1 X1684.320 Y 880.360
G1 X1740.750 Y 880.360
G1 X1768.960 Y 929.230
G1 X1797.180 Y 880.360
G1 X1853.610 Y 880.360
G1 X1825.390 Y 831.490
G1 X1853.610 Y 782.620
F150
G1 Z  -3.000
F400
G1 X1825.390 Y 831.490
G1 X1853.610 Y 880.360
G1 X1797.180 Y 880.360
G1 X1768.960 Y 929.230
G1 X1740.750 Y 880.360
G1 X1684.320 Y 880.360
G1 X1712.530 Y 831.490
G1 X1684.320 Y 782.620
G1 X1740.750 Y 782.620
G1 X1768.960 Y 733.750
F150
G1 Z   3.000
G0 Z  15.000 
M9 M5

(* SHAPE Nr: 132 *)
G0 X1879.170 Y 643.060
M3 M8
G0 Z   3.000 
G1 Z  -1.500
F400
G1 X1907.390 Y 691.930
G1 X1879.170 Y 740.800
G1 X1935.600 Y 740.800
G1 X1963.820 Y 789.670
G1 X1992.030 Y 740.800
G1 X2048.460 Y 740.800
G1 X2020.250 Y 691.930
G1 X2048.460 Y 643.060
G1 X1992.030 Y 643.060
G1 X1963.820 Y 594.190
G1 X1935.600 Y 643.060
G1 X1879.170 Y 643.060
F150
G1 Z  -3.000
F400
G1 X1907.390 Y 691.930
G1 X1879.170 Y 740.800
G1 X1935.600 Y 740.800
G1 X1963.820 Y 789.670
G1 X1992.030 Y 740.800
G1 X2048.460 Y 740.800
G1 X2020.250 Y 691.930
G1 X2048.460 Y 643.060
G1 X1992.030 Y 643.060
G1 X1963.820 Y 594.190
G1 X1935.600 Y 643.060
G1 X1879.170 Y 643.060
F150
G1 Z   3.000
G0 Z  15.000 
M9 M5

(* SHAPE Nr: 133 *)
G0 X2000.380 Y 530.360
M3 M8
G0 Z   3.000 
G1 Z  -1.500
F400
G1 X2028.590 Y 579.230
G1 X2000.380 Y 628.100
G1 X2056.810 Y 628.100
G1 X2085.020 Y 676.970
G1 X2113.240 Y 628.100
G1 X2169.670 Y 628.100
G1 X2141.450 Y 579.230
G1 X2169.670 Y 530.360
G1 X2113.240 Y 530.360
G1 X2085.020 Y 481.490
G1 X2056.810 Y 530.360
G1 X2000.380 Y 530.360
F150
G1 Z  -3.000
F400
G1 X2028.590 Y 579.230
G1 X2000.380 Y 628.100
G1 X2056.810 Y 628.100
G1 X2085.020 Y 676.970
G1 X2113.240 Y 628.100
G1 X2169.670 Y 628.100
G1 X2141.450 Y 579.230
G1 X2169.670 Y 530.360
G1 X2113.240 Y 530.360
G1 X2085.020 Y 481.490
G1 X2056.810 Y 530.360
G1 X2000.380 Y 530.360
F150
G1 Z   3.000
G0 Z  15.000 
M9 M5

(* SHAPE Nr: 134 *)
G0 X2358.590 Y 310.030
M3 M8
G0 Z   3.000 
G1 Z  -1.500
F400
G1 X2330.380 Y 358.900
G1 X2273.950 Y 358.900
G1 X2302.160 Y 407.770
G1 X2273.950 Y 456.640
G1 X2330.380 Y 456.640
G1 X2358.590 Y 505.510
G1 X2386.810 Y 456.640
G1 X2443.240 Y 456.640
G1 X2415.020 Y 407.770
G1 X2443.240 Y 358.900
G1 X2386.810 Y 358.900
G1 X2351.980 Y 298.570
G1 X2141.230 Y 451.700
G1 X2163.280 Y 489.890
G1 X2191.500 Y 538.760
G1 X2163.280 Y 587.630
G1 X2219.710 Y 587.630
G1 X2247.930 Y 636.500
G1 X2276.140 Y 587.630
G1 X2332.570 Y 587.630
G1 X2304.350 Y 538.760
G1 X2332.570 Y 489.890
G1 X2276.140 Y 489.890
G1 X2247.930 Y 441.020
G1 X2219.710 Y 489.890
G1 X2163.280 Y 489.890
F150
G1 Z  -3.000
F400
G1 X2219.710 Y 489.890
G1 X2247.930 Y 441.020
G1 X2276.140 Y 489.890
G1 X2332.570 Y 489.890
G1 X2304.350 Y 538.760
G1 X2332.570 Y 587.630
G1 X2276.140 Y 587.630
G1 X2247.930 Y 636.500
G1 X2219.710 Y 587.630
G1 X2163.280 Y 587.630
G1 X2191.500 Y 538.760
G1 X2163.280 Y 489.890
G1 X2141.230 Y 451.700
G1 X2351.980 Y 298.570
G1 X2386.810 Y 358.900
G1 X2443.240 Y 358.900
G1 X2415.020 Y 407.770
G1 X2443.240 Y 456.640
G1 X2386.810 Y 456.640
G1 X2358.590 Y 505.510
G1 X2330.380 Y 456.640
G1 X2273.950 Y 456.640
G1 X2302.160 Y 407.770
G1 X2273.950 Y 358.900
G1 X2330.380 Y 358.900
G1 X2358.590 Y 310.030
F150
G1 Z   3.000
G0 Z  15.000 
M9 M5

(* SHAPE Nr: 135 *)
G0 X2685.860 Y 230.970
M3 M8
G0 Z   3.000 
G1 Z  -1.500
F400
G1 X2636.990 Y 259.180
G1 X2588.120 Y 230.970
G1 X2588.120 Y 287.400
G1 X2539.250 Y 315.610
G1 X2588.120 Y 343.830
G1 X2588.120 Y 400.260
G1 X2636.990 Y 372.040
G1 X2685.860 Y 400.260
G1 X2685.860 Y 343.830
G1 X2734.730 Y 315.610
G1 X2685.860 Y 287.400
G1 X2685.860 Y 230.970
G1 X2665.580 Y 145.850
G1 X2616.710 Y 117.630
G1 X2616.710 Y  61.200
G1 X2567.840 Y  89.420
G1 X2518.970 Y  61.200
G1 X2444.670 Y  18.300
G1 X2437.110 Y   5.210
G1 X2425.650 Y  11.830
G1 X2376.780 Y  40.040
G1 X2327.910 Y  11.830
G1 X2327.910 Y  68.260
G1 X2279.040 Y  96.470
F150
G1 Z  -3.000
F400
G1 X2327.910 Y  68.260
G1 X2327.910 Y  11.830
G1 X2376.780 Y  40.040
G1 X2425.650 Y  11.830
G1 X2437.110 Y   5.210
G1 X2444.670 Y  18.300
G1 X2518.970 Y  61.200
G1 X2567.840 Y  89.420
G1 X2616.710 Y  61.200
G1 X2616.710 Y 117.630
G1 X2665.580 Y 145.850
G1 X2685.860 Y 230.970
G1 X2685.860 Y 287.400
G1 X2734.730 Y 315.610
G1 X2685.860 Y 343.830
G1 X2685.860 Y 400.260
G1 X2636.990 Y 372.040
G1 X2588.120 Y 400.260
G1 X2588.120 Y 343.830
G1 X2539.250 Y 315.610
G1 X2588.120 Y 287.400
G1 X2588.120 Y 230.970
G1 X2636.990 Y 259.180
G1 X2685.860 Y 230.970
F150
G1 Z   3.000
G0 Z  15.000 
M9 M5

(* SHAPE Nr: 136 *)
G0 X2264.290 Y  48.500
M3 M8
G0 Z   3.000 
G1 Z  -1.500
F400
G1 X2215.430 Y  76.720
G1 X2166.550 Y  48.500
G1 X2166.550 Y 104.930
G1 X2117.690 Y 133.150
G1 X2106.230 Y 139.760
G1 X2064.930 Y 122.290
G1 X2036.720 Y 171.160
G1 X1980.290 Y 171.160
G1 X1886.910 Y 205.430
G1 X1858.700 Y 254.300
G1 X1802.270 Y 254.300
G1 X1796.670 Y 298.800
G1 X1785.210 Y 305.410
G1 X1736.340 Y 333.630
G1 X1687.470 Y 305.410
G1 X1687.470 Y 361.840
G1 X1638.600 Y 390.060
G1 X1687.470 Y 418.270
G1 X1687.470 Y 474.700
G1 X1736.340 Y 446.490
G1 X1785.210 Y 474.700
G1 X1785.210 Y 418.270
G1 X1834.080 Y 390.060
F150
G1 Z  -3.000
F400
G1 X1785.210 Y 418.270
G1 X1785.210 Y 474.700
G1 X1736.340 Y 446.490
G1 X1687.470 Y 474.700
G1 X1687.470 Y 418.270
G1 X1638.600 Y 390.060
G1 X1687.470 Y 361.840
G1 X1687.470 Y 305.410
G1 X1736.340 Y 333.630
G1 X1785.210 Y 305.410
G1 X1796.670 Y 298.800
G1 X1802.270 Y 254.300
G1 X1858.700 Y 254.300
G1 X1886.910 Y 205.430
G1 X1980.290 Y 171.160
G1 X2036.720 Y 171.160
G1 X2064.930 Y 122.290
G1 X2106.230 Y 139.760
G1 X2117.690 Y 133.150
G1 X2166.550 Y 104.930
G1 X2166.550 Y  48.500
G1 X2215.430 Y  76.720
G1 X2264.290 Y  48.500
F150
G1 Z   3.000
G0 Z  15.000 
M9 M5

(* SHAPE Nr: 137 *)
G0 X1901.820 Y 426.460
M3 M8
G0 Z   3.000 
G1 Z  -1.500
F400
G1 X1852.950 Y 470.570
G1 X1804.080 Y 426.460
G1 X1817.850 Y 490.840
G1 X1755.210 Y 511.110
G1 X1742.620 Y 515.180
G1 X1713.820 Y 493.720
G1 X1685.610 Y 542.590
G1 X1629.180 Y 542.590
G1 X1657.390 Y 591.460
G1 X1629.180 Y 640.330
F150
G1 Z  -3.000
F400
G1 X1657.390 Y 591.460
G1 X1629.180 Y 542.590
G1 X1685.610 Y 542.590
G1 X1713.820 Y 493.720
G1 X1742.620 Y 515.180
G1 X1755.210 Y 511.110
G1 X1817.850 Y 490.840
G1 X1804.080 Y 426.460
G1 X1852.950 Y 470.570
G1 X1901.820 Y 426.460
F150
G1 Z   3.000
G0 Z  15.000 
M9 M5

(* SHAPE Nr: 138 *)
G0 X1492.470 Y 518.460
M3 M8
G0 Z   3.000 
G1 Z  -1.500
F400
G1 X1601.740 Y 553.960
G1 X1669.280 Y 461.010
G1 X1601.740 Y 368.050
G1 X1492.470 Y 403.560
G1 X1479.890 Y 407.640
G1 X1406.770 Y 322.260
G1 X1297.490 Y 357.770
F150
G1 Z  -3.000
F400
G1 X1406.770 Y 322.260
G1 X1479.890 Y 407.640
G1 X1492.470 Y 403.560
G1 X1601.740 Y 368.050
G1 X1669.280 Y 461.010
G1 X1601.740 Y 553.960
G1 X1492.470 Y 518.460
F150
G1 Z   3.000
G0 Z  15.000 
M9 M5

(* SHAPE Nr: 139 *)
G0 X1279.290 Y 359.640
M3 M8
G0 Z   3.000 
G1 Z  -1.500
F400
G1 X1211.750 Y 266.680
G1 X1102.470 Y 302.190
G1 X1102.470 Y 417.090
G1 X1211.750 Y 452.590
G1 X1279.290 Y 359.640
G1 X1282.800 Y 344.540
G1 X1297.490 Y 344.540
G1 X1297.490 Y 472.670
G1 X1406.770 Y 508.180
G1 X1474.310 Y 415.220
G1 X1398.990 Y 311.560
G1 X1410.890 Y 302.920
G1 X1492.470 Y 390.330
G1 X1492.470 Y 518.460
G1 X1629.180 Y 640.330
G1 X1685.610 Y 640.330
G1 X1713.820 Y 689.200
G1 X1742.040 Y 640.330
G1 X1798.470 Y 640.330
G1 X1770.250 Y 591.460
G1 X1798.470 Y 542.590
G1 X1742.040 Y 542.590
G1 X1713.820 Y 493.720
F150
G1 Z  -3.000
F400
G1 X1742.040 Y 542.590
G1 X1798.470 Y 542.590
G1 X1770.250 Y 591.460
G1 X1798.470 Y 640.330
G1 X1742.040 Y 640.330
G1 X1713.820 Y 689.200
G1 X1685.610 Y 640.330
G1 X1629.180 Y 640.330
G1 X1492.470 Y 518.460
G1 X1492.470 Y 390.330
G1 X1410.890 Y 302.920
G1 X1398.990 Y 311.560
G1 X1474.310 Y 415.220
G1 X1406.770 Y 508.180
G1 X1297.490 Y 472.670
G1 X1297.490 Y 344.540
G1 X1282.800 Y 344.540
G1 X1279.290 Y 359.640
G1 X1211.750 Y 452.590
G1 X1102.470 Y 417.090
G1 X1102.470 Y 302.190
G1 X1211.750 Y 266.680
G1 X1279.290 Y 359.640
F150
G1 Z   3.000
G0 Z  15.000 
M9 M5

(* SHAPE Nr: 140 *)
G0 X 889.140 Y 251.810
M3 M8
G0 Z   3.000 
G1 Z  -1.500
F400
G1 X 956.680 Y 158.850
G1 X 881.360 Y  55.190
G1 X 893.260 Y  46.550
G1 X 974.850 Y 132.830
G1 X 974.850 Y 260.960
G1 X1084.120 Y 296.460
G1 X1151.660 Y 203.510
G1 X1084.120 Y 110.550
G1 X 974.850 Y 146.060
G1 X 962.270 Y 150.150
G1 X 889.140 Y  65.890
G1 X 779.860 Y 101.400
G1 X 779.860 Y 216.300
G1 X 889.140 Y 251.810
G1 X 901.720 Y 255.890
G1 X 895.240 Y 312.370
G1 X 880.540 Y 312.370
G1 X 880.540 Y 440.500
G1 X 957.830 Y 492.290
G1 X 957.830 Y 620.420
G1 X1067.110 Y 655.920
G1 X1101.660 Y 648.360
G1 X1106.200 Y 662.340
G1 X1093.620 Y 666.430
G1 X 984.340 Y 701.930
G1 X 984.340 Y 816.830
G1 X1093.620 Y 852.340
G1 X1106.200 Y 856.430
G1 X1105.330 Y 864.020
G1 X1092.750 Y 868.110
G1 X 983.470 Y 903.610
G1 X 983.470 Y1018.520
G1 X1092.750 Y1054.020
G1 X1160.290 Y 961.070
G1 X1092.750 Y 868.110
G1 X1085.840 Y 863.040
G1 X1093.620 Y 852.340
G1 X1161.160 Y 759.380
G1 X1093.620 Y 666.430
F150
G1 Z  -3.000
F400
G1 X1161.160 Y 759.380
G1 X1093.620 Y 852.340
G1 X1085.840 Y 863.040
G1 X1092.750 Y 868.110
G1 X1160.290 Y 961.070
G1 X1092.750 Y1054.020
G1 X 983.470 Y1018.520
G1 X 983.470 Y 903.610
G1 X1092.750 Y 868.110
G1 X1105.330 Y 864.020
G1 X1106.200 Y 856.430
G1 X1093.620 Y 852.340
G1 X 984.340 Y 816.830
G1 X 984.340 Y 701.930
G1 X1093.620 Y 666.430
G1 X1106.200 Y 662.340
G1 X1101.660 Y 648.360
G1 X1067.110 Y 655.920
G1 X 957.830 Y 620.420
G1 X 957.830 Y 492.290
G1 X 880.540 Y 440.500
G1 X 880.540 Y 312.370
G1 X 895.240 Y 312.370
G1 X 901.720 Y 255.890
G1 X 889.140 Y 251.810
G1 X 779.860 Y 216.300
G1 X 779.860 Y 101.400
G1 X 889.140 Y  65.890
G1 X 962.270 Y 150.150
G1 X 974.850 Y 146.060
G1 X1084.120 Y 110.550
G1 X1151.660 Y 203.510
G1 X1084.120 Y 296.460
G1 X 974.850 Y 260.960
G1 X 974.850 Y 132.830
G1 X 893.260 Y  46.550
G1 X 881.360 Y  55.190
G1 X 956.680 Y 158.850
G1 X 889.140 Y 251.810
F150
G1 Z   3.000
G0 Z  15.000 
M9 M5

(* SHAPE Nr: 141 *)
G0 X1580.540 Y1196.240
M3 M8
G0 Z   3.000 
G1 Z  -1.500
F400
G1 X1513.010 Y1289.200
G1 X1580.540 Y1382.160
G1 X1689.820 Y1346.650
G1 X1689.820 Y1231.750
G1 X1587.490 Y1198.480
G1 X1592.040 Y1184.500
G1 X1604.620 Y1188.590
G1 X1713.900 Y1224.100
G1 X1781.430 Y1131.140
G1 X1713.900 Y1038.180
G1 X1604.620 Y1073.690
G1 X1604.620 Y1188.590
G1 X1706.940 Y1221.860
G1 X1702.400 Y1235.840
G1 X1689.820 Y1231.750
G1 X1580.540 Y1196.240
G1 X1434.930 Y1185.730
G1 X1325.660 Y1221.230
G1 X1325.660 Y1336.130
G1 X1434.930 Y1371.640
G1 X1502.470 Y1278.680
G1 X1434.930 Y1185.730
G1 X1427.460 Y1183.300
G1 X1427.460 Y1168.600
G1 X1555.590 Y1168.600
G1 X1591.090 Y1059.330
G1 X1498.140 Y 991.790
G1 X1405.180 Y1059.330
G1 X1440.690 Y1168.600
F150
G1 Z  -3.000
F400
G1 X1405.180 Y1059.330
G1 X1498.140 Y 991.790
G1 X1591.090 Y1059.330
G1 X1555.590 Y1168.600
G1 X1427.460 Y1168.600
G1 X1427.460 Y1183.300
G1 X1434.930 Y1185.730
G1 X1502.470 Y1278.680
G1 X1434.930 Y1371.640
G1 X1325.660 Y1336.130
G1 X1325.660 Y1221.230
G1 X1434.930 Y1185.730
G1 X1580.540 Y1196.240
G1 X1689.820 Y1231.750
G1 X1702.400 Y1235.840
G1 X1706.940 Y1221.860
G1 X1604.620 Y1188.590
G1 X1604.620 Y1073.690
G1 X1713.900 Y1038.180
G1 X1781.430 Y1131.140
G1 X1713.900 Y1224.100
G1 X1604.620 Y1188.590
G1 X1592.040 Y1184.500
G1 X1587.490 Y1198.480
G1 X1689.820 Y1231.750
G1 X1689.820 Y1346.650
G1 X1580.540 Y1382.160
G1 X1513.010 Y1289.200
G1 X1580.540 Y1196.240
F150
G1 Z   3.000
G0 Z  15.000 
M9 M5

(* SHAPE Nr: 142 *)
G0 X1655.800 Y1669.610
M3 M8
G0 Z   3.000 
G1 Z  -1.500
F400
G1 X1588.260 Y1576.650
G1 X1466.400 Y1616.250
G1 X1461.860 Y1602.270
G1 X1502.600 Y1529.700
G1 X1515.190 Y1533.790
G1 X1624.460 Y1569.290
G1 X1699.970 Y1465.370
G1 X1722.910 Y1465.370
G1 X1722.910 Y1593.500
G1 X1832.190 Y1629.000
G1 X1899.720 Y1536.050
G1 X1832.190 Y1443.090
G1 X1710.330 Y1482.690
G1 X1705.790 Y1468.700
G1 X1687.440 Y1404.290
G1 X1691.980 Y1390.310
G1 X1704.570 Y1394.400
G1 X1813.840 Y1429.910
G1 X1889.160 Y1326.250
G1 X1941.680 Y1274.110
G1 X2009.210 Y1181.160
G1 X1941.680 Y1088.200
G1 X1819.820 Y1127.800
G1 X1815.280 Y1113.820
G1 X1825.740 Y1098.050
G1 X1853.960 Y1049.180
G1 X1910.390 Y1049.180
G1 X1882.170 Y1000.310
G1 X1910.390 Y 951.440
G1 X1853.960 Y 951.440
G1 X1825.740 Y 902.570
G1 X1797.530 Y 951.440
G1 X1741.100 Y 951.440
G1 X1769.310 Y1000.310
G1 X1741.100 Y1049.180
G1 X1797.530 Y1049.180
G1 X1825.740 Y1098.050
G1 X1832.400 Y1110.480
G1 X1832.400 Y1238.610
G1 X1941.680 Y1274.110
G1 X1983.620 Y1287.740
G1 X1889.160 Y1347.660
G1 X1881.380 Y1336.950
G1 X1813.840 Y1244.000
G1 X1704.570 Y1279.500
G1 X1704.570 Y1394.400
G1 X1711.670 Y1478.400
G1 X1699.780 Y1487.040
G1 X1692.000 Y1476.340
G1 X1624.460 Y1383.380
G1 X1515.190 Y1418.890
G1 X1515.190 Y1547.020
G1 X1493.690 Y1598.930
G1 X1478.990 Y1598.930
G1 X1478.990 Y1727.060
G1 X1588.260 Y1762.560
G1 X1655.800 Y1669.610
G1 X1659.280 Y1654.500
G1 X1673.980 Y1654.500
G1 X1673.980 Y1782.630
G1 X1783.260 Y1818.140
G1 X1850.790 Y1725.180
G1 X1783.260 Y1632.220
G1 X1673.980 Y1667.730
F150
G1 Z  -3.000
F400
G1 X1783.260 Y1632.220
G1 X1850.790 Y1725.180
G1 X1783.260 Y1818.140
G1 X1673.980 Y1782.630
G1 X1673.980 Y1654.500
G1 X1659.280 Y1654.500
G1 X1655.800 Y1669.610
G1 X1588.260 Y1762.560
G1 X1478.990 Y1727.060
G1 X1478.990 Y1598.930
G1 X1493.690 Y1598.930
G1 X1515.190 Y1547.020
G1 X1515.190 Y1418.890
G1 X1624.460 Y1383.380
G1 X1692.000 Y1476.340
G1 X1699.780 Y1487.040
G1 X1711.670 Y1478.400
G1 X1704.570 Y1394.400
G1 X1704.570 Y1279.500
G1 X1813.840 Y1244.000
G1 X1881.380 Y1336.950
G1 X1889.160 Y1347.660
G1 X1983.620 Y1287.740
G1 X1941.680 Y1274.110
G1 X1832.400 Y1238.610
G1 X1832.400 Y1110.480
G1 X1825.740 Y1098.050
G1 X1797.530 Y1049.180
G1 X1741.100 Y1049.180
G1 X1769.310 Y1000.310
G1 X1741.100 Y 951.440
G1 X1797.530 Y 951.440
G1 X1825.740 Y 902.570
G1 X1853.960 Y 951.440
G1 X1910.390 Y 951.440
G1 X1882.170 Y1000.310
G1 X1910.390 Y1049.180
G1 X1853.960 Y1049.180
G1 X1825.740 Y1098.050
G1 X1815.280 Y1113.820
G1 X1819.820 Y1127.800
G1 X1941.680 Y1088.200
G1 X2009.210 Y1181.160
G1 X1941.680 Y1274.110
G1 X1889.160 Y1326.250
G1 X1813.840 Y1429.910
G1 X1704.570 Y1394.400
G1 X1691.980 Y1390.310
G1 X1687.440 Y1404.290
G1 X1705.790 Y1468.700
G1 X1710.330 Y1482.690
G1 X1832.190 Y1443.090
G1 X1899.720 Y1536.050
G1 X1832.190 Y1629.000
G1 X1722.910 Y1593.500
G1 X1722.910 Y1465.370
G1 X1699.970 Y1465.370
G1 X1624.460 Y1569.290
G1 X1515.190 Y1533.790
G1 X1502.600 Y1529.700
G1 X1461.860 Y1602.270
G1 X1466.400 Y1616.250
G1 X1588.260 Y1576.650
G1 X1655.800 Y1669.610
F150
G1 Z   3.000
G0 Z  15.000 
M9 M5

(* SHAPE Nr: 143 *)
G0 X1836.300 Y1889.590
M3 M8
G0 Z   3.000 
G1 Z  -1.500
F400
G1 X1727.030 Y1854.090
G1 X1659.490 Y1947.040
G1 X1651.710 Y1957.750
G1 X1639.820 Y1949.110
G1 X1705.630 Y1858.460
G1 X1638.090 Y1765.510
G1 X1528.810 Y1801.010
G1 X1426.830 Y1863.190
G1 X1333.880 Y1930.720
G1 X1369.390 Y2040.000
G1 X1484.290 Y2040.000
G1 X1519.790 Y1930.720
G1 X1426.830 Y1863.190
G1 X1416.130 Y1855.410
G1 X1460.820 Y1690.770
G1 X1393.280 Y1597.820
G1 X1284.000 Y1633.320
G1 X1284.000 Y1640.670
G1 X1282.530 Y1685.230
G1 X 497.770 Y1685.230
G2 X  10.000 Y1887.280 I -26.193 J 626.557
G1 X  54.340 Y1931.620
G3 X 497.770 Y1747.940 I 443.437 J 443.428
G1 X1269.300 Y1747.940
G1 X1269.300 Y1468.520
G1 X 497.770 Y1468.520
G2 X  10.000 Y1670.560 I -26.204 J 626.552
G1 X  54.340 Y1714.900
G3 X 497.770 Y1531.230 I 443.424 J 443.431
G1 X1269.300 Y1531.230
G1 X1269.300 Y1468.520
F150
G1 Z  -3.000
F400
G1 X1269.300 Y1531.230
G1 X 497.770 Y1531.230
G2 X  54.340 Y1714.900 I  -0.006 J 627.101
G1 X  10.000 Y1670.560
G3 X 497.770 Y1468.520 I 461.566 J 424.512
G1 X1269.300 Y1468.520
G1 X1269.300 Y1747.940
G1 X 497.770 Y1747.940
G2 X  54.340 Y1931.620 I   0.007 J 627.108
G1 X  10.000 Y1887.280
G3 X 497.770 Y1685.230 I 461.577 J 424.507
G1 X1282.530 Y1685.230
G1 X1284.000 Y1640.670
G1 X1284.000 Y1633.320
G1 X1393.280 Y1597.820
G1 X1460.820 Y1690.770
G1 X1416.130 Y1855.410
G1 X1426.830 Y1863.190
G1 X1519.790 Y1930.720
G1 X1484.290 Y2040.000
G1 X1369.390 Y2040.000
G1 X1333.880 Y1930.720
G1 X1426.830 Y1863.190
G1 X1528.810 Y1801.010
G1 X1638.090 Y1765.510
G1 X1705.630 Y1858.460
G1 X1639.820 Y1949.110
G1 X1651.710 Y1957.750
G1 X1659.490 Y1947.040
G1 X1727.030 Y1854.090
G1 X1836.300 Y1889.590
F150
G1 Z   3.000
G0 Z  15.000 
M9 M5

(* SHAPE Nr: 144 *)
G0 X 497.770 Y1360.160
M3 M8
G0 Z   3.000 
G1 Z  -1.500
F400
G2 X  10.000 Y1562.200 I -26.204 J 626.552
G1 X  54.340 Y1606.540
G3 X 497.770 Y1422.870 I 443.424 J 443.431
G1 X1269.300 Y1422.870
G1 X1269.300 Y1316.060
G1 X1331.210 Y1343.810
G1 X1331.210 Y1428.060
G1 X1263.670 Y1450.000
G1 X1331.210 Y1471.940
G1 X1331.210 Y1542.960
G1 X1372.950 Y1485.510
G1 X1440.490 Y1507.450
G1 X1398.750 Y1450.000
G1 X1440.490 Y1392.550
G1 X1372.950 Y1414.490
G1 X1331.210 Y1357.040
G1 X1269.300 Y1360.160
G1 X 497.770 Y1360.160
F150
G1 Z  -3.000
F400
G2 X  10.000 Y1562.200 I -26.204 J 626.552
G1 X  54.340 Y1606.540
G3 X 497.770 Y1422.870 I 443.424 J 443.431
G1 X1269.300 Y1422.870
G1 X1269.300 Y1316.060
G1 X1331.210 Y1343.810
G1 X1331.210 Y1428.060
G1 X1263.670 Y1450.000
G1 X1331.210 Y1471.940
G1 X1331.210 Y1542.960
G1 X1372.950 Y1485.510
G1 X1440.490 Y1507.450
G1 X1398.750 Y1450.000
G1 X1440.490 Y1392.550
G1 X1372.950 Y1414.490
G1 X1331.210 Y1357.040
G1 X1269.300 Y1360.160
G1 X 497.770 Y1360.160
F150
G1 Z   3.000
G0 Z  15.000 
M9 M5

(* SHAPE Nr: 145 *)
G0 X 497.770 Y1793.620
M3 M8
G0 Z   3.000 
G1 Z  -1.500
F400
G2 X  10.000 Y1995.660 I -26.204 J 626.552
G1 X  54.340 Y2040.000
G3 X 497.770 Y1856.330 I 443.424 J 443.431
G1 X1269.300 Y1856.330
G1 X1269.300 Y1793.620
G1 X 497.770 Y1793.620
F150
G1 Z  -3.000
F400
G2 X  10.000 Y1995.660 I -26.204 J 626.552
G1 X  54.340 Y2040.000
G3 X 497.770 Y1856.330 I 443.424 J 443.431
G1 X1269.300 Y1856.330
G1 X1269.300 Y1793.620
G1 X 497.770 Y1793.620
F150
G1 Z   3.000
G0 Z  15.000 
M9 M5

(* SHAPE Nr: 146 *)
G0 X 156.260 Y1976.740
M3 M8
G0 Z   3.000 
G1 Z  -1.500
F400
G1 X 156.260 Y2039.450
G1 X 927.790 Y2039.450
G2 X1415.560 Y1837.410 I  26.204 J-626.552
G1 X1371.210 Y1793.070
G3 X 927.790 Y1976.740 I-443.420 J-443.421
G1 X 156.260 Y1976.740
F150
G1 Z  -3.000
F400
G1 X 156.260 Y2039.450
G1 X 927.790 Y2039.450
G2 X1415.560 Y1837.410 I  26.204 J-626.552
G1 X1371.210 Y1793.070
G3 X 927.790 Y1976.740 I-443.420 J-443.421
G1 X 156.260 Y1976.740
F150
G1 Z   3.000
G0 Z  15.000 
M9 M5

(* SHAPE Nr: 147 *)
G0 X 186.810 Y 878.030
M3 M8
G0 Z   3.000 
G1 Z  -1.500
F400
G1 X 119.280 Y 785.070
G1 X  10.000 Y 820.580
G1 X  10.000 Y 935.480
G1 X   5.910 Y1038.850
G1 X  10.000 Y1051.430
G1 X  45.510 Y1160.710
G1 X 160.400 Y1160.710
G1 X 195.910 Y1051.430
G1 X 102.960 Y 983.890
G1 X  10.000 Y1051.430
F150
G1 Z  -3.000
F400
G1 X 102.960 Y 983.890
G1 X 195.910 Y1051.430
G1 X 160.400 Y1160.710
G1 X  45.510 Y1160.710
G1 X  10.000 Y1051.430
G1 X   5.910 Y1038.850
G1 X  10.000 Y 935.480
G1 X  10.000 Y 820.580
G1 X 119.280 Y 785.070
G1 X 186.810 Y 878.030
F150
G1 Z   3.000
G0 Z  15.000 
M9 M5

(* SHAPE Nr: 148 *)
G0 X  10.000 Y 935.480
M3 M8
G0 Z   3.000 
G1 Z  -1.500
F400
G1 X 119.280 Y 970.990
G1 X 186.810 Y 878.030
G1 X 186.810 Y 632.720
G1 X  77.540 Y 597.210
G1 X  10.000 Y 690.170
F150
G1 Z  -3.000
F400
G1 X  77.540 Y 597.210
G1 X 186.810 Y 632.720
G1 X 186.810 Y 878.030
G1 X 119.280 Y 970.990
G1 X  10.000 Y 935.480
F150
G1 Z   3.000
G0 Z  15.000 
M9 M5

(* SHAPE Nr: 149 *)
G0 X  10.000 Y 559.750
M3 M8
G0 Z   3.000 
G1 Z  -1.500
F400
G1 X 119.280 Y 595.260
G1 X 186.810 Y 502.300
G1 X 186.810 Y 256.990
G1 X  77.540 Y 221.490
G1 X  10.000 Y 314.450
G1 X  77.540 Y 407.400
G1 X 186.810 Y 371.890
F150
G1 Z  -3.000
F400
G1 X  77.540 Y 407.400
G1 X  10.000 Y 314.450
G1 X  77.540 Y 221.490
G1 X 186.810 Y 256.990
G1 X 186.810 Y 502.300
G1 X 119.280 Y 595.260
G1 X  10.000 Y 559.750
F150
G1 Z   3.000
G0 Z  15.000 
M9 M5

(* SHAPE Nr: 150 *)
G0 X 475.100 Y 247.060
M3 M8
G0 Z   3.000 
G1 Z  -1.500
F400
G1 X 475.100 Y 361.960
G1 X 584.370 Y 397.470
G1 X 651.910 Y 304.510
G1 X 584.370 Y 211.550
G1 X 475.100 Y 247.060
F150
G1 Z  -3.000
F400
G1 X 475.100 Y 361.960
G1 X 584.370 Y 397.470
G1 X 651.910 Y 304.510
G1 X 584.370 Y 211.550
G1 X 475.100 Y 247.060
F150
G1 Z   3.000
G0 Z  15.000 
M9 M5

(* SHAPE Nr: 151 *)
G0 X1847.090 Y  68.030
M3 M8
G0 Z   3.000 
G1 Z  -1.500
F400
G1 X1798.220 Y  96.250
G1 X1749.350 Y  68.030
G1 X1749.350 Y 124.460
G1 X1700.480 Y 152.680
G1 X1749.350 Y 180.890
G1 X1749.350 Y 237.320
G1 X1798.220 Y 209.110
G1 X1847.090 Y 237.320
G1 X1847.090 Y 180.890
G1 X1895.960 Y 152.680
G1 X1847.090 Y 124.460
G1 X1847.090 Y  68.030
G1 X1698.360 Y  52.740
G1 X1685.780 Y  48.650
G1 X1576.500 Y  13.140
G1 X1508.970 Y 106.100
G1 X1576.500 Y 199.050
G1 X1698.360 Y 159.460
G1 X1702.910 Y 173.440
G1 X1622.120 Y 261.880
G1 X1610.230 Y 270.520
G1 X1602.450 Y 259.810
G1 X1534.920 Y 166.860
G1 X1413.060 Y 206.450
G1 X1373.470 Y 213.980
G1 X1368.930 Y 200.000
G1 X1381.510 Y 195.910
G1 X1490.790 Y 160.410
G1 X1490.790 Y  45.510
G1 X1381.510 Y  10.000
G1 X1313.970 Y 102.960
G1 X1369.690 Y 179.660
G1 X1357.800 Y 188.300
G1 X1350.020 Y 177.600
G1 X1282.480 Y  84.640
G1 X1173.210 Y 120.150
G1 X1173.210 Y 235.050
G1 X1282.480 Y 270.550
G1 X1350.020 Y 177.600
G1 X1294.300 Y 100.890
G1 X1306.200 Y  92.250
G1 X1313.970 Y 102.960
G1 X1381.510 Y 195.910
G1 X1410.940 Y 189.130
G1 X1425.640 Y 189.130
G1 X1425.640 Y 317.260
G1 X1534.920 Y 352.770
G1 X1602.450 Y 259.810
G1 X1662.780 Y 176.780
G1 X1685.780 Y 176.780
G1 X1685.780 Y  48.650
F150
G1 Z  -3.000
F400
G1 X1685.780 Y 176.780
G1 X1662.780 Y 176.780
G1 X1602.450 Y 259.810
G1 X1534.920 Y 352.770
G1 X1425.640 Y 317.260
G1 X1425.640 Y 189.130
G1 X1410.940 Y 189.130
G1 X1381.510 Y 195.910
G1 X1313.970 Y 102.960
G1 X1306.200 Y  92.250
G1 X1294.300 Y 100.890
G1 X1350.020 Y 177.600
G1 X1282.480 Y 270.550
G1 X1173.210 Y 235.050
G1 X1173.210 Y 120.150
G1 X1282.480 Y  84.640
G1 X1350.020 Y 177.600
G1 X1357.800 Y 188.300
G1 X1369.690 Y 179.660
G1 X1313.970 Y 102.960
G1 X1381.510 Y  10.000
G1 X1490.790 Y  45.510
G1 X1490.790 Y 160.410
G1 X1381.510 Y 195.910
G1 X1368.930 Y 200.000
G1 X1373.470 Y 213.980
G1 X1413.060 Y 206.450
G1 X1534.920 Y 166.860
G1 X1602.450 Y 259.810
G1 X1610.230 Y 270.520
G1 X1622.120 Y 261.880
G1 X1702.910 Y 173.440
G1 X1698.360 Y 159.460
G1 X1576.500 Y 199.050
G1 X1508.970 Y 106.100
G1 X1576.500 Y  13.140
G1 X1685.780 Y  48.650
G1 X1698.360 Y  52.740
G1 X1847.090 Y  68.030
G1 X1847.090 Y 124.460
G1 X1895.960 Y 152.680
G1 X1847.090 Y 180.890
G1 X1847.090 Y 237.320
G1 X1798.220 Y 209.110
G1 X1749.350 Y 237.320
G1 X1749.350 Y 180.890
G1 X1700.480 Y 152.680
G1 X1749.350 Y 124.460
G1 X1749.350 Y  68.030
G1 X1798.220 Y  96.250
G1 X1847.090 Y  68.030
F150
G1 Z   3.000
G0 Z  15.000 
M9 M5

(* SHAPE Nr: 152 *)
G0 X1976.390 Y 399.160
M3 M8
G0 Z   3.000 
G1 Z  -1.500
F400
G1 X2025.260 Y 427.380
G1 X2025.260 Y 483.800
G1 X2074.130 Y 455.590
G1 X2123.000 Y 483.800
G1 X2123.000 Y 427.380
G1 X2171.870 Y 399.160
G1 X2123.000 Y 370.950
G1 X2123.000 Y 314.520
G1 X2074.130 Y 342.730
G1 X2025.260 Y 314.520
G1 X2025.260 Y 370.950
G1 X1976.390 Y 399.160
F150
G1 Z  -3.000
F400
G1 X2025.260 Y 427.380
G1 X2025.260 Y 483.800
G1 X2074.130 Y 455.590
G1 X2123.000 Y 483.800
G1 X2123.000 Y 427.380
G1 X2171.870 Y 399.160
G1 X2123.000 Y 370.950
G1 X2123.000 Y 314.520
G1 X2074.130 Y 342.730
G1 X2025.260 Y 314.520
G1 X2025.260 Y 370.950
G1 X1976.390 Y 399.160
F150
G1 Z   3.000
G0 Z  15.000 
M9 M5

(* SHAPE Nr: 153 *)
G0 X2043.140 Y 702.180
M3 M8
G0 Z   3.000 
G1 Z  -1.500
F400
G1 X2071.360 Y 751.050
G1 X2043.140 Y 799.920
G1 X2099.570 Y 799.920
G1 X2127.790 Y 848.790
G1 X2156.000 Y 799.920
G1 X2212.430 Y 799.920
G1 X2184.220 Y 751.050
G1 X2212.430 Y 702.180
G1 X2156.000 Y 702.180
G1 X2127.790 Y 653.310
G1 X2099.570 Y 702.180
G1 X2043.140 Y 702.180
F150
G1 Z  -3.000
F400
G1 X2071.360 Y 751.050
G1 X2043.140 Y 799.920
G1 X2099.570 Y 799.920
G1 X2127.790 Y 848.790
G1 X2156.000 Y 799.920
G1 X2212.430 Y 799.920
G1 X2184.220 Y 751.050
G1 X2212.430 Y 702.180
G1 X2156.000 Y 702.180
G1 X2127.790 Y 653.310
G1 X2099.570 Y 702.180
G1 X2043.140 Y 702.180
F150
G1 Z   3.000
G0 Z  15.000 
M9 M5

(* SHAPE Nr: 154 *)
G0 X2218.260 Y 682.820
M3 M8
G0 Z   3.000 
G1 Z  -1.500
F400
G1 X2246.480 Y 731.690
G1 X2218.260 Y 780.560
G1 X2274.690 Y 780.560
G1 X2302.910 Y 829.430
G1 X2331.120 Y 780.560
G1 X2387.550 Y 780.560
G1 X2359.340 Y 731.690
G1 X2387.550 Y 682.820
G1 X2331.120 Y 682.820
G1 X2302.910 Y 633.950
G1 X2274.690 Y 682.820
G1 X2218.260 Y 682.820
F150
G1 Z  -3.000
F400
G1 X2246.480 Y 731.690
G1 X2218.260 Y 780.560
G1 X2274.690 Y 780.560
G1 X2302.910 Y 829.430
G1 X2331.120 Y 780.560
G1 X2387.550 Y 780.560
G1 X2359.340 Y 731.690
G1 X2387.550 Y 682.820
G1 X2331.120 Y 682.820
G1 X2302.910 Y 633.950
G1 X2274.690 Y 682.820
G1 X2218.260 Y 682.820
F150
G1 Z   3.000
G0 Z  15.000 
M9 M5

(* SHAPE Nr: 155 *)
G0 X2622.090 Y 675.250
M3 M8
G0 Z   3.000 
G1 Z  -1.500
F400
G1 X2593.870 Y 626.380
G1 X2622.090 Y 577.510
G1 X2565.660 Y 577.510
G1 X2537.440 Y 528.640
G1 X2509.230 Y 577.510
G1 X2452.800 Y 577.510
G1 X2481.010 Y 626.380
G1 X2452.800 Y 675.250
G1 X2509.230 Y 675.250
G1 X2537.440 Y 724.120
G1 X2565.660 Y 675.250
G1 X2746.320 Y 675.250
G1 X2746.320 Y 447.130
G1 X2676.660 Y 447.130
G1 X2648.440 Y 398.260
G1 X2620.230 Y 447.130
G1 X2563.800 Y 447.130
G1 X2592.010 Y 496.000
G1 X2563.800 Y 544.870
G1 X2620.230 Y 544.870
G1 X2648.440 Y 593.740
G1 X2655.060 Y 605.200
G1 X2593.450 Y 901.300
G1 X2492.920 Y 901.300
G1 X2464.710 Y 852.430
G1 X2436.490 Y 901.300
G1 X2380.060 Y 901.300
G1 X2390.590 Y 928.820
G1 X2379.890 Y 936.590
G1 X2322.440 Y 978.330
G1 X2264.990 Y 936.590
G1 X2254.280 Y 928.820
G1 X2266.360 Y 895.390
G1 X2209.930 Y 895.390
G1 X2181.710 Y 846.520
G1 X2153.500 Y 895.390
G1 X2097.070 Y 895.390
G1 X2075.650 Y 962.530
G1 X2069.030 Y 973.980
G1 X2040.820 Y1022.850
G1 X1984.390 Y1022.850
G1 X2012.600 Y1071.720
G1 X1984.390 Y1120.590
G1 X2040.820 Y1120.590
G1 X2069.030 Y1169.460
G1 X2094.840 Y1214.840
G1 X2088.220 Y1226.300
G1 X2060.010 Y1275.170
G1 X2003.580 Y1275.170
G1 X1967.140 Y1339.260
G1 X1938.930 Y1388.130
G1 X1882.500 Y1388.130
G1 X1910.710 Y1437.000
G1 X1882.500 Y1485.870
G1 X1938.930 Y1485.870
G1 X1967.140 Y1534.740
G1 X1995.360 Y1485.870
G1 X2065.020 Y1485.870
G1 X2092.080 Y1592.480
G1 X2092.080 Y1607.180
G1 X2022.430 Y1607.180
G1 X1994.210 Y1558.310
G1 X1965.990 Y1607.180
G1 X1909.560 Y1607.180
G1 X1937.780 Y1656.050
G1 X1909.560 Y1704.920
G1 X1965.990 Y1704.920
G1 X1994.210 Y1753.790
G1 X2022.430 Y1704.920
G1 X2078.850 Y1704.920
F150
G1 Z  -3.000
F400
G1 X2022.430 Y1704.920
G1 X1994.210 Y1753.790
G1 X1965.990 Y1704.920
G1 X1909.560 Y1704.920
G1 X1937.780 Y1656.050
G1 X1909.560 Y1607.180
G1 X1965.990 Y1607.180
G1 X1994.210 Y1558.310
G1 X2022.430 Y1607.180
G1 X2092.080 Y1607.180
G1 X2092.080 Y1592.480
G1 X2065.020 Y1485.870
G1 X1995.360 Y1485.870
G1 X1967.140 Y1534.740
G1 X1938.930 Y1485.870
G1 X1882.500 Y1485.870
G1 X1910.710 Y1437.000
G1 X1882.500 Y1388.130
G1 X1938.930 Y1388.130
G1 X1967.140 Y1339.260
G1 X2003.580 Y1275.170
G1 X2060.010 Y1275.170
G1 X2088.220 Y1226.300
G1 X2094.840 Y1214.840
G1 X2069.030 Y1169.460
G1 X2040.820 Y1120.590
G1 X1984.390 Y1120.590
G1 X2012.600 Y1071.720
G1 X1984.390 Y1022.850
G1 X2040.820 Y1022.850
G1 X2069.030 Y 973.980
G1 X2075.650 Y 962.530
G1 X2097.070 Y 895.390
G1 X2153.500 Y 895.390
G1 X2181.710 Y 846.520
G1 X2209.930 Y 895.390
G1 X2266.360 Y 895.390
G1 X2254.280 Y 928.820
G1 X2264.990 Y 936.590
G1 X2322.440 Y 978.330
G1 X2379.890 Y 936.590
G1 X2390.590 Y 928.820
G1 X2380.060 Y 901.300
G1 X2436.490 Y 901.300
G1 X2464.710 Y 852.430
G1 X2492.920 Y 901.300
G1 X2593.450 Y 901.300
G1 X2655.060 Y 605.200
G1 X2648.440 Y 593.740
G1 X2620.230 Y 544.870
G1 X2563.800 Y 544.870
G1 X2592.010 Y 496.000
G1 X2563.800 Y 447.130
G1 X2620.230 Y 447.130
G1 X2648.440 Y 398.260
G1 X2676.660 Y 447.130
G1 X2746.320 Y 447.130
G1 X2746.320 Y 675.250
G1 X2565.660 Y 675.250
G1 X2537.440 Y 724.120
G1 X2509.230 Y 675.250
G1 X2452.800 Y 675.250
G1 X2481.010 Y 626.380
G1 X2452.800 Y 577.510
G1 X2509.230 Y 577.510
G1 X2537.440 Y 528.640
G1 X2565.660 Y 577.510
G1 X2622.090 Y 577.510
G1 X2593.870 Y 626.380
G1 X2622.090 Y 675.250
F150
G1 Z   3.000
G0 Z  15.000 
M9 M5

(* SHAPE Nr: 156 *)
G0 X2198.860 Y1711.130
M3 M8
G0 Z   3.000 
G1 Z  -1.500
F400
G1 X2170.650 Y1760.000
G1 X2114.220 Y1760.000
G1 X2142.430 Y1808.870
G1 X2114.220 Y1857.740
G1 X2170.650 Y1857.740
G1 X2198.860 Y1906.610
F150
G1 Z  -3.000
F400
G1 X2170.650 Y1857.740
G1 X2114.220 Y1857.740
G1 X2142.430 Y1808.870
G1 X2114.220 Y1760.000
G1 X2170.650 Y1760.000
G1 X2198.860 Y1711.130
F150
G1 Z   3.000
G0 Z  15.000 
M9 M5

(* SHAPE Nr: 157 *)
G0 X2494.450 Y1844.520
M3 M8
G0 Z   3.000 
G1 Z  -1.500
F400
G1 X2466.240 Y1893.390
G1 X2409.810 Y1893.390
G1 X2438.020 Y1942.260
