(Generated with: DXF2GCODE, Version: REMOVED, Date: $Date$)
(Created from file: )
(Output format description: G-CODE for LinuxCNC)
(Time: Thu Sep 13 16:00:52 2018)
G21 (Units in millimeters)
G90 (Absolute programming)
G64 (Default cutting) G17 (XY plane) G40 (Cancel radius comp.) G49 (Cancel length comp.)
G0 Z  15.000 

(*** LAYER: FRAME_Z18 ***)
T1 M6
S6000

(* SHAPE Nr: 92 *)
G0 X   0.000 Y   0.000
M3 M8
G0 Z   3.000 
F150
G1 Z  -1.500
F400
G1 X   0.000 Y2050.000
G1 X2800.000 Y2050.000
G1 X2800.000 Y   0.000
G1 X   0.000 Y   0.000
F150
G1 Z  -3.000
F400
G1 X   0.000 Y2050.000
G1 X2800.000 Y2050.000
G1 X2800.000 Y   0.000
G1 X   0.000 Y   0.000
F150
G1 Z   3.000
G0 Z  15.000 
M9 M5

(*** LAYER: BORDER_D0_T132_RK1_A0_W0_EM1_RI1_ID0003 ***)

(* SHAPE Nr: 0 *)
G0 X  45.510 Y  64.280
M3 M8
G0 Z   3.000 
G1 Z  -1.500
F400
G1 X  10.000 Y 113.150
G1 X  10.000 Y 173.550
G1 X  45.510 Y 222.420
G1 X 102.960 Y 241.090
G1 X 160.420 Y 222.420
G1 X 195.920 Y 173.550
G1 X 195.920 Y 113.150
G1 X 160.420 Y  64.280
G1 X 102.960 Y  45.610
G1 X  45.510 Y  64.280
F150
G1 Z  -3.000
F400
G1 X  10.000 Y 113.150
G1 X  10.000 Y 173.550
G1 X  45.510 Y 222.420
G1 X 102.960 Y 241.090
G1 X 160.420 Y 222.420
G1 X 195.920 Y 173.550
G1 X 195.920 Y 113.150
G1 X 160.420 Y  64.280
G1 X 102.960 Y  45.610
G1 X  45.510 Y  64.280
F150
G1 Z   3.000
G0 Z  15.000 
M9 M5

(* SHAPE Nr: 1 *)
G0 X 697.630 Y 150.010
M3 M8
G0 Z   3.000 
G1 Z  -1.500
F400
G1 X 716.300 Y 207.460
G1 X 765.170 Y 242.960
G1 X 825.570 Y 242.960
G1 X 874.440 Y 207.460
G1 X 893.110 Y 150.010
G1 X 874.440 Y  92.560
G1 X 825.570 Y  57.050
G1 X 765.170 Y  57.050
G1 X 716.300 Y  92.560
G1 X 697.630 Y 150.010
F150
G1 Z  -3.000
F400
G1 X 716.300 Y 207.460
G1 X 765.170 Y 242.960
G1 X 825.570 Y 242.960
G1 X 874.440 Y 207.460
G1 X 893.110 Y 150.010
G1 X 874.440 Y  92.560
G1 X 825.570 Y  57.050
G1 X 765.170 Y  57.050
G1 X 716.300 Y  92.560
G1 X 697.630 Y 150.010
F150
G1 Z   3.000
G0 Z  15.000 
M9 M5

(* SHAPE Nr: 7 *)
G0 X1625.640 Y1863.180
M3 M8
G0 Z   3.000 
G1 Z  -1.500
F400
G1 X1590.130 Y1912.050
G1 X1590.130 Y1972.450
G1 X1625.640 Y2021.320
G1 X1683.090 Y2039.990
G1 X1740.550 Y2021.320
G1 X1776.050 Y1972.450
G1 X1776.050 Y1912.050
G1 X1740.550 Y1863.180
G1 X1683.090 Y1844.510
G1 X1625.640 Y1863.180
F150
G1 Z  -3.000
F400
G1 X1590.130 Y1912.050
G1 X1590.130 Y1972.450
G1 X1625.640 Y2021.320
G1 X1683.090 Y2039.990
G1 X1740.550 Y2021.320
G1 X1776.050 Y1972.450
G1 X1776.050 Y1912.050
G1 X1740.550 Y1863.180
G1 X1683.090 Y1844.510
G1 X1625.640 Y1863.180
F150
G1 Z   3.000
G0 Z  15.000 
M9 M5

(* SHAPE Nr: 8 *)
G0 X1826.290 Y1863.180
M3 M8
G0 Z   3.000 
G1 Z  -1.500
F400
G1 X1790.780 Y1912.050
G1 X1790.780 Y1972.450
G1 X1826.290 Y2021.320
G1 X1883.740 Y2039.990
G1 X1941.200 Y2021.320
G1 X1976.700 Y1972.450
G1 X1976.700 Y1912.050
G1 X1941.200 Y1863.180
G1 X1883.740 Y1844.510
G1 X1826.290 Y1863.180
F150
G1 Z  -3.000
F400
G1 X1790.780 Y1912.050
G1 X1790.780 Y1972.450
G1 X1826.290 Y2021.320
G1 X1883.740 Y2039.990
G1 X1941.200 Y2021.320
G1 X1976.700 Y1972.450
G1 X1976.700 Y1912.050
G1 X1941.200 Y1863.180
G1 X1883.740 Y1844.510
G1 X1826.290 Y1863.180
F150
G1 Z   3.000
G0 Z  15.000 
M9 M5

(* SHAPE Nr: 9 *)
G0 X2026.890 Y1863.180
M3 M8
G0 Z   3.000 
G1 Z  -1.500
F400
G1 X1991.380 Y1912.050
G1 X1991.380 Y1972.450
G1 X2026.890 Y2021.320
G1 X2084.340 Y2039.990
G1 X2141.800 Y2021.320
G1 X2177.300 Y1972.450
G1 X2177.300 Y1912.050
G1 X2141.800 Y1863.180
G1 X2084.340 Y1844.510
G1 X2026.890 Y1863.180
F150
G1 Z  -3.000
F400
G1 X1991.380 Y1912.050
G1 X1991.380 Y1972.450
G1 X2026.890 Y2021.320
G1 X2084.340 Y2039.990
G1 X2141.800 Y2021.320
G1 X2177.300 Y1972.450
G1 X2177.300 Y1912.050
G1 X2141.800 Y1863.180
G1 X2084.340 Y1844.510
G1 X2026.890 Y1863.180
F150
G1 Z   3.000
G0 Z  15.000 
M9 M5

(* SHAPE Nr: 10 *)
G0 X2227.510 Y1863.180
M3 M8
G0 Z   3.000 
G1 Z  -1.500
F400
G1 X2192.000 Y1912.050
G1 X2192.000 Y1972.450
G1 X2227.510 Y2021.320
G1 X2284.960 Y2039.990
G1 X2342.420 Y2021.320
G1 X2377.920 Y1972.450
G1 X2377.920 Y1912.050
G1 X2342.420 Y1863.180
G1 X2284.960 Y1844.510
G1 X2227.510 Y1863.180
F150
G1 Z  -3.000
F400
G1 X2192.000 Y1912.050
G1 X2192.000 Y1972.450
G1 X2227.510 Y2021.320
G1 X2284.960 Y2039.990
G1 X2342.420 Y2021.320
G1 X2377.920 Y1972.450
G1 X2377.920 Y1912.050
G1 X2342.420 Y1863.180
G1 X2284.960 Y1844.510
G1 X2227.510 Y1863.180
F150
G1 Z   3.000
G0 Z  15.000 
M9 M5

(* SHAPE Nr: 11 *)
G0 X2428.110 Y1863.180
M3 M8
G0 Z   3.000 
G1 Z  -1.500
F400
G1 X2392.600 Y1912.050
G1 X2392.600 Y1972.450
G1 X2428.110 Y2021.320
G1 X2485.560 Y2039.990
G1 X2543.020 Y2021.320
G1 X2578.520 Y1972.450
G1 X2578.520 Y1912.050
G1 X2543.020 Y1863.180
G1 X2485.560 Y1844.510
G1 X2428.110 Y1863.180
F150
G1 Z  -3.000
F400
G1 X2392.600 Y1912.050
G1 X2392.600 Y1972.450
G1 X2428.110 Y2021.320
G1 X2485.560 Y2039.990
G1 X2543.020 Y2021.320
G1 X2578.520 Y1972.450
G1 X2578.520 Y1912.050
G1 X2543.020 Y1863.180
G1 X2485.560 Y1844.510
G1 X2428.110 Y1863.180
F150
G1 Z   3.000
G0 Z  15.000 
M9 M5

(* SHAPE Nr: 12 *)
G0 X2322.090 Y1695.390
M3 M8
G0 Z   3.000 
G1 Z  -1.500
F400
G1 X2303.420 Y1752.840
G1 X2322.090 Y1810.290
G1 X2370.960 Y1845.790
G1 X2431.360 Y1845.790
G1 X2480.230 Y1810.290
G1 X2498.900 Y1752.840
G1 X2480.230 Y1695.390
G1 X2431.360 Y1659.880
G1 X2370.960 Y1659.880
G1 X2322.090 Y1695.390
F150
G1 Z  -3.000
F400
G1 X2303.420 Y1752.840
G1 X2322.090 Y1810.290
G1 X2370.960 Y1845.790
G1 X2431.360 Y1845.790
G1 X2480.230 Y1810.290
G1 X2498.900 Y1752.840
G1 X2480.230 Y1695.390
G1 X2431.360 Y1659.880
G1 X2370.960 Y1659.880
G1 X2322.090 Y1695.390
F150
G1 Z   3.000
G0 Z  15.000 
M9 M5

(* SHAPE Nr: 13 *)
G0 X2441.520 Y1564.640
M3 M8
G0 Z   3.000 
G1 Z  -1.500
F400
G1 X2441.520 Y1625.040
G1 X2477.030 Y1673.910
G1 X2534.480 Y1692.580
G1 X2591.940 Y1673.910
G1 X2627.440 Y1625.040
G1 X2627.440 Y1564.640
G1 X2591.940 Y1515.770
G1 X2534.480 Y1497.100
G1 X2477.030 Y1515.770
G1 X2441.520 Y1564.640
F150
G1 Z  -3.000
F400
G1 X2441.520 Y1625.040
G1 X2477.030 Y1673.910
G1 X2534.480 Y1692.580
G1 X2591.940 Y1673.910
G1 X2627.440 Y1625.040
G1 X2627.440 Y1564.640
G1 X2591.940 Y1515.770
G1 X2534.480 Y1497.100
G1 X2477.030 Y1515.770
G1 X2441.520 Y1564.640
F150
G1 Z   3.000
G0 Z  15.000 
M9 M5

(* SHAPE Nr: 14 *)
G0 X2331.950 Y1372.080
M3 M8
G0 Z   3.000 
G1 Z  -1.500
F400
G1 X2313.280 Y1429.530
G1 X2331.950 Y1486.980
G1 X2380.820 Y1522.480
G1 X2441.220 Y1522.480
G1 X2490.090 Y1486.980
G1 X2508.760 Y1429.530
G1 X2490.090 Y1372.080
G1 X2441.220 Y1336.570
G1 X2380.820 Y1336.570
G1 X2331.950 Y1372.080
F150
G1 Z  -3.000
F400
G1 X2313.280 Y1429.530
G1 X2331.950 Y1486.980
G1 X2380.820 Y1522.480
G1 X2441.220 Y1522.480
G1 X2490.090 Y1486.980
G1 X2508.760 Y1429.530
G1 X2490.090 Y1372.080
G1 X2441.220 Y1336.570
G1 X2380.820 Y1336.570
G1 X2331.950 Y1372.080
F150
G1 Z   3.000
G0 Z  15.000 
M9 M5

(* SHAPE Nr: 15 *)
G0 X2527.070 Y1323.390
M3 M8
G0 Z   3.000 
G1 Z  -1.500
F400
G1 X2508.400 Y1380.840
G1 X2527.070 Y1438.290
G1 X2575.940 Y1473.790
G1 X2636.340 Y1473.790
G1 X2685.210 Y1438.290
G1 X2703.880 Y1380.840
G1 X2685.210 Y1323.390
G1 X2636.340 Y1287.880
G1 X2575.940 Y1287.880
G1 X2527.070 Y1323.390
F150
G1 Z  -3.000
F400
G1 X2508.400 Y1380.840
G1 X2527.070 Y1438.290
G1 X2575.940 Y1473.790
G1 X2636.340 Y1473.790
G1 X2685.210 Y1438.290
G1 X2703.880 Y1380.840
G1 X2685.210 Y1323.390
G1 X2636.340 Y1287.880
G1 X2575.940 Y1287.880
G1 X2527.070 Y1323.390
F150
G1 Z   3.000
G0 Z  15.000 
M9 M5

(* SHAPE Nr: 16 *)
G0 X2405.540 Y1121.400
M3 M8
G0 Z   3.000 
G1 Z  -1.500
F400
G1 X2386.870 Y1178.850
G1 X2405.540 Y1236.300
G1 X2454.410 Y1271.800
G1 X2514.810 Y1271.800
G1 X2563.680 Y1236.300
G1 X2582.350 Y1178.850
G1 X2563.680 Y1121.400
G1 X2514.810 Y1085.890
G1 X2454.410 Y1085.890
G1 X2405.540 Y1121.400
F150
G1 Z  -3.000
F400
G1 X2386.870 Y1178.850
G1 X2405.540 Y1236.300
G1 X2454.410 Y1271.800
G1 X2514.810 Y1271.800
G1 X2563.680 Y1236.300
G1 X2582.350 Y1178.850
G1 X2563.680 Y1121.400
G1 X2514.810 Y1085.890
G1 X2454.410 Y1085.890
G1 X2405.540 Y1121.400
F150
G1 Z   3.000
G0 Z  15.000 
M9 M5

(* SHAPE Nr: 17 *)
G0 X2582.140 Y1067.710
M3 M8
G0 Z   3.000 
G1 Z  -1.500
F400
G1 X2582.140 Y1128.110
G1 X2617.650 Y1176.980
G1 X2675.100 Y1195.650
G1 X2732.560 Y1176.980
G1 X2768.060 Y1128.110
G1 X2768.060 Y1067.710
G1 X2732.560 Y1018.840
G1 X2675.100 Y1000.170
G1 X2617.650 Y1018.840
G1 X2582.140 Y1067.710
F150
G1 Z  -3.000
F400
G1 X2582.140 Y1128.110
G1 X2617.650 Y1176.980
G1 X2675.100 Y1195.650
G1 X2732.560 Y1176.980
G1 X2768.060 Y1128.110
G1 X2768.060 Y1067.710
G1 X2732.560 Y1018.840
G1 X2675.100 Y1000.170
G1 X2617.650 Y1018.840
G1 X2582.140 Y1067.710
F150
G1 Z   3.000
G0 Z  15.000 
M9 M5

(* SHAPE Nr: 18 *)
G0 X2401.780 Y 912.580
M3 M8
G0 Z   3.000 
G1 Z  -1.500
F400
G1 X2383.110 Y 970.030
G1 X2401.780 Y1027.480
G1 X2450.650 Y1062.980
G1 X2511.050 Y1062.980
G1 X2559.920 Y1027.480
G1 X2578.590 Y 970.030
G1 X2559.920 Y 912.580
G1 X2511.050 Y 877.070
G1 X2450.650 Y 877.070
G1 X2401.780 Y 912.580
F150
G1 Z  -3.000
F400
G1 X2383.110 Y 970.030
G1 X2401.780 Y1027.480
G1 X2450.650 Y1062.980
G1 X2511.050 Y1062.980
G1 X2559.920 Y1027.480
G1 X2578.590 Y 970.030
G1 X2559.920 Y 912.580
G1 X2511.050 Y 877.070
G1 X2450.650 Y 877.070
G1 X2401.780 Y 912.580
F150
G1 Z   3.000
G0 Z  15.000 
M9 M5

(* SHAPE Nr: 20 *)
G0 X2194.290 Y1208.350
M3 M8
G0 Z   3.000 
G1 Z  -1.500
F400
G1 X2194.290 Y1268.750
G1 X2229.800 Y1317.620
G1 X2287.250 Y1336.290
G1 X2344.710 Y1317.620
G1 X2380.210 Y1268.750
G1 X2380.210 Y1208.350
G1 X2344.710 Y1159.480
G1 X2287.250 Y1140.810
G1 X2229.800 Y1159.480
G1 X2194.290 Y1208.350
F150
G1 Z  -3.000
F400
G1 X2194.290 Y1268.750
G1 X2229.800 Y1317.620
G1 X2287.250 Y1336.290
G1 X2344.710 Y1317.620
G1 X2380.210 Y1268.750
G1 X2380.210 Y1208.350
G1 X2344.710 Y1159.480
G1 X2287.250 Y1140.810
G1 X2229.800 Y1159.480
G1 X2194.290 Y1208.350
F150
G1 Z   3.000
G0 Z  15.000 
M9 M5

(* SHAPE Nr: 21 *)
G0 X2057.790 Y1324.870
M3 M8
G0 Z   3.000 
G1 Z  -1.500
F400
G1 X2039.120 Y1382.320
G1 X2057.790 Y1439.770
G1 X2106.660 Y1475.270
G1 X2167.060 Y1475.270
G1 X2215.930 Y1439.770
G1 X2234.600 Y1382.320
G1 X2215.930 Y1324.870
G1 X2167.060 Y1289.360
G1 X2106.660 Y1289.360
G1 X2057.790 Y1324.870
F150
G1 Z  -3.000
F400
G1 X2039.120 Y1382.320
G1 X2057.790 Y1439.770
G1 X2106.660 Y1475.270
G1 X2167.060 Y1475.270
G1 X2215.930 Y1439.770
G1 X2234.600 Y1382.320
G1 X2215.930 Y1324.870
G1 X2167.060 Y1289.360
G1 X2106.660 Y1289.360
G1 X2057.790 Y1324.870
F150
G1 Z   3.000
G0 Z  15.000 
M9 M5

(* SHAPE Nr: 22 *)
G0 X1878.340 Y1351.590
M3 M8
G0 Z   3.000 
G1 Z  -1.500
F400
G1 X1842.830 Y1400.460
G1 X1842.830 Y1460.860
G1 X1878.340 Y1509.730
G1 X1935.790 Y1528.400
G1 X1993.250 Y1509.730
G1 X2028.750 Y1460.860
G1 X2028.750 Y1400.460
G1 X1993.250 Y1351.590
G1 X1935.790 Y1332.920
G1 X1878.340 Y1351.590
F150
G1 Z  -3.000
F400
G1 X1842.830 Y1400.460
G1 X1842.830 Y1460.860
G1 X1878.340 Y1509.730
G1 X1935.790 Y1528.400
G1 X1993.250 Y1509.730
G1 X2028.750 Y1460.860
G1 X2028.750 Y1400.460
G1 X1993.250 Y1351.590
G1 X1935.790 Y1332.920
G1 X1878.340 Y1351.590
F150
G1 Z   3.000
G0 Z  15.000 
M9 M5

(* SHAPE Nr: 23 *)
G0 X1684.590 Y1487.060
M3 M8
G0 Z   3.000 
G1 Z  -1.500
F400
G1 X1665.920 Y1544.510
G1 X1684.590 Y1601.960
G1 X1733.460 Y1637.460
G1 X1793.860 Y1637.460
G1 X1842.730 Y1601.960
G1 X1861.400 Y1544.510
G1 X1842.730 Y1487.060
G1 X1793.860 Y1451.550
G1 X1733.460 Y1451.550
G1 X1684.590 Y1487.060
F150
G1 Z  -3.000
F400
G1 X1665.920 Y1544.510
G1 X1684.590 Y1601.960
G1 X1733.460 Y1637.460
G1 X1793.860 Y1637.460
G1 X1842.730 Y1601.960
G1 X1861.400 Y1544.510
G1 X1842.730 Y1487.060
G1 X1793.860 Y1451.550
G1 X1733.460 Y1451.550
G1 X1684.590 Y1487.060
F150
G1 Z   3.000
G0 Z  15.000 
M9 M5

(* SHAPE Nr: 25 *)
G0 X1879.470 Y1669.510
M3 M8
G0 Z   3.000 
G1 Z  -1.500
F400
G1 X1843.960 Y1718.380
G1 X1843.960 Y1778.780
G1 X1879.470 Y1827.650
G1 X1936.920 Y1846.320
G1 X1994.380 Y1827.650
G1 X2029.880 Y1778.780
G1 X2029.880 Y1718.380
G1 X1994.380 Y1669.510
G1 X1936.920 Y1650.840
G1 X1879.470 Y1669.510
F150
G1 Z  -3.000
F400
G1 X1843.960 Y1718.380
G1 X1843.960 Y1778.780
G1 X1879.470 Y1827.650
G1 X1936.920 Y1846.320
G1 X1994.380 Y1827.650
G1 X2029.880 Y1778.780
G1 X2029.880 Y1718.380
G1 X1994.380 Y1669.510
G1 X1936.920 Y1650.840
G1 X1879.470 Y1669.510
F150
G1 Z   3.000
G0 Z  15.000 
M9 M5

(* SHAPE Nr: 26 *)
G0 X2064.000 Y1687.100
M3 M8
G0 Z   3.000 
G1 Z  -1.500
F400
G1 X2045.330 Y1744.550
G1 X2064.000 Y1802.000
G1 X2112.870 Y1837.500
G1 X2173.270 Y1837.500
G1 X2222.140 Y1802.000
G1 X2240.810 Y1744.550
G1 X2222.140 Y1687.100
G1 X2173.270 Y1651.590
G1 X2112.870 Y1651.590
G1 X2064.000 Y1687.100
F150
G1 Z  -3.000
F400
G1 X2045.330 Y1744.550
G1 X2064.000 Y1802.000
G1 X2112.870 Y1837.500
G1 X2173.270 Y1837.500
G1 X2222.140 Y1802.000
G1 X2240.810 Y1744.550
G1 X2222.140 Y1687.100
G1 X2173.270 Y1651.590
G1 X2112.870 Y1651.590
G1 X2064.000 Y1687.100
F150
G1 Z   3.000
G0 Z  15.000 
M9 M5

(* SHAPE Nr: 27 *)
G0 X2184.870 Y1557.380
M3 M8
G0 Z   3.000 
G1 Z  -1.500
F400
G1 X2184.870 Y1617.780
G1 X2220.380 Y1666.650
G1 X2277.830 Y1685.320
G1 X2335.290 Y1666.650
G1 X2370.790 Y1617.780
G1 X2370.790 Y1557.380
G1 X2335.290 Y1508.510
G1 X2277.830 Y1489.840
G1 X2220.380 Y1508.510
G1 X2184.870 Y1557.380
F150
G1 Z  -3.000
F400
G1 X2184.870 Y1617.780
G1 X2220.380 Y1666.650
G1 X2277.830 Y1685.320
G1 X2335.290 Y1666.650
G1 X2370.790 Y1617.780
G1 X2370.790 Y1557.380
G1 X2335.290 Y1508.510
G1 X2277.830 Y1489.840
G1 X2220.380 Y1508.510
G1 X2184.870 Y1557.380
F150
G1 Z   3.000
G0 Z  15.000 
M9 M5

(* SHAPE Nr: 29 *)
G0 X2040.420 Y 974.360
M3 M8
G0 Z   3.000 
G1 Z  -1.500
F400
G1 X2021.750 Y1031.810
G1 X2040.420 Y1089.260
G1 X2089.290 Y1124.760
G1 X2149.690 Y1124.760
G1 X2198.560 Y1089.260
G1 X2217.230 Y1031.810
G1 X2198.560 Y 974.360
G1 X2149.690 Y 938.850
G1 X2089.290 Y 938.850
G1 X2040.420 Y 974.360
F150
G1 Z  -3.000
F400
G1 X2021.750 Y1031.810
G1 X2040.420 Y1089.260
G1 X2089.290 Y1124.760
G1 X2149.690 Y1124.760
G1 X2198.560 Y1089.260
G1 X2217.230 Y1031.810
G1 X2198.560 Y 974.360
G1 X2149.690 Y 938.850
G1 X2089.290 Y 938.850
G1 X2040.420 Y 974.360
F150
G1 Z   3.000
G0 Z  15.000 
M9 M5

(* SHAPE Nr: 31 *)
G0 X1759.190 Y 788.980
M3 M8
G0 Z   3.000 
G1 Z  -1.500
F400
G1 X1740.520 Y 846.430
G1 X1759.190 Y 903.880
G1 X1808.060 Y 939.380
G1 X1868.460 Y 939.380
G1 X1917.330 Y 903.880
G1 X1936.000 Y 846.430
G1 X1917.330 Y 788.980
G1 X1868.460 Y 753.470
G1 X1808.060 Y 753.470
G1 X1759.190 Y 788.980
F150
G1 Z  -3.000
F400
G1 X1740.520 Y 846.430
G1 X1759.190 Y 903.880
G1 X1808.060 Y 939.380
G1 X1868.460 Y 939.380
G1 X1917.330 Y 903.880
G1 X1936.000 Y 846.430
G1 X1917.330 Y 788.980
G1 X1868.460 Y 753.470
G1 X1808.060 Y 753.470
G1 X1759.190 Y 788.980
F150
G1 Z   3.000
G0 Z  15.000 
M9 M5

(* SHAPE Nr: 32 *)
G0 X1686.180 Y1013.780
M3 M8
G0 Z   3.000 
G1 Z  -1.500
F400
G1 X1686.180 Y1074.180
G1 X1721.690 Y1123.050
G1 X1779.140 Y1141.720
G1 X1836.600 Y1123.050
G1 X1872.100 Y1074.180
G1 X1872.100 Y1013.780
G1 X1836.600 Y 964.910
G1 X1779.140 Y 946.240
G1 X1721.690 Y 964.910
G1 X1686.180 Y1013.780
F150
G1 Z  -3.000
F400
G1 X1686.180 Y1074.180
G1 X1721.690 Y1123.050
G1 X1779.140 Y1141.720
G1 X1836.600 Y1123.050
G1 X1872.100 Y1074.180
G1 X1872.100 Y1013.780
G1 X1836.600 Y 964.910
G1 X1779.140 Y 946.240
G1 X1721.690 Y 964.910
G1 X1686.180 Y1013.780
F150
G1 Z   3.000
G0 Z  15.000 
M9 M5

(* SHAPE Nr: 33 *)
G0 X1786.850 Y1179.150
M3 M8
G0 Z   3.000 
G1 Z  -1.500
F400
G1 X1768.180 Y1236.600
G1 X1786.850 Y1294.050
G1 X1835.720 Y1329.550
G1 X1896.120 Y1329.550
G1 X1944.990 Y1294.050
G1 X1963.660 Y1236.600
G1 X1944.990 Y1179.150
G1 X1896.120 Y1143.640
G1 X1835.720 Y1143.640
G1 X1786.850 Y1179.150
F150
G1 Z  -3.000
F400
G1 X1768.180 Y1236.600
G1 X1786.850 Y1294.050
G1 X1835.720 Y1329.550
G1 X1896.120 Y1329.550
G1 X1944.990 Y1294.050
G1 X1963.660 Y1236.600
G1 X1944.990 Y1179.150
G1 X1896.120 Y1143.640
G1 X1835.720 Y1143.640
G1 X1786.850 Y1179.150
F150
G1 Z   3.000
G0 Z  15.000 
M9 M5

(* SHAPE Nr: 34 *)
G0 X1579.960 Y1166.570
M3 M8
G0 Z   3.000 
G1 Z  -1.500
F400
G1 X1561.290 Y1224.020
G1 X1579.960 Y1281.470
G1 X1628.830 Y1316.970
G1 X1689.230 Y1316.970
G1 X1738.100 Y1281.470
G1 X1756.770 Y1224.020
G1 X1738.100 Y1166.570
G1 X1689.230 Y1131.060
G1 X1628.830 Y1131.060
G1 X1579.960 Y1166.570
F150
G1 Z  -3.000
F400
G1 X1561.290 Y1224.020
G1 X1579.960 Y1281.470
G1 X1628.830 Y1316.970
G1 X1689.230 Y1316.970
G1 X1738.100 Y1281.470
G1 X1756.770 Y1224.020
G1 X1738.100 Y1166.570
G1 X1689.230 Y1131.060
G1 X1628.830 Y1131.060
G1 X1579.960 Y1166.570
F150
G1 Z   3.000
G0 Z  15.000 
M9 M5

(* SHAPE Nr: 37 *)
G0 X1546.070 Y 754.090
M3 M8
G0 Z   3.000 
G1 Z  -1.500
F400
G1 X1546.070 Y 814.490
G1 X1581.580 Y 863.360
G1 X1639.030 Y 882.030
G1 X1696.490 Y 863.360
G1 X1731.990 Y 814.490
G1 X1731.990 Y 754.090
G1 X1696.490 Y 705.220
G1 X1639.030 Y 686.550
G1 X1581.580 Y 705.220
G1 X1546.070 Y 754.090
F150
G1 Z  -3.000
F400
G1 X1546.070 Y 814.490
G1 X1581.580 Y 863.360
G1 X1639.030 Y 882.030
G1 X1696.490 Y 863.360
G1 X1731.990 Y 814.490
G1 X1731.990 Y 754.090
G1 X1696.490 Y 705.220
G1 X1639.030 Y 686.550
G1 X1581.580 Y 705.220
G1 X1546.070 Y 754.090
F150
G1 Z   3.000
G0 Z  15.000 
M9 M5

(* SHAPE Nr: 39 *)
G0 X1825.380 Y 625.430
M3 M8
G0 Z   3.000 
G1 Z  -1.500
F400
G1 X1825.380 Y 685.830
G1 X1860.890 Y 734.700
G1 X1918.340 Y 753.370
G1 X1975.800 Y 734.700
G1 X2011.300 Y 685.830
G1 X2011.300 Y 625.430
G1 X1975.800 Y 576.560
G1 X1918.340 Y 557.890
G1 X1860.890 Y 576.560
G1 X1825.380 Y 625.430
F150
G1 Z  -3.000
F400
G1 X1825.380 Y 685.830
G1 X1860.890 Y 734.700
G1 X1918.340 Y 753.370
G1 X1975.800 Y 734.700
G1 X2011.300 Y 685.830
G1 X2011.300 Y 625.430
G1 X1975.800 Y 576.560
G1 X1918.340 Y 557.890
G1 X1860.890 Y 576.560
G1 X1825.380 Y 625.430
F150
G1 Z   3.000
G0 Z  15.000 
M9 M5

(* SHAPE Nr: 40 *)
G0 X2042.810 Y 638.890
M3 M8
G0 Z   3.000 
G1 Z  -1.500
F400
G1 X2024.140 Y 696.340
G1 X2042.810 Y 753.790
G1 X2091.680 Y 789.290
G1 X2152.080 Y 789.290
G1 X2200.950 Y 753.790
G1 X2219.620 Y 696.340
G1 X2200.950 Y 638.890
G1 X2152.080 Y 603.380
G1 X2091.680 Y 603.380
G1 X2042.810 Y 638.890
F150
G1 Z  -3.000
F400
G1 X2024.140 Y 696.340
G1 X2042.810 Y 753.790
G1 X2091.680 Y 789.290
G1 X2152.080 Y 789.290
G1 X2200.950 Y 753.790
G1 X2219.620 Y 696.340
G1 X2200.950 Y 638.890
G1 X2152.080 Y 603.380
G1 X2091.680 Y 603.380
G1 X2042.810 Y 638.890
F150
G1 Z   3.000
G0 Z  15.000 
M9 M5

(* SHAPE Nr: 41 *)
G0 X2155.780 Y 503.450
M3 M8
G0 Z   3.000 
G1 Z  -1.500
F400
G1 X2155.780 Y 563.850
G1 X2191.290 Y 612.720
G1 X2248.740 Y 631.390
G1 X2306.200 Y 612.720
G1 X2341.700 Y 563.850
G1 X2341.700 Y 503.450
G1 X2306.200 Y 454.580
G1 X2248.740 Y 435.910
G1 X2191.290 Y 454.580
G1 X2155.780 Y 503.450
F150
G1 Z  -3.000
F400
G1 X2155.780 Y 563.850
G1 X2191.290 Y 612.720
G1 X2248.740 Y 631.390
G1 X2306.200 Y 612.720
G1 X2341.700 Y 563.850
G1 X2341.700 Y 503.450
G1 X2306.200 Y 454.580
G1 X2248.740 Y 435.910
G1 X2191.290 Y 454.580
G1 X2155.780 Y 503.450
F150
G1 Z   3.000
G0 Z  15.000 
M9 M5

(* SHAPE Nr: 42 *)
G0 X2297.680 Y 386.090
M3 M8
G0 Z   3.000 
G1 Z  -1.500
F400
G1 X2316.350 Y 443.540
G1 X2365.220 Y 479.040
G1 X2425.620 Y 479.040
G1 X2474.490 Y 443.540
G1 X2493.160 Y 386.090
G1 X2474.490 Y 328.640
G1 X2425.620 Y 293.130
G1 X2365.220 Y 293.130
G1 X2316.350 Y 328.640
G1 X2297.680 Y 386.090
F150
G1 Z  -3.000
F400
G1 X2316.350 Y 443.540
G1 X2365.220 Y 479.040
G1 X2425.620 Y 479.040
G1 X2474.490 Y 443.540
G1 X2493.160 Y 386.090
G1 X2474.490 Y 328.640
G1 X2425.620 Y 293.130
G1 X2365.220 Y 293.130
G1 X2316.350 Y 328.640
G1 X2297.680 Y 386.090
F150
G1 Z   3.000
G0 Z  15.000 
M9 M5

(* SHAPE Nr: 43 *)
G0 X2416.180 Y 183.670
M3 M8
G0 Z   3.000 
G1 Z  -1.500
F400
G1 X2416.180 Y 244.070
G1 X2451.690 Y 292.940
G1 X2509.140 Y 311.610
G1 X2566.600 Y 292.940
G1 X2602.100 Y 244.070
G1 X2602.100 Y 183.670
G1 X2566.600 Y 134.800
G1 X2509.140 Y 116.130
G1 X2451.690 Y 134.800
G1 X2416.180 Y 183.670
F150
G1 Z  -3.000
F400
G1 X2416.180 Y 244.070
G1 X2451.690 Y 292.940
G1 X2509.140 Y 311.610
G1 X2566.600 Y 292.940
G1 X2602.100 Y 244.070
G1 X2602.100 Y 183.670
G1 X2566.600 Y 134.800
G1 X2509.140 Y 116.130
G1 X2451.690 Y 134.800
G1 X2416.180 Y 183.670
F150
G1 Z   3.000
G0 Z  15.000 
M9 M5

(* SHAPE Nr: 44 *)
G0 X2587.170 Y  77.690
M3 M8
G0 Z   3.000 
G1 Z  -1.500
F400
G1 X2587.170 Y 138.090
G1 X2622.680 Y 186.960
G1 X2680.130 Y 205.630
G1 X2737.590 Y 186.960
G1 X2773.090 Y 138.090
G1 X2773.090 Y  77.690
G1 X2737.590 Y  28.820
G1 X2680.130 Y  10.150
G1 X2622.680 Y  28.820
G1 X2587.170 Y  77.690
F150
G1 Z  -3.000
F400
G1 X2587.170 Y 138.090
G1 X2622.680 Y 186.960
G1 X2680.130 Y 205.630
G1 X2737.590 Y 186.960
G1 X2773.090 Y 138.090
G1 X2773.090 Y  77.690
G1 X2737.590 Y  28.820
G1 X2680.130 Y  10.150
G1 X2622.680 Y  28.820
G1 X2587.170 Y  77.690
F150
G1 Z   3.000
G0 Z  15.000 
M9 M5

(* SHAPE Nr: 45 *)
G0 X2203.170 Y 103.790
M3 M8
G0 Z   3.000 
G1 Z  -1.500
F400
G1 X2221.840 Y 161.240
G1 X2270.710 Y 196.740
G1 X2331.110 Y 196.740
G1 X2379.980 Y 161.240
G1 X2398.650 Y 103.790
G1 X2379.980 Y  46.340
G1 X2331.110 Y  10.830
G1 X2270.710 Y  10.830
G1 X2221.840 Y  46.340
G1 X2203.170 Y 103.790
F150
G1 Z  -3.000
F400
G1 X2221.840 Y 161.240
G1 X2270.710 Y 196.740
G1 X2331.110 Y 196.740
G1 X2379.980 Y 161.240
G1 X2398.650 Y 103.790
G1 X2379.980 Y  46.340
G1 X2331.110 Y  10.830
G1 X2270.710 Y  10.830
G1 X2221.840 Y  46.340
G1 X2203.170 Y 103.790
F150
G1 Z   3.000
G0 Z  15.000 
M9 M5

(* SHAPE Nr: 46 *)
G0 X2093.430 Y 245.220
M3 M8
G0 Z   3.000 
G1 Z  -1.500
F400
G1 X2093.430 Y 305.620
G1 X2128.940 Y 354.490
G1 X2186.390 Y 373.160
G1 X2243.850 Y 354.490
G1 X2279.350 Y 305.620
G1 X2279.350 Y 245.220
G1 X2243.850 Y 196.350
G1 X2186.390 Y 177.680
G1 X2128.940 Y 196.350
G1 X2093.430 Y 245.220
F150
G1 Z  -3.000
F400
G1 X2093.430 Y 305.620
G1 X2128.940 Y 354.490
G1 X2186.390 Y 373.160
G1 X2243.850 Y 354.490
G1 X2279.350 Y 305.620
G1 X2279.350 Y 245.220
G1 X2243.850 Y 196.350
G1 X2186.390 Y 177.680
G1 X2128.940 Y 196.350
G1 X2093.430 Y 245.220
F150
G1 Z   3.000
G0 Z  15.000 
M9 M5

(* SHAPE Nr: 47 *)
G0 X1949.060 Y 428.880
M3 M8
G0 Z   3.000 
G1 Z  -1.500
F400
G1 X1967.730 Y 486.330
G1 X2016.600 Y 521.830
G1 X2077.000 Y 521.830
G1 X2125.870 Y 486.330
G1 X2144.540 Y 428.880
G1 X2125.870 Y 371.430
G1 X2077.000 Y 335.920
G1 X2016.600 Y 335.920
G1 X1967.730 Y 371.430
G1 X1949.060 Y 428.880
F150
G1 Z  -3.000
F400
G1 X1967.730 Y 486.330
G1 X2016.600 Y 521.830
G1 X2077.000 Y 521.830
G1 X2125.870 Y 486.330
G1 X2144.540 Y 428.880
G1 X2125.870 Y 371.430
G1 X2077.000 Y 335.920
G1 X2016.600 Y 335.920
G1 X1967.730 Y 371.430
G1 X1949.060 Y 428.880
F150
G1 Z   3.000
G0 Z  15.000 
M9 M5

(* SHAPE Nr: 48 *)
G0 X1748.930 Y 462.160
M3 M8
G0 Z   3.000 
G1 Z  -1.500
F400
G1 X1767.600 Y 519.610
G1 X1816.470 Y 555.110
G1 X1876.870 Y 555.110
G1 X1925.740 Y 519.610
G1 X1944.410 Y 462.160
G1 X1925.740 Y 404.710
G1 X1876.870 Y 369.200
G1 X1816.470 Y 369.200
G1 X1767.600 Y 404.710
G1 X1748.930 Y 462.160
F150
G1 Z  -3.000
F400
G1 X1767.600 Y 519.610
G1 X1816.470 Y 555.110
G1 X1876.870 Y 555.110
G1 X1925.740 Y 519.610
G1 X1944.410 Y 462.160
G1 X1925.740 Y 404.710
G1 X1876.870 Y 369.200
G1 X1816.470 Y 369.200
G1 X1767.600 Y 404.710
G1 X1748.930 Y 462.160
F150
G1 Z   3.000
G0 Z  15.000 
M9 M5

(* SHAPE Nr: 49 *)
G0 X1549.450 Y 393.420
M3 M8
G0 Z   3.000 
G1 Z  -1.500
F400
G1 X1549.450 Y 453.820
G1 X1584.960 Y 502.690
G1 X1642.410 Y 521.360
G1 X1699.870 Y 502.690
G1 X1735.370 Y 453.820
G1 X1735.370 Y 393.420
G1 X1699.870 Y 344.550
G1 X1642.410 Y 325.880
G1 X1584.960 Y 344.550
G1 X1549.450 Y 393.420
F150
G1 Z  -3.000
F400
G1 X1549.450 Y 453.820
G1 X1584.960 Y 502.690
G1 X1642.410 Y 521.360
G1 X1699.870 Y 502.690
G1 X1735.370 Y 453.820
G1 X1735.370 Y 393.420
G1 X1699.870 Y 344.550
G1 X1642.410 Y 325.880
G1 X1584.960 Y 344.550
G1 X1549.450 Y 393.420
F150
G1 Z   3.000
G0 Z  15.000 
M9 M5

(* SHAPE Nr: 50 *)
G0 X1439.870 Y 244.910
M3 M8
G0 Z   3.000 
G1 Z  -1.500
F400
G1 X1458.540 Y 302.360
G1 X1507.410 Y 337.860
G1 X1567.810 Y 337.860
G1 X1616.680 Y 302.360
G1 X1635.350 Y 244.910
G1 X1616.680 Y 187.460
G1 X1567.810 Y 151.950
G1 X1507.410 Y 151.950
G1 X1458.540 Y 187.460
G1 X1439.870 Y 244.910
F150
G1 Z  -3.000
F400
G1 X1458.540 Y 302.360
G1 X1507.410 Y 337.860
G1 X1567.810 Y 337.860
G1 X1616.680 Y 302.360
G1 X1635.350 Y 244.910
G1 X1616.680 Y 187.460
G1 X1567.810 Y 151.950
G1 X1507.410 Y 151.950
G1 X1458.540 Y 187.460
G1 X1439.870 Y 244.910
F150
G1 Z   3.000
G0 Z  15.000 
M9 M5

(* SHAPE Nr: 51 *)
G0 X1587.070 Y 103.850
M3 M8
G0 Z   3.000 
G1 Z  -1.500
F400
G1 X1605.740 Y 161.300
G1 X1654.610 Y 196.800
G1 X1715.010 Y 196.800
G1 X1763.880 Y 161.300
G1 X1782.550 Y 103.850
G1 X1763.880 Y  46.400
G1 X1715.010 Y  10.890
G1 X1654.610 Y  10.890
G1 X1605.740 Y  46.400
G1 X1587.070 Y 103.850
F150
G1 Z  -3.000
F400
G1 X1605.740 Y 161.300
G1 X1654.610 Y 196.800
G1 X1715.010 Y 196.800
G1 X1763.880 Y 161.300
G1 X1782.550 Y 103.850
G1 X1763.880 Y  46.400
G1 X1715.010 Y  10.890
G1 X1654.610 Y  10.890
G1 X1605.740 Y  46.400
G1 X1587.070 Y 103.850
F150
G1 Z   3.000
G0 Z  15.000 
M9 M5

(* SHAPE Nr: 52 *)
G0 X1733.230 Y 225.790
M3 M8
G0 Z   3.000 
G1 Z  -1.500
F400
G1 X1733.230 Y 286.190
G1 X1768.740 Y 335.060
G1 X1826.190 Y 353.730
G1 X1883.650 Y 335.060
G1 X1919.150 Y 286.190
G1 X1919.150 Y 225.790
G1 X1883.650 Y 176.920
G1 X1826.190 Y 158.250
G1 X1768.740 Y 176.920
G1 X1733.230 Y 225.790
F150
G1 Z  -3.000
F400
G1 X1733.230 Y 286.190
G1 X1768.740 Y 335.060
G1 X1826.190 Y 353.730
G1 X1883.650 Y 335.060
G1 X1919.150 Y 286.190
G1 X1919.150 Y 225.790
G1 X1883.650 Y 176.920
G1 X1826.190 Y 158.250
G1 X1768.740 Y 176.920
G1 X1733.230 Y 225.790
F150
G1 Z   3.000
G0 Z  15.000 
M9 M5

(* SHAPE Nr: 53 *)
G0 X1874.400 Y  78.790
M3 M8
G0 Z   3.000 
G1 Z  -1.500
F400
G1 X1874.400 Y 139.190
G1 X1909.910 Y 188.060
G1 X1967.360 Y 206.730
G1 X2024.820 Y 188.060
G1 X2060.320 Y 139.190
G1 X2060.320 Y  78.790
G1 X2024.820 Y  29.920
G1 X1967.360 Y  11.250
G1 X1909.910 Y  29.920
G1 X1874.400 Y  78.790
F150
G1 Z  -3.000
F400
G1 X1874.400 Y 139.190
G1 X1909.910 Y 188.060
G1 X1967.360 Y 206.730
G1 X2024.820 Y 188.060
G1 X2060.320 Y 139.190
G1 X2060.320 Y  78.790
G1 X2024.820 Y  29.920
G1 X1967.360 Y  11.250
G1 X1909.910 Y  29.920
G1 X1874.400 Y  78.790
F150
G1 Z   3.000
G0 Z  15.000 
M9 M5

(* SHAPE Nr: 54 *)
G0 X1426.680 Y 521.730
M3 M8
G0 Z   3.000 
G1 Z  -1.500
F400
G1 X1408.010 Y 579.180
G1 X1426.680 Y 636.630
G1 X1475.550 Y 672.130
G1 X1535.950 Y 672.130
G1 X1584.820 Y 636.630
G1 X1603.490 Y 579.180
G1 X1584.820 Y 521.730
G1 X1535.950 Y 486.220
G1 X1475.550 Y 486.220
G1 X1426.680 Y 521.730
F150
G1 Z  -3.000
F400
G1 X1408.010 Y 579.180
G1 X1426.680 Y 636.630
G1 X1475.550 Y 672.130
G1 X1535.950 Y 672.130
G1 X1584.820 Y 636.630
G1 X1603.490 Y 579.180
G1 X1584.820 Y 521.730
G1 X1535.950 Y 486.220
G1 X1475.550 Y 486.220
G1 X1426.680 Y 521.730
F150
G1 Z   3.000
G0 Z  15.000 
M9 M5

(* SHAPE Nr: 55 *)
G0 X 678.980 Y 739.940
M3 M8
G0 Z   3.000 
G1 Z  -1.500
F400
G1 X 643.480 Y 788.810
G1 X 643.480 Y 849.210
G1 X 678.980 Y 898.080
G1 X 736.440 Y 916.750
G1 X 793.880 Y 898.080
G1 X 829.400 Y 849.210
G1 X 829.400 Y 788.810
G1 X 793.880 Y 739.940
G1 X 736.440 Y 721.270
G1 X 678.980 Y 739.940
F150
G1 Z  -3.000
F400
G1 X 643.480 Y 788.810
G1 X 643.480 Y 849.210
G1 X 678.980 Y 898.080
G1 X 736.440 Y 916.750
G1 X 793.880 Y 898.080
G1 X 829.400 Y 849.210
G1 X 829.400 Y 788.810
G1 X 793.880 Y 739.940
G1 X 736.440 Y 721.270
G1 X 678.980 Y 739.940
F150
G1 Z   3.000
G0 Z  15.000 
M9 M5

(* SHAPE Nr: 56 *)
G0 X 361.610 Y 595.940
M3 M8
G0 Z   3.000 
G1 Z  -1.500
F400
G1 X 326.110 Y 644.810
G1 X 326.110 Y 705.210
G1 X 361.610 Y 754.080
G1 X 419.070 Y 772.750
G1 X 476.510 Y 754.080
G1 X 512.030 Y 705.210
G1 X 512.030 Y 644.810
G1 X 476.510 Y 595.940
G1 X 419.070 Y 577.270
G1 X 361.610 Y 595.940
F150
G1 Z  -3.000
F400
G1 X 326.110 Y 644.810
G1 X 326.110 Y 705.210
G1 X 361.610 Y 754.080
G1 X 419.070 Y 772.750
G1 X 476.510 Y 754.080
G1 X 512.030 Y 705.210
G1 X 512.030 Y 644.810
G1 X 476.510 Y 595.940
G1 X 419.070 Y 577.270
G1 X 361.610 Y 595.940
F150
G1 Z   3.000
G0 Z  15.000 
M9 M5

(* SHAPE Nr: 57 *)
G0 X 102.960 Y 812.410
M3 M8
G0 Z   3.000 
G1 Z  -1.500
F400
G1 X  45.510 Y 831.080
G1 X  10.000 Y 879.950
G1 X  10.000 Y 940.350
G1 X  45.510 Y 989.220
G1 X 102.960 Y1007.890
G1 X 160.420 Y 989.220
G1 X 195.920 Y 940.350
G1 X 195.920 Y 879.950
G1 X 160.420 Y 831.080
G1 X 102.960 Y 812.410
F150
G1 Z  -3.000
F400
G1 X  45.510 Y 831.080
G1 X  10.000 Y 879.950
G1 X  10.000 Y 940.350
G1 X  45.510 Y 989.220
G1 X 102.960 Y1007.890
G1 X 160.420 Y 989.220
G1 X 195.920 Y 940.350
G1 X 195.920 Y 879.950
G1 X 160.420 Y 831.080
G1 X 102.960 Y 812.410
F150
G1 Z   3.000
G0 Z  15.000 
M9 M5

(* SHAPE Nr: 58 *)
G0 X 102.960 Y1434.770
M3 M8
G0 Z   3.000 
G1 Z  -1.500
F400
G1 X  45.510 Y1453.440
G1 X  10.000 Y1502.310
G1 X  10.000 Y1562.710
G1 X  45.510 Y1611.580
G1 X 102.960 Y1630.250
G1 X 160.420 Y1611.580
G1 X 195.920 Y1562.710
G1 X 195.920 Y1502.310
G1 X 160.420 Y1453.440
G1 X 102.960 Y1434.770
F150
G1 Z  -3.000
F400
G1 X  45.510 Y1453.440
G1 X  10.000 Y1502.310
G1 X  10.000 Y1562.710
G1 X  45.510 Y1611.580
G1 X 102.960 Y1630.250
G1 X 160.420 Y1611.580
G1 X 195.920 Y1562.710
G1 X 195.920 Y1502.310
G1 X 160.420 Y1453.440
G1 X 102.960 Y1434.770
F150
G1 Z   3.000
G0 Z  15.000 
M9 M5

(* SHAPE Nr: 59 *)
G0 X 102.960 Y1844.510
M3 M8
G0 Z   3.000 
G1 Z  -1.500
F400
G1 X  45.510 Y1863.180
G1 X  10.000 Y1912.050
G1 X  10.000 Y1972.450
G1 X  45.510 Y2021.320
G1 X 102.960 Y2039.990
G1 X 160.420 Y2021.320
G1 X 195.920 Y1972.450
G1 X 195.920 Y1912.050
G1 X 160.420 Y1863.180
G1 X 102.960 Y1844.510
F150
G1 Z  -3.000
F400
G1 X  45.510 Y1863.180
G1 X  10.000 Y1912.050
G1 X  10.000 Y1972.450
G1 X  45.510 Y2021.320
G1 X 102.960 Y2039.990
G1 X 160.420 Y2021.320
G1 X 195.920 Y1972.450
G1 X 195.920 Y1912.050
G1 X 160.420 Y1863.180
G1 X 102.960 Y1844.510
F150
G1 Z   3.000
G0 Z  15.000 
M9 M5

(* SHAPE Nr: 61 *)
G0 X2173.910 Y 854.760
M3 M8
G0 Z   3.000 
G1 Z  -1.500
F400
G1 X2173.910 Y 915.160
G1 X2209.420 Y 964.030
G1 X2266.870 Y 982.700
G1 X2324.330 Y 964.030
G1 X2359.830 Y 915.160
G1 X2359.830 Y 854.760
G1 X2324.330 Y 805.890
G1 X2266.870 Y 787.220
G1 X2209.420 Y 805.890
G1 X2173.910 Y 854.760
F150
G1 Z  -3.000
F400
G1 X2173.910 Y 915.160
G1 X2209.420 Y 964.030
G1 X2266.870 Y 982.700
G1 X2324.330 Y 964.030
G1 X2359.830 Y 915.160
G1 X2359.830 Y 854.760
G1 X2324.330 Y 805.890
G1 X2266.870 Y 787.220
G1 X2209.420 Y 805.890
G1 X2173.910 Y 854.760
F150
G1 Z   3.000
G0 Z  15.000 
M9 M5

(* SHAPE Nr: 62 *)
G0 X2281.100 Y 711.490
M3 M8
G0 Z   3.000 
G1 Z  -1.500
F400
G1 X2299.770 Y 768.940
G1 X2348.640 Y 804.440
G1 X2409.040 Y 804.440
G1 X2457.910 Y 768.940
G1 X2476.580 Y 711.490
G1 X2457.910 Y 654.040
G1 X2409.040 Y 618.530
G1 X2348.640 Y 618.530
G1 X2299.770 Y 654.040
G1 X2281.100 Y 711.490
F150
G1 Z  -3.000
F400
G1 X2299.770 Y 768.940
G1 X2348.640 Y 804.440
G1 X2409.040 Y 804.440
G1 X2457.910 Y 768.940
G1 X2476.580 Y 711.490
G1 X2457.910 Y 654.040
G1 X2409.040 Y 618.530
G1 X2348.640 Y 618.530
G1 X2299.770 Y 654.040
G1 X2281.100 Y 711.490
F150
G1 Z   3.000
G0 Z  15.000 
M9 M5

(* SHAPE Nr: 63 *)
G0 X2490.670 Y 759.640
M3 M8
G0 Z   3.000 
G1 Z  -1.500
F400
G1 X2490.670 Y 820.040
G1 X2526.180 Y 868.910
G1 X2583.630 Y 887.580
G1 X2641.090 Y 868.910
G1 X2676.590 Y 820.040
G1 X2676.590 Y 759.640
G1 X2641.090 Y 710.770
G1 X2583.630 Y 692.100
G1 X2526.180 Y 710.770
G1 X2490.670 Y 759.640
F150
G1 Z  -3.000
F400
G1 X2490.670 Y 820.040
G1 X2526.180 Y 868.910
G1 X2583.630 Y 887.580
G1 X2641.090 Y 868.910
G1 X2676.590 Y 820.040
G1 X2676.590 Y 759.640
G1 X2641.090 Y 710.770
G1 X2583.630 Y 692.100
G1 X2526.180 Y 710.770
G1 X2490.670 Y 759.640
F150
G1 Z   3.000
G0 Z  15.000 
M9 M5

(* SHAPE Nr: 64 *)
G0 X2437.000 Y 538.550
M3 M8
G0 Z   3.000 
G1 Z  -1.500
F400
G1 X2437.000 Y 598.950
G1 X2472.510 Y 647.820
G1 X2529.960 Y 666.490
G1 X2587.420 Y 647.820
G1 X2622.920 Y 598.950
G1 X2622.920 Y 538.550
G1 X2587.420 Y 489.680
G1 X2529.960 Y 471.010
G1 X2472.510 Y 489.680
G1 X2437.000 Y 538.550
F150
G1 Z  -3.000
F400
G1 X2437.000 Y 598.950
G1 X2472.510 Y 647.820
G1 X2529.960 Y 666.490
G1 X2587.420 Y 647.820
G1 X2622.920 Y 598.950
G1 X2622.920 Y 538.550
G1 X2587.420 Y 489.680
G1 X2529.960 Y 471.010
G1 X2472.510 Y 489.680
G1 X2437.000 Y 538.550
F150
G1 Z   3.000
G0 Z  15.000 
M9 M5

(* SHAPE Nr: 65 *)
G0 X2583.420 Y1833.350
M3 M8
G0 Z   3.000 
G1 Z  -1.500
F400
G1 X2583.420 Y1893.750
G1 X2618.930 Y1942.620
G1 X2676.380 Y1961.290
G1 X2733.840 Y1942.620
G1 X2769.340 Y1893.750
G1 X2769.340 Y1833.350
G1 X2733.840 Y1784.480
G1 X2676.380 Y1765.810
G1 X2618.930 Y1784.480
G1 X2583.420 Y1833.350
F150
G1 Z  -3.000
F400
G1 X2583.420 Y1893.750
G1 X2618.930 Y1942.620
G1 X2676.380 Y1961.290
G1 X2733.840 Y1942.620
G1 X2769.340 Y1893.750
G1 X2769.340 Y1833.350
G1 X2733.840 Y1784.480
G1 X2676.380 Y1765.810
G1 X2618.930 Y1784.480
G1 X2583.420 Y1833.350
F150
G1 Z   3.000
G0 Z  15.000 
M9 M5

(*** LAYER: BORDER_D0_T132_RK1_A0_W0_EM1_RI1_ID0008 ***)

(* SHAPE Nr: 2 *)
G0 X 605.630 Y 932.250
M3 M8
G0 Z   3.000 
G1 Z  -1.500
F400
G1 X 860.790 Y1117.630
G1 X 763.330 Y1417.590
G1 X1018.480 Y1232.210
G1 X1273.640 Y1417.590
G1 X1176.180 Y1117.630
G1 X1431.340 Y 932.250
G1 X1115.950 Y 932.250
G1 X1018.480 Y 632.300
G1 X 921.020 Y 932.250
G1 X 605.630 Y 932.250
F150
G1 Z  -3.000
F400
G1 X 860.790 Y1117.630
G1 X 763.330 Y1417.590
G1 X1018.480 Y1232.210
G1 X1273.640 Y1417.590
G1 X1176.180 Y1117.630
G1 X1431.340 Y 932.250
G1 X1115.950 Y 932.250
G1 X1018.480 Y 632.300
G1 X 921.020 Y 932.250
G1 X 605.630 Y 932.250
F150
G1 Z   3.000
G0 Z  15.000 
M9 M5

(* SHAPE Nr: 3 *)
G0 X 167.700 Y 632.300
M3 M8
G0 Z   3.000 
G1 Z  -1.500
F400
G1 X 265.160 Y 932.260
G1 X  10.000 Y1117.640
G1 X 325.390 Y1117.640
G1 X 422.860 Y1417.590
G1 X 520.320 Y1117.640
G1 X 835.710 Y1117.640
G1 X 580.550 Y 932.260
G1 X 678.010 Y 632.300
G1 X 422.860 Y 817.680
G1 X 167.700 Y 632.300
F150
G1 Z  -3.000
F400
G1 X 265.160 Y 932.260
G1 X  10.000 Y1117.640
G1 X 325.390 Y1117.640
G1 X 422.860 Y1417.590
G1 X 520.320 Y1117.640
G1 X 835.710 Y1117.640
G1 X 580.550 Y 932.260
G1 X 678.010 Y 632.300
G1 X 422.860 Y 817.680
G1 X 167.700 Y 632.300
F150
G1 Z   3.000
G0 Z  15.000 
M9 M5

(* SHAPE Nr: 4 *)
G0 X 167.700 Y1254.710
M3 M8
G0 Z   3.000 
G1 Z  -1.500
F400
G1 X 265.160 Y1554.670
G1 X  10.000 Y1740.050
G1 X 325.390 Y1740.050
G1 X 422.860 Y2040.000
G1 X 520.320 Y1740.050
G1 X 835.710 Y1740.050
G1 X 580.550 Y1554.670
G1 X 678.010 Y1254.710
G1 X 422.860 Y1440.090
G1 X 167.700 Y1254.710
F150
G1 Z  -3.000
F400
G1 X 265.160 Y1554.670
G1 X  10.000 Y1740.050
G1 X 325.390 Y1740.050
G1 X 422.860 Y2040.000
G1 X 520.320 Y1740.050
G1 X 835.710 Y1740.050
G1 X 580.550 Y1554.670
G1 X 678.010 Y1254.710
G1 X 422.860 Y1440.090
G1 X 167.700 Y1254.710
F150
G1 Z   3.000
G0 Z  15.000 
M9 M5

(* SHAPE Nr: 5 *)
G0 X1018.480 Y1254.710
M3 M8
G0 Z   3.000 
G1 Z  -1.500
F400
G1 X 921.020 Y1554.660
G1 X 605.630 Y1554.660
G1 X 860.790 Y1740.040
G1 X 763.330 Y2040.000
G1 X1018.480 Y1854.620
G1 X1273.640 Y2040.000
G1 X1176.180 Y1740.040
G1 X1431.340 Y1554.660
G1 X1115.950 Y1554.660
G1 X1018.480 Y1254.710
F150
G1 Z  -3.000
F400
G1 X 921.020 Y1554.660
G1 X 605.630 Y1554.660
G1 X 860.790 Y1740.040
G1 X 763.330 Y2040.000
G1 X1018.480 Y1854.620
G1 X1273.640 Y2040.000
G1 X1176.180 Y1740.040
G1 X1431.340 Y1554.660
G1 X1115.950 Y1554.660
G1 X1018.480 Y1254.710
F150
G1 Z   3.000
G0 Z  15.000 
M9 M5

(*** LAYER: BORDER_D0_T132_RK1_A0_W0_EM1_RI1_ID0009 ***)

(* SHAPE Nr: 6 *)
G0 X1272.490 Y1745.420
M3 M8
G0 Z   3.000 
G1 Z  -1.500
F400
G1 X1286.260 Y1809.800
G1 X1223.620 Y1830.060
G1 X1286.260 Y1850.330
G1 X1272.490 Y1914.710
G1 X1321.360 Y1870.600
G1 X1370.230 Y1914.710
G1 X1356.460 Y1850.330
G1 X1419.100 Y1830.060
G1 X1356.460 Y1809.800
G1 X1370.230 Y1745.420
G1 X1321.360 Y1789.530
G1 X1272.490 Y1745.420
F150
G1 Z  -3.000
F400
G1 X1286.260 Y1809.800
G1 X1223.620 Y1830.060
G1 X1286.260 Y1850.330
G1 X1272.490 Y1914.710
G1 X1321.360 Y1870.600
G1 X1370.230 Y1914.710
G1 X1356.460 Y1850.330
G1 X1419.100 Y1830.060
G1 X1356.460 Y1809.800
G1 X1370.230 Y1745.420
G1 X1321.360 Y1789.530
G1 X1272.490 Y1745.420
F150
G1 Z   3.000
G0 Z  15.000 
M9 M5

(* SHAPE Nr: 24 *)
G0 X1664.310 Y1701.120
M3 M8
G0 Z   3.000 
G1 Z  -1.500
F400
G1 X1708.420 Y1749.990
G1 X1664.310 Y1798.860
G1 X1728.690 Y1785.090
G1 X1748.950 Y1847.730
G1 X1769.220 Y1785.090
G1 X1833.590 Y1798.860
G1 X1789.490 Y1749.990
G1 X1833.590 Y1701.120
G1 X1769.220 Y1714.890
G1 X1748.950 Y1652.250
G1 X1728.690 Y1714.890
G1 X1664.310 Y1701.120
F150
G1 Z  -3.000
F400
G1 X1708.420 Y1749.990
G1 X1664.310 Y1798.860
G1 X1728.690 Y1785.090
G1 X1748.950 Y1847.730
G1 X1769.220 Y1785.090
G1 X1833.590 Y1798.860
G1 X1789.490 Y1749.990
G1 X1833.590 Y1701.120
G1 X1769.220 Y1714.890
G1 X1748.950 Y1652.250
G1 X1728.690 Y1714.890
G1 X1664.310 Y1701.120
F150
G1 Z   3.000
G0 Z  15.000 
M9 M5

(* SHAPE Nr: 60 *)
G0 X 517.410 Y1870.710
M3 M8
G0 Z   3.000 
G1 Z  -1.500
F400
G1 X 531.180 Y1935.090
G1 X 468.540 Y1955.350
G1 X 531.180 Y1975.620
G1 X 517.410 Y2040.000
G1 X 566.280 Y1995.890
G1 X 615.150 Y2040.000
G1 X 601.380 Y1975.620
G1 X 664.020 Y1955.350
G1 X 601.380 Y1935.090
G1 X 615.150 Y1870.710
G1 X 566.280 Y1914.820
G1 X 517.410 Y1870.710
F150
G1 Z  -3.000
F400
G1 X 531.180 Y1935.090
G1 X 468.540 Y1955.350
G1 X 531.180 Y1975.620
G1 X 517.410 Y2040.000
G1 X 566.280 Y1995.890
G1 X 615.150 Y2040.000
G1 X 601.380 Y1975.620
G1 X 664.020 Y1955.350
G1 X 601.380 Y1935.090
G1 X 615.150 Y1870.710
G1 X 566.280 Y1914.820
G1 X 517.410 Y1870.710
F150
G1 Z   3.000
G0 Z  15.000 
M9 M5

(*** LAYER: BORDER_D0_T132_RK1_A0_W0_EM1_RI1_ID0007 ***)

(* SHAPE Nr: 19 *)
G0 X2259.390 Y1016.990
M3 M8
G0 Z   3.000 
G1 Z  -1.500
F400
G1 X2301.130 Y1074.440
G1 X2259.390 Y1131.890
G1 X2326.930 Y1109.940
G1 X2368.670 Y1167.390
G1 X2368.670 Y1096.380
G1 X2436.200 Y1074.440
G1 X2368.670 Y1052.490
G1 X2368.670 Y 981.480
G1 X2326.930 Y1038.930
G1 X2259.390 Y1016.990
F150
G1 Z  -3.000
F400
G1 X2301.130 Y1074.440
G1 X2259.390 Y1131.890
G1 X2326.930 Y1109.940
G1 X2368.670 Y1167.390
G1 X2368.670 Y1096.380
G1 X2436.200 Y1074.440
G1 X2368.670 Y1052.490
G1 X2368.670 Y 981.480
G1 X2326.930 Y1038.930
G1 X2259.390 Y1016.990
F150
G1 Z   3.000
G0 Z  15.000 
M9 M5

(* SHAPE Nr: 28 *)
G0 X1970.580 Y1201.960
M3 M8
G0 Z   3.000 
G1 Z  -1.500
F400
G1 X2038.110 Y1223.910
G1 X2038.110 Y1294.920
G1 X2079.850 Y1237.470
G1 X2147.390 Y1259.410
G1 X2105.650 Y1201.960
G1 X2147.390 Y1144.510
G1 X2079.850 Y1166.460
G1 X2038.110 Y1109.010
G1 X2038.110 Y1180.020
G1 X1970.580 Y1201.960
F150
G1 Z  -3.000
F400
G1 X2038.110 Y1223.910
G1 X2038.110 Y1294.920
G1 X2079.850 Y1237.470
G1 X2147.390 Y1259.410
G1 X2105.650 Y1201.960
G1 X2147.390 Y1144.510
G1 X2079.850 Y1166.460
G1 X2038.110 Y1109.010
G1 X2038.110 Y1180.020
G1 X1970.580 Y1201.960
F150
G1 Z   3.000
G0 Z  15.000 
M9 M5

(* SHAPE Nr: 30 *)
G0 X1948.440 Y 864.070
M3 M8
G0 Z   3.000 
G1 Z  -1.500
F400
G1 X2015.970 Y 886.020
G1 X2015.970 Y 957.030
G1 X2057.710 Y 899.580
G1 X2125.250 Y 921.520
G1 X2083.510 Y 864.070
G1 X2125.250 Y 806.620
G1 X2057.710 Y 828.570
G1 X2015.970 Y 771.120
G1 X2015.970 Y 842.130
G1 X1948.440 Y 864.070
F150
G1 Z  -3.000
F400
G1 X2015.970 Y 886.020
G1 X2015.970 Y 957.030
G1 X2057.710 Y 899.580
G1 X2125.250 Y 921.520
G1 X2083.510 Y 864.070
G1 X2125.250 Y 806.620
G1 X2057.710 Y 828.570
G1 X2015.970 Y 771.120
G1 X2015.970 Y 842.130
G1 X1948.440 Y 864.070
F150
G1 Z   3.000
G0 Z  15.000 
M9 M5

(* SHAPE Nr: 35 *)
G0 X1509.820 Y1042.380
M3 M8
G0 Z   3.000 
G1 Z  -1.500
F400
G1 X1577.350 Y1064.330
G1 X1577.350 Y1135.340
G1 X1619.090 Y1077.890
G1 X1686.630 Y1099.830
G1 X1644.890 Y1042.380
G1 X1686.630 Y 984.930
G1 X1619.090 Y1006.880
G1 X1577.350 Y 949.430
G1 X1577.350 Y1020.440
G1 X1509.820 Y1042.380
F150
G1 Z  -3.000
F400
G1 X1577.350 Y1064.330
G1 X1577.350 Y1135.340
G1 X1619.090 Y1077.890
G1 X1686.630 Y1099.830
G1 X1644.890 Y1042.380
G1 X1686.630 Y 984.930
G1 X1619.090 Y1006.880
G1 X1577.350 Y 949.430
G1 X1577.350 Y1020.440
G1 X1509.820 Y1042.380
F150
G1 Z   3.000
G0 Z  15.000 
M9 M5

(* SHAPE Nr: 36 *)
G0 X1385.840 Y1017.620
M3 M8
G0 Z   3.000 
G1 Z  -1.500
F400
G1 X1427.580 Y1075.070
G1 X1385.840 Y1132.520
G1 X1453.380 Y1110.570
G1 X1495.120 Y1168.020
G1 X1495.120 Y1097.010
G1 X1562.650 Y1075.070
G1 X1495.120 Y1053.120
G1 X1495.120 Y 982.110
G1 X1453.380 Y1039.560
G1 X1385.840 Y1017.620
F150
G1 Z  -3.000
F400
G1 X1427.580 Y1075.070
G1 X1385.840 Y1132.520
G1 X1453.380 Y1110.570
G1 X1495.120 Y1168.020
G1 X1495.120 Y1097.010
G1 X1562.650 Y1075.070
G1 X1495.120 Y1053.120
G1 X1495.120 Y 982.110
G1 X1453.380 Y1039.560
G1 X1385.840 Y1017.620
F150
G1 Z   3.000
G0 Z  15.000 
M9 M5

(*** LAYER: BORDER_D0_T132_RK1_A0_W0_EM1_RI1_ID0025 ***)

(* SHAPE Nr: 38 *)
G0 X1627.830 Y 552.560
M3 M8
G0 Z   3.000 
G1 Z  -1.500
F400
G1 X1627.830 Y 667.460
G1 X1737.110 Y 702.960
G1 X1804.640 Y 610.010
G1 X1737.110 Y 517.050
G1 X1627.830 Y 552.560
F150
G1 Z  -3.000
F400
G1 X1627.830 Y 667.460
G1 X1737.110 Y 702.960
G1 X1804.640 Y 610.010
G1 X1737.110 Y 517.050
G1 X1627.830 Y 552.560
F150
G1 Z   3.000
G0 Z  15.000 
M9 M5

(*** LAYER: BORDER_D0_T132_RK1_A0_W0_EM1_RI1_ID0014 ***)

(* SHAPE Nr: 66 *)
G0 X  10.000 Y 556.200
M3 M8
G0 Z   3.000 
G1 Z  -1.500
F400
G1 X  10.000 Y 638.810
G3 X 878.200 Y 638.810 I 434.100 J 360.590
G1 X 878.200 Y 597.510
G1 X 878.200 Y 556.200
G2 X  10.000 Y 556.200 I-434.100 J 443.196
F150
G1 Z  -3.000
F400
G1 X  10.000 Y 638.810
G3 X 878.200 Y 638.810 I 434.100 J 360.590
G1 X 878.200 Y 597.510
G1 X 878.200 Y 556.200
G2 X  10.000 Y 556.200 I-434.100 J 443.196
F150
G1 Z   3.000
G0 Z  15.000 
M9 M5

(* SHAPE Nr: 67 *)
G0 X  10.000 Y 660.150
M3 M8
G0 Z   3.000 
G1 Z  -1.500
F400
G1 X  10.000 Y 742.760
G3 X 878.200 Y 742.760 I 434.100 J 360.590
G1 X 878.200 Y 701.460
G1 X 878.200 Y 660.150
G2 X  10.000 Y 660.150 I-434.100 J 443.196
F150
G1 Z  -3.000
F400
G1 X  10.000 Y 742.760
G3 X 878.200 Y 742.760 I 434.100 J 360.590
G1 X 878.200 Y 701.460
G1 X 878.200 Y 660.150
G2 X  10.000 Y 660.150 I-434.100 J 443.196
F150
G1 Z   3.000
G0 Z  15.000 
M9 M5

(* SHAPE Nr: 68 *)
G0 X  10.000 Y 348.310
M3 M8
G0 Z   3.000 
G1 Z  -1.500
F400
G1 X  10.000 Y 430.920
G3 X 878.200 Y 430.920 I 434.100 J 360.591
G1 X 878.200 Y 389.620
G1 X 878.200 Y 348.310
G2 X  10.000 Y 348.310 I-434.100 J 443.196
F150
G1 Z  -3.000
F400
G1 X  10.000 Y 430.920
G3 X 878.200 Y 430.920 I 434.100 J 360.591
G1 X 878.200 Y 389.620
G1 X 878.200 Y 348.310
G2 X  10.000 Y 348.310 I-434.100 J 443.196
F150
G1 Z   3.000
G0 Z  15.000 
M9 M5

(* SHAPE Nr: 69 *)
G0 X  10.000 Y 452.260
M3 M8
G0 Z   3.000 
G1 Z  -1.500
F400
G1 X  10.000 Y 534.870
G3 X 878.200 Y 534.870 I 434.100 J 360.590
G1 X 878.200 Y 493.570
G1 X 878.200 Y 452.260
G2 X  10.000 Y 452.260 I-434.100 J 443.196
F150
G1 Z  -3.000
F400
G1 X  10.000 Y 534.870
G3 X 878.200 Y 534.870 I 434.100 J 360.590
G1 X 878.200 Y 493.570
G1 X 878.200 Y 452.260
G2 X  10.000 Y 452.260 I-434.100 J 443.196
F150
G1 Z   3.000
G0 Z  15.000 
M9 M5

(* SHAPE Nr: 70 *)
G0 X1183.170 Y  12.180
M3 M8
G0 Z   3.000 
G1 Z  -1.500
F400
G2 X1183.170 Y 880.380 I 443.196 J 434.100
G1 X1265.780 Y 880.380
G3 X1265.780 Y  12.180 I 360.591 J-434.100
G1 X1224.480 Y  12.180
G1 X1183.170 Y  12.180
F150
G1 Z  -3.000
F400
G2 X1183.170 Y 880.380 I 443.196 J 434.100
G1 X1265.780 Y 880.380
G3 X1265.780 Y  12.180 I 360.591 J-434.100
G1 X1224.480 Y  12.180
G1 X1183.170 Y  12.180
F150
G1 Z   3.000
G0 Z  15.000 
M9 M5

(* SHAPE Nr: 71 *)
G0 X1287.230 Y  12.240
M3 M8
G0 Z   3.000 
G1 Z  -1.500
F400
G2 X1287.230 Y 880.440 I 443.196 J 434.100
G1 X1369.840 Y 880.440
G3 X1369.840 Y  12.240 I 360.591 J-434.100
G1 X1328.540 Y  12.240
G1 X1287.230 Y  12.240
F150
G1 Z  -3.000
F400
G2 X1287.230 Y 880.440 I 443.196 J 434.100
G1 X1369.840 Y 880.440
G3 X1369.840 Y  12.240 I 360.591 J-434.100
G1 X1328.540 Y  12.240
G1 X1287.230 Y  12.240
F150
G1 Z   3.000
G0 Z  15.000 
M9 M5

(* SHAPE Nr: 72 *)
G0 X1393.650 Y  14.750
M3 M8
G0 Z   3.000 
G1 Z  -1.500
F400
G2 X1393.650 Y 882.950 I 443.196 J 434.100
G1 X1476.260 Y 882.950
G3 X1476.260 Y  14.750 I 360.591 J-434.100
G1 X1434.960 Y  14.750
G1 X1393.650 Y  14.750
F150
G1 Z  -3.000
F400
G2 X1393.650 Y 882.950 I 443.196 J 434.100
G1 X1476.260 Y 882.950
G3 X1476.260 Y  14.750 I 360.591 J-434.100
G1 X1434.960 Y  14.750
G1 X1393.650 Y  14.750
F150
G1 Z   3.000
G0 Z  15.000 
M9 M5

(* SHAPE Nr: 73 *)
G0 X1497.630 Y  14.750
M3 M8
G0 Z   3.000 
G1 Z  -1.500
F400
G2 X1497.630 Y 882.950 I 443.196 J 434.100
G1 X1580.240 Y 882.950
G3 X1580.240 Y  14.750 I 360.591 J-434.100
G1 X1538.940 Y  14.750
G1 X1497.630 Y  14.750
F150
G1 Z  -3.000
F400
G2 X1497.630 Y 882.950 I 443.196 J 434.100
G1 X1580.240 Y 882.950
G3 X1580.240 Y  14.750 I 360.591 J-434.100
G1 X1538.940 Y  14.750
G1 X1497.630 Y  14.750
F150
G1 Z   3.000
G0 Z  15.000 
M9 M5

(* SHAPE Nr: 74 *)
G0 X1393.670 Y1171.800
M3 M8
G0 Z   3.000 
G1 Z  -1.500
F400
G3 X1393.670 Y2040.000 I-360.591 J 434.100
G1 X1434.970 Y2040.000
G1 X1476.280 Y2040.000
G2 X1476.280 Y1171.800 I-443.198 J-434.100
G1 X1393.670 Y1171.800
F150
G1 Z  -3.000
F400
G3 X1393.670 Y2040.000 I-360.591 J 434.100
G1 X1434.970 Y2040.000
G1 X1476.280 Y2040.000
G2 X1476.280 Y1171.800 I-443.198 J-434.100
G1 X1393.670 Y1171.800
F150
G1 Z   3.000
G0 Z  15.000 
M9 M5

(* SHAPE Nr: 75 *)
G0 X1289.720 Y1171.800
M3 M8
G0 Z   3.000 
G1 Z  -1.500
F400
G3 X1289.720 Y2040.000 I-360.591 J 434.100
G1 X1331.020 Y2040.000
G1 X1372.330 Y2040.000
G2 X1372.330 Y1171.800 I-443.198 J-434.100
G1 X1289.720 Y1171.800
F150
G1 Z  -3.000
F400
G3 X1289.720 Y2040.000 I-360.591 J 434.100
G1 X1331.020 Y2040.000
G1 X1372.330 Y2040.000
G2 X1372.330 Y1171.800 I-443.198 J-434.100
G1 X1289.720 Y1171.800
F150
G1 Z   3.000
G0 Z  15.000 
M9 M5

(*** LAYER: BORDER_D0_T132_RK1_A0_W0_EM1_RI1_ID0020 ***)

(* SHAPE Nr: 76 *)
G0 X 179.250 Y  51.220
M3 M8
G0 Z   3.000 
G1 Z  -1.500
F400
G2 X 182.990 Y  68.190 I  41.227 J  -0.189
G2 X 194.080 Y  84.650 I  55.807 J -25.634
G2 X 212.200 Y 100.090 I  77.344 J -72.417
G2 X 236.790 Y 114.050 I  99.664 J-146.917
G2 X 267.100 Y 126.090 I 115.619 J-246.893
G2 X 302.220 Y 135.860 I 119.400 J-361.196
G2 X 341.070 Y 143.070 I 107.781 J-472.487
G2 X 382.480 Y 147.470 I  80.598 J-561.472
G2 X 425.190 Y 148.960 I  42.711 J-611.416
G2 X 467.900 Y 147.470 I  -0.001 J-612.906
G2 X 509.310 Y 143.070 I -39.188 J-565.872
G2 X 548.160 Y 135.860 I -68.931 J-479.697
G2 X 583.280 Y 126.090 I -84.280 J-370.966
G2 X 613.590 Y 114.050 I -85.309 J-258.933
G2 X 638.180 Y 100.090 I -75.074 J-160.877
G2 X 656.300 Y  84.650 I -59.224 J -87.857
G2 X 667.390 Y  68.190 I -44.717 J -42.094
G2 X 671.130 Y  51.220 I -37.487 J -17.159
G1 X 425.190 Y  51.220
G1 X 179.250 Y  51.220
F150
G1 Z  -3.000
F400
G2 X 182.990 Y  68.190 I  41.227 J  -0.189
G2 X 194.080 Y  84.650 I  55.807 J -25.634
G2 X 212.200 Y 100.090 I  77.344 J -72.417
G2 X 236.790 Y 114.050 I  99.664 J-146.917
G2 X 267.100 Y 126.090 I 115.619 J-246.893
G2 X 302.220 Y 135.860 I 119.400 J-361.196
G2 X 341.070 Y 143.070 I 107.781 J-472.487
G2 X 382.480 Y 147.470 I  80.598 J-561.472
G2 X 425.190 Y 148.960 I  42.711 J-611.416
G2 X 467.900 Y 147.470 I  -0.001 J-612.906
G2 X 509.310 Y 143.070 I -39.188 J-565.872
G2 X 548.160 Y 135.860 I -68.931 J-479.697
G2 X 583.280 Y 126.090 I -84.280 J-370.966
G2 X 613.590 Y 114.050 I -85.309 J-258.933
G2 X 638.180 Y 100.090 I -75.074 J-160.877
G2 X 656.300 Y  84.650 I -59.224 J -87.857
G2 X 667.390 Y  68.190 I -44.717 J -42.094
G2 X 671.130 Y  51.220 I -37.487 J -17.159
G1 X 425.190 Y  51.220
G1 X 179.250 Y  51.220
F150
G1 Z   3.000
G0 Z  15.000 
M9 M5

(* SHAPE Nr: 77 *)
G0 X 915.770 Y 262.590
M3 M8
G0 Z   3.000 
G1 Z  -1.500
F400
G2 X 906.000 Y 297.710 I 361.196 J 119.400
G2 X 898.790 Y 336.560 I 472.487 J 107.781
G2 X 894.390 Y 377.970 I 561.472 J  80.598
G2 X 892.900 Y 420.680 I 611.451 J  42.712
G2 X 894.390 Y 463.390 I 612.906 J  -0.001
G2 X 898.790 Y 504.800 I 565.872 J -39.188
G2 X 906.000 Y 543.650 I 479.697 J -68.931
G2 X 915.770 Y 578.770 I 370.966 J -84.280
G2 X 927.810 Y 609.080 I 258.933 J -85.309
G2 X 941.770 Y 633.670 I 160.877 J -75.074
G2 X 957.210 Y 651.790 I  87.858 J -59.225
G2 X 973.670 Y 662.880 I  42.094 J -44.717
G2 X 990.640 Y 666.620 I  17.159 J -37.487
G1 X 990.640 Y 420.680
G1 X 990.640 Y 174.740
G2 X 973.670 Y 178.480 I   0.189 J  41.227
G2 X 957.210 Y 189.570 I  25.634 J  55.807
G2 X 941.770 Y 207.690 I  72.418 J  77.345
G2 X 927.810 Y 232.280 I 146.917 J  99.664
G2 X 915.770 Y 262.590 I 246.893 J 115.619
F150
G1 Z  -3.000
F400
G2 X 906.000 Y 297.710 I 361.196 J 119.400
G2 X 898.790 Y 336.560 I 472.487 J 107.781
G2 X 894.390 Y 377.970 I 561.472 J  80.598
G2 X 892.900 Y 420.680 I 611.451 J  42.712
G2 X 894.390 Y 463.390 I 612.906 J  -0.001
G2 X 898.790 Y 504.800 I 565.872 J -39.188
G2 X 906.000 Y 543.650 I 479.697 J -68.931
G2 X 915.770 Y 578.770 I 370.966 J -84.280
G2 X 927.810 Y 609.080 I 258.933 J -85.309
G2 X 941.770 Y 633.670 I 160.877 J -75.074
G2 X 957.210 Y 651.790 I  87.858 J -59.225
G2 X 973.670 Y 662.880 I  42.094 J -44.717
G2 X 990.640 Y 666.620 I  17.159 J -37.487
G1 X 990.640 Y 420.680
G1 X 990.640 Y 174.740
G2 X 973.670 Y 178.480 I   0.189 J  41.227
G2 X 957.210 Y 189.570 I  25.634 J  55.807
G2 X 941.770 Y 207.690 I  72.418 J  77.345
G2 X 927.810 Y 232.280 I 146.917 J  99.664
G2 X 915.770 Y 262.590 I 246.893 J 115.619
F150
G1 Z   3.000
G0 Z  15.000 
M9 M5

(*** LAYER: BORDER_D0_T132.1_RK1_A0_W0_EM1 ***)

(* SHAPE Nr: 78 *)
G0 X 167.700 Y1254.710
M3 M8
G0 Z   3.000 
G1 Z  -1.500
F400
G1 X 265.160 Y1554.660
G1 X  10.000 Y1740.040
G1 X 325.390 Y1740.040
G1 X 422.850 Y2040.000
G1 X 520.320 Y1740.040
G1 X 835.710 Y1740.040
G1 X 580.550 Y1554.660
G1 X 678.010 Y1254.710
G1 X 422.850 Y1440.090
G1 X 167.700 Y1254.710
F150
G1 Z  -3.000
F400
G1 X 265.160 Y1554.660
G1 X  10.000 Y1740.040
G1 X 325.390 Y1740.040
G1 X 422.850 Y2040.000
G1 X 520.320 Y1740.040
G1 X 835.710 Y1740.040
G1 X 580.550 Y1554.660
G1 X 678.010 Y1254.710
G1 X 422.850 Y1440.090
G1 X 167.700 Y1254.710
F150
G1 Z   3.000
G0 Z  15.000 
M9 M5

(* SHAPE Nr: 79 *)
G0 X 517.410 Y1870.710
M3 M8
G0 Z   3.000 
G1 Z  -1.500
F400
G1 X 531.170 Y1935.090
G1 X 468.540 Y1955.350
G1 X 531.170 Y1975.620
G1 X 517.410 Y2040.000
G1 X 566.280 Y1995.890
G1 X 615.150 Y2040.000
G1 X 601.380 Y1975.620
G1 X 664.020 Y1955.350
G1 X 601.380 Y1935.090
G1 X 615.150 Y1870.710
G1 X 566.280 Y1914.820
G1 X 517.410 Y1870.710
F150
G1 Z  -3.000
F400
G1 X 531.170 Y1935.090
G1 X 468.540 Y1955.350
G1 X 531.170 Y1975.620
G1 X 517.410 Y2040.000
G1 X 566.280 Y1995.890
G1 X 615.150 Y2040.000
G1 X 601.380 Y1975.620
G1 X 664.020 Y1955.350
G1 X 601.380 Y1935.090
G1 X 615.150 Y1870.710
G1 X 566.280 Y1914.820
G1 X 517.410 Y1870.710
F150
G1 Z   3.000
G0 Z  15.000 
M9 M5

(* SHAPE Nr: 80 *)
G0 X  10.000 Y 556.200
M3 M8
G0 Z   3.000 
G1 Z  -1.500
F400
G1 X  10.000 Y 638.810
G3 X 878.200 Y 638.810 I 434.100 J 360.590
G1 X 878.200 Y 556.200
G2 X  10.000 Y 556.200 I-434.100 J 443.196
F150
G1 Z  -3.000
F400
G1 X  10.000 Y 638.810
G3 X 878.200 Y 638.810 I 434.100 J 360.590
G1 X 878.200 Y 556.200
G2 X  10.000 Y 556.200 I-434.100 J 443.196
F150
G1 Z   3.000
G0 Z  15.000 
M9 M5

(* SHAPE Nr: 81 *)
G0 X  10.000 Y 348.310
M3 M8
G0 Z   3.000 
G1 Z  -1.500
F400
G1 X  10.000 Y 430.920
G3 X 878.200 Y 430.920 I 434.100 J 360.591
G1 X 878.200 Y 348.310
G2 X  10.000 Y 348.310 I-434.100 J 443.196
F150
G1 Z  -3.000
F400
G1 X  10.000 Y 430.920
G3 X 878.200 Y 430.920 I 434.100 J 360.591
G1 X 878.200 Y 348.310
G2 X  10.000 Y 348.310 I-434.100 J 443.196
F150
G1 Z   3.000
G0 Z  15.000 
M9 M5

(* SHAPE Nr: 82 *)
G0 X1183.180 Y  12.170
M3 M8
G0 Z   3.000 
G1 Z  -1.500
F400
G2 X1183.180 Y 880.370 I 443.196 J 434.100
G1 X1265.790 Y 880.370
G3 X1265.790 Y  12.170 I 360.591 J-434.100
G1 X1183.180 Y  12.170
F150
G1 Z  -3.000
F400
G2 X1183.180 Y 880.370 I 443.196 J 434.100
G1 X1265.790 Y 880.370
G3 X1265.790 Y  12.170 I 360.591 J-434.100
G1 X1183.180 Y  12.170
F150
G1 Z   3.000
G0 Z  15.000 
M9 M5

(* SHAPE Nr: 83 *)
G0 X1393.650 Y  14.740
M3 M8
G0 Z   3.000 
G1 Z  -1.500
F400
G2 X1393.650 Y 882.940 I 443.196 J 434.100
G1 X1476.260 Y 882.940
G3 X1476.260 Y  14.740 I 360.591 J-434.100
G1 X1393.650 Y  14.740
F150
G1 Z  -3.000
F400
G2 X1393.650 Y 882.940 I 443.196 J 434.100
G1 X1476.260 Y 882.940
G3 X1476.260 Y  14.740 I 360.591 J-434.100
G1 X1393.650 Y  14.740
F150
G1 Z   3.000
G0 Z  15.000 
M9 M5

(* SHAPE Nr: 84 *)
G0 X1393.670 Y1171.800
M3 M8
G0 Z   3.000 
G1 Z  -1.500
F400
G3 X1393.670 Y2040.000 I-360.591 J 434.100
G1 X1476.270 Y2040.000
G2 X1476.270 Y1171.800 I-443.198 J-434.100
G1 X1393.670 Y1171.800
F150
G1 Z  -3.000
F400
G3 X1393.670 Y2040.000 I-360.591 J 434.100
G1 X1476.270 Y2040.000
G2 X1476.270 Y1171.800 I-443.198 J-434.100
G1 X1393.670 Y1171.800
F150
G1 Z   3.000
G0 Z  15.000 
M9 M5

(* SHAPE Nr: 85 *)
G0 X 179.240 Y  51.220
M3 M8
G0 Z   3.000 
G1 Z  -1.500
F400
G2 X 182.980 Y  68.190 I  41.224 J  -0.188
G2 X 194.080 Y  84.650 I  55.810 J -25.663
G2 X 212.200 Y 100.090 I  77.348 J -72.421
G2 X 236.780 Y 114.050 I  99.668 J-146.870
G2 X 267.100 Y 126.090 I 115.604 J-246.926
G2 X 302.210 Y 135.870 I 119.507 J-361.117
G2 X 341.070 Y 143.070 I 107.659 J-472.591
G2 X 382.480 Y 147.480 I  80.734 J-561.467
G2 X 425.180 Y 148.960 I  42.565 J-611.348
G2 X 467.890 Y 147.480 I   0.140 J-612.971
G2 X 509.300 Y 143.070 I -39.324 J-565.877
G2 X 548.160 Y 135.870 I -68.799 J-479.791
G2 X 583.270 Y 126.090 I -84.397 J-370.897
G2 X 613.590 Y 114.050 I -85.284 J-258.966
G2 X 638.170 Y 100.090 I -75.088 J-160.830
G2 X 656.290 Y  84.650 I -59.227 J -87.859
G2 X 667.390 Y  68.190 I -44.710 J -42.123
G2 X 671.130 Y  51.220 I -37.484 J -17.158
G1 X 179.240 Y  51.220
F150
G1 Z  -3.000
F400
G2 X 182.980 Y  68.190 I  41.224 J  -0.188
G2 X 194.080 Y  84.650 I  55.810 J -25.663
G2 X 212.200 Y 100.090 I  77.348 J -72.421
G2 X 236.780 Y 114.050 I  99.668 J-146.870
G2 X 267.100 Y 126.090 I 115.604 J-246.926
G2 X 302.210 Y 135.870 I 119.507 J-361.117
G2 X 341.070 Y 143.070 I 107.659 J-472.591
G2 X 382.480 Y 147.480 I  80.734 J-561.467
G2 X 425.180 Y 148.960 I  42.565 J-611.348
G2 X 467.890 Y 147.480 I   0.140 J-612.971
G2 X 509.300 Y 143.070 I -39.324 J-565.877
G2 X 548.160 Y 135.870 I -68.799 J-479.791
G2 X 583.270 Y 126.090 I -84.397 J-370.897
G2 X 613.590 Y 114.050 I -85.284 J-258.966
G2 X 638.170 Y 100.090 I -75.088 J-160.830
G2 X 656.290 Y  84.650 I -59.227 J -87.859
G2 X 667.390 Y  68.190 I -44.710 J -42.123
G2 X 671.130 Y  51.220 I -37.484 J -17.158
G1 X 179.240 Y  51.220
F150
G1 Z   3.000
G0 Z  15.000 
M9 M5

(* SHAPE Nr: 86 *)
G0 X 915.770 Y 262.590
M3 M8
G0 Z   3.000 
G1 Z  -1.500
F400
G2 X 905.990 Y 297.710 I 361.221 J 119.512
G2 X 898.790 Y 336.560 I 472.468 J 107.654
G2 X 894.390 Y 377.970 I 561.472 J  80.598
G2 X 892.900 Y 420.680 I 611.486 J  42.714
G2 X 894.390 Y 463.380 I 612.833 J  -0.009
G2 X 898.790 Y 504.790 I 565.872 J -39.188
G2 X 905.990 Y 543.650 I 479.791 J -68.799
G2 X 915.770 Y 578.760 I 370.897 J -84.397
G2 X 927.810 Y 609.080 I 258.966 J -85.284
G2 X 941.770 Y 633.670 I 160.893 J -75.083
G2 X 957.210 Y 651.780 I  87.817 J -59.233
G2 X 973.670 Y 662.880 I  42.123 J -44.710
G2 X 990.640 Y 666.620 I  17.158 J -37.484
G1 X 990.640 Y 174.740
G2 X 973.670 Y 178.470 I   0.165 J  41.219
G2 X 957.210 Y 189.570 I  25.663 J  55.810
G2 X 941.770 Y 207.690 I  72.421 J  77.348
G2 X 927.810 Y 232.280 I 146.933 J  99.673
G2 X 915.770 Y 262.590 I 246.843 J 115.599
F150
G1 Z  -3.000
F400
G2 X 905.990 Y 297.710 I 361.221 J 119.512
G2 X 898.790 Y 336.560 I 472.468 J 107.654
G2 X 894.390 Y 377.970 I 561.472 J  80.598
G2 X 892.900 Y 420.680 I 611.486 J  42.714
G2 X 894.390 Y 463.380 I 612.833 J  -0.009
G2 X 898.790 Y 504.790 I 565.872 J -39.188
G2 X 905.990 Y 543.650 I 479.791 J -68.799
G2 X 915.770 Y 578.760 I 370.897 J -84.397
G2 X 927.810 Y 609.080 I 258.966 J -85.284
G2 X 941.770 Y 633.670 I 160.893 J -75.083
G2 X 957.210 Y 651.780 I  87.817 J -59.233
G2 X 973.670 Y 662.880 I  42.123 J -44.710
G2 X 990.640 Y 666.620 I  17.158 J -37.484
G1 X 990.640 Y 174.740
G2 X 973.670 Y 178.470 I   0.165 J  41.219
G2 X 957.210 Y 189.570 I  25.663 J  55.810
G2 X 941.770 Y 207.690 I  72.421 J  77.348
G2 X 927.810 Y 232.280 I 146.933 J  99.673
G2 X 915.770 Y 262.590 I 246.843 J 115.599
F150
G1 Z   3.000
G0 Z  15.000 
M9 M5

(* SHAPE Nr: 87 *)
G0 X1289.720 Y1171.800
M3 M8
G0 Z   3.000 
G1 Z  -1.500
F400
G3 X1289.720 Y2040.000 I-360.591 J 434.100
G1 X1372.320 Y2040.000
G2 X1372.320 Y1171.800 I-443.198 J-434.100
G1 X1289.720 Y1171.800
F150
G1 Z  -3.000
F400
G3 X1289.720 Y2040.000 I-360.591 J 434.100
G1 X1372.320 Y2040.000
G2 X1372.320 Y1171.800 I-443.198 J-434.100
G1 X1289.720 Y1171.800
F150
G1 Z   3.000
G0 Z  15.000 
M9 M5

(* SHAPE Nr: 88 *)
G0 X1497.630 Y  14.740
M3 M8
G0 Z   3.000 
G1 Z  -1.500
F400
G2 X1497.630 Y 882.940 I 443.196 J 434.100
G1 X1580.240 Y 882.940
G3 X1580.240 Y  14.740 I 360.591 J-434.100
G1 X1497.630 Y  14.740
F150
G1 Z  -3.000
F400
G2 X1497.630 Y 882.940 I 443.196 J 434.100
G1 X1580.240 Y 882.940
G3 X1580.240 Y  14.740 I 360.591 J-434.100
G1 X1497.630 Y  14.740
F150
G1 Z   3.000
G0 Z  15.000 
M9 M5

(* SHAPE Nr: 89 *)
G0 X1287.240 Y  12.240
M3 M8
G0 Z   3.000 
G1 Z  -1.500
F400
G2 X1287.240 Y 880.440 I 443.196 J 434.100
G1 X1369.840 Y 880.440
G3 X1369.840 Y  12.240 I 360.591 J-434.100
G1 X1287.240 Y  12.240
F150
G1 Z  -3.000
F400
G2 X1287.240 Y 880.440 I 443.196 J 434.100
G1 X1369.840 Y 880.440
G3 X1369.840 Y  12.240 I 360.591 J-434.100
G1 X1287.240 Y  12.240
F150
G1 Z   3.000
G0 Z  15.000 
M9 M5

(* SHAPE Nr: 90 *)
G0 X  10.000 Y 452.260
M3 M8
G0 Z   3.000 
G1 Z  -1.500
F400
G1 X  10.000 Y 534.860
G3 X 878.200 Y 534.860 I 434.100 J 360.590
G1 X 878.200 Y 452.260
G2 X  10.000 Y 452.260 I-434.100 J 443.196
F150
G1 Z  -3.000
F400
G1 X  10.000 Y 534.860
G3 X 878.200 Y 534.860 I 434.100 J 360.590
G1 X 878.200 Y 452.260
G2 X  10.000 Y 452.260 I-434.100 J 443.196
F150
G1 Z   3.000
G0 Z  15.000 
M9 M5

(* SHAPE Nr: 91 *)
G0 X  10.000 Y 660.150
M3 M8
G0 Z   3.000 
G1 Z  -1.500
F400
G1 X  10.000 Y 742.760
G3 X 878.200 Y 742.760 I 434.100 J 360.591
G1 X 878.200 Y 660.150
G2 X  10.000 Y 660.150 I-434.100 J 443.196
F150
G1 Z  -3.000
F400
G1 X  10.000 Y 742.760
G3 X 878.200 Y 742.760 I 434.100 J 360.591
G1 X 878.200 Y 660.150
G2 X  10.000 Y 660.150 I-434.100 J 443.196
F150
G1 Z   3.000
G0 Z  15.000 
M9 M5

(* SHAPE Nr: 93 *)
G0 X -14.700 Y  98.460
M3 M8
G0 Z   3.000 
G1 Z  -1.500
F400
G1 X  10.000 Y  98.460
G1 X  10.000 Y 173.560
G1 X  45.510 Y 222.430
G1 X 102.960 Y 241.100
G1 X 160.410 Y 222.430
G1 X 195.910 Y 173.560
G1 X 195.910 Y 113.150
G1 X 160.410 Y  64.290
G1 X 102.960 Y  45.620
F150
G1 Z  -3.000
F400
G1 X 160.410 Y  64.290
G1 X 195.910 Y 113.150
G1 X 195.910 Y 173.560
G1 X 160.410 Y 222.430
G1 X 102.960 Y 241.100
G1 X  45.510 Y 222.430
G1 X  10.000 Y 173.560
G1 X  10.000 Y  98.460
G1 X -14.700 Y  98.460
F150
G1 Z   3.000
G0 Z  15.000 
M9 M5

(* SHAPE Nr: 94 *)
G0 X 765.160 Y  57.040
M3 M8
G0 Z   3.000 
G1 Z  -1.500
F400
G1 X 716.290 Y  92.550
G1 X 697.630 Y 150.000
G1 X 716.290 Y 207.450
G1 X 765.160 Y 242.960
G1 X 825.570 Y 242.960
G1 X 874.440 Y 207.450
G1 X 893.110 Y 150.000
G1 X 874.440 Y  92.550
G1 X 825.570 Y  57.040
G1 X 751.930 Y  57.040
G1 X 751.930 Y  42.340
G1 X 102.960 Y  45.620
G1 X  45.510 Y  64.290
G1 X  10.000 Y 113.150
F150
G1 Z  -3.000
F400
G1 X  45.510 Y  64.290
G1 X 102.960 Y  45.620
G1 X 751.930 Y  42.340
G1 X 751.930 Y  57.040
G1 X 825.570 Y  57.040
G1 X 874.440 Y  92.550
G1 X 893.110 Y 150.000
G1 X 874.440 Y 207.450
G1 X 825.570 Y 242.960
G1 X 765.160 Y 242.960
G1 X 716.290 Y 207.450
G1 X 697.630 Y 150.000
G1 X 716.290 Y  92.550
G1 X 765.160 Y  57.040
F150
G1 Z   3.000
G0 Z  15.000 
M9 M5

(* SHAPE Nr: 95 *)
G0 X 605.640 Y 932.250
M3 M8
G0 Z   3.000 
G1 Z  -1.500
F400
G1 X 860.790 Y1117.630
G1 X 763.330 Y1417.590
G1 X1018.490 Y1232.210
G1 X1273.650 Y1417.590
G1 X1176.190 Y1117.630
G1 X1431.340 Y 932.250
G1 X1115.950 Y 932.250
G1 X1018.490 Y 632.290
G1 X 921.030 Y 932.250
G1 X 605.640 Y 932.250
F150
G1 Z  -3.000
F400
G1 X 860.790 Y1117.630
G1 X 763.330 Y1417.590
G1 X1018.490 Y1232.210
G1 X1273.650 Y1417.590
G1 X1176.190 Y1117.630
G1 X1431.340 Y 932.250
G1 X1115.950 Y 932.250
G1 X1018.490 Y 632.290
G1 X 921.030 Y 932.250
G1 X 605.640 Y 932.250
F150
G1 Z   3.000
G0 Z  15.000 
M9 M5

(* SHAPE Nr: 96 *)
G0 X 167.700 Y 632.290
M3 M8
G0 Z   3.000 
G1 Z  -1.500
F400
G1 X 265.160 Y 932.250
G1 X  10.000 Y1117.630
G1 X 325.390 Y1117.630
G1 X 422.850 Y1417.590
G1 X 520.320 Y1117.630
G1 X 835.710 Y1117.630
G1 X 580.550 Y 932.250
G1 X 678.010 Y 632.290
G1 X 422.850 Y 817.680
G1 X 167.700 Y 632.290
F150
G1 Z  -3.000
F400
G1 X 265.160 Y 932.250
G1 X  10.000 Y1117.630
G1 X 325.390 Y1117.630
G1 X 422.850 Y1417.590
G1 X 520.320 Y1117.630
G1 X 835.710 Y1117.630
G1 X 580.550 Y 932.250
G1 X 678.010 Y 632.290
G1 X 422.850 Y 817.680
G1 X 167.700 Y 632.290
F150
G1 Z   3.000
G0 Z  15.000 
M9 M5

(* SHAPE Nr: 97 *)
G0 X1370.230 Y1745.420
M3 M8
G0 Z   3.000 
G1 Z  -1.500
F400
G1 X1321.360 Y1789.530
G1 X1272.490 Y1745.420
G1 X1286.260 Y1809.790
G1 X1223.620 Y1830.060
G1 X1286.260 Y1850.330
G1 X1272.490 Y1914.700
G1 X1321.360 Y1870.590
G1 X1370.230 Y1914.700
G1 X1356.460 Y1850.330
G1 X1419.100 Y1830.060
G1 X1356.460 Y1809.790
G1 X1372.990 Y1732.480
G1 X1431.340 Y1554.660
G1 X1115.950 Y1554.660
G1 X1018.490 Y1254.710
G1 X 921.030 Y1554.660
G1 X 605.640 Y1554.660
G1 X 860.790 Y1740.050
G1 X 763.330 Y2040.000
G1 X1018.490 Y1854.620
G1 X1273.650 Y2040.000
G1 X1176.190 Y1740.050
G1 X1431.340 Y1554.660
F150
G1 Z  -3.000
F400
G1 X1176.190 Y1740.050
G1 X1273.650 Y2040.000
G1 X1018.490 Y1854.620
G1 X 763.330 Y2040.000
G1 X 860.790 Y1740.050
G1 X 605.640 Y1554.660
G1 X 921.030 Y1554.660
G1 X1018.490 Y1254.710
G1 X1115.950 Y1554.660
G1 X1431.340 Y1554.660
G1 X1372.990 Y1732.480
G1 X1356.460 Y1809.790
G1 X1419.100 Y1830.060
G1 X1356.460 Y1850.330
G1 X1370.230 Y1914.700
G1 X1321.360 Y1870.590
G1 X1272.490 Y1914.700
G1 X1286.260 Y1850.330
G1 X1223.620 Y1830.060
G1 X1286.260 Y1809.790
G1 X1272.490 Y1745.420
G1 X1321.360 Y1789.530
G1 X1370.230 Y1745.420
F150
G1 Z   3.000
G0 Z  15.000 
M9 M5

(* SHAPE Nr: 98 *)
G0 X1941.190 Y1863.190
M3 M8
G0 Z   3.000 
G1 Z  -1.500
F400
G1 X1976.700 Y1912.060
G1 X1976.700 Y1972.460
G1 X1941.190 Y2021.330
G1 X1883.740 Y2040.000
G1 X1826.290 Y2021.330
G1 X1790.790 Y1972.460
G1 X1790.790 Y1965.110
G1 X1776.050 Y1965.110
G1 X1776.050 Y1972.460
G1 X1740.540 Y2021.330
G1 X1683.090 Y2040.000
G1 X1625.640 Y2021.330
G1 X1590.130 Y1972.460
G1 X1590.130 Y1912.060
G1 X1625.640 Y1863.190
G1 X1683.090 Y1844.520
G1 X1740.540 Y1863.190
G1 X1776.050 Y1912.060
G1 X1776.050 Y1985.690
G1 X1790.790 Y1985.690
G1 X1790.790 Y1912.060
G1 X1826.290 Y1863.190
G1 X1883.740 Y1844.520
G1 X1941.190 Y1863.190
G1 X1953.780 Y1867.280
G1 X2014.310 Y1867.280
G1 X2084.340 Y1844.520
G1 X2141.790 Y1863.190
G1 X2177.300 Y1912.060
G1 X2177.300 Y1985.690
G1 X2192.000 Y1985.690
G1 X2192.000 Y1912.060
G1 X2227.510 Y1863.190
G1 X2284.960 Y1844.520
G1 X2342.410 Y1863.190
G1 X2354.990 Y1867.280
G1 X2415.530 Y1867.280
G1 X2485.560 Y1844.520
G1 X2498.140 Y1840.430
G1 X2499.580 Y1814.400
G1 X2490.940 Y1802.510
G1 X2431.360 Y1845.790
G1 X2370.960 Y1845.790
G1 X2322.090 Y1810.290
G1 X2303.420 Y1752.840
G1 X2322.090 Y1695.390
G1 X2370.960 Y1659.880
G1 X2444.590 Y1659.880
G1 X2444.590 Y1645.180
G1 X2441.520 Y1625.050
G1 X2441.520 Y1564.640
F150
G1 Z  -3.000
F400
G1 X2441.520 Y1625.050
G1 X2444.590 Y1645.180
G1 X2444.590 Y1659.880
G1 X2370.960 Y1659.880
G1 X2322.090 Y1695.390
G1 X2303.420 Y1752.840
G1 X2322.090 Y1810.290
G1 X2370.960 Y1845.790
G1 X2431.360 Y1845.790
G1 X2490.940 Y1802.510
G1 X2499.580 Y1814.400
G1 X2498.140 Y1840.430
G1 X2485.560 Y1844.520
G1 X2415.530 Y1867.280
G1 X2354.990 Y1867.280
G1 X2342.410 Y1863.190
G1 X2284.960 Y1844.520
G1 X2227.510 Y1863.190
G1 X2192.000 Y1912.060
G1 X2192.000 Y1985.690
G1 X2177.300 Y1985.690
G1 X2177.300 Y1912.060
G1 X2141.790 Y1863.190
G1 X2084.340 Y1844.520
G1 X2014.310 Y1867.280
G1 X1953.780 Y1867.280
G1 X1941.190 Y1863.190
G1 X1883.740 Y1844.520
G1 X1826.290 Y1863.190
G1 X1790.790 Y1912.060
G1 X1790.790 Y1985.690
G1 X1776.050 Y1985.690
G1 X1776.050 Y1912.060
G1 X1740.540 Y1863.190
G1 X1683.090 Y1844.520
G1 X1625.640 Y1863.190
G1 X1590.130 Y1912.060
G1 X1590.130 Y1972.460
G1 X1625.640 Y2021.330
G1 X1683.090 Y2040.000
G1 X1740.540 Y2021.330
G1 X1776.050 Y1972.460
G1 X1776.050 Y1965.110
G1 X1790.790 Y1965.110
G1 X1790.790 Y1972.460
G1 X1826.290 Y2021.330
G1 X1883.740 Y2040.000
G1 X1941.190 Y2021.330
G1 X1976.700 Y1972.460
G1 X1976.700 Y1912.060
G1 X1941.190 Y1863.190
F150
G1 Z   3.000
G0 Z  15.000 
M9 M5

(* SHAPE Nr: 99 *)
G0 X2026.890 Y1863.190
M3 M8
G0 Z   3.000 
G1 Z  -1.500
F400
G1 X1991.390 Y1912.060
G1 X1991.390 Y1972.460
G1 X2026.890 Y2021.330
G1 X2084.340 Y2040.000
G1 X2141.790 Y2021.330
G1 X2177.300 Y1972.460
G1 X2177.300 Y1965.110
G1 X2192.000 Y1965.110
G1 X2192.000 Y1972.460
G1 X2227.510 Y2021.330
G1 X2284.960 Y2040.000
G1 X2342.410 Y2021.330
G1 X2377.910 Y1972.460
G1 X2377.910 Y1912.060
G1 X2342.410 Y1863.190
F150
G1 Z  -3.000
F400
G1 X2377.910 Y1912.060
G1 X2377.910 Y1972.460
G1 X2342.410 Y2021.330
G1 X2284.960 Y2040.000
G1 X2227.510 Y2021.330
G1 X2192.000 Y1972.460
G1 X2192.000 Y1965.110
G1 X2177.300 Y1965.110
G1 X2177.300 Y1972.460
G1 X2141.790 Y2021.330
G1 X2084.340 Y2040.000
G1 X2026.890 Y2021.330
G1 X1991.390 Y1972.460
G1 X1991.390 Y1912.060
G1 X2026.890 Y1863.190
F150
G1 Z   3.000
G0 Z  15.000 
M9 M5

(* SHAPE Nr: 100 *)
G0 X2428.110 Y1863.190
M3 M8
G0 Z   3.000 
G1 Z  -1.500
F400
G1 X2392.600 Y1912.060
G1 X2392.600 Y1972.460
G1 X2428.110 Y2021.330
G1 X2485.560 Y2040.000
G1 X2543.010 Y2021.330
G1 X2578.520 Y1972.460
G1 X2578.520 Y1912.060
G1 X2543.010 Y1863.190
G1 X2485.560 Y1844.520
G1 X2472.980 Y1840.430
G1 X2480.230 Y1810.290
G1 X2498.900 Y1752.840
G1 X2480.230 Y1695.390
G1 X2431.360 Y1659.880
G1 X2420.660 Y1652.100
G1 X2421.850 Y1622.980
G1 X2433.750 Y1614.340
G1 X2441.520 Y1625.050
G1 X2477.030 Y1673.920
G1 X2534.480 Y1692.580
G1 X2591.930 Y1673.920
G1 X2627.440 Y1625.050
G1 X2627.440 Y1564.640
G1 X2591.930 Y1515.770
G1 X2534.480 Y1497.100
G1 X2477.030 Y1515.770
G1 X2441.520 Y1564.640
G1 X2433.750 Y1575.340
G1 X2421.850 Y1566.700
G1 X2430.520 Y1530.260
G1 X2441.220 Y1522.480
G1 X2490.090 Y1486.980
G1 X2508.760 Y1429.530
G1 X2490.090 Y1372.080
F150
G1 Z  -3.000
F400
G1 X2508.760 Y1429.530
G1 X2490.090 Y1486.980
G1 X2441.220 Y1522.480
G1 X2430.520 Y1530.260
G1 X2421.850 Y1566.700
G1 X2433.750 Y1575.340
G1 X2441.520 Y1564.640
G1 X2477.030 Y1515.770
G1 X2534.480 Y1497.100
G1 X2591.930 Y1515.770
G1 X2627.440 Y1564.640
G1 X2627.440 Y1625.050
G1 X2591.930 Y1673.920
G1 X2534.480 Y1692.580
G1 X2477.030 Y1673.920
G1 X2441.520 Y1625.050
G1 X2433.750 Y1614.340
G1 X2421.850 Y1622.980
G1 X2420.660 Y1652.100
G1 X2431.360 Y1659.880
G1 X2480.230 Y1695.390
G1 X2498.900 Y1752.840
G1 X2480.230 Y1810.290
G1 X2472.980 Y1840.430
G1 X2485.560 Y1844.520
G1 X2543.010 Y1863.190
G1 X2578.520 Y1912.060
G1 X2578.520 Y1972.460
G1 X2543.010 Y2021.330
G1 X2485.560 Y2040.000
G1 X2428.110 Y2021.330
G1 X2392.600 Y1972.460
G1 X2392.600 Y1912.060
G1 X2428.110 Y1863.190
F150
G1 Z   3.000
G0 Z  15.000 
M9 M5

(* SHAPE Nr: 101 *)
G0 X2527.070 Y1323.390
M3 M8
G0 Z   3.000 
G1 Z  -1.500
F400
G1 X2508.400 Y1380.830
G1 X2527.070 Y1438.290
G1 X2575.940 Y1473.790
G1 X2636.340 Y1473.790
G1 X2685.220 Y1438.290
G1 X2703.880 Y1380.830
G1 X2685.220 Y1323.390
G1 X2636.340 Y1287.880
G1 X2562.710 Y1287.880
G1 X2559.600 Y1248.880
G1 X2563.690 Y1236.290
G1 X2582.350 Y1178.840
F150
G1 Z  -3.000
F400
G1 X2563.690 Y1236.290
G1 X2559.600 Y1248.880
G1 X2562.710 Y1287.880
G1 X2636.340 Y1287.880
G1 X2685.220 Y1323.390
G1 X2703.880 Y1380.830
G1 X2685.220 Y1438.290
G1 X2636.340 Y1473.790
G1 X2575.940 Y1473.790
G1 X2527.070 Y1438.290
G1 X2508.400 Y1380.830
G1 X2527.070 Y1323.390
F150
G1 Z   3.000
G0 Z  15.000 
M9 M5

(* SHAPE Nr: 102 *)
G0 X2582.140 Y1128.120
M3 M8
G0 Z   3.000 
G1 Z  -1.500
F400
G1 X2617.650 Y1176.990
G1 X2675.100 Y1195.660
G1 X2732.550 Y1176.990
G1 X2768.050 Y1128.120
G1 X2768.050 Y1067.720
G1 X2732.550 Y1018.850
G1 X2675.100 Y1000.180
G1 X2617.650 Y1018.850
G1 X2582.140 Y1067.720
G1 X2574.360 Y1078.420
G1 X2562.470 Y1069.780
G1 X2555.830 Y1040.050
G1 X2559.920 Y1027.470
G1 X2578.590 Y 970.020
G1 X2559.920 Y 912.570
G1 X2511.050 Y 877.060
G1 X2450.650 Y 877.060
G1 X2401.770 Y 912.570
G1 X2383.110 Y 970.020
G1 X2401.770 Y1027.470
G1 X2450.650 Y1062.980
G1 X2524.280 Y1062.980
G1 X2524.280 Y1077.680
G1 X2448.780 Y1078.530
G1 X2436.200 Y1074.440
G1 X2368.660 Y1052.500
G1 X2368.660 Y 981.480
G1 X2326.920 Y1038.930
G1 X2259.380 Y1016.990
G1 X2301.120 Y1074.440
G1 X2259.380 Y1131.890
G1 X2295.290 Y1122.750
G1 X2299.840 Y1136.730
G1 X2287.250 Y1140.820
G1 X2229.800 Y1159.480
G1 X2194.300 Y1208.350
G1 X2194.300 Y1281.990
G1 X2180.290 Y1289.360
G1 X2106.660 Y1289.360
G1 X2057.790 Y1324.870
G1 X2039.120 Y1382.320
G1 X2057.790 Y1439.770
G1 X2106.660 Y1475.280
G1 X2180.290 Y1475.280
G1 X2180.290 Y1489.980
G1 X1997.360 Y1529.080
G1 X1985.470 Y1520.440
G1 X1993.240 Y1509.740
G1 X2028.750 Y1460.870
G1 X2028.750 Y1400.460
G1 X1993.240 Y1351.590
G1 X1935.790 Y1332.930
G1 X1878.340 Y1351.590
G1 X1842.840 Y1400.460
G1 X1842.840 Y1460.870
G1 X1878.340 Y1509.740
G1 X1935.790 Y1528.410
G1 X1948.380 Y1532.490
G1 X1943.830 Y1546.470
G1 X1865.490 Y1557.090
G1 X1861.400 Y1544.510
G1 X1842.730 Y1487.060
G1 X1793.860 Y1451.550
G1 X1733.460 Y1451.550
G1 X1684.590 Y1487.060
G1 X1665.920 Y1544.510
G1 X1684.590 Y1601.960
G1 X1733.460 Y1637.460
G1 X1793.860 Y1637.460
G1 X1842.730 Y1601.960
G1 X1853.440 Y1594.180
G1 X1862.080 Y1606.070
G1 X1846.530 Y1698.360
G1 X1833.600 Y1701.130
G1 X1769.220 Y1714.900
G1 X1748.950 Y1652.260
G1 X1728.690 Y1714.900
G1 X1664.310 Y1701.130
G1 X1708.420 Y1750.000
G1 X1664.310 Y1798.870
G1 X1728.690 Y1785.100
G1 X1748.950 Y1847.740
G1 X1769.220 Y1785.100
G1 X1833.600 Y1798.870
G1 X1789.480 Y1750.000
G1 X1833.600 Y1701.130
F150
G1 Z  -3.000
F400
G1 X1789.480 Y1750.000
G1 X1833.600 Y1798.870
G1 X1769.220 Y1785.100
G1 X1748.950 Y1847.740
G1 X1728.690 Y1785.100
G1 X1664.310 Y1798.870
G1 X1708.420 Y1750.000
G1 X1664.310 Y1701.130
G1 X1728.690 Y1714.900
G1 X1748.950 Y1652.260
G1 X1769.220 Y1714.900
G1 X1833.600 Y1701.130
G1 X1846.530 Y1698.360
G1 X1862.080 Y1606.070
G1 X1853.440 Y1594.180
G1 X1842.730 Y1601.960
G1 X1793.860 Y1637.460
G1 X1733.460 Y1637.460
G1 X1684.590 Y1601.960
G1 X1665.920 Y1544.510
G1 X1684.590 Y1487.060
G1 X1733.460 Y1451.550
G1 X1793.860 Y1451.550
G1 X1842.730 Y1487.060
G1 X1861.400 Y1544.510
G1 X1865.490 Y1557.090
G1 X1943.830 Y1546.470
G1 X1948.380 Y1532.490
G1 X1935.790 Y1528.410
G1 X1878.340 Y1509.740
G1 X1842.840 Y1460.870
G1 X1842.840 Y1400.460
G1 X1878.340 Y1351.590
G1 X1935.790 Y1332.930
G1 X1993.240 Y1351.590
G1 X2028.750 Y1400.460
G1 X2028.750 Y1460.870
G1 X1993.240 Y1509.740
G1 X1985.470 Y1520.440
G1 X1997.360 Y1529.080
G1 X2180.290 Y1489.980
G1 X2180.290 Y1475.280
G1 X2106.660 Y1475.280
G1 X2057.790 Y1439.770
G1 X2039.120 Y1382.320
G1 X2057.790 Y1324.870
G1 X2106.660 Y1289.360
G1 X2180.290 Y1289.360
G1 X2194.300 Y1281.990
G1 X2194.300 Y1208.350
G1 X2229.800 Y1159.480
G1 X2287.250 Y1140.820
G1 X2299.840 Y1136.730
G1 X2295.290 Y1122.750
G1 X2259.380 Y1131.890
G1 X2301.120 Y1074.440
G1 X2259.380 Y1016.990
G1 X2326.920 Y1038.930
G1 X2368.660 Y 981.480
G1 X2368.660 Y1052.500
G1 X2436.200 Y1074.440
G1 X2448.780 Y1078.530
G1 X2524.280 Y1077.680
G1 X2524.280 Y1062.980
G1 X2450.650 Y1062.980
G1 X2401.770 Y1027.470
G1 X2383.110 Y 970.020
G1 X2401.770 Y 912.570
G1 X2450.650 Y 877.060
G1 X2511.050 Y 877.060
G1 X2559.920 Y 912.570
G1 X2578.590 Y 970.020
G1 X2559.920 Y1027.470
G1 X2555.830 Y1040.050
G1 X2562.470 Y1069.780
G1 X2574.360 Y1078.420
G1 X2582.140 Y1067.720
G1 X2617.650 Y1018.850
G1 X2675.100 Y1000.180
G1 X2732.550 Y1018.850
G1 X2768.050 Y1067.720
G1 X2768.050 Y1128.120
G1 X2732.550 Y1176.990
G1 X2675.100 Y1195.660
G1 X2617.650 Y1176.990
G1 X2582.140 Y1128.120
F150
G1 Z   3.000
G0 Z  15.000 
M9 M5

(* SHAPE Nr: 103 *)
G0 X2441.220 Y1522.480
M3 M8
G0 Z   3.000 
G1 Z  -1.500
F400
G1 X2380.810 Y1522.480
G1 X2331.940 Y1486.980
G1 X2313.280 Y1429.530
G1 X2331.940 Y1372.080
G1 X2380.810 Y1336.570
G1 X2441.220 Y1336.570
G1 X2490.090 Y1372.080
G1 X2500.790 Y1379.850
G1 X2509.430 Y1367.960
G1 X2527.070 Y1323.390
G1 X2575.940 Y1287.880
G1 X2586.640 Y1280.100
G1 X2583.030 Y1240.410
G1 X2574.390 Y1228.520
G1 X2514.820 Y1271.800
G1 X2454.410 Y1271.800
G1 X2405.540 Y1236.290
G1 X2386.870 Y1178.840
G1 X2405.540 Y1121.390
G1 X2454.410 Y1085.890
G1 X2514.820 Y1085.890
G1 X2563.690 Y1121.390
G1 X2582.350 Y1178.840
G1 X2586.440 Y1191.420
G1 X2600.420 Y1186.880
G1 X2582.140 Y1128.120
G1 X2582.140 Y1054.490
G1 X2579.260 Y1031.590
G1 X2570.620 Y1019.690
G1 X2511.050 Y1062.980
G1 X2448.780 Y1070.350
G1 X2368.660 Y1096.380
G1 X2368.660 Y1167.400
G1 X2326.920 Y1109.950
G1 X2259.380 Y1131.890
G1 X2246.800 Y1135.980
G1 X2251.340 Y1149.960
G1 X2287.250 Y1140.820
G1 X2344.710 Y1159.480
G1 X2380.210 Y1208.350
G1 X2380.210 Y1268.760
G1 X2344.710 Y1317.630
G1 X2287.250 Y1336.300
G1 X2229.800 Y1317.630
G1 X2194.300 Y1268.760
G1 X2168.380 Y1233.080
G1 X2156.360 Y1281.590
G1 X2215.930 Y1324.870
G1 X2234.600 Y1382.320
G1 X2215.930 Y1439.770
G1 X2167.060 Y1475.280
G1 X2005.820 Y1505.650
G1 X1935.790 Y1528.410
G1 X1865.490 Y1531.930
G1 X1842.730 Y1601.960
G1 X1838.650 Y1614.540
G1 X1866.890 Y1673.600
G1 X1936.920 Y1650.850
G1 X2184.870 Y1631.020
G1 X2184.870 Y1557.380
G1 X2220.380 Y1508.510
G1 X2277.830 Y1489.850
G1 X2335.280 Y1508.510
G1 X2370.780 Y1557.380
G1 X2370.780 Y1617.790
G1 X2335.280 Y1666.660
G1 X2277.830 Y1685.330
G1 X2220.380 Y1666.660
G1 X2184.870 Y1617.790
G1 X2177.090 Y1607.090
G1 X2137.600 Y1625.670
G1 X2173.280 Y1651.590
G1 X2222.150 Y1687.090
G1 X2240.810 Y1744.550
G1 X2222.150 Y1801.990
G1 X2173.280 Y1837.500
G1 X2112.870 Y1837.500
G1 X2064.000 Y1801.990
G1 X2045.330 Y1744.550
G1 X2064.000 Y1687.090
G1 X2112.870 Y1651.590
G1 X2186.510 Y1651.590
G1 X2186.510 Y1636.890
G1 X1928.880 Y1632.780
G1 X1924.340 Y1646.760
G1 X1936.920 Y1650.850
G1 X1994.370 Y1669.510
G1 X2029.880 Y1718.380
G1 X2029.880 Y1778.790
G1 X1994.370 Y1827.660
G1 X1936.920 Y1846.330
G1 X1879.470 Y1827.660
G1 X1843.970 Y1778.790
G1 X1843.970 Y1718.380
G1 X1879.470 Y1669.510
F150
G1 Z  -3.000
F400
G1 X1843.970 Y1718.380
G1 X1843.970 Y1778.790
G1 X1879.470 Y1827.660
G1 X1936.920 Y1846.330
G1 X1994.370 Y1827.660
G1 X2029.880 Y1778.790
G1 X2029.880 Y1718.380
G1 X1994.370 Y1669.510
G1 X1936.920 Y1650.850
G1 X1924.340 Y1646.760
G1 X1928.880 Y1632.780
G1 X2186.510 Y1636.890
G1 X2186.510 Y1651.590
G1 X2112.870 Y1651.590
G1 X2064.000 Y1687.090
G1 X2045.330 Y1744.550
G1 X2064.000 Y1801.990
G1 X2112.870 Y1837.500
G1 X2173.280 Y1837.500
G1 X2222.150 Y1801.990
G1 X2240.810 Y1744.550
G1 X2222.150 Y1687.090
G1 X2173.280 Y1651.590
G1 X2137.600 Y1625.670
G1 X2177.090 Y1607.090
G1 X2184.870 Y1617.790
G1 X2220.380 Y1666.660
G1 X2277.830 Y1685.330
G1 X2335.280 Y1666.660
G1 X2370.780 Y1617.790
G1 X2370.780 Y1557.380
G1 X2335.280 Y1508.510
G1 X2277.830 Y1489.850
G1 X2220.380 Y1508.510
G1 X2184.870 Y1557.380
G1 X2184.870 Y1631.020
G1 X1936.920 Y1650.850
G1 X1866.890 Y1673.600
G1 X1838.650 Y1614.540
G1 X1842.730 Y1601.960
G1 X1865.490 Y1531.930
G1 X1935.790 Y1528.410
G1 X2005.820 Y1505.650
G1 X2167.060 Y1475.280
G1 X2215.930 Y1439.770
G1 X2234.600 Y1382.320
G1 X2215.930 Y1324.870
G1 X2156.360 Y1281.590
G1 X2168.380 Y1233.080
G1 X2194.300 Y1268.760
G1 X2229.800 Y1317.630
G1 X2287.250 Y1336.300
G1 X2344.710 Y1317.630
G1 X2380.210 Y1268.760
G1 X2380.210 Y1208.350
G1 X2344.710 Y1159.480
G1 X2287.250 Y1140.820
G1 X2251.340 Y1149.960
G1 X2246.800 Y1135.980
G1 X2259.380 Y1131.890
G1 X2326.920 Y1109.950
G1 X2368.660 Y1167.400
G1 X2368.660 Y1096.380
G1 X2448.780 Y1070.350
G1 X2511.050 Y1062.980
G1 X2570.620 Y1019.690
G1 X2579.260 Y1031.590
G1 X2582.140 Y1054.490
G1 X2582.140 Y1128.120
G1 X2600.420 Y1186.880
G1 X2586.440 Y1191.420
G1 X2582.350 Y1178.840
G1 X2563.690 Y1121.390
G1 X2514.820 Y1085.890
G1 X2454.410 Y1085.890
G1 X2405.540 Y1121.390
G1 X2386.870 Y1178.840
G1 X2405.540 Y1236.290
G1 X2454.410 Y1271.800
G1 X2514.820 Y1271.800
G1 X2574.390 Y1228.520
G1 X2583.030 Y1240.410
G1 X2586.640 Y1280.100
G1 X2575.940 Y1287.880
G1 X2527.070 Y1323.390
G1 X2509.430 Y1367.960
G1 X2500.790 Y1379.850
G1 X2490.090 Y1372.080
G1 X2441.220 Y1336.570
G1 X2380.810 Y1336.570
G1 X2331.940 Y1372.080
G1 X2313.280 Y1429.530
G1 X2331.940 Y1486.980
G1 X2380.810 Y1522.480
G1 X2441.220 Y1522.480
F150
G1 Z   3.000
G0 Z  15.000 
M9 M5

(* SHAPE Nr: 104 *)
G0 X2147.400 Y1144.510
M3 M8
G0 Z   3.000 
G1 Z  -1.500
F400
G1 X2079.860 Y1166.460
G1 X2038.120 Y1109.010
G1 X2038.120 Y1180.020
G1 X1970.580 Y1201.960
G1 X2038.120 Y1223.910
G1 X2038.120 Y1294.920
G1 X2079.860 Y1237.470
G1 X2147.400 Y1259.410
G1 X2105.660 Y1201.960
G1 X2147.400 Y1144.510
G1 X2155.170 Y1133.810
G1 X2198.570 Y1089.260
G1 X2217.230 Y1031.810
G1 X2198.570 Y 974.350
G1 X2149.700 Y 938.850
G1 X2138.990 Y 931.070
G1 X2125.250 Y 806.630
G1 X2057.720 Y 828.570
G1 X2015.980 Y 771.120
G1 X1928.030 Y 796.750
G1 X1917.330 Y 788.970
G1 X1868.460 Y 753.460
G1 X1808.050 Y 753.460
G1 X1759.180 Y 788.970
G1 X1740.520 Y 846.420
G1 X1759.180 Y 903.870
G1 X1808.050 Y 939.380
G1 X1881.690 Y 939.380
G1 X1881.690 Y 954.080
G1 X1849.180 Y 969.000
G1 X1836.590 Y 964.910
G1 X1779.140 Y 946.240
G1 X1721.690 Y 964.910
G1 X1686.190 Y1013.780
G1 X1686.190 Y1074.190
G1 X1721.690 Y1123.060
G1 X1779.140 Y1141.720
G1 X1836.590 Y1123.060
G1 X1849.180 Y1118.970
G1 X1909.350 Y1128.940
G1 X1909.350 Y1143.640
G1 X1835.720 Y1143.640
G1 X1786.850 Y1179.150
G1 X1776.140 Y1186.920
G1 X1738.110 Y1166.560
G1 X1689.240 Y1131.060
G1 X1628.830 Y1131.060
G1 X1579.960 Y1166.560
G1 X1561.290 Y1224.020
G1 X1579.960 Y1281.460
G1 X1628.830 Y1316.970
G1 X1689.240 Y1316.970
G1 X1738.110 Y1281.460
G1 X1756.770 Y1224.020
G1 X1738.110 Y1166.560
F150
G1 Z  -3.000
F400
G1 X1756.770 Y1224.020
G1 X1738.110 Y1281.460
G1 X1689.240 Y1316.970
G1 X1628.830 Y1316.970
G1 X1579.960 Y1281.460
G1 X1561.290 Y1224.020
G1 X1579.960 Y1166.560
G1 X1628.830 Y1131.060
G1 X1689.240 Y1131.060
G1 X1738.110 Y1166.560
G1 X1776.140 Y1186.920
G1 X1786.850 Y1179.150
G1 X1835.720 Y1143.640
G1 X1909.350 Y1143.640
G1 X1909.350 Y1128.940
G1 X1849.180 Y1118.970
G1 X1836.590 Y1123.060
G1 X1779.140 Y1141.720
G1 X1721.690 Y1123.060
G1 X1686.190 Y1074.190
G1 X1686.190 Y1013.780
G1 X1721.690 Y 964.910
G1 X1779.140 Y 946.240
G1 X1836.590 Y 964.910
G1 X1849.180 Y 969.000
G1 X1881.690 Y 954.080
G1 X1881.690 Y 939.380
G1 X1808.050 Y 939.380
G1 X1759.180 Y 903.870
G1 X1740.520 Y 846.420
G1 X1759.180 Y 788.970
G1 X1808.050 Y 753.460
G1 X1868.460 Y 753.460
G1 X1917.330 Y 788.970
G1 X1928.030 Y 796.750
G1 X2015.980 Y 771.120
G1 X2057.720 Y 828.570
G1 X2125.250 Y 806.630
G1 X2138.990 Y 931.070
G1 X2149.700 Y 938.850
G1 X2198.570 Y 974.350
G1 X2217.230 Y1031.810
G1 X2198.570 Y1089.260
G1 X2155.170 Y1133.810
G1 X2147.400 Y1144.510
G1 X2105.660 Y1201.960
G1 X2147.400 Y1259.410
G1 X2079.860 Y1237.470
G1 X2038.120 Y1294.920
G1 X2038.120 Y1223.910
G1 X1970.580 Y1201.960
G1 X2038.120 Y1180.020
G1 X2038.120 Y1109.010
G1 X2079.860 Y1166.460
G1 X2147.400 Y1144.510
F150
G1 Z   3.000
G0 Z  15.000 
M9 M5

(* SHAPE Nr: 105 *)
G0 X1577.360 Y 949.420
M3 M8
G0 Z   3.000 
G1 Z  -1.500
F400
G1 X1577.360 Y1020.440
G1 X1509.820 Y1042.380
G1 X1577.360 Y1064.320
G1 X1577.360 Y1135.340
G1 X1619.100 Y1077.890
G1 X1686.640 Y1099.830
G1 X1644.900 Y1042.380
G1 X1686.640 Y 984.930
G1 X1619.100 Y1006.880
G1 X1577.360 Y 949.420
G1 X1495.120 Y 982.100
G1 X1453.380 Y1039.560
G1 X1385.840 Y1017.610
G1 X1427.580 Y1075.060
G1 X1385.840 Y1132.510
G1 X1453.380 Y1110.570
G1 X1495.120 Y1168.020
G1 X1495.120 Y1097.010
G1 X1562.660 Y1075.060
G1 X1495.120 Y1053.120
G1 X1495.120 Y 968.880
G1 X1696.480 Y 863.370
G1 X1731.980 Y 814.500
G1 X1731.980 Y 754.090
G1 X1696.480 Y 705.220
G1 X1639.030 Y 686.560
G1 X1597.080 Y 672.930
G1 X1615.250 Y 663.360
G1 X1627.830 Y 667.450
G1 X1737.110 Y 702.960
G1 X1804.650 Y 610.000
F150
G1 Z  -3.000
F400
G1 X1737.110 Y 702.960
G1 X1627.830 Y 667.450
G1 X1615.250 Y 663.360
G1 X1597.080 Y 672.930
G1 X1639.030 Y 686.560
G1 X1696.480 Y 705.220
G1 X1731.980 Y 754.090
G1 X1731.980 Y 814.500
G1 X1696.480 Y 863.370
G1 X1495.120 Y 968.880
G1 X1495.120 Y1053.120
G1 X1562.660 Y1075.060
G1 X1495.120 Y1097.010
G1 X1495.120 Y1168.020
G1 X1453.380 Y1110.570
G1 X1385.840 Y1132.510
G1 X1427.580 Y1075.060
G1 X1385.840 Y1017.610
G1 X1453.380 Y1039.560
G1 X1495.120 Y 982.100
G1 X1577.360 Y 949.420
G1 X1619.100 Y1006.880
G1 X1686.640 Y 984.930
G1 X1644.900 Y1042.380
G1 X1686.640 Y1099.830
G1 X1619.100 Y1077.890
G1 X1577.360 Y1135.340
G1 X1577.360 Y1064.320
G1 X1509.820 Y1042.380
G1 X1577.360 Y1020.440
G1 X1577.360 Y 949.420
F150
G1 Z   3.000
G0 Z  15.000 
M9 M5

(* SHAPE Nr: 106 *)
G0 X1860.890 Y 576.570
M3 M8
G0 Z   3.000 
G1 Z  -1.500
F400
G1 X1825.380 Y 625.440
G1 X1825.380 Y 685.840
G1 X1860.890 Y 734.710
G1 X1918.340 Y 753.380
G1 X1975.790 Y 734.710
G1 X2011.290 Y 685.840
G1 X2011.290 Y 625.440
G1 X1975.790 Y 576.570
G1 X1968.010 Y 565.860
G1 X1979.900 Y 557.220
G1 X2165.310 Y 588.680
G1 X2165.310 Y 603.380
G1 X2078.450 Y 603.380
G1 X2078.450 Y 588.680
G1 X2148.010 Y 553.160
G1 X2155.790 Y 563.860
G1 X2191.290 Y 612.730
G1 X2248.740 Y 631.400
G1 X2306.190 Y 612.730
G1 X2341.700 Y 563.860
G1 X2341.700 Y 490.220
G1 X2425.620 Y 479.040
G1 X2474.490 Y 443.530
G1 X2493.160 Y 386.080
G1 X2474.490 Y 328.630
G1 X2425.620 Y 293.130
F150
G1 Z  -3.000
F400
G1 X2474.490 Y 328.630
G1 X2493.160 Y 386.080
G1 X2474.490 Y 443.530
G1 X2425.620 Y 479.040
G1 X2341.700 Y 490.220
G1 X2341.700 Y 563.860
G1 X2306.190 Y 612.730
G1 X2248.740 Y 631.400
G1 X2191.290 Y 612.730
G1 X2155.790 Y 563.860
G1 X2148.010 Y 553.160
G1 X2078.450 Y 588.680
G1 X2078.450 Y 603.380
G1 X2165.310 Y 603.380
G1 X2165.310 Y 588.680
G1 X1979.900 Y 557.220
G1 X1968.010 Y 565.860
G1 X1975.790 Y 576.570
G1 X2011.290 Y 625.440
G1 X2011.290 Y 685.840
G1 X1975.790 Y 734.710
G1 X1918.340 Y 753.380
G1 X1860.890 Y 734.710
G1 X1825.380 Y 685.840
G1 X1825.380 Y 625.440
G1 X1860.890 Y 576.570
F150
G1 Z   3.000
G0 Z  15.000 
M9 M5

(* SHAPE Nr: 107 *)
G0 X2416.180 Y 244.070
M3 M8
G0 Z   3.000 
G1 Z  -1.500
F400
G1 X2451.690 Y 292.940
G1 X2509.140 Y 311.610
G1 X2566.590 Y 292.940
G1 X2602.090 Y 244.070
G1 X2602.090 Y 183.670
G1 X2567.510 Y 136.040
G1 X2579.400 Y 127.400
G1 X2587.180 Y 138.100
G1 X2622.680 Y 186.970
G1 X2680.130 Y 205.640
G1 X2737.580 Y 186.970
G1 X2773.090 Y 138.100
G1 X2773.090 Y  77.690
G1 X2737.580 Y  28.820
G1 X2680.130 Y  10.160
G1 X2622.680 Y  28.820
G1 X2587.180 Y  77.690
G1 X2579.400 Y  88.400
G1 X2402.740 Y 116.360
G1 X2398.650 Y 103.780
G1 X2379.980 Y  46.330
G1 X2331.110 Y  10.830
G1 X2270.710 Y  10.830
G1 X2221.840 Y  46.330
G1 X2203.170 Y 103.780
G1 X2221.840 Y 161.230
G1 X2270.710 Y 196.740
G1 X2344.340 Y 196.740
G1 X2344.340 Y 211.440
G1 X2294.040 Y 318.860
G1 X2279.340 Y 318.860
G1 X2279.340 Y 245.220
G1 X2243.840 Y 196.350
G1 X2186.390 Y 177.680
G1 X2128.940 Y 196.350
G1 X2093.430 Y 245.220
G1 X2093.430 Y 305.630
G1 X2090.240 Y 335.920
G1 X2016.600 Y 335.920
G1 X1967.730 Y 371.420
G1 X1949.060 Y 428.880
G1 X1962.470 Y 470.200
G1 X1948.490 Y 474.740
G1 X1944.410 Y 462.160
G1 X1925.740 Y 404.710
G1 X1876.870 Y 369.200
G1 X1816.460 Y 369.200
G1 X1767.590 Y 404.710
G1 X1748.930 Y 462.160
G1 X1744.840 Y 474.740
G1 X1730.860 Y 470.200
G1 X1735.370 Y 453.830
G1 X1735.370 Y 393.420
G1 X1699.860 Y 344.550
G1 X1642.410 Y 325.880
G1 X1612.600 Y 314.930
G1 X1616.690 Y 302.350
G1 X1635.350 Y 244.900
G1 X1639.440 Y 232.320
G1 X1715.010 Y 196.800
G1 X1763.880 Y 161.300
G1 X1782.550 Y 103.850
G1 X1786.640 Y  91.270
G1 X1800.620 Y  95.810
G1 X1834.230 Y 140.190
G1 X1838.770 Y 154.170
G1 X1826.190 Y 158.260
G1 X1768.740 Y 176.920
G1 X1733.230 Y 225.790
G1 X1733.230 Y 286.200
G1 X1768.740 Y 335.070
G1 X1826.190 Y 353.740
G1 X1883.640 Y 335.070
G1 X1919.150 Y 286.200
G1 X1919.150 Y 225.790
G1 X1883.640 Y 176.920
G1 X1826.190 Y 158.260
F150
G1 Z  -3.000
F400
G1 X1883.640 Y 176.920
G1 X1919.150 Y 225.790
G1 X1919.150 Y 286.200
G1 X1883.640 Y 335.070
G1 X1826.190 Y 353.740
G1 X1768.740 Y 335.070
G1 X1733.230 Y 286.200
G1 X1733.230 Y 225.790
G1 X1768.740 Y 176.920
G1 X1826.190 Y 158.260
G1 X1838.770 Y 154.170
G1 X1834.230 Y 140.190
G1 X1800.620 Y  95.810
G1 X1786.640 Y  91.270
G1 X1782.550 Y 103.850
G1 X1763.880 Y 161.300
G1 X1715.010 Y 196.800
G1 X1639.440 Y 232.320
G1 X1635.350 Y 244.900
G1 X1616.690 Y 302.350
G1 X1612.600 Y 314.930
G1 X1642.410 Y 325.880
G1 X1699.860 Y 344.550
G1 X1735.370 Y 393.420
G1 X1735.370 Y 453.830
G1 X1730.860 Y 470.200
G1 X1744.840 Y 474.740
G1 X1748.930 Y 462.160
G1 X1767.590 Y 404.710
G1 X1816.460 Y 369.200
G1 X1876.870 Y 369.200
G1 X1925.740 Y 404.710
G1 X1944.410 Y 462.160
G1 X1948.490 Y 474.740
G1 X1962.470 Y 470.200
G1 X1949.060 Y 428.880
G1 X1967.730 Y 371.420
G1 X2016.600 Y 335.920
G1 X2090.240 Y 335.920
G1 X2093.430 Y 305.630
G1 X2093.430 Y 245.220
G1 X2128.940 Y 196.350
G1 X2186.390 Y 177.680
G1 X2243.840 Y 196.350
G1 X2279.340 Y 245.220
G1 X2279.340 Y 318.860
G1 X2294.040 Y 318.860
G1 X2344.340 Y 211.440
G1 X2344.340 Y 196.740
G1 X2270.710 Y 196.740
G1 X2221.840 Y 161.230
G1 X2203.170 Y 103.780
G1 X2221.840 Y  46.330
G1 X2270.710 Y  10.830
G1 X2331.110 Y  10.830
G1 X2379.980 Y  46.330
G1 X2398.650 Y 103.780
G1 X2402.740 Y 116.360
G1 X2579.400 Y  88.400
G1 X2587.180 Y  77.690
G1 X2622.680 Y  28.820
G1 X2680.130 Y  10.160
G1 X2737.580 Y  28.820
G1 X2773.090 Y  77.690
G1 X2773.090 Y 138.100
G1 X2737.580 Y 186.970
G1 X2680.130 Y 205.640
G1 X2622.680 Y 186.970
G1 X2587.180 Y 138.100
G1 X2579.400 Y 127.400
G1 X2567.510 Y 136.040
G1 X2602.090 Y 183.670
G1 X2602.090 Y 244.070
G1 X2566.590 Y 292.940
G1 X2509.140 Y 311.610
G1 X2451.690 Y 292.940
G1 X2416.180 Y 244.070
F150
G1 Z   3.000
G0 Z  15.000 
M9 M5

(* SHAPE Nr: 108 *)
G0 X1426.680 Y 521.720
M3 M8
G0 Z   3.000 
G1 Z  -1.500
F400
G1 X1408.010 Y 579.170
G1 X1426.680 Y 636.620
G1 X1475.550 Y 672.130
G1 X1535.950 Y 672.130
G1 X1584.820 Y 636.620
G1 X1603.490 Y 579.170
G1 X1584.820 Y 521.720
G1 X1535.950 Y 486.210
G1 X1475.550 Y 486.210
G1 X1426.680 Y 521.720
F150
G1 Z  -3.000
F400
G1 X1408.010 Y 579.170
G1 X1426.680 Y 636.620
G1 X1475.550 Y 672.130
G1 X1535.950 Y 672.130
G1 X1584.820 Y 636.620
G1 X1603.490 Y 579.170
G1 X1584.820 Y 521.720
G1 X1535.950 Y 486.210
G1 X1475.550 Y 486.210
G1 X1426.680 Y 521.720
F150
G1 Z   3.000
G0 Z  15.000 
M9 M5

(* SHAPE Nr: 109 *)
G0 X 678.990 Y 739.930
M3 M8
G0 Z   3.000 
G1 Z  -1.500
F400
G1 X 643.480 Y 788.800
G1 X 643.480 Y 849.200
G1 X 678.990 Y 898.070
G1 X 736.440 Y 916.740
G1 X 793.890 Y 898.070
G1 X 829.400 Y 849.200
G1 X 829.400 Y 788.800
G1 X 793.890 Y 739.930
G1 X 736.440 Y 721.260
G1 X 678.990 Y 739.930
F150
G1 Z  -3.000
F400
G1 X 643.480 Y 788.800
G1 X 643.480 Y 849.200
G1 X 678.990 Y 898.070
G1 X 736.440 Y 916.740
G1 X 793.890 Y 898.070
G1 X 829.400 Y 849.200
G1 X 829.400 Y 788.800
G1 X 793.890 Y 739.930
G1 X 736.440 Y 721.260
G1 X 678.990 Y 739.930
F150
G1 Z   3.000
G0 Z  15.000 
M9 M5

(* SHAPE Nr: 110 *)
G0 X 361.620 Y 595.930
M3 M8
G0 Z   3.000 
G1 Z  -1.500
F400
G1 X 326.110 Y 644.800
G1 X 326.110 Y 705.200
G1 X 361.620 Y 754.070
G1 X 419.070 Y 772.740
G1 X 476.520 Y 754.070
G1 X 512.030 Y 705.200
G1 X 512.030 Y 644.800
G1 X 476.520 Y 595.930
G1 X 419.070 Y 577.260
G1 X 361.620 Y 595.930
F150
G1 Z  -3.000
F400
G1 X 326.110 Y 644.800
G1 X 326.110 Y 705.200
G1 X 361.620 Y 754.070
G1 X 419.070 Y 772.740
G1 X 476.520 Y 754.070
G1 X 512.030 Y 705.200
G1 X 512.030 Y 644.800
G1 X 476.520 Y 595.930
G1 X 419.070 Y 577.260
G1 X 361.620 Y 595.930
F150
G1 Z   3.000
G0 Z  15.000 
M9 M5

(* SHAPE Nr: 111 *)
G0 X  10.000 Y 940.360
M3 M8
G0 Z   3.000 
G1 Z  -1.500
F400
G1 X  45.510 Y 989.230
G1 X 102.960 Y1007.890
G1 X 160.410 Y 989.230
G1 X 195.910 Y 940.360
G1 X 195.910 Y 879.950
G1 X 160.410 Y 831.080
G1 X 102.960 Y 812.410
G1 X  45.510 Y 831.080
G1 X  10.000 Y 879.950
G1 X  10.000 Y1562.710
G1 X  45.510 Y1611.580
G1 X 102.960 Y1630.250
G1 X 160.410 Y1611.580
G1 X 195.910 Y1562.710
G1 X 195.910 Y1502.310
G1 X 160.410 Y1453.440
G1 X 102.960 Y1434.770
G1 X  45.510 Y1453.440
G1 X  10.000 Y1502.310
G1 X  10.000 Y1972.460
G1 X  45.510 Y2021.330
G1 X 102.960 Y2040.000
G1 X 160.410 Y2021.330
G1 X 195.910 Y1972.460
G1 X 195.910 Y1912.060
G1 X 160.410 Y1863.190
G1 X 102.960 Y1844.520
G1 X  45.510 Y1863.190
G1 X  10.000 Y1912.060
G1 X  10.000 Y1972.460
F150
G1 Z  -3.000
F400
G1 X  10.000 Y1912.060
G1 X  45.510 Y1863.190
G1 X 102.960 Y1844.520
G1 X 160.410 Y1863.190
G1 X 195.910 Y1912.060
G1 X 195.910 Y1972.460
G1 X 160.410 Y2021.330
G1 X 102.960 Y2040.000
G1 X  45.510 Y2021.330
G1 X  10.000 Y1972.460
G1 X  10.000 Y1502.310
G1 X  45.510 Y1453.440
G1 X 102.960 Y1434.770
G1 X 160.410 Y1453.440
G1 X 195.910 Y1502.310
G1 X 195.910 Y1562.710
G1 X 160.410 Y1611.580
G1 X 102.960 Y1630.250
G1 X  45.510 Y1611.580
G1 X  10.000 Y1562.710
G1 X  10.000 Y 879.950
G1 X  45.510 Y 831.080
G1 X 102.960 Y 812.410
G1 X 160.410 Y 831.080
G1 X 195.910 Y 879.950
G1 X 195.910 Y 940.360
G1 X 160.410 Y 989.230
G1 X 102.960 Y1007.890
G1 X  45.510 Y 989.230
G1 X  10.000 Y 940.360
F150
G1 Z   3.000
G0 Z  15.000 
M9 M5

(* SHAPE Nr: 112 *)
G0 X2769.340 Y1833.350
M3 M8
G0 Z   3.000 
G1 Z  -1.500
F400
G1 X2733.830 Y1784.480
G1 X2676.380 Y1765.810
G1 X2618.930 Y1784.480
G1 X2583.430 Y1833.350
G1 X2583.430 Y1893.760
G1 X2618.930 Y1942.630
G1 X2676.380 Y1961.290
G1 X2733.830 Y1942.630
G1 X2769.340 Y1893.760
G1 X2769.340 Y 631.760
G1 X2583.630 Y 692.100
G1 X2526.180 Y 710.770
G1 X2490.670 Y 759.640
G1 X2490.670 Y 833.270
G1 X2475.970 Y 833.270
G1 X2453.820 Y 781.520
G1 X2457.910 Y 768.940
G1 X2476.580 Y 711.490
G1 X2457.910 Y 654.040
G1 X2409.040 Y 618.530
G1 X2348.640 Y 618.530
G1 X2299.760 Y 654.040
G1 X2281.100 Y 711.490
G1 X2299.760 Y 768.940
G1 X2348.640 Y 804.440
G1 X2422.270 Y 804.440
G1 X2422.270 Y 819.140
G1 X2379.500 Y 856.830
G1 X2367.600 Y 865.470
G1 X2359.830 Y 854.760
G1 X2324.320 Y 805.890
G1 X2266.870 Y 787.230
G1 X2209.420 Y 805.890
G1 X2173.910 Y 854.760
G1 X2173.910 Y 915.170
G1 X2209.420 Y 964.040
G1 X2266.870 Y 982.710
G1 X2324.320 Y 964.040
G1 X2359.830 Y 915.170
G1 X2359.830 Y 841.530
G1 X2409.040 Y 804.440
G1 X2457.910 Y 768.940
G1 X2468.610 Y 761.160
G1 X2477.250 Y 773.050
G1 X2490.670 Y 820.040
G1 X2526.180 Y 868.910
G1 X2583.630 Y 887.580
G1 X2641.070 Y 868.910
G1 X2676.580 Y 820.040
G1 X2676.580 Y 759.640
G1 X2641.070 Y 710.770
G1 X2583.630 Y 692.100
G1 X2571.040 Y 688.010
G1 X2579.630 Y 658.530
G1 X2587.410 Y 647.830
G1 X2622.910 Y 598.960
G1 X2622.910 Y 538.550
G1 X2587.410 Y 489.680
G1 X2529.960 Y 471.020
G1 X2472.500 Y 489.680
G1 X2437.000 Y 538.550
G1 X2437.000 Y 598.960
G1 X2472.500 Y 647.830
G1 X2529.960 Y 666.490
G1 X2587.410 Y 647.830
F150
G1 Z  -3.000
F400
G1 X2529.960 Y 666.490
G1 X2472.500 Y 647.830
G1 X2437.000 Y 598.960
G1 X2437.000 Y 538.550
G1 X2472.500 Y 489.680
G1 X2529.960 Y 471.020
G1 X2587.410 Y 489.680
G1 X2622.910 Y 538.550
G1 X2622.910 Y 598.960
G1 X2587.410 Y 647.830
G1 X2579.630 Y 658.530
G1 X2571.040 Y 688.010
G1 X2583.630 Y 692.100
G1 X2641.070 Y 710.770
G1 X2676.580 Y 759.640
G1 X2676.580 Y 820.040
G1 X2641.070 Y 868.910
G1 X2583.630 Y 887.580
G1 X2526.180 Y 868.910
G1 X2490.670 Y 820.040
G1 X2477.250 Y 773.050
G1 X2468.610 Y 761.160
G1 X2457.910 Y 768.940
G1 X2409.040 Y 804.440
G1 X2359.830 Y 841.530
G1 X2359.830 Y 915.170
G1 X2324.320 Y 964.040
G1 X2266.870 Y 982.710
G1 X2209.420 Y 964.040
G1 X2173.910 Y 915.170
G1 X2173.910 Y 854.760
G1 X2209.420 Y 805.890
G1 X2266.870 Y 787.230
G1 X2324.320 Y 805.890
G1 X2359.830 Y 854.760
G1 X2367.600 Y 865.470
G1 X2379.500 Y 856.830
G1 X2422.270 Y 819.140
G1 X2422.270 Y 804.440
G1 X2348.640 Y 804.440
G1 X2299.760 Y 768.940
G1 X2281.100 Y 711.490
G1 X2299.760 Y 654.040
G1 X2348.640 Y 618.530
G1 X2409.040 Y 618.530
G1 X2457.910 Y 654.040
G1 X2476.580 Y 711.490
G1 X2457.910 Y 768.940
G1 X2453.820 Y 781.520
G1 X2475.970 Y 833.270
G1 X2490.670 Y 833.270
G1 X2490.670 Y 759.640
G1 X2526.180 Y 710.770
G1 X2583.630 Y 692.100
G1 X2769.340 Y 631.760
G1 X2769.340 Y1893.760
G1 X2733.830 Y1942.630
G1 X2676.380 Y1961.290
G1 X2618.930 Y1942.630
G1 X2583.430 Y1893.760
G1 X2583.430 Y1833.350
G1 X2618.930 Y1784.480
G1 X2676.380 Y1765.810
G1 X2733.830 Y1784.480
G1 X2769.340 Y1833.350
F150
G1 Z   3.000
G0 Z  15.000 
M9 M5

(* SHAPE Nr: 113 *)
G0 X1874.400 Y 139.190
M3 M8
G0 Z   3.000 
G1 Z  -1.500
F400
G1 X1909.910 Y 188.060
G1 X1967.360 Y 206.730
G1 X2024.810 Y 188.060
G1 X2060.320 Y 139.190
G1 X2060.320 Y  78.790
G1 X2024.810 Y  29.920
G1 X1967.360 Y  11.250
G1 X1909.910 Y  29.920
G1 X1874.400 Y  78.790
G1 X1874.400 Y 152.420
G1 X1859.700 Y 152.420
G1 X1786.640 Y 116.430
G1 X1782.550 Y 103.850
G1 X1763.880 Y  46.400
G1 X1715.010 Y  10.890
G1 X1654.610 Y  10.890
G1 X1605.740 Y  46.400
G1 X1587.070 Y 103.850
G1 X1605.740 Y 161.300
G1 X1654.610 Y 196.800
G1 X1728.240 Y 196.800
G1 X1728.240 Y 211.500
G1 X1653.420 Y 252.940
G1 X1639.440 Y 257.480
G1 X1635.350 Y 244.900
G1 X1616.690 Y 187.450
G1 X1567.810 Y 151.950
G1 X1507.410 Y 151.950
G1 X1458.540 Y 187.450
G1 X1439.870 Y 244.900
G1 X1458.540 Y 302.350
G1 X1507.410 Y 337.860
G1 X1567.810 Y 337.860
G1 X1627.390 Y 294.580
G1 X1650.450 Y 307.820
G1 X1654.990 Y 321.800
G1 X1642.410 Y 325.880
G1 X1584.960 Y 344.550
G1 X1549.460 Y 393.420
G1 X1549.460 Y 453.830
G1 X1584.960 Y 502.700
G1 X1642.410 Y 521.360
G1 X1699.860 Y 502.700
G1 X1735.370 Y 453.830
F150
G1 Z  -3.000
F400
G1 X1699.860 Y 502.700
G1 X1642.410 Y 521.360
G1 X1584.960 Y 502.700
G1 X1549.460 Y 453.830
G1 X1549.460 Y 393.420
G1 X1584.960 Y 344.550
G1 X1642.410 Y 325.880
G1 X1654.990 Y 321.800
G1 X1650.450 Y 307.820
G1 X1627.390 Y 294.580
G1 X1567.810 Y 337.860
G1 X1507.410 Y 337.860
G1 X1458.540 Y 302.350
G1 X1439.870 Y 244.900
G1 X1458.540 Y 187.450
G1 X1507.410 Y 151.950
G1 X1567.810 Y 151.950
G1 X1616.690 Y 187.450
G1 X1635.350 Y 244.900
G1 X1639.440 Y 257.480
G1 X1653.420 Y 252.940
G1 X1728.240 Y 211.500
G1 X1728.240 Y 196.800
G1 X1654.610 Y 196.800
G1 X1605.740 Y 161.300
G1 X1587.070 Y 103.850
G1 X1605.740 Y  46.400
G1 X1654.610 Y  10.890
G1 X1715.010 Y  10.890
G1 X1763.880 Y  46.400
G1 X1782.550 Y 103.850
G1 X1786.640 Y 116.430
G1 X1859.700 Y 152.420
G1 X1874.400 Y 152.420
G1 X1874.400 Y  78.790
G1 X1909.910 Y  29.920
G1 X1967.360 Y  11.250
G1 X2024.810 Y  29.920
G1 X2060.320 Y  78.790
G1 X2060.320 Y 139.190
G1 X2024.810 Y 188.060
G1 X1967.360 Y 206.730
G1 X1909.910 Y 188.060
G1 X1874.400 Y 139.190
F150
G1 Z   3.000
G0 Z  15.000 
M9 M5

(* SHAPE Nr: 114 *)
G0 X1627.830 Y 667.450
M3 M8
G0 Z   3.000 
G1 Z  -1.500
F400
G1 X1627.830 Y 552.550
G1 X1737.110 Y 517.040
G1 X1804.650 Y 610.000
G1 X1812.420 Y 620.700
G1 X1824.310 Y 612.060
G1 X1860.890 Y 576.570
G1 X1918.340 Y 557.900
G1 X1975.790 Y 576.570
G1 X1988.370 Y 580.650
G1 X2152.080 Y 603.380
G1 X2200.950 Y 638.890
G1 X2219.620 Y 696.340
G1 X2200.950 Y 753.790
G1 X2152.080 Y 789.290
G1 X2091.680 Y 789.290
G1 X2042.810 Y 753.790
G1 X2024.140 Y 696.340
G1 X2042.810 Y 638.890
G1 X2091.680 Y 603.380
G1 X2155.790 Y 577.090
G1 X2155.790 Y 503.450
G1 X2191.290 Y 454.580
G1 X2248.740 Y 435.920
G1 X2306.190 Y 454.580
G1 X2341.700 Y 503.450
G1 X2349.480 Y 514.160
G1 X2438.850 Y 493.740
G1 X2438.850 Y 479.040
G1 X2365.220 Y 479.040
G1 X2316.340 Y 443.530
G1 X2297.680 Y 386.080
G1 X2316.340 Y 328.630
G1 X2365.220 Y 293.130
G1 X2438.850 Y 293.130
G1 X2438.850 Y 278.430
G1 X2416.180 Y 244.070
G1 X2416.180 Y 183.670
G1 X2451.690 Y 134.800
G1 X2509.140 Y 116.130
G1 X2566.590 Y 134.800
G1 X2602.090 Y 183.670
G1 X2609.870 Y 194.370
G1 X2621.760 Y 185.730
G1 X2587.180 Y 138.100
G1 X2587.180 Y  64.460
G1 X2572.480 Y  64.460
G1 X2402.740 Y  91.200
G1 X2379.980 Y 161.230
G1 X2331.110 Y 196.740
G1 X2320.410 Y 204.510
G1 X2279.340 Y 305.630
G1 X2243.840 Y 354.500
G1 X2186.390 Y 373.170
G1 X2128.940 Y 354.500
G1 X2093.430 Y 305.630
G1 X2085.660 Y 294.920
G1 X2041.330 Y 310.000
G1 X2125.880 Y 371.420
G1 X2144.540 Y 428.880
G1 X2125.880 Y 486.330
G1 X2077.000 Y 521.830
G1 X2016.600 Y 521.830
G1 X1967.730 Y 486.330
G1 X1949.060 Y 428.880
G1 X1944.970 Y 416.290
G1 X1930.990 Y 420.830
G1 X1944.410 Y 462.160
G1 X1925.740 Y 519.610
G1 X1876.870 Y 555.110
G1 X1816.460 Y 555.110
G1 X1767.590 Y 519.610
G1 X1748.930 Y 462.160
F150
G1 Z  -3.000
F400
G1 X1767.590 Y 519.610
G1 X1816.460 Y 555.110
G1 X1876.870 Y 555.110
G1 X1925.740 Y 519.610
G1 X1944.410 Y 462.160
G1 X1930.990 Y 420.830
G1 X1944.970 Y 416.290
G1 X1949.060 Y 428.880
G1 X1967.730 Y 486.330
G1 X2016.600 Y 521.830
G1 X2077.000 Y 521.830
G1 X2125.880 Y 486.330
G1 X2144.540 Y 428.880
G1 X2125.880 Y 371.420
G1 X2041.330 Y 310.000
G1 X2085.660 Y 294.920
G1 X2093.430 Y 305.630
G1 X2128.940 Y 354.500
G1 X2186.390 Y 373.170
G1 X2243.840 Y 354.500
G1 X2279.340 Y 305.630
G1 X2320.410 Y 204.510
G1 X2331.110 Y 196.740
G1 X2379.980 Y 161.230
G1 X2402.740 Y  91.200
G1 X2572.480 Y  64.460
G1 X2587.180 Y  64.460
G1 X2587.180 Y 138.100
G1 X2621.760 Y 185.730
G1 X2609.870 Y 194.370
G1 X2602.090 Y 183.670
G1 X2566.590 Y 134.800
G1 X2509.140 Y 116.130
G1 X2451.690 Y 134.800
G1 X2416.180 Y 183.670
G1 X2416.180 Y 244.070
G1 X2438.850 Y 278.430
G1 X2438.850 Y 293.130
G1 X2365.220 Y 293.130
G1 X2316.340 Y 328.630
G1 X2297.680 Y 386.080
G1 X2316.340 Y 443.530
G1 X2365.220 Y 479.040
G1 X2438.850 Y 479.040
G1 X2438.850 Y 493.740
G1 X2349.480 Y 514.160
G1 X2341.700 Y 503.450
G1 X2306.190 Y 454.580
G1 X2248.740 Y 435.920
G1 X2191.290 Y 454.580
G1 X2155.790 Y 503.450
G1 X2155.790 Y 577.090
G1 X2091.680 Y 603.380
G1 X2042.810 Y 638.890
G1 X2024.140 Y 696.340
G1 X2042.810 Y 753.790
G1 X2091.680 Y 789.290
G1 X2152.080 Y 789.290
G1 X2200.950 Y 753.790
G1 X2219.620 Y 696.340
G1 X2200.950 Y 638.890
G1 X2152.080 Y 603.380
G1 X1988.370 Y 580.650
G1 X1975.790 Y 576.570
G1 X1918.340 Y 557.900
G1 X1860.890 Y 576.570
G1 X1824.310 Y 612.060
G1 X1812.420 Y 620.700
G1 X1804.650 Y 610.000
G1 X1737.110 Y 517.040
G1 X1627.830 Y 552.550
G1 X1627.830 Y 667.450
F150
G1 Z   3.000
G0 Z  15.000 
M9 M5

(* SHAPE Nr: 115 *)
G0 X1639.030 Y 686.560
M3 M8
G0 Z   3.000 
G1 Z  -1.500
F400
G1 X1581.580 Y 705.220
G1 X1546.070 Y 754.090
G1 X1546.070 Y 814.500
G1 X1581.580 Y 863.370
G1 X1639.030 Y 882.040
G1 X1696.480 Y 863.370
F150
G1 Z  -3.000
F400
G1 X1639.030 Y 882.040
G1 X1581.580 Y 863.370
G1 X1546.070 Y 814.500
G1 X1546.070 Y 754.090
G1 X1581.580 Y 705.220
G1 X1639.030 Y 686.560
F150
G1 Z   3.000
G0 Z  15.000 
M9 M5

(* SHAPE Nr: 116 *)
G0 X1786.850 Y1179.150
M3 M8
G0 Z   3.000 
G1 Z  -1.500
F400
G1 X1768.180 Y1236.600
G1 X1786.850 Y1294.050
G1 X1835.720 Y1329.550
G1 X1896.120 Y1329.550
G1 X1944.990 Y1294.050
G1 X1963.660 Y1236.600
G1 X1944.990 Y1179.150
G1 X1896.120 Y1143.640
G1 X1840.710 Y1142.400
G1 X1828.820 Y1133.760
G1 X1836.590 Y1123.060
G1 X1872.100 Y1074.190
G1 X1872.100 Y1013.780
G1 X1828.820 Y 954.210
G1 X1840.710 Y 945.570
G1 X1868.460 Y 939.380
G1 X1917.330 Y 903.870
G1 X1935.990 Y 846.420
G1 X1913.240 Y 776.390
G1 X2015.980 Y 727.020
G1 X2015.980 Y 842.140
G1 X1948.440 Y 864.080
G1 X2015.980 Y 886.020
G1 X2015.980 Y 957.030
G1 X2057.720 Y 899.590
G1 X2125.250 Y 921.530
G1 X2083.520 Y 864.080
G1 X2125.250 Y 806.630
F150
G1 Z  -3.000
F400
G1 X2083.520 Y 864.080
G1 X2125.250 Y 921.530
G1 X2057.720 Y 899.590
G1 X2015.980 Y 957.030
G1 X2015.980 Y 886.020
G1 X1948.440 Y 864.080
G1 X2015.980 Y 842.140
G1 X2015.980 Y 727.020
G1 X1913.240 Y 776.390
G1 X1935.990 Y 846.420
G1 X1917.330 Y 903.870
G1 X1868.460 Y 939.380
G1 X1840.710 Y 945.570
G1 X1828.820 Y 954.210
G1 X1872.100 Y1013.780
G1 X1872.100 Y1074.190
G1 X1836.590 Y1123.060
G1 X1828.820 Y1133.760
G1 X1840.710 Y1142.400
G1 X1896.120 Y1143.640
G1 X1944.990 Y1179.150
G1 X1963.660 Y1236.600
G1 X1944.990 Y1294.050
G1 X1896.120 Y1329.550
G1 X1835.720 Y1329.550
G1 X1786.850 Y1294.050
G1 X1768.180 Y1236.600
G1 X1786.850 Y1179.150
F150
G1 Z   3.000
G0 Z  15.000 
M9 M5

(* SHAPE Nr: 117 *)
G0 X2149.700 Y 938.850
M3 M8
G0 Z   3.000 
G1 Z  -1.500
F400
G1 X2089.290 Y 938.850
G1 X2040.420 Y 974.350
G1 X2021.750 Y1031.810
G1 X2040.420 Y1089.260
G1 X2089.290 Y1124.760
G1 X2149.700 Y1124.760
G1 X2198.570 Y1089.260
F150
G1 Z  -3.000
F400
G1 X2149.700 Y1124.760
G1 X2089.290 Y1124.760
G1 X2040.420 Y1089.260
G1 X2021.750 Y1031.810
G1 X2040.420 Y 974.350
G1 X2089.290 Y 938.850
G1 X2149.700 Y 938.850
F150
G1 Z   3.000
G0 Z  15.000 
M9 M5
G0 X   0.000 Y   0.000
M2 (Program end)