(Generated with: DXF2GCODE, Version: REMOVED, Date: $Date$)
(Created from file: )
(Output format description: G-CODE for LinuxCNC)
(Time: Thu Sep 13 16:00:30 2018)
G21 (Units in millimeters)
G90 (Absolute programming)
G64 (Default cutting) G17 (XY plane) G40 (Cancel radius comp.) G49 (Cancel length comp.)
G0 Z  15.000 

(*** LAYER: FRAME_Z18 ***)
T1 M6
S6000

(* SHAPE Nr: 71 *)
G0 X   0.000 Y   0.000
M3 M8
G0 Z   3.000 
F150
G1 Z  -1.500
F400
G1 X   0.000 Y2050.000
G1 X2800.000 Y2050.000
G1 X2800.000 Y   0.000
G1 X   0.000 Y   0.000
F150
G1 Z  -3.000
F400
G1 X   0.000 Y2050.000
G1 X2800.000 Y2050.000
G1 X2800.000 Y   0.000
G1 X   0.000 Y   0.000
F150
G1 Z   3.000
G0 Z  15.000 
M9 M5

(*** LAYER: BORDER_D0_T132_RK1_A0_W0_EM1_RI1_ID0031 ***)

(* SHAPE Nr: 0 *)
G0 X 720.310 Y1574.140
M3 M8
G0 Z   3.000 
G1 Z  -1.500
F400
G2 X   9.990 Y1868.360 I -38.170 J 912.402
G1 X  74.570 Y1932.930
G3 X 720.310 Y1665.460 I 645.730 J 645.731
G1 X2044.630 Y1665.460
G1 X2044.630 Y1574.140
G1 X 720.310 Y1574.140
F150
G1 Z  -3.000
F400
G2 X   9.990 Y1868.360 I -38.170 J 912.402
G1 X  74.570 Y1932.930
G3 X 720.310 Y1665.460 I 645.730 J 645.731
G1 X2044.630 Y1665.460
G1 X2044.630 Y1574.140
G1 X 720.310 Y1574.140
F150
G1 Z   3.000
G0 Z  15.000 
M9 M5

(* SHAPE Nr: 1 *)
G0 X 720.310 Y1425.790
M3 M8
G0 Z   3.000 
G1 Z  -1.500
F400
G2 X   9.990 Y1720.010 I -38.170 J 912.402
G1 X  74.570 Y1784.580
G3 X 720.310 Y1517.110 I 645.730 J 645.731
G1 X2044.630 Y1517.110
G1 X2044.630 Y1425.790
G1 X 720.310 Y1425.790
F150
G1 Z  -3.000
F400
G2 X   9.990 Y1720.010 I -38.170 J 912.402
G1 X  74.570 Y1784.580
G3 X 720.310 Y1517.110 I 645.730 J 645.731
G1 X2044.630 Y1517.110
G1 X2044.630 Y1425.790
G1 X 720.310 Y1425.790
F150
G1 Z   3.000
G0 Z  15.000 
M9 M5

(* SHAPE Nr: 2 *)
G0 X 720.310 Y1277.450
M3 M8
G0 Z   3.000 
G1 Z  -1.500
F400
G2 X   9.990 Y1571.670 I -38.170 J 912.402
G1 X  74.570 Y1636.240
G3 X 720.310 Y1368.770 I 645.730 J 645.731
G1 X2044.630 Y1368.770
G1 X2044.630 Y1277.450
G1 X 720.310 Y1277.450
F150
G1 Z  -3.000
F400
G2 X   9.990 Y1571.670 I -38.170 J 912.402
G1 X  74.570 Y1636.240
G3 X 720.310 Y1368.770 I 645.730 J 645.731
G1 X2044.630 Y1368.770
G1 X2044.630 Y1277.450
G1 X 720.310 Y1277.450
F150
G1 Z   3.000
G0 Z  15.000 
M9 M5

(* SHAPE Nr: 3 *)
G0 X 720.310 Y1129.100
M3 M8
G0 Z   3.000 
G1 Z  -1.500
F400
G2 X   9.990 Y1423.320 I -38.170 J 912.402
G1 X  74.570 Y1487.890
G3 X 720.310 Y1220.420 I 645.730 J 645.731
G1 X2044.630 Y1220.420
G1 X2044.630 Y1129.100
G1 X 720.310 Y1129.100
F150
G1 Z  -3.000
F400
G2 X   9.990 Y1423.320 I -38.170 J 912.402
G1 X  74.570 Y1487.890
G3 X 720.310 Y1220.420 I 645.730 J 645.731
G1 X2044.630 Y1220.420
G1 X2044.630 Y1129.100
G1 X 720.310 Y1129.100
F150
G1 Z   3.000
G0 Z  15.000 
M9 M5

(* SHAPE Nr: 4 *)
G0 X 720.310 Y 980.760
M3 M8
G0 Z   3.000 
G1 Z  -1.500
F400
G2 X   9.990 Y1274.980 I -38.170 J 912.402
G1 X  74.570 Y1339.550
G3 X 720.310 Y1072.080 I 645.730 J 645.731
G1 X2044.630 Y1072.080
G1 X2044.630 Y 980.760
G1 X 720.310 Y 980.760
F150
G1 Z  -3.000
F400
G2 X   9.990 Y1274.980 I -38.170 J 912.402
G1 X  74.570 Y1339.550
G3 X 720.310 Y1072.080 I 645.730 J 645.731
G1 X2044.630 Y1072.080
G1 X2044.630 Y 980.760
G1 X 720.310 Y 980.760
F150
G1 Z   3.000
G0 Z  15.000 
M9 M5

(* SHAPE Nr: 5 *)
G0 X 720.310 Y 832.410
M3 M8
G0 Z   3.000 
G1 Z  -1.500
F400
G2 X   9.990 Y1126.630 I -38.170 J 912.402
G1 X  74.570 Y1191.200
G3 X 720.310 Y 923.730 I 645.730 J 645.731
G1 X2044.630 Y 923.730
G1 X2044.630 Y 832.410
G1 X 720.310 Y 832.410
F150
G1 Z  -3.000
F400
G2 X   9.990 Y1126.630 I -38.170 J 912.402
G1 X  74.570 Y1191.200
G3 X 720.310 Y 923.730 I 645.730 J 645.731
G1 X2044.630 Y 923.730
G1 X2044.630 Y 832.410
G1 X 720.310 Y 832.410
F150
G1 Z   3.000
G0 Z  15.000 
M9 M5

(* SHAPE Nr: 6 *)
G0 X   9.990 Y 978.280
M3 M8
G0 Z   3.000 
G1 Z  -1.500
F400
G1 X  74.570 Y1042.850
G3 X 720.310 Y 775.380 I 645.730 J 645.731
G1 X2044.630 Y 775.380
G1 X2044.630 Y 684.060
G1 X 720.310 Y 684.060
G2 X   9.990 Y 978.280 I -38.170 J 912.402
F150
G1 Z  -3.000
F400
G1 X  74.570 Y1042.850
G3 X 720.310 Y 775.380 I 645.730 J 645.731
G1 X2044.630 Y 775.380
G1 X2044.630 Y 684.060
G1 X 720.310 Y 684.060
G2 X   9.990 Y 978.280 I -38.170 J 912.402
F150
G1 Z   3.000
G0 Z  15.000 
M9 M5

(* SHAPE Nr: 7 *)
G0 X   9.990 Y 829.940
M3 M8
G0 Z   3.000 
G1 Z  -1.500
F400
G1 X  74.570 Y 894.510
G3 X 720.310 Y 627.040 I 645.730 J 645.731
G1 X2044.630 Y 627.040
G1 X2044.630 Y 535.720
G1 X 720.310 Y 535.720
G2 X   9.990 Y 829.940 I -38.170 J 912.402
F150
G1 Z  -3.000
F400
G1 X  74.570 Y 894.510
G3 X 720.310 Y 627.040 I 645.730 J 645.731
G1 X2044.630 Y 627.040
G1 X2044.630 Y 535.720
G1 X 720.310 Y 535.720
G2 X   9.990 Y 829.940 I -38.170 J 912.402
F150
G1 Z   3.000
G0 Z  15.000 
M9 M5

(* SHAPE Nr: 34 *)
G0 X   9.990 Y1947.890
M3 M8
G0 Z   3.000 
G1 Z  -1.500
F400
G1 X   9.990 Y2039.210
G1 X1334.320 Y2039.210
G2 X2044.630 Y1744.990 I  38.160 J-912.403
G1 X1980.060 Y1680.420
G3 X1334.320 Y1947.890 I-645.730 J-645.731
G1 X   9.990 Y1947.890
F150
G1 Z  -3.000
F400
G1 X   9.990 Y2039.210
G1 X1334.320 Y2039.210
G2 X2044.630 Y1744.990 I  38.160 J-912.403
G1 X1980.060 Y1680.420
G3 X1334.320 Y1947.890 I-645.730 J-645.731
G1 X   9.990 Y1947.890
F150
G1 Z   3.000
G0 Z  15.000 
M9 M5

(*** LAYER: BORDER_D0_T132_RK1_A0_W0_EM1_RI1_ID0018 ***)

(* SHAPE Nr: 8 *)
G0 X 739.800 Y 152.090
M3 M8
G0 Z   3.000 
G1 Z  -1.500
F400
G2 X 732.590 Y 190.940 I 472.487 J 107.781
G2 X 728.190 Y 232.350 I 561.472 J  80.598
G2 X 726.700 Y 275.060 I 611.451 J  42.712
G2 X 728.190 Y 317.770 I 612.906 J  -0.001
G2 X 732.590 Y 359.180 I 565.872 J -39.188
G2 X 739.800 Y 398.030 I 479.697 J -68.931
G2 X 749.570 Y 433.150 I 370.966 J -84.280
G2 X 761.610 Y 463.460 I 258.933 J -85.309
G2 X 775.570 Y 488.050 I 160.877 J -75.074
G2 X 791.010 Y 506.170 I  87.857 J -59.224
G2 X 807.470 Y 517.260 I  42.094 J -44.717
G2 X 824.440 Y 521.000 I  17.159 J -37.487
G2 X 841.410 Y 517.260 I  -0.189 J -41.227
G2 X 857.870 Y 506.170 I -25.634 J -55.807
G2 X 873.310 Y 488.050 I -72.417 J -77.344
G2 X 887.270 Y 463.460 I-146.917 J -99.664
G2 X 899.310 Y 433.150 I-246.893 J-115.619
G2 X 909.080 Y 398.030 I-361.196 J-119.400
G2 X 916.290 Y 359.180 I-472.487 J-107.781
G2 X 920.690 Y 317.770 I-561.472 J -80.598
G2 X 922.180 Y 275.060 I-611.416 J -42.711
G2 X 920.690 Y 232.350 I-612.906 J   0.001
G2 X 916.290 Y 190.940 I-565.872 J  39.188
G2 X 909.080 Y 152.090 I-479.697 J  68.931
G2 X 899.310 Y 116.970 I-370.966 J  84.280
G2 X 887.270 Y  86.660 I-258.933 J  85.309
G2 X 873.310 Y  62.070 I-160.877 J  75.074
G2 X 857.870 Y  43.950 I -87.857 J  59.224
G2 X 841.410 Y  32.860 I -42.094 J  44.717
G2 X 824.440 Y  29.120 I -17.159 J  37.487
G2 X 807.470 Y  32.860 I   0.189 J  41.227
G2 X 791.010 Y  43.950 I  25.634 J  55.807
G2 X 775.570 Y  62.070 I  72.418 J  77.345
G2 X 761.610 Y  86.660 I 146.917 J  99.664
G2 X 749.570 Y 116.970 I 246.893 J 115.619
G2 X 739.800 Y 152.090 I 361.196 J 119.400
F150
G1 Z  -3.000
F400
G2 X 732.590 Y 190.940 I 472.487 J 107.781
G2 X 728.190 Y 232.350 I 561.472 J  80.598
G2 X 726.700 Y 275.060 I 611.451 J  42.712
G2 X 728.190 Y 317.770 I 612.906 J  -0.001
G2 X 732.590 Y 359.180 I 565.872 J -39.188
G2 X 739.800 Y 398.030 I 479.697 J -68.931
G2 X 749.570 Y 433.150 I 370.966 J -84.280
G2 X 761.610 Y 463.460 I 258.933 J -85.309
G2 X 775.570 Y 488.050 I 160.877 J -75.074
G2 X 791.010 Y 506.170 I  87.857 J -59.224
G2 X 807.470 Y 517.260 I  42.094 J -44.717
G2 X 824.440 Y 521.000 I  17.159 J -37.487
G2 X 841.410 Y 517.260 I  -0.189 J -41.227
G2 X 857.870 Y 506.170 I -25.634 J -55.807
G2 X 873.310 Y 488.050 I -72.417 J -77.344
G2 X 887.270 Y 463.460 I-146.917 J -99.664
G2 X 899.310 Y 433.150 I-246.893 J-115.619
G2 X 909.080 Y 398.030 I-361.196 J-119.400
G2 X 916.290 Y 359.180 I-472.487 J-107.781
G2 X 920.690 Y 317.770 I-561.472 J -80.598
G2 X 922.180 Y 275.060 I-611.416 J -42.711
G2 X 920.690 Y 232.350 I-612.906 J   0.001
G2 X 916.290 Y 190.940 I-565.872 J  39.188
G2 X 909.080 Y 152.090 I-479.697 J  68.931
G2 X 899.310 Y 116.970 I-370.966 J  84.280
G2 X 887.270 Y  86.660 I-258.933 J  85.309
G2 X 873.310 Y  62.070 I-160.877 J  75.074
G2 X 857.870 Y  43.950 I -87.857 J  59.224
G2 X 841.410 Y  32.860 I -42.094 J  44.717
G2 X 824.440 Y  29.120 I -17.159 J  37.487
G2 X 807.470 Y  32.860 I   0.189 J  41.227
G2 X 791.010 Y  43.950 I  25.634 J  55.807
G2 X 775.570 Y  62.070 I  72.418 J  77.345
G2 X 761.610 Y  86.660 I 146.917 J  99.664
G2 X 749.570 Y 116.970 I 246.893 J 115.619
G2 X 739.800 Y 152.090 I 361.196 J 119.400
F150
G1 Z   3.000
G0 Z  15.000 
M9 M5

(* SHAPE Nr: 9 *)
G0 X 942.770 Y 190.940
M3 M8
G0 Z   3.000 
G1 Z  -1.500
F400
G2 X 938.370 Y 232.350 I 561.472 J  80.598
G2 X 936.880 Y 275.060 I 611.451 J  42.712
G2 X 938.370 Y 317.770 I 612.906 J  -0.001
G2 X 942.770 Y 359.180 I 565.872 J -39.188
G2 X 949.980 Y 398.030 I 479.697 J -68.931
G2 X 959.750 Y 433.150 I 370.966 J -84.280
G2 X 971.790 Y 463.460 I 258.933 J -85.309
G2 X 985.750 Y 488.050 I 160.877 J -75.074
G2 X1001.190 Y 506.170 I  87.858 J -59.225
G2 X1017.650 Y 517.260 I  42.094 J -44.717
G2 X1034.620 Y 521.000 I  17.159 J -37.487
G2 X1051.590 Y 517.260 I  -0.189 J -41.227
G2 X1068.050 Y 506.170 I -25.634 J -55.807
G2 X1083.490 Y 488.050 I -72.418 J -77.345
G2 X1097.450 Y 463.460 I-146.917 J -99.664
G2 X1109.490 Y 433.150 I-246.893 J-115.619
G2 X1119.260 Y 398.030 I-361.196 J-119.400
G2 X1126.470 Y 359.180 I-472.487 J-107.781
G2 X1130.870 Y 317.770 I-561.472 J -80.598
G2 X1132.360 Y 275.060 I-611.416 J -42.711
G2 X1130.870 Y 232.350 I-612.906 J   0.001
G2 X1126.470 Y 190.940 I-565.872 J  39.188
G2 X1119.260 Y 152.090 I-479.697 J  68.931
G2 X1109.490 Y 116.970 I-370.966 J  84.280
G2 X1097.450 Y  86.660 I-258.933 J  85.309
G2 X1083.490 Y  62.070 I-160.877 J  75.074
G2 X1068.050 Y  43.950 I -87.858 J  59.225
G2 X1051.590 Y  32.860 I -42.094 J  44.717
G2 X1034.620 Y  29.120 I -17.159 J  37.487
G2 X1017.650 Y  32.860 I   0.189 J  41.227
G2 X1001.190 Y  43.950 I  25.634 J  55.807
G2 X 985.750 Y  62.070 I  72.418 J  77.345
G2 X 971.790 Y  86.660 I 146.917 J  99.664
G2 X 959.750 Y 116.970 I 246.893 J 115.619
G2 X 949.980 Y 152.090 I 361.196 J 119.400
G2 X 942.770 Y 190.940 I 472.487 J 107.781
F150
G1 Z  -3.000
F400
G2 X 938.370 Y 232.350 I 561.472 J  80.598
G2 X 936.880 Y 275.060 I 611.451 J  42.712
G2 X 938.370 Y 317.770 I 612.906 J  -0.001
G2 X 942.770 Y 359.180 I 565.872 J -39.188
G2 X 949.980 Y 398.030 I 479.697 J -68.931
G2 X 959.750 Y 433.150 I 370.966 J -84.280
G2 X 971.790 Y 463.460 I 258.933 J -85.309
G2 X 985.750 Y 488.050 I 160.877 J -75.074
G2 X1001.190 Y 506.170 I  87.858 J -59.225
G2 X1017.650 Y 517.260 I  42.094 J -44.717
G2 X1034.620 Y 521.000 I  17.159 J -37.487
G2 X1051.590 Y 517.260 I  -0.189 J -41.227
G2 X1068.050 Y 506.170 I -25.634 J -55.807
G2 X1083.490 Y 488.050 I -72.418 J -77.345
G2 X1097.450 Y 463.460 I-146.917 J -99.664
G2 X1109.490 Y 433.150 I-246.893 J-115.619
G2 X1119.260 Y 398.030 I-361.196 J-119.400
G2 X1126.470 Y 359.180 I-472.487 J-107.781
G2 X1130.870 Y 317.770 I-561.472 J -80.598
G2 X1132.360 Y 275.060 I-611.416 J -42.711
G2 X1130.870 Y 232.350 I-612.906 J   0.001
G2 X1126.470 Y 190.940 I-565.872 J  39.188
G2 X1119.260 Y 152.090 I-479.697 J  68.931
G2 X1109.490 Y 116.970 I-370.966 J  84.280
G2 X1097.450 Y  86.660 I-258.933 J  85.309
G2 X1083.490 Y  62.070 I-160.877 J  75.074
G2 X1068.050 Y  43.950 I -87.858 J  59.225
G2 X1051.590 Y  32.860 I -42.094 J  44.717
G2 X1034.620 Y  29.120 I -17.159 J  37.487
G2 X1017.650 Y  32.860 I   0.189 J  41.227
G2 X1001.190 Y  43.950 I  25.634 J  55.807
G2 X 985.750 Y  62.070 I  72.418 J  77.345
G2 X 971.790 Y  86.660 I 146.917 J  99.664
G2 X 959.750 Y 116.970 I 246.893 J 115.619
G2 X 949.980 Y 152.090 I 361.196 J 119.400
G2 X 942.770 Y 190.940 I 472.487 J 107.781
F150
G1 Z   3.000
G0 Z  15.000 
M9 M5

(* SHAPE Nr: 10 *)
G0 X1152.950 Y 190.940
M3 M8
G0 Z   3.000 
G1 Z  -1.500
F400
G2 X1148.550 Y 232.350 I 561.472 J  80.598
G2 X1147.060 Y 275.060 I 611.451 J  42.712
G2 X1148.550 Y 317.770 I 612.906 J  -0.001
G2 X1152.950 Y 359.180 I 565.872 J -39.188
G2 X1160.160 Y 398.030 I 479.697 J -68.931
G2 X1169.930 Y 433.150 I 370.966 J -84.280
G2 X1181.970 Y 463.460 I 258.933 J -85.309
G2 X1195.930 Y 488.050 I 160.877 J -75.074
G2 X1211.370 Y 506.170 I  87.857 J -59.224
G2 X1227.830 Y 517.260 I  42.094 J -44.717
G2 X1244.800 Y 521.000 I  17.159 J -37.487
G2 X1261.770 Y 517.260 I  -0.189 J -41.227
G2 X1278.230 Y 506.170 I -25.634 J -55.807
G2 X1293.670 Y 488.050 I -72.418 J -77.345
G2 X1307.630 Y 463.460 I-146.917 J -99.664
G2 X1319.670 Y 433.150 I-246.893 J-115.619
G2 X1329.440 Y 398.030 I-361.196 J-119.400
G2 X1336.650 Y 359.180 I-472.487 J-107.781
G2 X1341.050 Y 317.770 I-561.472 J -80.598
G2 X1342.540 Y 275.060 I-611.416 J -42.711
G2 X1341.050 Y 232.350 I-612.906 J   0.001
G2 X1336.650 Y 190.940 I-565.872 J  39.188
G2 X1329.440 Y 152.090 I-479.697 J  68.931
G2 X1319.670 Y 116.970 I-370.966 J  84.280
G2 X1307.630 Y  86.660 I-258.933 J  85.309
G2 X1293.670 Y  62.070 I-160.877 J  75.074
G2 X1278.230 Y  43.950 I -87.858 J  59.225
G2 X1261.770 Y  32.860 I -42.094 J  44.717
G2 X1244.800 Y  29.120 I -17.159 J  37.487
G2 X1227.830 Y  32.860 I   0.189 J  41.227
G2 X1211.370 Y  43.950 I  25.634 J  55.807
G2 X1195.930 Y  62.070 I  72.417 J  77.344
G2 X1181.970 Y  86.660 I 146.917 J  99.664
G2 X1169.930 Y 116.970 I 246.893 J 115.619
G2 X1160.160 Y 152.090 I 361.196 J 119.400
G2 X1152.950 Y 190.940 I 472.487 J 107.781
F150
G1 Z  -3.000
F400
G2 X1148.550 Y 232.350 I 561.472 J  80.598
G2 X1147.060 Y 275.060 I 611.451 J  42.712
G2 X1148.550 Y 317.770 I 612.906 J  -0.001
G2 X1152.950 Y 359.180 I 565.872 J -39.188
G2 X1160.160 Y 398.030 I 479.697 J -68.931
G2 X1169.930 Y 433.150 I 370.966 J -84.280
G2 X1181.970 Y 463.460 I 258.933 J -85.309
G2 X1195.930 Y 488.050 I 160.877 J -75.074
G2 X1211.370 Y 506.170 I  87.857 J -59.224
G2 X1227.830 Y 517.260 I  42.094 J -44.717
G2 X1244.800 Y 521.000 I  17.159 J -37.487
G2 X1261.770 Y 517.260 I  -0.189 J -41.227
G2 X1278.230 Y 506.170 I -25.634 J -55.807
G2 X1293.670 Y 488.050 I -72.418 J -77.345
G2 X1307.630 Y 463.460 I-146.917 J -99.664
G2 X1319.670 Y 433.150 I-246.893 J-115.619
G2 X1329.440 Y 398.030 I-361.196 J-119.400
G2 X1336.650 Y 359.180 I-472.487 J-107.781
G2 X1341.050 Y 317.770 I-561.472 J -80.598
G2 X1342.540 Y 275.060 I-611.416 J -42.711
G2 X1341.050 Y 232.350 I-612.906 J   0.001
G2 X1336.650 Y 190.940 I-565.872 J  39.188
G2 X1329.440 Y 152.090 I-479.697 J  68.931
G2 X1319.670 Y 116.970 I-370.966 J  84.280
G2 X1307.630 Y  86.660 I-258.933 J  85.309
G2 X1293.670 Y  62.070 I-160.877 J  75.074
G2 X1278.230 Y  43.950 I -87.858 J  59.225
G2 X1261.770 Y  32.860 I -42.094 J  44.717
G2 X1244.800 Y  29.120 I -17.159 J  37.487
G2 X1227.830 Y  32.860 I   0.189 J  41.227
G2 X1211.370 Y  43.950 I  25.634 J  55.807
G2 X1195.930 Y  62.070 I  72.417 J  77.344
G2 X1181.970 Y  86.660 I 146.917 J  99.664
G2 X1169.930 Y 116.970 I 246.893 J 115.619
G2 X1160.160 Y 152.090 I 361.196 J 119.400
G2 X1152.950 Y 190.940 I 472.487 J 107.781
F150
G1 Z   3.000
G0 Z  15.000 
M9 M5

(* SHAPE Nr: 11 *)
G0 X1363.130 Y 190.940
M3 M8
G0 Z   3.000 
G1 Z  -1.500
F400
G2 X1358.730 Y 232.350 I 561.472 J  80.598
G2 X1357.240 Y 275.060 I 611.451 J  42.712
G2 X1358.730 Y 317.770 I 612.906 J  -0.001
G2 X1363.130 Y 359.180 I 565.872 J -39.188
G2 X1370.340 Y 398.030 I 479.697 J -68.931
G2 X1380.110 Y 433.150 I 370.966 J -84.280
G2 X1392.150 Y 463.460 I 258.933 J -85.309
G2 X1406.110 Y 488.050 I 160.877 J -75.074
G2 X1421.550 Y 506.170 I  87.857 J -59.224
G2 X1438.010 Y 517.260 I  42.094 J -44.717
G2 X1454.980 Y 521.000 I  17.159 J -37.487
G2 X1471.950 Y 517.260 I  -0.189 J -41.227
G2 X1488.410 Y 506.170 I -25.634 J -55.807
G2 X1503.850 Y 488.050 I -72.418 J -77.345
G2 X1517.810 Y 463.460 I-146.917 J -99.664
G2 X1529.850 Y 433.150 I-246.893 J-115.619
G2 X1539.620 Y 398.030 I-361.196 J-119.400
G2 X1546.830 Y 359.180 I-472.487 J-107.781
G2 X1551.230 Y 317.770 I-561.472 J -80.598
G2 X1552.720 Y 275.060 I-611.416 J -42.711
G2 X1551.230 Y 232.350 I-612.906 J   0.001
G2 X1546.830 Y 190.940 I-565.872 J  39.188
G2 X1539.620 Y 152.090 I-479.697 J  68.931
G2 X1529.850 Y 116.970 I-370.966 J  84.280
G2 X1517.810 Y  86.660 I-258.933 J  85.309
G2 X1503.850 Y  62.070 I-160.877 J  75.074
G2 X1488.410 Y  43.950 I -87.858 J  59.225
G2 X1471.950 Y  32.860 I -42.094 J  44.717
G2 X1454.980 Y  29.120 I -17.159 J  37.487
G2 X1438.010 Y  32.860 I   0.189 J  41.227
G2 X1421.550 Y  43.950 I  25.634 J  55.807
G2 X1406.110 Y  62.070 I  72.417 J  77.344
G2 X1392.150 Y  86.660 I 146.917 J  99.664
G2 X1380.110 Y 116.970 I 246.893 J 115.619
G2 X1370.340 Y 152.090 I 361.196 J 119.400
G2 X1363.130 Y 190.940 I 472.487 J 107.781
F150
G1 Z  -3.000
F400
G2 X1358.730 Y 232.350 I 561.472 J  80.598
G2 X1357.240 Y 275.060 I 611.451 J  42.712
G2 X1358.730 Y 317.770 I 612.906 J  -0.001
G2 X1363.130 Y 359.180 I 565.872 J -39.188
G2 X1370.340 Y 398.030 I 479.697 J -68.931
G2 X1380.110 Y 433.150 I 370.966 J -84.280
G2 X1392.150 Y 463.460 I 258.933 J -85.309
G2 X1406.110 Y 488.050 I 160.877 J -75.074
G2 X1421.550 Y 506.170 I  87.857 J -59.224
G2 X1438.010 Y 517.260 I  42.094 J -44.717
G2 X1454.980 Y 521.000 I  17.159 J -37.487
G2 X1471.950 Y 517.260 I  -0.189 J -41.227
G2 X1488.410 Y 506.170 I -25.634 J -55.807
G2 X1503.850 Y 488.050 I -72.418 J -77.345
G2 X1517.810 Y 463.460 I-146.917 J -99.664
G2 X1529.850 Y 433.150 I-246.893 J-115.619
G2 X1539.620 Y 398.030 I-361.196 J-119.400
G2 X1546.830 Y 359.180 I-472.487 J-107.781
G2 X1551.230 Y 317.770 I-561.472 J -80.598
G2 X1552.720 Y 275.060 I-611.416 J -42.711
G2 X1551.230 Y 232.350 I-612.906 J   0.001
G2 X1546.830 Y 190.940 I-565.872 J  39.188
G2 X1539.620 Y 152.090 I-479.697 J  68.931
G2 X1529.850 Y 116.970 I-370.966 J  84.280
G2 X1517.810 Y  86.660 I-258.933 J  85.309
G2 X1503.850 Y  62.070 I-160.877 J  75.074
G2 X1488.410 Y  43.950 I -87.858 J  59.225
G2 X1471.950 Y  32.860 I -42.094 J  44.717
G2 X1454.980 Y  29.120 I -17.159 J  37.487
G2 X1438.010 Y  32.860 I   0.189 J  41.227
G2 X1421.550 Y  43.950 I  25.634 J  55.807
G2 X1406.110 Y  62.070 I  72.417 J  77.344
G2 X1392.150 Y  86.660 I 146.917 J  99.664
G2 X1380.110 Y 116.970 I 246.893 J 115.619
G2 X1370.340 Y 152.090 I 361.196 J 119.400
G2 X1363.130 Y 190.940 I 472.487 J 107.781
F150
G1 Z   3.000
G0 Z  15.000 
M9 M5

(* SHAPE Nr: 12 *)
G0 X1573.310 Y 190.940
M3 M8
G0 Z   3.000 
G1 Z  -1.500
F400
G2 X1568.910 Y 232.350 I 561.472 J  80.598
G2 X1567.420 Y 275.060 I 611.451 J  42.712
G2 X1568.910 Y 317.770 I 612.906 J  -0.001
G2 X1573.310 Y 359.180 I 565.872 J -39.188
G2 X1580.520 Y 398.030 I 479.697 J -68.931
G2 X1590.290 Y 433.150 I 370.966 J -84.280
G2 X1602.330 Y 463.460 I 258.933 J -85.309
G2 X1616.290 Y 488.050 I 160.877 J -75.074
G2 X1631.730 Y 506.170 I  87.858 J -59.225
G2 X1648.190 Y 517.260 I  42.094 J -44.717
G2 X1665.160 Y 521.000 I  17.159 J -37.487
G2 X1682.130 Y 517.260 I  -0.189 J -41.227
G2 X1698.590 Y 506.170 I -25.634 J -55.807
G2 X1714.030 Y 488.050 I -72.418 J -77.345
G2 X1727.990 Y 463.460 I-146.917 J -99.664
G2 X1740.030 Y 433.150 I-246.893 J-115.619
G2 X1749.800 Y 398.030 I-361.196 J-119.400
G2 X1757.010 Y 359.180 I-472.487 J-107.781
G2 X1761.410 Y 317.770 I-561.472 J -80.598
G2 X1762.900 Y 275.060 I-611.416 J -42.711
G2 X1761.410 Y 232.350 I-612.906 J   0.001
G2 X1757.010 Y 190.940 I-565.872 J  39.188
G2 X1749.800 Y 152.090 I-479.697 J  68.931
G2 X1740.030 Y 116.970 I-370.966 J  84.280
G2 X1727.990 Y  86.660 I-258.933 J  85.309
G2 X1714.030 Y  62.070 I-160.877 J  75.074
G2 X1698.590 Y  43.950 I -87.858 J  59.225
G2 X1682.130 Y  32.860 I -42.094 J  44.717
G2 X1665.160 Y  29.120 I -17.159 J  37.487
G2 X1648.190 Y  32.860 I   0.189 J  41.227
G2 X1631.730 Y  43.950 I  25.634 J  55.807
G2 X1616.290 Y  62.070 I  72.418 J  77.345
G2 X1602.330 Y  86.660 I 146.917 J  99.664
G2 X1590.290 Y 116.970 I 246.893 J 115.619
G2 X1580.520 Y 152.090 I 361.196 J 119.400
G2 X1573.310 Y 190.940 I 472.487 J 107.781
F150
G1 Z  -3.000
F400
G2 X1568.910 Y 232.350 I 561.472 J  80.598
G2 X1567.420 Y 275.060 I 611.451 J  42.712
G2 X1568.910 Y 317.770 I 612.906 J  -0.001
G2 X1573.310 Y 359.180 I 565.872 J -39.188
G2 X1580.520 Y 398.030 I 479.697 J -68.931
G2 X1590.290 Y 433.150 I 370.966 J -84.280
G2 X1602.330 Y 463.460 I 258.933 J -85.309
G2 X1616.290 Y 488.050 I 160.877 J -75.074
G2 X1631.730 Y 506.170 I  87.858 J -59.225
G2 X1648.190 Y 517.260 I  42.094 J -44.717
G2 X1665.160 Y 521.000 I  17.159 J -37.487
G2 X1682.130 Y 517.260 I  -0.189 J -41.227
G2 X1698.590 Y 506.170 I -25.634 J -55.807
G2 X1714.030 Y 488.050 I -72.418 J -77.345
G2 X1727.990 Y 463.460 I-146.917 J -99.664
G2 X1740.030 Y 433.150 I-246.893 J-115.619
G2 X1749.800 Y 398.030 I-361.196 J-119.400
G2 X1757.010 Y 359.180 I-472.487 J-107.781
G2 X1761.410 Y 317.770 I-561.472 J -80.598
G2 X1762.900 Y 275.060 I-611.416 J -42.711
G2 X1761.410 Y 232.350 I-612.906 J   0.001
G2 X1757.010 Y 190.940 I-565.872 J  39.188
G2 X1749.800 Y 152.090 I-479.697 J  68.931
G2 X1740.030 Y 116.970 I-370.966 J  84.280
G2 X1727.990 Y  86.660 I-258.933 J  85.309
G2 X1714.030 Y  62.070 I-160.877 J  75.074
G2 X1698.590 Y  43.950 I -87.858 J  59.225
G2 X1682.130 Y  32.860 I -42.094 J  44.717
G2 X1665.160 Y  29.120 I -17.159 J  37.487
G2 X1648.190 Y  32.860 I   0.189 J  41.227
G2 X1631.730 Y  43.950 I  25.634 J  55.807
G2 X1616.290 Y  62.070 I  72.418 J  77.345
G2 X1602.330 Y  86.660 I 146.917 J  99.664
G2 X1590.290 Y 116.970 I 246.893 J 115.619
G2 X1580.520 Y 152.090 I 361.196 J 119.400
G2 X1573.310 Y 190.940 I 472.487 J 107.781
F150
G1 Z   3.000
G0 Z  15.000 
M9 M5

(* SHAPE Nr: 13 *)
G0 X1783.490 Y 190.940
M3 M8
G0 Z   3.000 
G1 Z  -1.500
F400
G2 X1779.090 Y 232.350 I 561.472 J  80.598
G2 X1777.600 Y 275.060 I 611.451 J  42.712
G2 X1779.090 Y 317.770 I 612.906 J  -0.001
G2 X1783.490 Y 359.180 I 565.872 J -39.188
G2 X1790.700 Y 398.030 I 479.697 J -68.931
G2 X1800.470 Y 433.150 I 370.966 J -84.280
G2 X1812.510 Y 463.460 I 258.933 J -85.309
G2 X1826.470 Y 488.050 I 160.877 J -75.074
G2 X1841.910 Y 506.170 I  87.858 J -59.225
G2 X1858.370 Y 517.260 I  42.094 J -44.717
G2 X1875.340 Y 521.000 I  17.159 J -37.487
G2 X1892.310 Y 517.260 I  -0.189 J -41.227
G2 X1908.770 Y 506.170 I -25.634 J -55.807
G2 X1924.210 Y 488.050 I -72.418 J -77.345
G2 X1938.170 Y 463.460 I-146.917 J -99.664
G2 X1950.210 Y 433.150 I-246.893 J-115.619
G2 X1959.980 Y 398.030 I-361.196 J-119.400
G2 X1967.190 Y 359.180 I-472.487 J-107.781
G2 X1971.590 Y 317.770 I-561.472 J -80.598
G2 X1973.080 Y 275.060 I-611.416 J -42.711
G2 X1971.590 Y 232.350 I-612.906 J   0.001
G2 X1967.190 Y 190.940 I-565.872 J  39.188
G2 X1959.980 Y 152.090 I-479.697 J  68.931
G2 X1950.210 Y 116.970 I-370.966 J  84.280
G2 X1938.170 Y  86.660 I-258.933 J  85.309
G2 X1924.210 Y  62.070 I-160.877 J  75.074
G2 X1908.770 Y  43.950 I -87.858 J  59.225
G2 X1892.310 Y  32.860 I -42.094 J  44.717
G2 X1875.340 Y  29.120 I -17.159 J  37.487
G2 X1858.370 Y  32.860 I   0.189 J  41.227
G2 X1841.910 Y  43.950 I  25.634 J  55.807
G2 X1826.470 Y  62.070 I  72.418 J  77.345
G2 X1812.510 Y  86.660 I 146.917 J  99.664
G2 X1800.470 Y 116.970 I 246.893 J 115.619
G2 X1790.700 Y 152.090 I 361.196 J 119.400
G2 X1783.490 Y 190.940 I 472.487 J 107.781
F150
G1 Z  -3.000
F400
G2 X1779.090 Y 232.350 I 561.472 J  80.598
G2 X1777.600 Y 275.060 I 611.451 J  42.712
G2 X1779.090 Y 317.770 I 612.906 J  -0.001
G2 X1783.490 Y 359.180 I 565.872 J -39.188
G2 X1790.700 Y 398.030 I 479.697 J -68.931
G2 X1800.470 Y 433.150 I 370.966 J -84.280
G2 X1812.510 Y 463.460 I 258.933 J -85.309
G2 X1826.470 Y 488.050 I 160.877 J -75.074
G2 X1841.910 Y 506.170 I  87.858 J -59.225
G2 X1858.370 Y 517.260 I  42.094 J -44.717
G2 X1875.340 Y 521.000 I  17.159 J -37.487
G2 X1892.310 Y 517.260 I  -0.189 J -41.227
G2 X1908.770 Y 506.170 I -25.634 J -55.807
G2 X1924.210 Y 488.050 I -72.418 J -77.345
G2 X1938.170 Y 463.460 I-146.917 J -99.664
G2 X1950.210 Y 433.150 I-246.893 J-115.619
G2 X1959.980 Y 398.030 I-361.196 J-119.400
G2 X1967.190 Y 359.180 I-472.487 J-107.781
G2 X1971.590 Y 317.770 I-561.472 J -80.598
G2 X1973.080 Y 275.060 I-611.416 J -42.711
G2 X1971.590 Y 232.350 I-612.906 J   0.001
G2 X1967.190 Y 190.940 I-565.872 J  39.188
G2 X1959.980 Y 152.090 I-479.697 J  68.931
G2 X1950.210 Y 116.970 I-370.966 J  84.280
G2 X1938.170 Y  86.660 I-258.933 J  85.309
G2 X1924.210 Y  62.070 I-160.877 J  75.074
G2 X1908.770 Y  43.950 I -87.858 J  59.225
G2 X1892.310 Y  32.860 I -42.094 J  44.717
G2 X1875.340 Y  29.120 I -17.159 J  37.487
G2 X1858.370 Y  32.860 I   0.189 J  41.227
G2 X1841.910 Y  43.950 I  25.634 J  55.807
G2 X1826.470 Y  62.070 I  72.418 J  77.345
G2 X1812.510 Y  86.660 I 146.917 J  99.664
G2 X1800.470 Y 116.970 I 246.893 J 115.619
G2 X1790.700 Y 152.090 I 361.196 J 119.400
G2 X1783.490 Y 190.940 I 472.487 J 107.781
F150
G1 Z   3.000
G0 Z  15.000 
M9 M5

(* SHAPE Nr: 14 *)
G0 X1993.670 Y 207.000
M3 M8
G0 Z   3.000 
G1 Z  -1.500
F400
G2 X1989.270 Y 248.410 I 561.472 J  80.598
G2 X1987.780 Y 291.120 I 611.451 J  42.712
G2 X1989.270 Y 333.830 I 612.906 J  -0.001
G2 X1993.670 Y 375.240 I 565.872 J -39.188
G2 X2000.880 Y 414.090 I 479.697 J -68.931
G2 X2010.650 Y 449.210 I 370.966 J -84.280
G2 X2022.690 Y 479.520 I 258.933 J -85.309
G2 X2036.650 Y 504.110 I 160.877 J -75.074
G2 X2052.090 Y 522.230 I  87.857 J -59.224
G2 X2068.550 Y 533.320 I  42.094 J -44.717
G2 X2085.520 Y 537.060 I  17.159 J -37.487
G2 X2102.490 Y 533.320 I  -0.189 J -41.227
G2 X2118.950 Y 522.230 I -25.634 J -55.807
G2 X2134.390 Y 504.110 I -72.417 J -77.344
G2 X2148.350 Y 479.520 I-146.917 J -99.664
G2 X2160.390 Y 449.210 I-246.893 J-115.619
G2 X2170.160 Y 414.090 I-361.196 J-119.400
G2 X2177.370 Y 375.240 I-472.487 J-107.781
G2 X2181.770 Y 333.830 I-561.472 J -80.598
G2 X2183.260 Y 291.120 I-611.416 J -42.711
G2 X2181.770 Y 248.410 I-612.906 J   0.001
G2 X2177.370 Y 207.000 I-565.872 J  39.188
G2 X2170.160 Y 168.150 I-479.697 J  68.931
G2 X2160.390 Y 133.030 I-370.966 J  84.280
G2 X2148.350 Y 102.720 I-258.933 J  85.309
G2 X2134.390 Y  78.130 I-160.877 J  75.074
G2 X2118.950 Y  60.010 I -87.857 J  59.224
G2 X2102.490 Y  48.920 I -42.094 J  44.717
G2 X2085.520 Y  45.180 I -17.159 J  37.487
G2 X2068.550 Y  48.920 I   0.189 J  41.227
G2 X2052.090 Y  60.010 I  25.634 J  55.807
G2 X2036.650 Y  78.130 I  72.417 J  77.344
G2 X2022.690 Y 102.720 I 146.917 J  99.664
G2 X2010.650 Y 133.030 I 246.893 J 115.619
G2 X2000.880 Y 168.150 I 361.196 J 119.400
G2 X1993.670 Y 207.000 I 472.487 J 107.781
F150
G1 Z  -3.000
F400
G2 X1989.270 Y 248.410 I 561.472 J  80.598
G2 X1987.780 Y 291.120 I 611.451 J  42.712
G2 X1989.270 Y 333.830 I 612.906 J  -0.001
G2 X1993.670 Y 375.240 I 565.872 J -39.188
G2 X2000.880 Y 414.090 I 479.697 J -68.931
G2 X2010.650 Y 449.210 I 370.966 J -84.280
G2 X2022.690 Y 479.520 I 258.933 J -85.309
G2 X2036.650 Y 504.110 I 160.877 J -75.074
G2 X2052.090 Y 522.230 I  87.857 J -59.224
G2 X2068.550 Y 533.320 I  42.094 J -44.717
G2 X2085.520 Y 537.060 I  17.159 J -37.487
G2 X2102.490 Y 533.320 I  -0.189 J -41.227
G2 X2118.950 Y 522.230 I -25.634 J -55.807
G2 X2134.390 Y 504.110 I -72.417 J -77.344
G2 X2148.350 Y 479.520 I-146.917 J -99.664
G2 X2160.390 Y 449.210 I-246.893 J-115.619
G2 X2170.160 Y 414.090 I-361.196 J-119.400
G2 X2177.370 Y 375.240 I-472.487 J-107.781
G2 X2181.770 Y 333.830 I-561.472 J -80.598
G2 X2183.260 Y 291.120 I-611.416 J -42.711
G2 X2181.770 Y 248.410 I-612.906 J   0.001
G2 X2177.370 Y 207.000 I-565.872 J  39.188
G2 X2170.160 Y 168.150 I-479.697 J  68.931
G2 X2160.390 Y 133.030 I-370.966 J  84.280
G2 X2148.350 Y 102.720 I-258.933 J  85.309
G2 X2134.390 Y  78.130 I-160.877 J  75.074
G2 X2118.950 Y  60.010 I -87.857 J  59.224
G2 X2102.490 Y  48.920 I -42.094 J  44.717
G2 X2085.520 Y  45.180 I -17.159 J  37.487
G2 X2068.550 Y  48.920 I   0.189 J  41.227
G2 X2052.090 Y  60.010 I  25.634 J  55.807
G2 X2036.650 Y  78.130 I  72.417 J  77.344
G2 X2022.690 Y 102.720 I 146.917 J  99.664
G2 X2010.650 Y 133.030 I 246.893 J 115.619
G2 X2000.880 Y 168.150 I 361.196 J 119.400
G2 X1993.670 Y 207.000 I 472.487 J 107.781
F150
G1 Z   3.000
G0 Z  15.000 
M9 M5

(* SHAPE Nr: 15 *)
G0 X2199.210 Y 223.730
M3 M8
G0 Z   3.000 
G1 Z  -1.500
F400
G2 X2197.720 Y 266.440 I 611.451 J  42.712
G2 X2199.210 Y 309.150 I 612.906 J  -0.001
G2 X2203.610 Y 350.560 I 565.872 J -39.188
G2 X2210.820 Y 389.410 I 479.697 J -68.931
G2 X2220.590 Y 424.530 I 370.966 J -84.280
G2 X2232.630 Y 454.840 I 258.933 J -85.309
G2 X2246.590 Y 479.430 I 160.873 J -75.072
G2 X2262.030 Y 497.550 I  87.858 J -59.225
G2 X2278.490 Y 508.640 I  42.094 J -44.717
G2 X2295.460 Y 512.380 I  17.159 J -37.487
G2 X2312.430 Y 508.640 I  -0.189 J -41.227
G2 X2328.890 Y 497.550 I -25.634 J -55.807
G2 X2344.330 Y 479.430 I -72.417 J -77.344
G2 X2358.290 Y 454.840 I-146.917 J -99.664
G2 X2370.330 Y 424.530 I-246.893 J-115.619
G2 X2380.100 Y 389.410 I-361.196 J-119.400
G2 X2387.310 Y 350.560 I-472.487 J-107.781
G2 X2391.710 Y 309.150 I-561.472 J -80.598
G2 X2393.200 Y 266.440 I-611.416 J -42.711
G2 X2391.710 Y 223.730 I-612.906 J   0.001
G2 X2387.310 Y 182.320 I-565.872 J  39.188
G2 X2380.100 Y 143.470 I-479.697 J  68.931
G2 X2370.330 Y 108.350 I-370.966 J  84.280
G2 X2358.290 Y  78.040 I-258.933 J  85.309
G2 X2344.330 Y  53.450 I-160.877 J  75.074
G2 X2328.890 Y  35.330 I -87.857 J  59.224
G2 X2312.430 Y  24.240 I -42.094 J  44.717
G2 X2295.460 Y  20.500 I -17.159 J  37.487
G2 X2278.490 Y  24.240 I   0.189 J  41.227
G2 X2262.030 Y  35.330 I  25.634 J  55.807
G2 X2246.590 Y  53.450 I  72.418 J  77.345
G2 X2232.630 Y  78.040 I 146.913 J  99.662
G2 X2220.590 Y 108.350 I 246.893 J 115.619
G2 X2210.820 Y 143.470 I 361.196 J 119.400
G2 X2203.610 Y 182.320 I 472.487 J 107.781
G2 X2199.210 Y 223.730 I 561.472 J  80.598
F150
G1 Z  -3.000
F400
G2 X2197.720 Y 266.440 I 611.451 J  42.712
G2 X2199.210 Y 309.150 I 612.906 J  -0.001
G2 X2203.610 Y 350.560 I 565.872 J -39.188
G2 X2210.820 Y 389.410 I 479.697 J -68.931
G2 X2220.590 Y 424.530 I 370.966 J -84.280
G2 X2232.630 Y 454.840 I 258.933 J -85.309
G2 X2246.590 Y 479.430 I 160.873 J -75.072
G2 X2262.030 Y 497.550 I  87.858 J -59.225
G2 X2278.490 Y 508.640 I  42.094 J -44.717
G2 X2295.460 Y 512.380 I  17.159 J -37.487
G2 X2312.430 Y 508.640 I  -0.189 J -41.227
G2 X2328.890 Y 497.550 I -25.634 J -55.807
G2 X2344.330 Y 479.430 I -72.417 J -77.344
G2 X2358.290 Y 454.840 I-146.917 J -99.664
G2 X2370.330 Y 424.530 I-246.893 J-115.619
G2 X2380.100 Y 389.410 I-361.196 J-119.400
G2 X2387.310 Y 350.560 I-472.487 J-107.781
G2 X2391.710 Y 309.150 I-561.472 J -80.598
G2 X2393.200 Y 266.440 I-611.416 J -42.711
G2 X2391.710 Y 223.730 I-612.906 J   0.001
G2 X2387.310 Y 182.320 I-565.872 J  39.188
G2 X2380.100 Y 143.470 I-479.697 J  68.931
G2 X2370.330 Y 108.350 I-370.966 J  84.280
G2 X2358.290 Y  78.040 I-258.933 J  85.309
G2 X2344.330 Y  53.450 I-160.877 J  75.074
G2 X2328.890 Y  35.330 I -87.857 J  59.224
G2 X2312.430 Y  24.240 I -42.094 J  44.717
G2 X2295.460 Y  20.500 I -17.159 J  37.487
G2 X2278.490 Y  24.240 I   0.189 J  41.227
G2 X2262.030 Y  35.330 I  25.634 J  55.807
G2 X2246.590 Y  53.450 I  72.418 J  77.345
G2 X2232.630 Y  78.040 I 146.913 J  99.662
G2 X2220.590 Y 108.350 I 246.893 J 115.619
G2 X2210.820 Y 143.470 I 361.196 J 119.400
G2 X2203.610 Y 182.320 I 472.487 J 107.781
G2 X2199.210 Y 223.730 I 561.472 J  80.598
F150
G1 Z   3.000
G0 Z  15.000 
M9 M5

(* SHAPE Nr: 16 *)
G0 X2392.460 Y 459.470
M3 M8
G0 Z   3.000 
G1 Z  -1.500
F400
G2 X2385.250 Y 498.320 I 472.487 J 107.781
G2 X2380.850 Y 539.730 I 561.472 J  80.598
G2 X2379.360 Y 582.440 I 611.416 J  42.711
G2 X2380.850 Y 625.150 I 612.906 J  -0.001
G2 X2385.250 Y 666.560 I 565.872 J -39.188
G2 X2392.460 Y 705.410 I 479.697 J -68.931
G2 X2402.230 Y 740.530 I 370.966 J -84.280
G2 X2414.270 Y 770.840 I 258.933 J -85.309
G2 X2428.230 Y 795.430 I 160.873 J -75.072
G2 X2443.670 Y 813.550 I  87.858 J -59.225
G2 X2460.130 Y 824.640 I  42.094 J -44.717
G2 X2477.100 Y 828.380 I  17.159 J -37.487
G2 X2494.070 Y 824.640 I  -0.189 J -41.227
G2 X2510.530 Y 813.550 I -25.634 J -55.807
G2 X2525.970 Y 795.430 I -72.417 J -77.344
G2 X2539.930 Y 770.840 I-146.917 J -99.664
G2 X2551.970 Y 740.530 I-246.893 J-115.619
G2 X2561.740 Y 705.410 I-361.196 J-119.400
G2 X2568.950 Y 666.560 I-472.487 J-107.781
G2 X2573.350 Y 625.150 I-561.472 J -80.598
G2 X2574.840 Y 582.440 I-611.416 J -42.711
G2 X2573.350 Y 539.730 I-612.906 J   0.001
G2 X2568.950 Y 498.320 I-565.872 J  39.188
G2 X2561.740 Y 459.470 I-479.697 J  68.931
G2 X2551.970 Y 424.350 I-370.966 J  84.280
G2 X2539.930 Y 394.040 I-258.933 J  85.309
G2 X2525.970 Y 369.450 I-160.877 J  75.074
G2 X2510.530 Y 351.330 I -87.857 J  59.224
G2 X2494.070 Y 340.240 I -42.094 J  44.717
G2 X2477.100 Y 336.500 I -17.159 J  37.487
G2 X2460.130 Y 340.240 I   0.189 J  41.227
G2 X2443.670 Y 351.330 I  25.634 J  55.807
G2 X2428.230 Y 369.450 I  72.418 J  77.345
G2 X2414.270 Y 394.040 I 146.913 J  99.662
G2 X2402.230 Y 424.350 I 246.893 J 115.619
G2 X2392.460 Y 459.470 I 361.196 J 119.400
F150
G1 Z  -3.000
F400
G2 X2385.250 Y 498.320 I 472.487 J 107.781
G2 X2380.850 Y 539.730 I 561.472 J  80.598
G2 X2379.360 Y 582.440 I 611.416 J  42.711
G2 X2380.850 Y 625.150 I 612.906 J  -0.001
G2 X2385.250 Y 666.560 I 565.872 J -39.188
G2 X2392.460 Y 705.410 I 479.697 J -68.931
G2 X2402.230 Y 740.530 I 370.966 J -84.280
G2 X2414.270 Y 770.840 I 258.933 J -85.309
G2 X2428.230 Y 795.430 I 160.873 J -75.072
G2 X2443.670 Y 813.550 I  87.858 J -59.225
G2 X2460.130 Y 824.640 I  42.094 J -44.717
G2 X2477.100 Y 828.380 I  17.159 J -37.487
G2 X2494.070 Y 824.640 I  -0.189 J -41.227
G2 X2510.530 Y 813.550 I -25.634 J -55.807
G2 X2525.970 Y 795.430 I -72.417 J -77.344
G2 X2539.930 Y 770.840 I-146.917 J -99.664
G2 X2551.970 Y 740.530 I-246.893 J-115.619
G2 X2561.740 Y 705.410 I-361.196 J-119.400
G2 X2568.950 Y 666.560 I-472.487 J-107.781
G2 X2573.350 Y 625.150 I-561.472 J -80.598
G2 X2574.840 Y 582.440 I-611.416 J -42.711
G2 X2573.350 Y 539.730 I-612.906 J   0.001
G2 X2568.950 Y 498.320 I-565.872 J  39.188
G2 X2561.740 Y 459.470 I-479.697 J  68.931
G2 X2551.970 Y 424.350 I-370.966 J  84.280
G2 X2539.930 Y 394.040 I-258.933 J  85.309
G2 X2525.970 Y 369.450 I-160.877 J  75.074
G2 X2510.530 Y 351.330 I -87.857 J  59.224
G2 X2494.070 Y 340.240 I -42.094 J  44.717
G2 X2477.100 Y 336.500 I -17.159 J  37.487
G2 X2460.130 Y 340.240 I   0.189 J  41.227
G2 X2443.670 Y 351.330 I  25.634 J  55.807
G2 X2428.230 Y 369.450 I  72.418 J  77.345
G2 X2414.270 Y 394.040 I 146.913 J  99.662
G2 X2402.230 Y 424.350 I 246.893 J 115.619
G2 X2392.460 Y 459.470 I 361.196 J 119.400
F150
G1 Z   3.000
G0 Z  15.000 
M9 M5

(* SHAPE Nr: 19 *)
G0 X2560.550 Y 273.920
M3 M8
G0 Z   3.000 
G1 Z  -1.500
F400
G2 X2559.060 Y 316.630 I 611.451 J  42.712
G2 X2560.550 Y 359.340 I 612.906 J  -0.001
G2 X2564.950 Y 400.750 I 565.872 J -39.188
G2 X2572.160 Y 439.600 I 479.697 J -68.931
G2 X2581.930 Y 474.720 I 370.966 J -84.280
G2 X2593.970 Y 505.030 I 258.933 J -85.309
G2 X2607.930 Y 529.620 I 160.873 J -75.072
G2 X2623.370 Y 547.740 I  87.858 J -59.225
G2 X2639.830 Y 558.830 I  42.094 J -44.717
G2 X2656.800 Y 562.570 I  17.159 J -37.487
G2 X2673.770 Y 558.830 I  -0.189 J -41.227
G2 X2690.230 Y 547.740 I -25.634 J -55.807
G2 X2705.670 Y 529.620 I -72.417 J -77.344
G2 X2719.630 Y 505.030 I-146.917 J -99.664
G2 X2731.670 Y 474.720 I-246.893 J-115.619
G2 X2741.440 Y 439.600 I-361.196 J-119.400
G2 X2748.650 Y 400.750 I-472.487 J-107.781
G2 X2753.050 Y 359.340 I-561.472 J -80.598
G2 X2754.540 Y 316.630 I-611.416 J -42.711
G2 X2753.050 Y 273.920 I-612.906 J   0.001
G2 X2748.650 Y 232.510 I-565.872 J  39.188
G2 X2741.440 Y 193.660 I-479.697 J  68.931
G2 X2731.670 Y 158.540 I-370.966 J  84.280
G2 X2719.630 Y 128.230 I-258.933 J  85.309
G2 X2705.670 Y 103.640 I-160.877 J  75.074
G2 X2690.230 Y  85.520 I -87.857 J  59.224
G2 X2673.770 Y  74.430 I -42.094 J  44.717
G2 X2656.800 Y  70.690 I -17.159 J  37.487
G2 X2639.830 Y  74.430 I   0.189 J  41.227
G2 X2623.370 Y  85.520 I  25.634 J  55.807
G2 X2607.930 Y 103.640 I  72.418 J  77.345
G2 X2593.970 Y 128.230 I 146.913 J  99.662
G2 X2581.930 Y 158.540 I 246.893 J 115.619
G2 X2572.160 Y 193.660 I 361.196 J 119.400
G2 X2564.950 Y 232.510 I 472.487 J 107.781
G2 X2560.550 Y 273.920 I 561.472 J  80.598
F150
G1 Z  -3.000
F400
G2 X2559.060 Y 316.630 I 611.451 J  42.712
G2 X2560.550 Y 359.340 I 612.906 J  -0.001
G2 X2564.950 Y 400.750 I 565.872 J -39.188
G2 X2572.160 Y 439.600 I 479.697 J -68.931
G2 X2581.930 Y 474.720 I 370.966 J -84.280
G2 X2593.970 Y 505.030 I 258.933 J -85.309
G2 X2607.930 Y 529.620 I 160.873 J -75.072
G2 X2623.370 Y 547.740 I  87.858 J -59.225
G2 X2639.830 Y 558.830 I  42.094 J -44.717
G2 X2656.800 Y 562.570 I  17.159 J -37.487
G2 X2673.770 Y 558.830 I  -0.189 J -41.227
G2 X2690.230 Y 547.740 I -25.634 J -55.807
G2 X2705.670 Y 529.620 I -72.417 J -77.344
G2 X2719.630 Y 505.030 I-146.917 J -99.664
G2 X2731.670 Y 474.720 I-246.893 J-115.619
G2 X2741.440 Y 439.600 I-361.196 J-119.400
G2 X2748.650 Y 400.750 I-472.487 J-107.781
G2 X2753.050 Y 359.340 I-561.472 J -80.598
G2 X2754.540 Y 316.630 I-611.416 J -42.711
G2 X2753.050 Y 273.920 I-612.906 J   0.001
G2 X2748.650 Y 232.510 I-565.872 J  39.188
G2 X2741.440 Y 193.660 I-479.697 J  68.931
G2 X2731.670 Y 158.540 I-370.966 J  84.280
G2 X2719.630 Y 128.230 I-258.933 J  85.309
G2 X2705.670 Y 103.640 I-160.877 J  75.074
G2 X2690.230 Y  85.520 I -87.857 J  59.224
G2 X2673.770 Y  74.430 I -42.094 J  44.717
G2 X2656.800 Y  70.690 I -17.159 J  37.487
G2 X2639.830 Y  74.430 I   0.189 J  41.227
G2 X2623.370 Y  85.520 I  25.634 J  55.807
G2 X2607.930 Y 103.640 I  72.418 J  77.345
G2 X2593.970 Y 128.230 I 146.913 J  99.662
G2 X2581.930 Y 158.540 I 246.893 J 115.619
G2 X2572.160 Y 193.660 I 361.196 J 119.400
G2 X2564.950 Y 232.510 I 472.487 J 107.781
G2 X2560.550 Y 273.920 I 561.472 J  80.598
F150
G1 Z   3.000
G0 Z  15.000 
M9 M5

(* SHAPE Nr: 22 *)
G0 X2082.210 Y 750.790
M3 M8
G0 Z   3.000 
G1 Z  -1.500
F400
G2 X2072.440 Y 785.910 I 361.196 J 119.400
G2 X2065.230 Y 824.760 I 472.487 J 107.781
G2 X2060.830 Y 866.170 I 561.472 J  80.598
G2 X2059.340 Y 908.880 I 611.451 J  42.712
G2 X2060.830 Y 951.590 I 612.906 J  -0.001
G2 X2065.230 Y 993.000 I 565.872 J -39.188
G2 X2072.440 Y1031.850 I 479.697 J -68.931
G2 X2082.210 Y1066.970 I 370.966 J -84.280
G2 X2094.250 Y1097.280 I 258.933 J -85.309
G2 X2108.210 Y1121.870 I 160.873 J -75.072
G2 X2123.650 Y1139.990 I  87.858 J -59.225
G2 X2140.110 Y1151.080 I  42.094 J -44.717
G2 X2157.080 Y1154.820 I  17.159 J -37.487
G2 X2174.050 Y1151.080 I  -0.189 J -41.227
G2 X2190.510 Y1139.990 I -25.634 J -55.807
G2 X2205.950 Y1121.870 I -72.417 J -77.344
G2 X2219.910 Y1097.280 I-146.917 J -99.664
G2 X2231.950 Y1066.970 I-246.893 J-115.619
G2 X2241.720 Y1031.850 I-361.196 J-119.400
G2 X2248.930 Y 993.000 I-472.487 J-107.781
G2 X2253.330 Y 951.590 I-561.472 J -80.598
G2 X2254.820 Y 908.880 I-611.416 J -42.711
G2 X2253.330 Y 866.170 I-612.906 J   0.001
G2 X2248.930 Y 824.760 I-565.872 J  39.188
G2 X2241.720 Y 785.910 I-479.697 J  68.931
G2 X2231.950 Y 750.790 I-370.966 J  84.280
G2 X2219.910 Y 720.480 I-258.933 J  85.309
G2 X2205.950 Y 695.890 I-160.877 J  75.074
G2 X2190.510 Y 677.770 I -87.857 J  59.224
G2 X2174.050 Y 666.680 I -42.094 J  44.717
G2 X2157.080 Y 662.940 I -17.159 J  37.487
G2 X2140.110 Y 666.680 I   0.189 J  41.227
G2 X2123.650 Y 677.770 I  25.634 J  55.807
G2 X2108.210 Y 695.890 I  72.418 J  77.345
G2 X2094.250 Y 720.480 I 146.913 J  99.662
G2 X2082.210 Y 750.790 I 246.893 J 115.619
F150
G1 Z  -3.000
F400
G2 X2072.440 Y 785.910 I 361.196 J 119.400
G2 X2065.230 Y 824.760 I 472.487 J 107.781
G2 X2060.830 Y 866.170 I 561.472 J  80.598
G2 X2059.340 Y 908.880 I 611.451 J  42.712
G2 X2060.830 Y 951.590 I 612.906 J  -0.001
G2 X2065.230 Y 993.000 I 565.872 J -39.188
G2 X2072.440 Y1031.850 I 479.697 J -68.931
G2 X2082.210 Y1066.970 I 370.966 J -84.280
G2 X2094.250 Y1097.280 I 258.933 J -85.309
G2 X2108.210 Y1121.870 I 160.873 J -75.072
G2 X2123.650 Y1139.990 I  87.858 J -59.225
G2 X2140.110 Y1151.080 I  42.094 J -44.717
G2 X2157.080 Y1154.820 I  17.159 J -37.487
G2 X2174.050 Y1151.080 I  -0.189 J -41.227
G2 X2190.510 Y1139.990 I -25.634 J -55.807
G2 X2205.950 Y1121.870 I -72.417 J -77.344
G2 X2219.910 Y1097.280 I-146.917 J -99.664
G2 X2231.950 Y1066.970 I-246.893 J-115.619
G2 X2241.720 Y1031.850 I-361.196 J-119.400
G2 X2248.930 Y 993.000 I-472.487 J-107.781
G2 X2253.330 Y 951.590 I-561.472 J -80.598
G2 X2254.820 Y 908.880 I-611.416 J -42.711
G2 X2253.330 Y 866.170 I-612.906 J   0.001
G2 X2248.930 Y 824.760 I-565.872 J  39.188
G2 X2241.720 Y 785.910 I-479.697 J  68.931
G2 X2231.950 Y 750.790 I-370.966 J  84.280
G2 X2219.910 Y 720.480 I-258.933 J  85.309
G2 X2205.950 Y 695.890 I-160.877 J  75.074
G2 X2190.510 Y 677.770 I -87.857 J  59.224
G2 X2174.050 Y 666.680 I -42.094 J  44.717
G2 X2157.080 Y 662.940 I -17.159 J  37.487
G2 X2140.110 Y 666.680 I   0.189 J  41.227
G2 X2123.650 Y 677.770 I  25.634 J  55.807
G2 X2108.210 Y 695.890 I  72.418 J  77.345
G2 X2094.250 Y 720.480 I 146.913 J  99.662
G2 X2082.210 Y 750.790 I 246.893 J 115.619
F150
G1 Z   3.000
G0 Z  15.000 
M9 M5

(* SHAPE Nr: 23 *)
G0 X2292.280 Y 858.570
M3 M8
G0 Z   3.000 
G1 Z  -1.500
F400
G2 X2282.510 Y 893.690 I 361.196 J 119.400
G2 X2275.300 Y 932.540 I 472.487 J 107.781
G2 X2270.900 Y 973.950 I 561.472 J  80.598
G2 X2269.410 Y1016.660 I 611.416 J  42.711
G2 X2270.900 Y1059.370 I 612.906 J  -0.001
G2 X2275.300 Y1100.780 I 565.872 J -39.188
G2 X2282.510 Y1139.630 I 479.697 J -68.931
G2 X2292.280 Y1174.750 I 370.966 J -84.280
G2 X2304.320 Y1205.060 I 258.933 J -85.309
G2 X2318.280 Y1229.650 I 160.873 J -75.072
G2 X2333.720 Y1247.770 I  87.857 J -59.224
G2 X2350.180 Y1258.860 I  42.094 J -44.717
G2 X2367.150 Y1262.600 I  17.159 J -37.487
G2 X2384.120 Y1258.860 I  -0.189 J -41.227
G2 X2400.580 Y1247.770 I -25.634 J -55.807
G2 X2416.020 Y1229.650 I -72.417 J -77.344
G2 X2429.980 Y1205.060 I-146.917 J -99.664
G2 X2442.020 Y1174.750 I-246.893 J-115.619
G2 X2451.790 Y1139.630 I-361.196 J-119.400
G2 X2459.000 Y1100.780 I-472.487 J-107.781
G2 X2463.400 Y1059.370 I-561.472 J -80.598
G2 X2464.890 Y1016.660 I-611.416 J -42.711
G2 X2463.400 Y 973.950 I-612.906 J   0.001
G2 X2459.000 Y 932.540 I-565.872 J  39.188
G2 X2451.790 Y 893.690 I-479.697 J  68.931
G2 X2442.020 Y 858.570 I-370.966 J  84.280
G2 X2429.980 Y 828.260 I-258.933 J  85.309
G2 X2416.020 Y 803.670 I-160.877 J  75.074
G2 X2400.580 Y 785.550 I -87.857 J  59.224
G2 X2384.120 Y 774.460 I -42.094 J  44.717
G2 X2367.150 Y 770.720 I -17.159 J  37.487
G2 X2350.180 Y 774.460 I   0.189 J  41.227
G2 X2333.720 Y 785.550 I  25.634 J  55.807
G2 X2318.280 Y 803.670 I  72.418 J  77.345
G2 X2304.320 Y 828.260 I 146.913 J  99.662
G2 X2292.280 Y 858.570 I 246.893 J 115.619
F150
G1 Z  -3.000
F400
G2 X2282.510 Y 893.690 I 361.196 J 119.400
G2 X2275.300 Y 932.540 I 472.487 J 107.781
G2 X2270.900 Y 973.950 I 561.472 J  80.598
G2 X2269.410 Y1016.660 I 611.416 J  42.711
G2 X2270.900 Y1059.370 I 612.906 J  -0.001
G2 X2275.300 Y1100.780 I 565.872 J -39.188
G2 X2282.510 Y1139.630 I 479.697 J -68.931
G2 X2292.280 Y1174.750 I 370.966 J -84.280
G2 X2304.320 Y1205.060 I 258.933 J -85.309
G2 X2318.280 Y1229.650 I 160.873 J -75.072
G2 X2333.720 Y1247.770 I  87.857 J -59.224
G2 X2350.180 Y1258.860 I  42.094 J -44.717
G2 X2367.150 Y1262.600 I  17.159 J -37.487
G2 X2384.120 Y1258.860 I  -0.189 J -41.227
G2 X2400.580 Y1247.770 I -25.634 J -55.807
G2 X2416.020 Y1229.650 I -72.417 J -77.344
G2 X2429.980 Y1205.060 I-146.917 J -99.664
G2 X2442.020 Y1174.750 I-246.893 J-115.619
G2 X2451.790 Y1139.630 I-361.196 J-119.400
G2 X2459.000 Y1100.780 I-472.487 J-107.781
G2 X2463.400 Y1059.370 I-561.472 J -80.598
G2 X2464.890 Y1016.660 I-611.416 J -42.711
G2 X2463.400 Y 973.950 I-612.906 J   0.001
G2 X2459.000 Y 932.540 I-565.872 J  39.188
G2 X2451.790 Y 893.690 I-479.697 J  68.931
G2 X2442.020 Y 858.570 I-370.966 J  84.280
G2 X2429.980 Y 828.260 I-258.933 J  85.309
G2 X2416.020 Y 803.670 I-160.877 J  75.074
G2 X2400.580 Y 785.550 I -87.857 J  59.224
G2 X2384.120 Y 774.460 I -42.094 J  44.717
G2 X2367.150 Y 770.720 I -17.159 J  37.487
G2 X2350.180 Y 774.460 I   0.189 J  41.227
G2 X2333.720 Y 785.550 I  25.634 J  55.807
G2 X2318.280 Y 803.670 I  72.418 J  77.345
G2 X2304.320 Y 828.260 I 146.913 J  99.662
G2 X2292.280 Y 858.570 I 246.893 J 115.619
F150
G1 Z   3.000
G0 Z  15.000 
M9 M5

(* SHAPE Nr: 27 *)
G0 X2442.680 Y1223.960
M3 M8
G0 Z   3.000 
G1 Z  -1.500
F400
G2 X2430.640 Y1254.270 I 246.893 J 115.619
G2 X2420.870 Y1289.390 I 361.196 J 119.400
G2 X2413.660 Y1328.240 I 472.487 J 107.781
G2 X2409.260 Y1369.650 I 561.472 J  80.598
G2 X2407.770 Y1412.360 I 611.416 J  42.711
G2 X2409.260 Y1455.070 I 612.941 J  -0.002
G2 X2413.660 Y1496.480 I 565.872 J -39.188
G2 X2420.870 Y1535.330 I 479.697 J -68.931
G2 X2430.640 Y1570.450 I 370.966 J -84.280
G2 X2442.680 Y1600.760 I 258.933 J -85.309
G2 X2456.640 Y1625.350 I 160.873 J -75.072
G2 X2472.080 Y1643.470 I  87.858 J -59.225
G2 X2488.540 Y1654.560 I  42.094 J -44.717
G2 X2505.510 Y1658.300 I  17.159 J -37.487
G2 X2522.480 Y1654.560 I  -0.189 J -41.227
G2 X2538.940 Y1643.470 I -25.634 J -55.807
G2 X2554.380 Y1625.350 I -72.417 J -77.344
G2 X2568.340 Y1600.760 I-146.917 J -99.664
G2 X2580.380 Y1570.450 I-246.893 J-115.619
G2 X2590.150 Y1535.330 I-361.196 J-119.400
G2 X2597.360 Y1496.480 I-472.487 J-107.781
G2 X2601.760 Y1455.070 I-561.472 J -80.598
G2 X2603.250 Y1412.360 I-611.416 J -42.711
G2 X2601.760 Y1369.650 I-612.906 J   0.001
G2 X2597.360 Y1328.240 I-565.872 J  39.188
G2 X2590.150 Y1289.390 I-479.697 J  68.931
G2 X2580.380 Y1254.270 I-370.966 J  84.280
G2 X2568.340 Y1223.960 I-258.933 J  85.309
G2 X2554.380 Y1199.370 I-160.877 J  75.074
G2 X2538.940 Y1181.250 I -87.857 J  59.224
G2 X2522.480 Y1170.160 I -42.094 J  44.717
G2 X2505.510 Y1166.420 I -17.159 J  37.487
G2 X2488.540 Y1170.160 I   0.189 J  41.227
G2 X2472.080 Y1181.250 I  25.634 J  55.807
G2 X2456.640 Y1199.370 I  72.418 J  77.345
G2 X2442.680 Y1223.960 I 146.913 J  99.662
F150
G1 Z  -3.000
F400
G2 X2430.640 Y1254.270 I 246.893 J 115.619
G2 X2420.870 Y1289.390 I 361.196 J 119.400
G2 X2413.660 Y1328.240 I 472.487 J 107.781
G2 X2409.260 Y1369.650 I 561.472 J  80.598
G2 X2407.770 Y1412.360 I 611.416 J  42.711
G2 X2409.260 Y1455.070 I 612.941 J  -0.002
G2 X2413.660 Y1496.480 I 565.872 J -39.188
G2 X2420.870 Y1535.330 I 479.697 J -68.931
G2 X2430.640 Y1570.450 I 370.966 J -84.280
G2 X2442.680 Y1600.760 I 258.933 J -85.309
G2 X2456.640 Y1625.350 I 160.873 J -75.072
G2 X2472.080 Y1643.470 I  87.858 J -59.225
G2 X2488.540 Y1654.560 I  42.094 J -44.717
G2 X2505.510 Y1658.300 I  17.159 J -37.487
G2 X2522.480 Y1654.560 I  -0.189 J -41.227
G2 X2538.940 Y1643.470 I -25.634 J -55.807
G2 X2554.380 Y1625.350 I -72.417 J -77.344
G2 X2568.340 Y1600.760 I-146.917 J -99.664
G2 X2580.380 Y1570.450 I-246.893 J-115.619
G2 X2590.150 Y1535.330 I-361.196 J-119.400
G2 X2597.360 Y1496.480 I-472.487 J-107.781
G2 X2601.760 Y1455.070 I-561.472 J -80.598
G2 X2603.250 Y1412.360 I-611.416 J -42.711
G2 X2601.760 Y1369.650 I-612.906 J   0.001
G2 X2597.360 Y1328.240 I-565.872 J  39.188
G2 X2590.150 Y1289.390 I-479.697 J  68.931
G2 X2580.380 Y1254.270 I-370.966 J  84.280
G2 X2568.340 Y1223.960 I-258.933 J  85.309
G2 X2554.380 Y1199.370 I-160.877 J  75.074
G2 X2538.940 Y1181.250 I -87.857 J  59.224
G2 X2522.480 Y1170.160 I -42.094 J  44.717
G2 X2505.510 Y1166.420 I -17.159 J  37.487
G2 X2488.540 Y1170.160 I   0.189 J  41.227
G2 X2472.080 Y1181.250 I  25.634 J  55.807
G2 X2456.640 Y1199.370 I  72.418 J  77.345
G2 X2442.680 Y1223.960 I 146.913 J  99.662
F150
G1 Z   3.000
G0 Z  15.000 
M9 M5

(* SHAPE Nr: 29 *)
G0 X2106.840 Y1581.070
M3 M8
G0 Z   3.000 
G1 Z  -1.500
F400
G2 X2092.880 Y1605.660 I 146.913 J  99.662
G2 X2080.840 Y1635.970 I 246.893 J 115.619
G2 X2071.070 Y1671.090 I 361.196 J 119.400
G2 X2063.860 Y1709.940 I 472.487 J 107.781
G2 X2059.460 Y1751.350 I 561.472 J  80.598
G2 X2057.970 Y1794.060 I 611.416 J  42.711
G2 X2059.460 Y1836.770 I 612.941 J  -0.002
G2 X2063.860 Y1878.180 I 565.872 J -39.188
G2 X2071.070 Y1917.030 I 479.697 J -68.931
G2 X2080.840 Y1952.150 I 370.966 J -84.280
G2 X2092.880 Y1982.460 I 258.933 J -85.309
G2 X2106.840 Y2007.050 I 160.873 J -75.072
G2 X2122.280 Y2025.170 I  87.858 J -59.225
G2 X2138.740 Y2036.260 I  42.094 J -44.717
G2 X2155.710 Y2040.000 I  17.159 J -37.487
G2 X2172.680 Y2036.260 I  -0.189 J -41.227
G2 X2189.140 Y2025.170 I -25.634 J -55.807
G2 X2204.580 Y2007.050 I -72.418 J -77.345
G2 X2218.540 Y1982.460 I-146.917 J -99.664
G2 X2230.580 Y1952.150 I-246.893 J-115.619
G2 X2240.350 Y1917.030 I-361.196 J-119.400
G2 X2247.560 Y1878.180 I-472.487 J-107.781
G2 X2251.960 Y1836.770 I-561.472 J -80.598
G2 X2253.450 Y1794.060 I-611.416 J -42.711
G2 X2251.960 Y1751.350 I-612.906 J   0.001
G2 X2247.560 Y1709.940 I-565.872 J  39.188
G2 X2240.350 Y1671.090 I-479.697 J  68.931
G2 X2230.580 Y1635.970 I-370.966 J  84.280
G2 X2218.540 Y1605.660 I-258.933 J  85.309
G2 X2204.580 Y1581.070 I-160.877 J  75.074
G2 X2189.140 Y1562.950 I -87.857 J  59.224
G2 X2172.680 Y1551.860 I -42.094 J  44.717
G2 X2155.710 Y1548.120 I -17.159 J  37.487
G2 X2138.740 Y1551.860 I   0.189 J  41.227
G2 X2122.280 Y1562.950 I  25.634 J  55.807
G2 X2106.840 Y1581.070 I  72.418 J  77.345
F150
G1 Z  -3.000
F400
G2 X2092.880 Y1605.660 I 146.913 J  99.662
G2 X2080.840 Y1635.970 I 246.893 J 115.619
G2 X2071.070 Y1671.090 I 361.196 J 119.400
G2 X2063.860 Y1709.940 I 472.487 J 107.781
G2 X2059.460 Y1751.350 I 561.472 J  80.598
G2 X2057.970 Y1794.060 I 611.416 J  42.711
G2 X2059.460 Y1836.770 I 612.941 J  -0.002
G2 X2063.860 Y1878.180 I 565.872 J -39.188
G2 X2071.070 Y1917.030 I 479.697 J -68.931
G2 X2080.840 Y1952.150 I 370.966 J -84.280
G2 X2092.880 Y1982.460 I 258.933 J -85.309
G2 X2106.840 Y2007.050 I 160.873 J -75.072
G2 X2122.280 Y2025.170 I  87.858 J -59.225
G2 X2138.740 Y2036.260 I  42.094 J -44.717
G2 X2155.710 Y2040.000 I  17.159 J -37.487
G2 X2172.680 Y2036.260 I  -0.189 J -41.227
G2 X2189.140 Y2025.170 I -25.634 J -55.807
G2 X2204.580 Y2007.050 I -72.418 J -77.345
G2 X2218.540 Y1982.460 I-146.917 J -99.664
G2 X2230.580 Y1952.150 I-246.893 J-115.619
G2 X2240.350 Y1917.030 I-361.196 J-119.400
G2 X2247.560 Y1878.180 I-472.487 J-107.781
G2 X2251.960 Y1836.770 I-561.472 J -80.598
G2 X2253.450 Y1794.060 I-611.416 J -42.711
G2 X2251.960 Y1751.350 I-612.906 J   0.001
G2 X2247.560 Y1709.940 I-565.872 J  39.188
G2 X2240.350 Y1671.090 I-479.697 J  68.931
G2 X2230.580 Y1635.970 I-370.966 J  84.280
G2 X2218.540 Y1605.660 I-258.933 J  85.309
G2 X2204.580 Y1581.070 I-160.877 J  75.074
G2 X2189.140 Y1562.950 I -87.857 J  59.224
G2 X2172.680 Y1551.860 I -42.094 J  44.717
G2 X2155.710 Y1548.120 I -17.159 J  37.487
G2 X2138.740 Y1551.860 I   0.189 J  41.227
G2 X2122.280 Y1562.950 I  25.634 J  55.807
G2 X2106.840 Y1581.070 I  72.418 J  77.345
F150
G1 Z   3.000
G0 Z  15.000 
M9 M5

(* SHAPE Nr: 30 *)
G0 X2317.030 Y1581.070
M3 M8
G0 Z   3.000 
G1 Z  -1.500
F400
G2 X2303.070 Y1605.660 I 146.913 J  99.662
G2 X2291.030 Y1635.970 I 246.893 J 115.619
G2 X2281.260 Y1671.090 I 361.196 J 119.400
G2 X2274.050 Y1709.940 I 472.487 J 107.781
G2 X2269.650 Y1751.350 I 561.472 J  80.598
G2 X2268.160 Y1794.060 I 611.416 J  42.711
G2 X2269.650 Y1836.770 I 612.941 J  -0.002
G2 X2274.050 Y1878.180 I 565.872 J -39.188
G2 X2281.260 Y1917.030 I 479.697 J -68.931
G2 X2291.030 Y1952.150 I 370.966 J -84.280
G2 X2303.070 Y1982.460 I 258.933 J -85.309
G2 X2317.030 Y2007.050 I 160.873 J -75.072
G2 X2332.470 Y2025.170 I  87.858 J -59.225
G2 X2348.930 Y2036.260 I  42.094 J -44.717
G2 X2365.900 Y2040.000 I  17.159 J -37.487
G2 X2382.870 Y2036.260 I  -0.189 J -41.227
G2 X2399.330 Y2025.170 I -25.634 J -55.807
G2 X2414.770 Y2007.050 I -72.418 J -77.345
G2 X2428.730 Y1982.460 I-146.917 J -99.664
G2 X2440.770 Y1952.150 I-246.893 J-115.619
G2 X2450.540 Y1917.030 I-361.196 J-119.400
G2 X2457.750 Y1878.180 I-472.487 J-107.781
G2 X2462.150 Y1836.770 I-561.472 J -80.598
G2 X2463.640 Y1794.060 I-611.416 J -42.711
G2 X2462.150 Y1751.350 I-612.906 J   0.001
G2 X2457.750 Y1709.940 I-565.872 J  39.188
G2 X2450.540 Y1671.090 I-479.697 J  68.931
G2 X2440.770 Y1635.970 I-370.966 J  84.280
G2 X2428.730 Y1605.660 I-258.933 J  85.309
G2 X2414.770 Y1581.070 I-160.877 J  75.074
G2 X2399.330 Y1562.950 I -87.857 J  59.224
G2 X2382.870 Y1551.860 I -42.094 J  44.717
G2 X2365.900 Y1548.120 I -17.159 J  37.487
G2 X2348.930 Y1551.860 I   0.189 J  41.227
G2 X2332.470 Y1562.950 I  25.634 J  55.807
G2 X2317.030 Y1581.070 I  72.418 J  77.345
F150
G1 Z  -3.000
F400
G2 X2303.070 Y1605.660 I 146.913 J  99.662
G2 X2291.030 Y1635.970 I 246.893 J 115.619
G2 X2281.260 Y1671.090 I 361.196 J 119.400
G2 X2274.050 Y1709.940 I 472.487 J 107.781
G2 X2269.650 Y1751.350 I 561.472 J  80.598
G2 X2268.160 Y1794.060 I 611.416 J  42.711
G2 X2269.650 Y1836.770 I 612.941 J  -0.002
G2 X2274.050 Y1878.180 I 565.872 J -39.188
G2 X2281.260 Y1917.030 I 479.697 J -68.931
G2 X2291.030 Y1952.150 I 370.966 J -84.280
G2 X2303.070 Y1982.460 I 258.933 J -85.309
G2 X2317.030 Y2007.050 I 160.873 J -75.072
G2 X2332.470 Y2025.170 I  87.858 J -59.225
G2 X2348.930 Y2036.260 I  42.094 J -44.717
G2 X2365.900 Y2040.000 I  17.159 J -37.487
G2 X2382.870 Y2036.260 I  -0.189 J -41.227
G2 X2399.330 Y2025.170 I -25.634 J -55.807
G2 X2414.770 Y2007.050 I -72.418 J -77.345
G2 X2428.730 Y1982.460 I-146.917 J -99.664
G2 X2440.770 Y1952.150 I-246.893 J-115.619
G2 X2450.540 Y1917.030 I-361.196 J-119.400
G2 X2457.750 Y1878.180 I-472.487 J-107.781
G2 X2462.150 Y1836.770 I-561.472 J -80.598
G2 X2463.640 Y1794.060 I-611.416 J -42.711
G2 X2462.150 Y1751.350 I-612.906 J   0.001
G2 X2457.750 Y1709.940 I-565.872 J  39.188
G2 X2450.540 Y1671.090 I-479.697 J  68.931
G2 X2440.770 Y1635.970 I-370.966 J  84.280
G2 X2428.730 Y1605.660 I-258.933 J  85.309
G2 X2414.770 Y1581.070 I-160.877 J  75.074
G2 X2399.330 Y1562.950 I -87.857 J  59.224
G2 X2382.870 Y1551.860 I -42.094 J  44.717
G2 X2365.900 Y1548.120 I -17.159 J  37.487
G2 X2348.930 Y1551.860 I   0.189 J  41.227
G2 X2332.470 Y1562.950 I  25.634 J  55.807
G2 X2317.030 Y1581.070 I  72.418 J  77.345
F150
G1 Z   3.000
G0 Z  15.000 
M9 M5

(* SHAPE Nr: 31 *)
G0 X2596.260 Y1581.070
M3 M8
G0 Z   3.000 
G1 Z  -1.500
F400
G2 X2582.300 Y1605.660 I 146.913 J  99.662
G2 X2570.260 Y1635.970 I 246.893 J 115.619
G2 X2560.490 Y1671.090 I 361.196 J 119.400
G2 X2553.280 Y1709.940 I 472.487 J 107.781
G2 X2548.880 Y1751.350 I 561.472 J  80.598
G2 X2547.390 Y1794.060 I 611.416 J  42.711
G2 X2548.880 Y1836.770 I 612.941 J  -0.002
G2 X2553.280 Y1878.180 I 565.872 J -39.188
G2 X2560.490 Y1917.030 I 479.697 J -68.931
G2 X2570.260 Y1952.150 I 370.966 J -84.280
G2 X2582.300 Y1982.460 I 258.933 J -85.309
G2 X2596.260 Y2007.050 I 160.873 J -75.072
G2 X2611.700 Y2025.170 I  87.858 J -59.225
G2 X2628.160 Y2036.260 I  42.094 J -44.717
G2 X2645.130 Y2040.000 I  17.159 J -37.487
G2 X2662.100 Y2036.260 I  -0.189 J -41.227
G2 X2678.560 Y2025.170 I -25.634 J -55.807
G2 X2694.000 Y2007.050 I -72.418 J -77.345
G2 X2707.960 Y1982.460 I-146.917 J -99.664
G2 X2720.000 Y1952.150 I-246.893 J-115.619
G2 X2729.770 Y1917.030 I-361.196 J-119.400
G2 X2736.980 Y1878.180 I-472.487 J-107.781
G2 X2741.380 Y1836.770 I-561.472 J -80.598
G2 X2742.870 Y1794.060 I-611.416 J -42.711
G2 X2741.380 Y1751.350 I-612.906 J   0.001
G2 X2736.980 Y1709.940 I-565.872 J  39.188
G2 X2729.770 Y1671.090 I-479.697 J  68.931
G2 X2720.000 Y1635.970 I-370.966 J  84.280
G2 X2707.960 Y1605.660 I-258.933 J  85.309
G2 X2694.000 Y1581.070 I-160.877 J  75.074
G2 X2678.560 Y1562.950 I -87.857 J  59.224
G2 X2662.100 Y1551.860 I -42.094 J  44.717
G2 X2645.130 Y1548.120 I -17.159 J  37.487
G2 X2628.160 Y1551.860 I   0.189 J  41.227
G2 X2611.700 Y1562.950 I  25.634 J  55.807
G2 X2596.260 Y1581.070 I  72.418 J  77.345
F150
G1 Z  -3.000
F400
G2 X2582.300 Y1605.660 I 146.913 J  99.662
G2 X2570.260 Y1635.970 I 246.893 J 115.619
G2 X2560.490 Y1671.090 I 361.196 J 119.400
G2 X2553.280 Y1709.940 I 472.487 J 107.781
G2 X2548.880 Y1751.350 I 561.472 J  80.598
G2 X2547.390 Y1794.060 I 611.416 J  42.711
G2 X2548.880 Y1836.770 I 612.941 J  -0.002
G2 X2553.280 Y1878.180 I 565.872 J -39.188
G2 X2560.490 Y1917.030 I 479.697 J -68.931
G2 X2570.260 Y1952.150 I 370.966 J -84.280
G2 X2582.300 Y1982.460 I 258.933 J -85.309
G2 X2596.260 Y2007.050 I 160.873 J -75.072
G2 X2611.700 Y2025.170 I  87.858 J -59.225
G2 X2628.160 Y2036.260 I  42.094 J -44.717
G2 X2645.130 Y2040.000 I  17.159 J -37.487
G2 X2662.100 Y2036.260 I  -0.189 J -41.227
G2 X2678.560 Y2025.170 I -25.634 J -55.807
G2 X2694.000 Y2007.050 I -72.418 J -77.345
G2 X2707.960 Y1982.460 I-146.917 J -99.664
G2 X2720.000 Y1952.150 I-246.893 J-115.619
G2 X2729.770 Y1917.030 I-361.196 J-119.400
G2 X2736.980 Y1878.180 I-472.487 J-107.781
G2 X2741.380 Y1836.770 I-561.472 J -80.598
G2 X2742.870 Y1794.060 I-611.416 J -42.711
G2 X2741.380 Y1751.350 I-612.906 J   0.001
G2 X2736.980 Y1709.940 I-565.872 J  39.188
G2 X2729.770 Y1671.090 I-479.697 J  68.931
G2 X2720.000 Y1635.970 I-370.966 J  84.280
G2 X2707.960 Y1605.660 I-258.933 J  85.309
G2 X2694.000 Y1581.070 I-160.877 J  75.074
G2 X2678.560 Y1562.950 I -87.857 J  59.224
G2 X2662.100 Y1551.860 I -42.094 J  44.717
G2 X2645.130 Y1548.120 I -17.159 J  37.487
G2 X2628.160 Y1551.860 I   0.189 J  41.227
G2 X2611.700 Y1562.950 I  25.634 J  55.807
G2 X2596.260 Y1581.070 I  72.418 J  77.345
F150
G1 Z   3.000
G0 Z  15.000 
M9 M5

(* SHAPE Nr: 36 *)
G0 X 606.900 Y1725.130
M3 M8
G0 Z   3.000 
G1 Z  -1.500
F400
G2 X 576.590 Y1737.170 I  85.309 J 258.933
G2 X 552.000 Y1751.130 I  75.074 J 160.877
G2 X 533.880 Y1766.570 I  59.225 J  87.858
G2 X 522.790 Y1783.030 I  44.717 J  42.094
G2 X 519.050 Y1800.000 I  37.487 J  17.159
G2 X 522.790 Y1816.970 I  41.226 J  -0.189
G2 X 533.880 Y1833.430 I  55.807 J -25.634
G2 X 552.000 Y1848.870 I  77.344 J -72.417
G2 X 576.590 Y1862.830 I  99.664 J-146.917
G2 X 606.900 Y1874.870 I 115.619 J-246.893
G2 X 642.020 Y1884.640 I 119.400 J-361.196
G2 X 680.870 Y1891.850 I 107.781 J-472.487
G2 X 722.280 Y1896.250 I  80.598 J-561.472
G2 X 764.990 Y1897.740 I  42.711 J-611.416
G2 X 807.700 Y1896.250 I  -0.001 J-612.906
G2 X 849.110 Y1891.850 I -39.188 J-565.872
G2 X 887.960 Y1884.640 I -68.931 J-479.697
G2 X 923.080 Y1874.870 I -84.280 J-370.966
G2 X 953.390 Y1862.830 I -85.309 J-258.933
G2 X 977.980 Y1848.870 I -75.074 J-160.877
G2 X 996.100 Y1833.430 I -59.224 J -87.857
G2 X1007.190 Y1816.970 I -44.717 J -42.094
G2 X1010.930 Y1800.000 I -37.486 J -17.159
G2 X1007.190 Y1783.030 I -41.227 J   0.189
G2 X 996.100 Y1766.570 I -55.807 J  25.634
G2 X 977.980 Y1751.130 I -77.345 J  72.418
G2 X 953.390 Y1737.170 I -99.664 J 146.917
G2 X 923.080 Y1725.130 I-115.619 J 246.893
G2 X 887.960 Y1715.360 I-119.400 J 361.196
G2 X 849.110 Y1708.150 I-107.781 J 472.487
G2 X 807.700 Y1703.750 I -80.598 J 561.472
G2 X 764.990 Y1702.260 I -42.711 J 611.416
G2 X 722.280 Y1703.750 I   0.001 J 612.906
G2 X 680.870 Y1708.150 I  39.188 J 565.872
G2 X 642.020 Y1715.360 I  68.931 J 479.697
G2 X 606.900 Y1725.130 I  84.280 J 370.966
F150
G1 Z  -3.000
F400
G2 X 576.590 Y1737.170 I  85.309 J 258.933
G2 X 552.000 Y1751.130 I  75.074 J 160.877
G2 X 533.880 Y1766.570 I  59.225 J  87.858
G2 X 522.790 Y1783.030 I  44.717 J  42.094
G2 X 519.050 Y1800.000 I  37.487 J  17.159
G2 X 522.790 Y1816.970 I  41.226 J  -0.189
G2 X 533.880 Y1833.430 I  55.807 J -25.634
G2 X 552.000 Y1848.870 I  77.344 J -72.417
G2 X 576.590 Y1862.830 I  99.664 J-146.917
G2 X 606.900 Y1874.870 I 115.619 J-246.893
G2 X 642.020 Y1884.640 I 119.400 J-361.196
G2 X 680.870 Y1891.850 I 107.781 J-472.487
G2 X 722.280 Y1896.250 I  80.598 J-561.472
G2 X 764.990 Y1897.740 I  42.711 J-611.416
G2 X 807.700 Y1896.250 I  -0.001 J-612.906
G2 X 849.110 Y1891.850 I -39.188 J-565.872
G2 X 887.960 Y1884.640 I -68.931 J-479.697
G2 X 923.080 Y1874.870 I -84.280 J-370.966
G2 X 953.390 Y1862.830 I -85.309 J-258.933
G2 X 977.980 Y1848.870 I -75.074 J-160.877
G2 X 996.100 Y1833.430 I -59.224 J -87.857
G2 X1007.190 Y1816.970 I -44.717 J -42.094
G2 X1010.930 Y1800.000 I -37.486 J -17.159
G2 X1007.190 Y1783.030 I -41.227 J   0.189
G2 X 996.100 Y1766.570 I -55.807 J  25.634
G2 X 977.980 Y1751.130 I -77.345 J  72.418
G2 X 953.390 Y1737.170 I -99.664 J 146.917
G2 X 923.080 Y1725.130 I-115.619 J 246.893
G2 X 887.960 Y1715.360 I-119.400 J 361.196
G2 X 849.110 Y1708.150 I-107.781 J 472.487
G2 X 807.700 Y1703.750 I -80.598 J 561.472
G2 X 764.990 Y1702.260 I -42.711 J 611.416
G2 X 722.280 Y1703.750 I   0.001 J 612.906
G2 X 680.870 Y1708.150 I  39.188 J 565.872
G2 X 642.020 Y1715.360 I  68.931 J 479.697
G2 X 606.900 Y1725.130 I  84.280 J 370.966
F150
G1 Z   3.000
G0 Z  15.000 
M9 M5

(* SHAPE Nr: 38 *)
G0 X  97.850 Y 409.880
M3 M8
G0 Z   3.000 
G1 Z  -1.500
F400
G2 X  67.540 Y 421.920 I  85.309 J 258.933
G2 X  42.950 Y 435.880 I  75.074 J 160.877
G2 X  24.830 Y 451.320 I  59.224 J  87.857
G2 X  13.740 Y 467.780 I  44.717 J  42.094
G2 X  10.000 Y 484.750 I  37.487 J  17.159
G2 X  13.740 Y 501.720 I  41.227 J  -0.189
G2 X  24.830 Y 518.180 I  55.807 J -25.634
G2 X  42.950 Y 533.620 I  77.344 J -72.417
G2 X  67.540 Y 547.580 I  99.664 J-146.917
G2 X  97.850 Y 559.620 I 115.619 J-246.893
G2 X 132.970 Y 569.390 I 119.400 J-361.196
G2 X 171.820 Y 576.600 I 107.781 J-472.487
G2 X 213.230 Y 581.000 I  80.598 J-561.472
G2 X 255.940 Y 582.490 I  42.711 J-611.416
G2 X 298.650 Y 581.000 I  -0.001 J-612.906
G2 X 340.060 Y 576.600 I -39.188 J-565.872
G2 X 378.910 Y 569.390 I -68.931 J-479.697
G2 X 414.030 Y 559.620 I -84.280 J-370.966
G2 X 444.340 Y 547.580 I -85.309 J-258.933
G2 X 468.930 Y 533.620 I -75.074 J-160.877
G2 X 487.050 Y 518.180 I -59.224 J -87.857
G2 X 498.140 Y 501.720 I -44.717 J -42.094
G2 X 501.880 Y 484.750 I -37.487 J -17.159
G2 X 498.140 Y 467.780 I -41.227 J   0.189
G2 X 487.050 Y 451.320 I -55.807 J  25.634
G2 X 468.930 Y 435.880 I -77.345 J  72.418
G2 X 444.340 Y 421.920 I -99.664 J 146.917
G2 X 414.030 Y 409.880 I-115.619 J 246.893
G2 X 378.910 Y 400.110 I-119.400 J 361.196
G2 X 340.060 Y 392.900 I-107.781 J 472.487
G2 X 298.650 Y 388.500 I -80.598 J 561.472
G2 X 255.940 Y 387.010 I -42.711 J 611.416
G2 X 213.230 Y 388.500 I   0.001 J 612.906
G2 X 171.820 Y 392.900 I  39.188 J 565.872
G2 X 132.970 Y 400.110 I  68.931 J 479.697
G2 X  97.850 Y 409.880 I  84.280 J 370.966
F150
G1 Z  -3.000
F400
G2 X  67.540 Y 421.920 I  85.309 J 258.933
G2 X  42.950 Y 435.880 I  75.074 J 160.877
G2 X  24.830 Y 451.320 I  59.224 J  87.857
G2 X  13.740 Y 467.780 I  44.717 J  42.094
G2 X  10.000 Y 484.750 I  37.487 J  17.159
G2 X  13.740 Y 501.720 I  41.227 J  -0.189
G2 X  24.830 Y 518.180 I  55.807 J -25.634
G2 X  42.950 Y 533.620 I  77.344 J -72.417
G2 X  67.540 Y 547.580 I  99.664 J-146.917
G2 X  97.850 Y 559.620 I 115.619 J-246.893
G2 X 132.970 Y 569.390 I 119.400 J-361.196
G2 X 171.820 Y 576.600 I 107.781 J-472.487
G2 X 213.230 Y 581.000 I  80.598 J-561.472
G2 X 255.940 Y 582.490 I  42.711 J-611.416
G2 X 298.650 Y 581.000 I  -0.001 J-612.906
G2 X 340.060 Y 576.600 I -39.188 J-565.872
G2 X 378.910 Y 569.390 I -68.931 J-479.697
G2 X 414.030 Y 559.620 I -84.280 J-370.966
G2 X 444.340 Y 547.580 I -85.309 J-258.933
G2 X 468.930 Y 533.620 I -75.074 J-160.877
G2 X 487.050 Y 518.180 I -59.224 J -87.857
G2 X 498.140 Y 501.720 I -44.717 J -42.094
G2 X 501.880 Y 484.750 I -37.487 J -17.159
G2 X 498.140 Y 467.780 I -41.227 J   0.189
G2 X 487.050 Y 451.320 I -55.807 J  25.634
G2 X 468.930 Y 435.880 I -77.345 J  72.418
G2 X 444.340 Y 421.920 I -99.664 J 146.917
G2 X 414.030 Y 409.880 I-115.619 J 246.893
G2 X 378.910 Y 400.110 I-119.400 J 361.196
G2 X 340.060 Y 392.900 I-107.781 J 472.487
G2 X 298.650 Y 388.500 I -80.598 J 561.472
G2 X 255.940 Y 387.010 I -42.711 J 611.416
G2 X 213.230 Y 388.500 I   0.001 J 612.906
G2 X 171.820 Y 392.900 I  39.188 J 565.872
G2 X 132.970 Y 400.110 I  68.931 J 479.697
G2 X  97.850 Y 409.880 I  84.280 J 370.966
F150
G1 Z   3.000
G0 Z  15.000 
M9 M5

(* SHAPE Nr: 39 *)
G0 X 529.620 Y 138.380
M3 M8
G0 Z   3.000 
G1 Z  -1.500
F400
G2 X 522.410 Y 177.230 I 472.487 J 107.781
G2 X 518.010 Y 218.640 I 561.472 J  80.598
G2 X 516.520 Y 261.350 I 611.451 J  42.712
G2 X 518.010 Y 304.060 I 612.906 J  -0.001
G2 X 522.410 Y 345.470 I 565.872 J -39.188
G2 X 529.620 Y 384.320 I 479.697 J -68.931
G2 X 539.390 Y 419.440 I 370.966 J -84.280
G2 X 551.430 Y 449.750 I 258.933 J -85.309
G2 X 565.390 Y 474.340 I 160.877 J -75.074
G2 X 580.830 Y 492.460 I  87.858 J -59.225
G2 X 597.290 Y 503.550 I  42.094 J -44.717
G2 X 614.260 Y 507.290 I  17.159 J -37.487
G2 X 631.230 Y 503.550 I  -0.189 J -41.227
G2 X 647.690 Y 492.460 I -25.634 J -55.807
G2 X 663.130 Y 474.340 I -72.417 J -77.344
G2 X 677.090 Y 449.750 I-146.917 J -99.664
G2 X 689.130 Y 419.440 I-246.893 J-115.619
G2 X 698.900 Y 384.320 I-361.196 J-119.400
G2 X 706.110 Y 345.470 I-472.487 J-107.781
G2 X 710.510 Y 304.060 I-561.472 J -80.598
G2 X 712.000 Y 261.350 I-611.416 J -42.711
G2 X 710.510 Y 218.640 I-612.906 J   0.001
G2 X 706.110 Y 177.230 I-565.872 J  39.188
G2 X 698.900 Y 138.380 I-479.697 J  68.931
G2 X 689.130 Y 103.260 I-370.966 J  84.280
G2 X 677.090 Y  72.950 I-258.933 J  85.309
G2 X 663.130 Y  48.360 I-160.877 J  75.074
G2 X 647.690 Y  30.240 I -87.858 J  59.225
G2 X 631.230 Y  19.150 I -42.094 J  44.717
G2 X 614.260 Y  15.410 I -17.159 J  37.487
G2 X 597.290 Y  19.150 I   0.189 J  41.227
G2 X 580.830 Y  30.240 I  25.634 J  55.807
G2 X 565.390 Y  48.360 I  72.417 J  77.344
G2 X 551.430 Y  72.950 I 146.917 J  99.664
G2 X 539.390 Y 103.260 I 246.893 J 115.619
G2 X 529.620 Y 138.380 I 361.196 J 119.400
F150
G1 Z  -3.000
F400
G2 X 522.410 Y 177.230 I 472.487 J 107.781
G2 X 518.010 Y 218.640 I 561.472 J  80.598
G2 X 516.520 Y 261.350 I 611.451 J  42.712
G2 X 518.010 Y 304.060 I 612.906 J  -0.001
G2 X 522.410 Y 345.470 I 565.872 J -39.188
G2 X 529.620 Y 384.320 I 479.697 J -68.931
G2 X 539.390 Y 419.440 I 370.966 J -84.280
G2 X 551.430 Y 449.750 I 258.933 J -85.309
G2 X 565.390 Y 474.340 I 160.877 J -75.074
G2 X 580.830 Y 492.460 I  87.858 J -59.225
G2 X 597.290 Y 503.550 I  42.094 J -44.717
G2 X 614.260 Y 507.290 I  17.159 J -37.487
G2 X 631.230 Y 503.550 I  -0.189 J -41.227
G2 X 647.690 Y 492.460 I -25.634 J -55.807
G2 X 663.130 Y 474.340 I -72.417 J -77.344
G2 X 677.090 Y 449.750 I-146.917 J -99.664
G2 X 689.130 Y 419.440 I-246.893 J-115.619
G2 X 698.900 Y 384.320 I-361.196 J-119.400
G2 X 706.110 Y 345.470 I-472.487 J-107.781
G2 X 710.510 Y 304.060 I-561.472 J -80.598
G2 X 712.000 Y 261.350 I-611.416 J -42.711
G2 X 710.510 Y 218.640 I-612.906 J   0.001
G2 X 706.110 Y 177.230 I-565.872 J  39.188
G2 X 698.900 Y 138.380 I-479.697 J  68.931
G2 X 689.130 Y 103.260 I-370.966 J  84.280
G2 X 677.090 Y  72.950 I-258.933 J  85.309
G2 X 663.130 Y  48.360 I-160.877 J  75.074
G2 X 647.690 Y  30.240 I -87.858 J  59.225
G2 X 631.230 Y  19.150 I -42.094 J  44.717
G2 X 614.260 Y  15.410 I -17.159 J  37.487
G2 X 597.290 Y  19.150 I   0.189 J  41.227
G2 X 580.830 Y  30.240 I  25.634 J  55.807
G2 X 565.390 Y  48.360 I  72.417 J  77.344
G2 X 551.430 Y  72.950 I 146.917 J  99.664
G2 X 539.390 Y 103.260 I 246.893 J 115.619
G2 X 529.620 Y 138.380 I 361.196 J 119.400
F150
G1 Z   3.000
G0 Z  15.000 
M9 M5

(* SHAPE Nr: 40 *)
G0 X  67.540 Y 211.700
M3 M8
G0 Z   3.000 
G1 Z  -1.500
F400
G2 X  42.950 Y 225.660 I  75.074 J 160.877
G2 X  24.830 Y 241.100 I  59.225 J  87.858
G2 X  13.740 Y 257.560 I  44.717 J  42.094
G2 X  10.000 Y 274.530 I  37.487 J  17.159
G2 X  13.740 Y 291.500 I  41.227 J  -0.189
G2 X  24.830 Y 307.960 I  55.807 J -25.634
G2 X  42.950 Y 323.400 I  77.345 J -72.418
G2 X  67.540 Y 337.360 I  99.664 J-146.917
G2 X  97.850 Y 349.400 I 115.619 J-246.893
G2 X 132.970 Y 359.170 I 119.400 J-361.196
G2 X 171.820 Y 366.380 I 107.781 J-472.487
G2 X 213.230 Y 370.780 I  80.598 J-561.472
G2 X 255.940 Y 372.270 I  42.711 J-611.416
G2 X 298.650 Y 370.780 I  -0.001 J-612.906
G2 X 340.060 Y 366.380 I -39.188 J-565.872
G2 X 378.910 Y 359.170 I -68.931 J-479.697
G2 X 414.030 Y 349.400 I -84.280 J-370.966
G2 X 444.340 Y 337.360 I -85.309 J-258.933
G2 X 468.930 Y 323.400 I -75.074 J-160.877
G2 X 487.050 Y 307.960 I -59.224 J -87.857
G2 X 498.140 Y 291.500 I -44.717 J -42.094
G2 X 501.880 Y 274.530 I -37.487 J -17.159
G2 X 498.140 Y 257.560 I -41.227 J   0.189
G2 X 487.050 Y 241.100 I -55.807 J  25.634
G2 X 468.930 Y 225.660 I -77.345 J  72.418
G2 X 444.340 Y 211.700 I -99.664 J 146.917
G2 X 414.030 Y 199.660 I-115.619 J 246.893
G2 X 378.910 Y 189.890 I-119.400 J 361.196
G2 X 340.060 Y 182.680 I-107.781 J 472.487
G2 X 298.650 Y 178.280 I -80.598 J 561.472
G2 X 255.940 Y 176.790 I -42.712 J 611.451
G2 X 213.230 Y 178.280 I   0.001 J 612.906
G2 X 171.820 Y 182.680 I  39.188 J 565.872
G2 X 132.970 Y 189.890 I  68.931 J 479.697
G2 X  97.850 Y 199.660 I  84.280 J 370.966
G2 X  67.540 Y 211.700 I  85.309 J 258.933
F150
G1 Z  -3.000
F400
G2 X  42.950 Y 225.660 I  75.074 J 160.877
G2 X  24.830 Y 241.100 I  59.225 J  87.858
G2 X  13.740 Y 257.560 I  44.717 J  42.094
G2 X  10.000 Y 274.530 I  37.487 J  17.159
G2 X  13.740 Y 291.500 I  41.227 J  -0.189
G2 X  24.830 Y 307.960 I  55.807 J -25.634
G2 X  42.950 Y 323.400 I  77.345 J -72.418
G2 X  67.540 Y 337.360 I  99.664 J-146.917
G2 X  97.850 Y 349.400 I 115.619 J-246.893
G2 X 132.970 Y 359.170 I 119.400 J-361.196
G2 X 171.820 Y 366.380 I 107.781 J-472.487
G2 X 213.230 Y 370.780 I  80.598 J-561.472
G2 X 255.940 Y 372.270 I  42.711 J-611.416
G2 X 298.650 Y 370.780 I  -0.001 J-612.906
G2 X 340.060 Y 366.380 I -39.188 J-565.872
G2 X 378.910 Y 359.170 I -68.931 J-479.697
G2 X 414.030 Y 349.400 I -84.280 J-370.966
G2 X 444.340 Y 337.360 I -85.309 J-258.933
G2 X 468.930 Y 323.400 I -75.074 J-160.877
G2 X 487.050 Y 307.960 I -59.224 J -87.857
G2 X 498.140 Y 291.500 I -44.717 J -42.094
G2 X 501.880 Y 274.530 I -37.487 J -17.159
G2 X 498.140 Y 257.560 I -41.227 J   0.189
G2 X 487.050 Y 241.100 I -55.807 J  25.634
G2 X 468.930 Y 225.660 I -77.345 J  72.418
G2 X 444.340 Y 211.700 I -99.664 J 146.917
G2 X 414.030 Y 199.660 I-115.619 J 246.893
G2 X 378.910 Y 189.890 I-119.400 J 361.196
G2 X 340.060 Y 182.680 I-107.781 J 472.487
G2 X 298.650 Y 178.280 I -80.598 J 561.472
G2 X 255.940 Y 176.790 I -42.712 J 611.451
G2 X 213.230 Y 178.280 I   0.001 J 612.906
G2 X 171.820 Y 182.680 I  39.188 J 565.872
G2 X 132.970 Y 189.890 I  68.931 J 479.697
G2 X  97.850 Y 199.660 I  84.280 J 370.966
G2 X  67.540 Y 211.700 I  85.309 J 258.933
F150
G1 Z   3.000
G0 Z  15.000 
M9 M5

(*** LAYER: BORDER_D0_T132_RK1_A0_W0_EM1_RI1_ID0009 ***)

(* SHAPE Nr: 17 *)
G0 X2585.160 Y 927.910
M3 M8
G0 Z   3.000 
G1 Z  -1.500
F400
G1 X2629.270 Y 976.780
G1 X2585.160 Y1025.650
G1 X2649.540 Y1011.880
G1 X2669.800 Y1074.520
G1 X2690.070 Y1011.880
G1 X2754.440 Y1025.650
G1 X2710.340 Y 976.780
G1 X2754.440 Y 927.910
G1 X2690.070 Y 941.680
G1 X2669.800 Y 879.040
G1 X2649.540 Y 941.680
G1 X2585.160 Y 927.910
F150
G1 Z  -3.000
F400
G1 X2629.270 Y 976.780
G1 X2585.160 Y1025.650
G1 X2649.540 Y1011.880
G1 X2669.800 Y1074.520
G1 X2690.070 Y1011.880
G1 X2754.440 Y1025.650
G1 X2710.340 Y 976.780
G1 X2754.440 Y 927.910
G1 X2690.070 Y 941.680
G1 X2669.800 Y 879.040
G1 X2649.540 Y 941.680
G1 X2585.160 Y 927.910
F150
G1 Z   3.000
G0 Z  15.000 
M9 M5

(*** LAYER: BORDER_D0_T132_RK1_A0_W0_EM1_RI1_ID0006 ***)

(* SHAPE Nr: 18 *)
G0 X2564.430 Y 780.010
M3 M8
G0 Z   3.000 
G1 Z  -1.500
F400
G1 X2594.630 Y 801.950
G1 X2583.100 Y 837.460
G1 X2620.430 Y 837.460
G1 X2631.970 Y 872.960
G1 X2662.170 Y 851.020
G1 X2692.370 Y 872.960
G1 X2703.910 Y 837.460
G1 X2741.240 Y 837.460
G1 X2729.710 Y 801.950
G1 X2759.910 Y 780.010
G1 X2729.710 Y 758.060
G1 X2741.240 Y 722.560
G1 X2703.910 Y 722.560
G1 X2692.370 Y 687.050
G1 X2662.170 Y 708.990
G1 X2631.970 Y 687.050
G1 X2620.430 Y 722.560
G1 X2583.100 Y 722.560
G1 X2594.630 Y 758.060
G1 X2564.430 Y 780.010
F150
G1 Z  -3.000
F400
G1 X2594.630 Y 801.950
G1 X2583.100 Y 837.460
G1 X2620.430 Y 837.460
G1 X2631.970 Y 872.960
G1 X2662.170 Y 851.020
G1 X2692.370 Y 872.960
G1 X2703.910 Y 837.460
G1 X2741.240 Y 837.460
G1 X2729.710 Y 801.950
G1 X2759.910 Y 780.010
G1 X2729.710 Y 758.060
G1 X2741.240 Y 722.560
G1 X2703.910 Y 722.560
G1 X2692.370 Y 687.050
G1 X2662.170 Y 708.990
G1 X2631.970 Y 687.050
G1 X2620.430 Y 722.560
G1 X2583.100 Y 722.560
G1 X2594.630 Y 758.060
G1 X2564.430 Y 780.010
F150
G1 Z   3.000
G0 Z  15.000 
M9 M5

(* SHAPE Nr: 32 *)
G0 X1416.570 Y1754.680
M3 M8
G0 Z   3.000 
G1 Z  -1.500
F400
G1 X1428.100 Y1790.180
G1 X1397.900 Y1812.130
G1 X1428.100 Y1834.070
G1 X1416.570 Y1869.580
G1 X1453.900 Y1869.580
G1 X1465.440 Y1905.080
G1 X1495.640 Y1883.140
G1 X1525.840 Y1905.080
G1 X1537.380 Y1869.580
G1 X1574.710 Y1869.580
G1 X1563.180 Y1834.070
G1 X1593.380 Y1812.130
G1 X1563.180 Y1790.180
G1 X1574.710 Y1754.680
G1 X1537.380 Y1754.680
G1 X1525.840 Y1719.170
G1 X1495.640 Y1741.110
G1 X1465.440 Y1719.170
G1 X1453.900 Y1754.680
G1 X1416.570 Y1754.680
F150
G1 Z  -3.000
F400
G1 X1428.100 Y1790.180
G1 X1397.900 Y1812.130
G1 X1428.100 Y1834.070
G1 X1416.570 Y1869.580
G1 X1453.900 Y1869.580
G1 X1465.440 Y1905.080
G1 X1495.640 Y1883.140
G1 X1525.840 Y1905.080
G1 X1537.380 Y1869.580
G1 X1574.710 Y1869.580
G1 X1563.180 Y1834.070
G1 X1593.380 Y1812.130
G1 X1563.180 Y1790.180
G1 X1574.710 Y1754.680
G1 X1537.380 Y1754.680
G1 X1525.840 Y1719.170
G1 X1495.640 Y1741.110
G1 X1465.440 Y1719.170
G1 X1453.900 Y1754.680
G1 X1416.570 Y1754.680
F150
G1 Z   3.000
G0 Z  15.000 
M9 M5

(* SHAPE Nr: 33 *)
G0 X1281.230 Y1745.530
M3 M8
G0 Z   3.000 
G1 Z  -1.500
F400
G1 X1269.690 Y1781.040
G1 X1232.360 Y1781.040
G1 X1243.890 Y1816.540
G1 X1213.690 Y1838.490
G1 X1243.890 Y1860.430
G1 X1232.360 Y1895.940
G1 X1269.690 Y1895.940
G1 X1281.230 Y1931.440
G1 X1311.430 Y1909.500
G1 X1341.630 Y1931.440
G1 X1353.170 Y1895.940
G1 X1390.500 Y1895.940
G1 X1378.970 Y1860.430
G1 X1409.170 Y1838.490
G1 X1378.970 Y1816.540
G1 X1390.500 Y1781.040
G1 X1353.170 Y1781.040
G1 X1341.630 Y1745.530
G1 X1311.430 Y1767.470
G1 X1281.230 Y1745.530
F150
G1 Z  -3.000
F400
G1 X1269.690 Y1781.040
G1 X1232.360 Y1781.040
G1 X1243.890 Y1816.540
G1 X1213.690 Y1838.490
G1 X1243.890 Y1860.430
G1 X1232.360 Y1895.940
G1 X1269.690 Y1895.940
G1 X1281.230 Y1931.440
G1 X1311.430 Y1909.500
G1 X1341.630 Y1931.440
G1 X1353.170 Y1895.940
G1 X1390.500 Y1895.940
G1 X1378.970 Y1860.430
G1 X1409.170 Y1838.490
G1 X1378.970 Y1816.540
G1 X1390.500 Y1781.040
G1 X1353.170 Y1781.040
G1 X1341.630 Y1745.530
G1 X1311.430 Y1767.470
G1 X1281.230 Y1745.530
F150
G1 Z   3.000
G0 Z  15.000 
M9 M5

(* SHAPE Nr: 35 *)
G0 X1089.650 Y1683.030
M3 M8
G0 Z   3.000 
G1 Z  -1.500
F400
G1 X1078.110 Y1718.540
G1 X1040.780 Y1718.540
G1 X1052.310 Y1754.040
G1 X1022.110 Y1775.990
G1 X1052.310 Y1797.930
G1 X1040.780 Y1833.440
G1 X1078.110 Y1833.440
G1 X1089.650 Y1868.940
G1 X1119.850 Y1847.000
G1 X1150.050 Y1868.940
G1 X1161.590 Y1833.440
G1 X1198.920 Y1833.440
G1 X1187.390 Y1797.930
G1 X1217.590 Y1775.990
G1 X1187.390 Y1754.040
G1 X1198.920 Y1718.540
G1 X1161.590 Y1718.540
G1 X1150.050 Y1683.030
G1 X1119.850 Y1704.970
G1 X1089.650 Y1683.030
F150
G1 Z  -3.000
F400
G1 X1078.110 Y1718.540
G1 X1040.780 Y1718.540
G1 X1052.310 Y1754.040
G1 X1022.110 Y1775.990
G1 X1052.310 Y1797.930
G1 X1040.780 Y1833.440
G1 X1078.110 Y1833.440
G1 X1089.650 Y1868.940
G1 X1119.850 Y1847.000
G1 X1150.050 Y1868.940
G1 X1161.590 Y1833.440
G1 X1198.920 Y1833.440
G1 X1187.390 Y1797.930
G1 X1217.590 Y1775.990
G1 X1187.390 Y1754.040
G1 X1198.920 Y1718.540
G1 X1161.590 Y1718.540
G1 X1150.050 Y1683.030
G1 X1119.850 Y1704.970
G1 X1089.650 Y1683.030
F150
G1 Z   3.000
G0 Z  15.000 
M9 M5

(*** LAYER: BORDER_D0_T132_RK1_A0_W0_EM1_RI1_ID0028 ***)

(* SHAPE Nr: 20 *)
G0 X2712.050 Y  86.510
M3 M8
G0 Z   3.000 
G1 Z  -1.500
F400
G3 X2769.300 Y 224.730 I-138.230 J 138.220
G1 X2769.300 Y 552.650
G1 X2788.850 Y 552.650
G1 X2788.850 Y 224.730
G2 X2725.870 Y  72.680 I-195.309 J  -8.170
G1 X2712.050 Y  86.510
F150
G1 Z  -3.000
F400
G3 X2769.300 Y 224.730 I-138.230 J 138.220
G1 X2769.300 Y 552.650
G1 X2788.850 Y 552.650
G1 X2788.850 Y 224.730
G2 X2725.870 Y  72.680 I-195.309 J  -8.170
G1 X2712.050 Y  86.510
F150
G1 Z   3.000
G0 Z  15.000 
M9 M5

(* SHAPE Nr: 25 *)
G0 X2683.510 Y1091.700
M3 M8
G0 Z   3.000 
G1 Z  -1.500
F400
G3 X2740.760 Y1229.920 I-138.230 J 138.220
G1 X2740.760 Y1557.840
G1 X2760.310 Y1557.840
G1 X2760.310 Y1229.920
G2 X2697.330 Y1077.870 I-195.309 J  -8.170
G1 X2683.510 Y1091.700
F150
G1 Z  -3.000
F400
G3 X2740.760 Y1229.920 I-138.230 J 138.220
G1 X2740.760 Y1557.840
G1 X2760.310 Y1557.840
G1 X2760.310 Y1229.920
G2 X2697.330 Y1077.870 I-195.309 J  -8.170
G1 X2683.510 Y1091.700
F150
G1 Z   3.000
G0 Z  15.000 
M9 M5

(* SHAPE Nr: 26 *)
G0 X2707.240 Y1573.860
M3 M8
G0 Z   3.000 
G1 Z  -1.500
F400
G3 X2764.490 Y1712.080 I-138.230 J 138.220
G1 X2764.490 Y2040.000
G1 X2784.040 Y2040.000
G1 X2784.040 Y1712.080
G2 X2721.060 Y1560.030 I-195.309 J  -8.170
G1 X2707.240 Y1573.860
F150
G1 Z  -3.000
F400
G3 X2764.490 Y1712.080 I-138.230 J 138.220
G1 X2764.490 Y2040.000
G1 X2784.040 Y2040.000
G1 X2784.040 Y1712.080
G2 X2721.060 Y1560.030 I-195.309 J  -8.170
G1 X2707.240 Y1573.860
F150
G1 Z   3.000
G0 Z  15.000 
M9 M5

(*** LAYER: BORDER_D0_T132_RK1_A0_W0_EM1_RI1_ID0025 ***)

(* SHAPE Nr: 21 *)
G0 X2381.690 Y  95.550
M3 M8
G0 Z   3.000 
G1 Z  -1.500
F400
G1 X2417.200 Y 204.830
G1 X2532.100 Y 204.830
G1 X2567.600 Y  95.550
G1 X2474.650 Y  28.020
G1 X2381.690 Y  95.550
F150
G1 Z  -3.000
F400
G1 X2417.200 Y 204.830
G1 X2532.100 Y 204.830
G1 X2567.600 Y  95.550
G1 X2474.650 Y  28.020
G1 X2381.690 Y  95.550
F150
G1 Z   3.000
G0 Z  15.000 
M9 M5

(*** LAYER: BORDER_D0_T132_RK1_A0_W0_EM1_RI1_ID0007 ***)

(* SHAPE Nr: 24 *)
G0 X2523.520 Y1036.590
M3 M8
G0 Z   3.000 
G1 Z  -1.500
F400
G1 X2545.470 Y1104.130
G1 X2488.020 Y1145.870
G1 X2559.030 Y1145.870
G1 X2580.970 Y1213.400
G1 X2602.920 Y1145.870
G1 X2673.930 Y1145.870
G1 X2616.480 Y1104.130
G1 X2638.420 Y1036.590
G1 X2580.970 Y1078.330
G1 X2523.520 Y1036.590
F150
G1 Z  -3.000
F400
G1 X2545.470 Y1104.130
G1 X2488.020 Y1145.870
G1 X2559.030 Y1145.870
G1 X2580.970 Y1213.400
G1 X2602.920 Y1145.870
G1 X2673.930 Y1145.870
G1 X2616.480 Y1104.130
G1 X2638.420 Y1036.590
G1 X2580.970 Y1078.330
G1 X2523.520 Y1036.590
F150
G1 Z   3.000
G0 Z  15.000 
M9 M5

(*** LAYER: BORDER_D0_T132_RK1_A0_W0_EM1_RI1_ID0020 ***)

(* SHAPE Nr: 28 *)
G0 X2197.700 Y1163.930
M3 M8
G0 Z   3.000 
G1 Z  -1.500
F400
G2 X2185.660 Y1194.240 I 246.893 J 115.619
G2 X2175.890 Y1229.360 I 361.196 J 119.400
G2 X2168.680 Y1268.210 I 472.487 J 107.781
G2 X2164.280 Y1309.620 I 561.472 J  80.598
G2 X2162.790 Y1352.330 I 611.416 J  42.711
G2 X2164.280 Y1395.040 I 612.941 J  -0.002
G2 X2168.680 Y1436.450 I 565.872 J -39.188
G2 X2175.890 Y1475.300 I 479.697 J -68.931
G2 X2185.660 Y1510.420 I 370.966 J -84.280
G2 X2197.700 Y1540.730 I 258.933 J -85.309
G2 X2211.660 Y1565.320 I 160.873 J -75.072
G2 X2227.100 Y1583.440 I  87.858 J -59.225
G2 X2243.560 Y1594.530 I  42.094 J -44.717
G2 X2260.530 Y1598.270 I  17.159 J -37.487
G1 X2260.530 Y1352.330
G1 X2260.530 Y1106.390
G2 X2243.560 Y1110.130 I   0.189 J  41.227
G2 X2227.100 Y1121.220 I  25.634 J  55.807
G2 X2211.660 Y1139.340 I  72.418 J  77.345
G2 X2197.700 Y1163.930 I 146.913 J  99.662
F150
G1 Z  -3.000
F400
G2 X2185.660 Y1194.240 I 246.893 J 115.619
G2 X2175.890 Y1229.360 I 361.196 J 119.400
G2 X2168.680 Y1268.210 I 472.487 J 107.781
G2 X2164.280 Y1309.620 I 561.472 J  80.598
G2 X2162.790 Y1352.330 I 611.416 J  42.711
G2 X2164.280 Y1395.040 I 612.941 J  -0.002
G2 X2168.680 Y1436.450 I 565.872 J -39.188
G2 X2175.890 Y1475.300 I 479.697 J -68.931
G2 X2185.660 Y1510.420 I 370.966 J -84.280
G2 X2197.700 Y1540.730 I 258.933 J -85.309
G2 X2211.660 Y1565.320 I 160.873 J -75.072
G2 X2227.100 Y1583.440 I  87.858 J -59.225
G2 X2243.560 Y1594.530 I  42.094 J -44.717
G2 X2260.530 Y1598.270 I  17.159 J -37.487
G1 X2260.530 Y1352.330
G1 X2260.530 Y1106.390
G2 X2243.560 Y1110.130 I   0.189 J  41.227
G2 X2227.100 Y1121.220 I  25.634 J  55.807
G2 X2211.660 Y1139.340 I  72.418 J  77.345
G2 X2197.700 Y1163.930 I 146.913 J  99.662
F150
G1 Z   3.000
G0 Z  15.000 
M9 M5

(* SHAPE Nr: 37 *)
G0 X 285.780 Y1841.300
M3 M8
G0 Z   3.000 
G1 Z  -1.500
F400
G2 X 246.930 Y1848.510 I  68.931 J 479.697
G2 X 211.810 Y1858.280 I  84.280 J 370.966
G2 X 181.500 Y1870.320 I  85.309 J 258.933
G2 X 156.910 Y1884.280 I  75.074 J 160.877
G2 X 138.790 Y1899.720 I  59.225 J  87.858
G2 X 127.700 Y1916.180 I  44.717 J  42.094
G2 X 123.960 Y1933.150 I  37.487 J  17.159
G1 X 369.900 Y1933.150
G1 X 615.840 Y1933.150
G2 X 612.100 Y1916.180 I -41.227 J   0.189
G2 X 601.010 Y1899.720 I -55.807 J  25.634
G2 X 582.890 Y1884.280 I -77.345 J  72.418
G2 X 558.300 Y1870.320 I -99.664 J 146.917
G2 X 527.990 Y1858.280 I-115.619 J 246.893
G2 X 492.870 Y1848.510 I-119.400 J 361.196
G2 X 454.020 Y1841.300 I-107.781 J 472.487
G2 X 412.610 Y1836.900 I -80.598 J 561.472
G2 X 369.900 Y1835.410 I -42.711 J 611.416
G2 X 327.190 Y1836.900 I   0.001 J 612.906
G2 X 285.780 Y1841.300 I  39.188 J 565.872
F150
G1 Z  -3.000
F400
G2 X 246.930 Y1848.510 I  68.931 J 479.697
G2 X 211.810 Y1858.280 I  84.280 J 370.966
G2 X 181.500 Y1870.320 I  85.309 J 258.933
G2 X 156.910 Y1884.280 I  75.074 J 160.877
G2 X 138.790 Y1899.720 I  59.225 J  87.858
G2 X 127.700 Y1916.180 I  44.717 J  42.094
G2 X 123.960 Y1933.150 I  37.487 J  17.159
G1 X 369.900 Y1933.150
G1 X 615.840 Y1933.150
G2 X 612.100 Y1916.180 I -41.227 J   0.189
G2 X 601.010 Y1899.720 I -55.807 J  25.634
G2 X 582.890 Y1884.280 I -77.345 J  72.418
G2 X 558.300 Y1870.320 I -99.664 J 146.917
G2 X 527.990 Y1858.280 I-115.619 J 246.893
G2 X 492.870 Y1848.510 I-119.400 J 361.196
G2 X 454.020 Y1841.300 I-107.781 J 472.487
G2 X 412.610 Y1836.900 I -80.598 J 561.472
G2 X 369.900 Y1835.410 I -42.711 J 611.416
G2 X 327.190 Y1836.900 I   0.001 J 612.906
G2 X 285.780 Y1841.300 I  39.188 J 565.872
F150
G1 Z   3.000
G0 Z  15.000 
M9 M5

(* SHAPE Nr: 41 *)
G0 X  10.000 Y  64.310
M3 M8
G0 Z   3.000 
G1 Z  -1.500
F400
G2 X  13.740 Y  81.280 I  41.227 J  -0.189
G2 X  24.830 Y  97.740 I  55.807 J -25.634
G2 X  42.950 Y 113.180 I  77.344 J -72.417
G2 X  67.540 Y 127.140 I  99.664 J-146.917
G2 X  97.850 Y 139.180 I 115.619 J-246.893
G2 X 132.970 Y 148.950 I 119.400 J-361.196
G2 X 171.820 Y 156.160 I 107.781 J-472.487
G2 X 213.230 Y 160.560 I  80.598 J-561.472
G2 X 255.940 Y 162.050 I  42.711 J-611.416
G2 X 298.650 Y 160.560 I  -0.001 J-612.906
G2 X 340.060 Y 156.160 I -39.188 J-565.872
G2 X 378.910 Y 148.950 I -68.931 J-479.697
G2 X 414.030 Y 139.180 I -84.280 J-370.966
G2 X 444.340 Y 127.140 I -85.309 J-258.933
G2 X 468.930 Y 113.180 I -75.074 J-160.877
G2 X 487.050 Y  97.740 I -59.224 J -87.857
G2 X 498.140 Y  81.280 I -44.717 J -42.094
G2 X 501.880 Y  64.310 I -37.487 J -17.159
G1 X 255.940 Y  64.310
G1 X  10.000 Y  64.310
F150
G1 Z  -3.000
F400
G2 X  13.740 Y  81.280 I  41.227 J  -0.189
G2 X  24.830 Y  97.740 I  55.807 J -25.634
G2 X  42.950 Y 113.180 I  77.344 J -72.417
G2 X  67.540 Y 127.140 I  99.664 J-146.917
G2 X  97.850 Y 139.180 I 115.619 J-246.893
G2 X 132.970 Y 148.950 I 119.400 J-361.196
G2 X 171.820 Y 156.160 I 107.781 J-472.487
G2 X 213.230 Y 160.560 I  80.598 J-561.472
G2 X 255.940 Y 162.050 I  42.711 J-611.416
G2 X 298.650 Y 160.560 I  -0.001 J-612.906
G2 X 340.060 Y 156.160 I -39.188 J-565.872
G2 X 378.910 Y 148.950 I -68.931 J-479.697
G2 X 414.030 Y 139.180 I -84.280 J-370.966
G2 X 444.340 Y 127.140 I -85.309 J-258.933
G2 X 468.930 Y 113.180 I -75.074 J-160.877
G2 X 487.050 Y  97.740 I -59.224 J -87.857
G2 X 498.140 Y  81.280 I -44.717 J -42.094
G2 X 501.880 Y  64.310 I -37.487 J -17.159
G1 X 255.940 Y  64.310
G1 X  10.000 Y  64.310
F150
G1 Z   3.000
G0 Z  15.000 
M9 M5

(*** LAYER: BORDER_D0_T132.1_RK1_A0_W0_EM1 ***)

(* SHAPE Nr: 42 *)
G0 X 739.790 Y 152.090
M3 M8
G0 Z   3.000 
G1 Z  -1.500
F400
G2 X 732.590 Y 190.950 I 472.591 J 107.659
G2 X 728.180 Y 232.350 I 561.330 J  80.729
G2 X 726.700 Y 275.060 I 611.491 J  42.570
G2 X 728.180 Y 317.770 I 612.971 J   0.140
G2 X 732.590 Y 359.180 I 565.877 J -39.324
G2 X 739.790 Y 398.030 I 479.668 J -68.804
G2 X 749.560 Y 433.150 I 370.996 J -84.288
G2 X 761.610 Y 463.460 I 258.888 J -85.373
G2 X 775.570 Y 488.050 I 160.893 J -75.083
G2 X 791.010 Y 506.170 I  87.861 J -59.228
G2 X 807.470 Y 517.270 I  42.123 J -44.710
G2 X 824.440 Y 521.000 I  17.135 J -37.489
G2 X 841.410 Y 517.270 I  -0.165 J -41.219
G2 X 857.870 Y 506.170 I -25.663 J -55.810
G2 X 873.310 Y 488.050 I -72.421 J -77.348
G2 X 887.260 Y 463.460 I-146.938 J -99.610
G2 X 899.310 Y 433.150 I-246.838 J-115.683
G2 X 909.080 Y 398.030 I-361.226 J-119.408
G2 X 916.280 Y 359.180 I-472.468 J-107.654
G2 X 920.690 Y 317.770 I-561.467 J -80.734
G2 X 922.180 Y 275.060 I-611.486 J -42.714
G2 X 920.690 Y 232.350 I-612.976 J   0.004
G2 X 916.280 Y 190.950 I-565.740 J  39.329
G2 X 909.080 Y 152.090 I-479.791 J  68.799
G2 X 899.310 Y 116.970 I-370.996 J  84.288
G2 X 887.260 Y  86.660 I-258.888 J  85.373
G2 X 873.310 Y  62.070 I-160.888 J  75.020
G2 X 857.870 Y  43.950 I -87.861 J  59.228
G2 X 841.410 Y  32.860 I -42.093 J  44.715
G2 X 824.440 Y  29.120 I -17.158 J  37.484
G2 X 807.470 Y  32.860 I   0.188 J  41.224
G2 X 791.010 Y  43.950 I  25.633 J  55.805
G2 X 775.570 Y  62.070 I  72.421 J  77.348
G2 X 761.610 Y  86.660 I 146.933 J  99.673
G2 X 749.560 Y 116.970 I 246.838 J 115.683
G2 X 739.790 Y 152.090 I 361.226 J 119.408
F150
G1 Z  -3.000
F400
G2 X 732.590 Y 190.950 I 472.591 J 107.659
G2 X 728.180 Y 232.350 I 561.330 J  80.729
G2 X 726.700 Y 275.060 I 611.491 J  42.570
G2 X 728.180 Y 317.770 I 612.971 J   0.140
G2 X 732.590 Y 359.180 I 565.877 J -39.324
G2 X 739.790 Y 398.030 I 479.668 J -68.804
G2 X 749.560 Y 433.150 I 370.996 J -84.288
G2 X 761.610 Y 463.460 I 258.888 J -85.373
G2 X 775.570 Y 488.050 I 160.893 J -75.083
G2 X 791.010 Y 506.170 I  87.861 J -59.228
G2 X 807.470 Y 517.270 I  42.123 J -44.710
G2 X 824.440 Y 521.000 I  17.135 J -37.489
G2 X 841.410 Y 517.270 I  -0.165 J -41.219
G2 X 857.870 Y 506.170 I -25.663 J -55.810
G2 X 873.310 Y 488.050 I -72.421 J -77.348
G2 X 887.260 Y 463.460 I-146.938 J -99.610
G2 X 899.310 Y 433.150 I-246.838 J-115.683
G2 X 909.080 Y 398.030 I-361.226 J-119.408
G2 X 916.280 Y 359.180 I-472.468 J-107.654
G2 X 920.690 Y 317.770 I-561.467 J -80.734
G2 X 922.180 Y 275.060 I-611.486 J -42.714
G2 X 920.690 Y 232.350 I-612.976 J   0.004
G2 X 916.280 Y 190.950 I-565.740 J  39.329
G2 X 909.080 Y 152.090 I-479.791 J  68.799
G2 X 899.310 Y 116.970 I-370.996 J  84.288
G2 X 887.260 Y  86.660 I-258.888 J  85.373
G2 X 873.310 Y  62.070 I-160.888 J  75.020
G2 X 857.870 Y  43.950 I -87.861 J  59.228
G2 X 841.410 Y  32.860 I -42.093 J  44.715
G2 X 824.440 Y  29.120 I -17.158 J  37.484
G2 X 807.470 Y  32.860 I   0.188 J  41.224
G2 X 791.010 Y  43.950 I  25.633 J  55.805
G2 X 775.570 Y  62.070 I  72.421 J  77.348
G2 X 761.610 Y  86.660 I 146.933 J  99.673
G2 X 749.560 Y 116.970 I 246.838 J 115.683
G2 X 739.790 Y 152.090 I 361.226 J 119.408
F150
G1 Z   3.000
G0 Z  15.000 
M9 M5

(* SHAPE Nr: 43 *)
G0 X1152.950 Y 190.950
M3 M8
G0 Z   3.000 
G1 Z  -1.500
F400
G2 X1148.540 Y 232.350 I 561.330 J  80.729
G2 X1147.060 Y 275.060 I 611.491 J  42.570
G2 X1148.540 Y 317.770 I 612.971 J   0.140
G2 X1152.950 Y 359.180 I 565.877 J -39.324
G2 X1160.150 Y 398.030 I 479.668 J -68.804
G2 X1169.920 Y 433.150 I 370.996 J -84.288
G2 X1181.970 Y 463.460 I 258.888 J -85.373
G2 X1195.930 Y 488.050 I 160.893 J -75.083
G2 X1211.370 Y 506.170 I  87.859 J -59.227
G2 X1227.820 Y 517.270 I  42.118 J -44.679
G2 X1244.800 Y 521.000 I  17.140 J -37.512
G2 X1261.770 Y 517.270 I  -0.165 J -41.219
G2 X1278.230 Y 506.170 I -25.663 J -55.810
G2 X1293.670 Y 488.050 I -72.419 J -77.347
G2 X1307.620 Y 463.460 I-146.938 J -99.610
G2 X1319.670 Y 433.150 I-246.838 J-115.683
G2 X1329.440 Y 398.030 I-361.226 J-119.408
G2 X1336.640 Y 359.180 I-472.468 J-107.654
G2 X1341.050 Y 317.770 I-561.467 J -80.734
G2 X1342.540 Y 275.060 I-611.486 J -42.714
G2 X1341.050 Y 232.350 I-612.976 J   0.004
G2 X1336.640 Y 190.950 I-565.740 J  39.329
G2 X1329.440 Y 152.090 I-479.791 J  68.799
G2 X1319.670 Y 116.970 I-370.996 J  84.288
G2 X1307.620 Y  86.660 I-258.888 J  85.373
G2 X1293.670 Y  62.070 I-160.888 J  75.020
G2 X1278.230 Y  43.950 I -87.861 J  59.228
G2 X1261.770 Y  32.860 I -42.093 J  44.715
G2 X1244.800 Y  29.120 I -17.158 J  37.484
G2 X1227.820 Y  32.860 I   0.183 J  41.247
G2 X1211.370 Y  43.950 I  25.638 J  55.774
G2 X1195.930 Y  62.070 I  72.419 J  77.347
G2 X1181.970 Y  86.660 I 146.933 J  99.673
G2 X1169.920 Y 116.970 I 246.838 J 115.683
G2 X1160.150 Y 152.090 I 361.226 J 119.408
G2 X1152.950 Y 190.950 I 472.591 J 107.659
F150
G1 Z  -3.000
F400
G2 X1148.540 Y 232.350 I 561.330 J  80.729
G2 X1147.060 Y 275.060 I 611.491 J  42.570
G2 X1148.540 Y 317.770 I 612.971 J   0.140
G2 X1152.950 Y 359.180 I 565.877 J -39.324
G2 X1160.150 Y 398.030 I 479.668 J -68.804
G2 X1169.920 Y 433.150 I 370.996 J -84.288
G2 X1181.970 Y 463.460 I 258.888 J -85.373
G2 X1195.930 Y 488.050 I 160.893 J -75.083
G2 X1211.370 Y 506.170 I  87.859 J -59.227
G2 X1227.820 Y 517.270 I  42.118 J -44.679
G2 X1244.800 Y 521.000 I  17.140 J -37.512
G2 X1261.770 Y 517.270 I  -0.165 J -41.219
G2 X1278.230 Y 506.170 I -25.663 J -55.810
G2 X1293.670 Y 488.050 I -72.419 J -77.347
G2 X1307.620 Y 463.460 I-146.938 J -99.610
G2 X1319.670 Y 433.150 I-246.838 J-115.683
G2 X1329.440 Y 398.030 I-361.226 J-119.408
G2 X1336.640 Y 359.180 I-472.468 J-107.654
G2 X1341.050 Y 317.770 I-561.467 J -80.734
G2 X1342.540 Y 275.060 I-611.486 J -42.714
G2 X1341.050 Y 232.350 I-612.976 J   0.004
G2 X1336.640 Y 190.950 I-565.740 J  39.329
G2 X1329.440 Y 152.090 I-479.791 J  68.799
G2 X1319.670 Y 116.970 I-370.996 J  84.288
G2 X1307.620 Y  86.660 I-258.888 J  85.373
G2 X1293.670 Y  62.070 I-160.888 J  75.020
G2 X1278.230 Y  43.950 I -87.861 J  59.228
G2 X1261.770 Y  32.860 I -42.093 J  44.715
G2 X1244.800 Y  29.120 I -17.158 J  37.484
G2 X1227.820 Y  32.860 I   0.183 J  41.247
G2 X1211.370 Y  43.950 I  25.638 J  55.774
G2 X1195.930 Y  62.070 I  72.419 J  77.347
G2 X1181.970 Y  86.660 I 146.933 J  99.673
G2 X1169.920 Y 116.970 I 246.838 J 115.683
G2 X1160.150 Y 152.090 I 361.226 J 119.408
G2 X1152.950 Y 190.950 I 472.591 J 107.659
F150
G1 Z   3.000
G0 Z  15.000 
M9 M5

(* SHAPE Nr: 44 *)
G0 X1573.310 Y 190.950
M3 M8
G0 Z   3.000 
G1 Z  -1.500
F400
G2 X1568.900 Y 232.350 I 561.330 J  80.729
G2 X1567.420 Y 275.060 I 611.491 J  42.570
G2 X1568.900 Y 317.770 I 612.971 J   0.140
G2 X1573.310 Y 359.180 I 565.877 J -39.324
G2 X1580.510 Y 398.030 I 479.668 J -68.804
G2 X1590.280 Y 433.150 I 370.996 J -84.288
G2 X1602.330 Y 463.460 I 258.888 J -85.373
G2 X1616.290 Y 488.050 I 160.893 J -75.083
G2 X1631.730 Y 506.170 I  87.861 J -59.228
G2 X1648.190 Y 517.270 I  42.123 J -44.710
G2 X1665.160 Y 521.000 I  17.135 J -37.489
G2 X1682.130 Y 517.270 I  -0.165 J -41.219
G2 X1698.590 Y 506.170 I -25.663 J -55.810
G2 X1714.030 Y 488.050 I -72.421 J -77.348
G2 X1727.980 Y 463.460 I-146.938 J -99.610
G2 X1740.030 Y 433.150 I-246.838 J-115.683
G2 X1749.800 Y 398.030 I-361.226 J-119.408
G2 X1757.000 Y 359.180 I-472.468 J-107.654
G2 X1761.410 Y 317.770 I-561.467 J -80.734
G2 X1762.900 Y 275.060 I-611.486 J -42.714
G2 X1761.410 Y 232.350 I-612.976 J   0.004
G2 X1757.000 Y 190.950 I-565.740 J  39.329
G2 X1749.800 Y 152.090 I-479.791 J  68.799
G2 X1740.030 Y 116.970 I-370.996 J  84.288
G2 X1727.980 Y  86.660 I-258.888 J  85.373
G2 X1714.030 Y  62.070 I-160.888 J  75.020
G2 X1698.590 Y  43.950 I -87.861 J  59.228
G2 X1682.130 Y  32.860 I -42.093 J  44.715
G2 X1665.160 Y  29.120 I -17.158 J  37.484
G2 X1648.190 Y  32.860 I   0.188 J  41.224
G2 X1631.730 Y  43.950 I  25.633 J  55.805
G2 X1616.290 Y  62.070 I  72.421 J  77.348
G2 X1602.330 Y  86.660 I 146.933 J  99.673
G2 X1590.280 Y 116.970 I 246.838 J 115.683
G2 X1580.510 Y 152.090 I 361.226 J 119.408
G2 X1573.310 Y 190.950 I 472.591 J 107.659
F150
G1 Z  -3.000
F400
G2 X1568.900 Y 232.350 I 561.330 J  80.729
G2 X1567.420 Y 275.060 I 611.491 J  42.570
G2 X1568.900 Y 317.770 I 612.971 J   0.140
G2 X1573.310 Y 359.180 I 565.877 J -39.324
G2 X1580.510 Y 398.030 I 479.668 J -68.804
G2 X1590.280 Y 433.150 I 370.996 J -84.288
G2 X1602.330 Y 463.460 I 258.888 J -85.373
G2 X1616.290 Y 488.050 I 160.893 J -75.083
G2 X1631.730 Y 506.170 I  87.861 J -59.228
G2 X1648.190 Y 517.270 I  42.123 J -44.710
G2 X1665.160 Y 521.000 I  17.135 J -37.489
G2 X1682.130 Y 517.270 I  -0.165 J -41.219
G2 X1698.590 Y 506.170 I -25.663 J -55.810
G2 X1714.030 Y 488.050 I -72.421 J -77.348
G2 X1727.980 Y 463.460 I-146.938 J -99.610
G2 X1740.030 Y 433.150 I-246.838 J-115.683
G2 X1749.800 Y 398.030 I-361.226 J-119.408
G2 X1757.000 Y 359.180 I-472.468 J-107.654
G2 X1761.410 Y 317.770 I-561.467 J -80.734
G2 X1762.900 Y 275.060 I-611.486 J -42.714
G2 X1761.410 Y 232.350 I-612.976 J   0.004
G2 X1757.000 Y 190.950 I-565.740 J  39.329
G2 X1749.800 Y 152.090 I-479.791 J  68.799
G2 X1740.030 Y 116.970 I-370.996 J  84.288
G2 X1727.980 Y  86.660 I-258.888 J  85.373
G2 X1714.030 Y  62.070 I-160.888 J  75.020
G2 X1698.590 Y  43.950 I -87.861 J  59.228
G2 X1682.130 Y  32.860 I -42.093 J  44.715
G2 X1665.160 Y  29.120 I -17.158 J  37.484
G2 X1648.190 Y  32.860 I   0.188 J  41.224
G2 X1631.730 Y  43.950 I  25.633 J  55.805
G2 X1616.290 Y  62.070 I  72.421 J  77.348
G2 X1602.330 Y  86.660 I 146.933 J  99.673
G2 X1590.280 Y 116.970 I 246.838 J 115.683
G2 X1580.510 Y 152.090 I 361.226 J 119.408
G2 X1573.310 Y 190.950 I 472.591 J 107.659
F150
G1 Z   3.000
G0 Z  15.000 
M9 M5

(* SHAPE Nr: 45 *)
G0 X1993.670 Y 207.000
M3 M8
G0 Z   3.000 
G1 Z  -1.500
F400
G2 X1989.260 Y 248.410 I 561.467 J  80.734
G2 X1987.780 Y 291.120 I 611.491 J  42.570
G2 X1989.260 Y 333.820 I 612.828 J   0.135
G2 X1993.670 Y 375.230 I 565.877 J -39.324
G2 X2000.870 Y 414.090 I 479.791 J -68.799
G2 X2010.640 Y 449.200 I 370.892 J -84.293
G2 X2022.690 Y 479.520 I 258.971 J -85.368
G2 X2036.650 Y 504.110 I 160.893 J -75.083
G2 X2052.090 Y 522.220 I  87.817 J -59.233
G2 X2068.540 Y 533.320 I  42.118 J -44.679
G2 X2085.520 Y 537.060 I  17.163 J -37.507
G2 X2102.490 Y 533.320 I  -0.188 J -41.224
G2 X2118.950 Y 522.220 I -25.663 J -55.810
G2 X2134.390 Y 504.110 I -72.377 J -77.343
G2 X2148.340 Y 479.520 I-146.938 J -99.610
G2 X2160.390 Y 449.200 I-246.930 J-115.691
G2 X2170.160 Y 414.090 I-361.122 J-119.403
G2 X2177.360 Y 375.230 I-472.591 J-107.659
G2 X2181.770 Y 333.820 I-561.467 J -80.734
G2 X2183.260 Y 291.120 I-611.343 J -42.709
G2 X2181.770 Y 248.410 I-612.976 J   0.004
G2 X2177.360 Y 207.000 I-565.877 J  39.324
G2 X2170.160 Y 168.150 I-479.668 J  68.804
G2 X2160.390 Y 133.030 I-370.996 J  84.288
G2 X2148.340 Y 102.720 I-258.888 J  85.373
G2 X2134.390 Y  78.130 I-160.888 J  75.020
G2 X2118.950 Y  60.010 I -87.861 J  59.228
G2 X2102.490 Y  48.910 I -42.123 J  44.710
G2 X2085.520 Y  45.180 I -17.135 J  37.489
G2 X2068.540 Y  48.910 I   0.160 J  41.242
G2 X2052.090 Y  60.010 I  25.668 J  55.779
G2 X2036.650 Y  78.130 I  72.421 J  77.348
G2 X2022.690 Y 102.720 I 146.933 J  99.673
G2 X2010.640 Y 133.030 I 246.838 J 115.683
G2 X2000.870 Y 168.150 I 361.226 J 119.408
G2 X1993.670 Y 207.000 I 472.468 J 107.654
F150
G1 Z  -3.000
F400
G2 X1989.260 Y 248.410 I 561.467 J  80.734
G2 X1987.780 Y 291.120 I 611.491 J  42.570
G2 X1989.260 Y 333.820 I 612.828 J   0.135
G2 X1993.670 Y 375.230 I 565.877 J -39.324
G2 X2000.870 Y 414.090 I 479.791 J -68.799
G2 X2010.640 Y 449.200 I 370.892 J -84.293
G2 X2022.690 Y 479.520 I 258.971 J -85.368
G2 X2036.650 Y 504.110 I 160.893 J -75.083
G2 X2052.090 Y 522.220 I  87.817 J -59.233
G2 X2068.540 Y 533.320 I  42.118 J -44.679
G2 X2085.520 Y 537.060 I  17.163 J -37.507
G2 X2102.490 Y 533.320 I  -0.188 J -41.224
G2 X2118.950 Y 522.220 I -25.663 J -55.810
G2 X2134.390 Y 504.110 I -72.377 J -77.343
G2 X2148.340 Y 479.520 I-146.938 J -99.610
G2 X2160.390 Y 449.200 I-246.930 J-115.691
G2 X2170.160 Y 414.090 I-361.122 J-119.403
G2 X2177.360 Y 375.230 I-472.591 J-107.659
G2 X2181.770 Y 333.820 I-561.467 J -80.734
G2 X2183.260 Y 291.120 I-611.343 J -42.709
G2 X2181.770 Y 248.410 I-612.976 J   0.004
G2 X2177.360 Y 207.000 I-565.877 J  39.324
G2 X2170.160 Y 168.150 I-479.668 J  68.804
G2 X2160.390 Y 133.030 I-370.996 J  84.288
G2 X2148.340 Y 102.720 I-258.888 J  85.373
G2 X2134.390 Y  78.130 I-160.888 J  75.020
G2 X2118.950 Y  60.010 I -87.861 J  59.228
G2 X2102.490 Y  48.910 I -42.123 J  44.710
G2 X2085.520 Y  45.180 I -17.135 J  37.489
G2 X2068.540 Y  48.910 I   0.160 J  41.242
G2 X2052.090 Y  60.010 I  25.668 J  55.779
G2 X2036.650 Y  78.130 I  72.421 J  77.348
G2 X2022.690 Y 102.720 I 146.933 J  99.673
G2 X2010.640 Y 133.030 I 246.838 J 115.683
G2 X2000.870 Y 168.150 I 361.226 J 119.408
G2 X1993.670 Y 207.000 I 472.468 J 107.654
F150
G1 Z   3.000
G0 Z  15.000 
M9 M5

(* SHAPE Nr: 46 *)
G0 X2392.460 Y 459.460
M3 M8
G0 Z   3.000 
G1 Z  -1.500
F400
G2 X2385.250 Y 498.320 I 472.586 J 107.781
G2 X2380.840 Y 539.730 I 561.467 J  80.734
G2 X2379.360 Y 582.430 I 611.348 J  42.565
G2 X2380.840 Y 625.140 I 612.971 J   0.140
G2 X2385.250 Y 666.550 I 565.877 J -39.324
G2 X2392.460 Y 705.410 I 479.796 J -68.921
G2 X2402.230 Y 740.520 I 370.892 J -84.293
G2 X2414.270 Y 770.840 I 258.975 J -85.288
G2 X2428.230 Y 795.420 I 160.830 J -75.088
G2 X2443.670 Y 813.540 I  87.861 J -59.228
G2 X2460.130 Y 824.640 I  42.123 J -44.710
G2 X2477.100 Y 828.380 I  17.158 J -37.484
G2 X2494.070 Y 824.640 I  -0.188 J -41.224
G2 X2510.530 Y 813.540 I -25.663 J -55.810
G2 X2525.970 Y 795.420 I -72.421 J -77.348
G2 X2539.930 Y 770.840 I-146.870 J -99.668
G2 X2551.970 Y 740.520 I-246.926 J-115.604
G2 X2561.750 Y 705.410 I-361.117 J-119.507
G2 X2568.950 Y 666.550 I-472.591 J-107.659
G2 X2573.350 Y 625.140 I-561.472 J -80.598
G2 X2574.840 Y 582.430 I-611.486 J -42.714
G2 X2573.350 Y 539.730 I-612.833 J   0.009
G2 X2568.950 Y 498.320 I-565.872 J  39.188
G2 X2561.750 Y 459.460 I-479.791 J  68.799
G2 X2551.970 Y 424.350 I-370.897 J  84.397
G2 X2539.930 Y 394.030 I-258.975 J  85.288
G2 X2525.970 Y 369.450 I-160.830 J  75.088
G2 X2510.530 Y 351.330 I -87.861 J  59.228
G2 X2494.070 Y 340.230 I -42.123 J  44.710
G2 X2477.100 Y 336.490 I -17.158 J  37.484
G2 X2460.130 Y 340.230 I   0.188 J  41.224
G2 X2443.670 Y 351.330 I  25.663 J  55.810
G2 X2428.230 Y 369.450 I  72.421 J  77.348
G2 X2414.270 Y 394.030 I 146.870 J  99.668
G2 X2402.230 Y 424.350 I 246.935 J 115.608
G2 X2392.460 Y 459.460 I 361.122 J 119.403
F150
G1 Z  -3.000
F400
G2 X2385.250 Y 498.320 I 472.586 J 107.781
G2 X2380.840 Y 539.730 I 561.467 J  80.734
G2 X2379.360 Y 582.430 I 611.348 J  42.565
G2 X2380.840 Y 625.140 I 612.971 J   0.140
G2 X2385.250 Y 666.550 I 565.877 J -39.324
G2 X2392.460 Y 705.410 I 479.796 J -68.921
G2 X2402.230 Y 740.520 I 370.892 J -84.293
G2 X2414.270 Y 770.840 I 258.975 J -85.288
G2 X2428.230 Y 795.420 I 160.830 J -75.088
G2 X2443.670 Y 813.540 I  87.861 J -59.228
G2 X2460.130 Y 824.640 I  42.123 J -44.710
G2 X2477.100 Y 828.380 I  17.158 J -37.484
G2 X2494.070 Y 824.640 I  -0.188 J -41.224
G2 X2510.530 Y 813.540 I -25.663 J -55.810
G2 X2525.970 Y 795.420 I -72.421 J -77.348
G2 X2539.930 Y 770.840 I-146.870 J -99.668
G2 X2551.970 Y 740.520 I-246.926 J-115.604
G2 X2561.750 Y 705.410 I-361.117 J-119.507
G2 X2568.950 Y 666.550 I-472.591 J-107.659
G2 X2573.350 Y 625.140 I-561.472 J -80.598
G2 X2574.840 Y 582.430 I-611.486 J -42.714
G2 X2573.350 Y 539.730 I-612.833 J   0.009
G2 X2568.950 Y 498.320 I-565.872 J  39.188
G2 X2561.750 Y 459.460 I-479.791 J  68.799
G2 X2551.970 Y 424.350 I-370.897 J  84.397
G2 X2539.930 Y 394.030 I-258.975 J  85.288
G2 X2525.970 Y 369.450 I-160.830 J  75.088
G2 X2510.530 Y 351.330 I -87.861 J  59.228
G2 X2494.070 Y 340.230 I -42.123 J  44.710
G2 X2477.100 Y 336.490 I -17.158 J  37.484
G2 X2460.130 Y 340.230 I   0.188 J  41.224
G2 X2443.670 Y 351.330 I  25.663 J  55.810
G2 X2428.230 Y 369.450 I  72.421 J  77.348
G2 X2414.270 Y 394.030 I 146.870 J  99.668
G2 X2402.230 Y 424.350 I 246.935 J 115.608
G2 X2392.460 Y 459.460 I 361.122 J 119.403
F150
G1 Z   3.000
G0 Z  15.000 
M9 M5

(* SHAPE Nr: 47 *)
G0 X2082.200 Y 750.790
M3 M8
G0 Z   3.000 
G1 Z  -1.500
F400
G2 X2072.430 Y 785.910 I 361.226 J 119.408
G2 X2065.230 Y 824.760 I 472.468 J 107.654
G2 X2060.820 Y 866.170 I 561.467 J  80.734
G2 X2059.340 Y 908.880 I 611.491 J  42.570
G2 X2060.820 Y 951.590 I 612.971 J   0.140
G2 X2065.230 Y 993.000 I 565.877 J -39.324
G2 X2072.430 Y1031.850 I 479.668 J -68.804
G2 X2082.200 Y1066.970 I 370.996 J -84.288
G2 X2094.250 Y1097.280 I 258.888 J -85.373
G2 X2108.210 Y1121.870 I 160.893 J -75.083
G2 X2123.650 Y1139.990 I  87.861 J -59.228
G2 X2140.100 Y1151.080 I  42.088 J -44.684
