(Generated with: DXF2GCODE, Version: REMOVED, Date: $Date$)
(Created from file: )
(Output format description: G-CODE for LinuxCNC)
(Time: Thu Sep 13 16:00:22 2018)
G21 (Units in millimeters)
G90 (Absolute programming)
G64 (Default cutting) G17 (XY plane) G40 (Cancel radius comp.) G49 (Cancel length comp.)
G0 Z  15.000 

(*** LAYER: FRAME_Z18 ***)
T1 M6
S6000

(* SHAPE Nr: 62 *)
G0 X   0.000 Y   0.000
M3 M8
G0 Z   3.000 
F150
G1 Z  -1.500
F400
G1 X   0.000 Y2050.000
G1 X2800.000 Y2050.000
G1 X2800.000 Y   0.000
G1 X   0.000 Y   0.000
F150
G1 Z  -3.000
F400
G1 X   0.000 Y2050.000
G1 X2800.000 Y2050.000
G1 X2800.000 Y   0.000
G1 X   0.000 Y   0.000
F150
G1 Z   3.000
G0 Z  15.000 
M9 M5

(*** LAYER: BORDER_D0_T132_RK1_A0_W0_EM1_RI1_ID0013 ***)

(* SHAPE Nr: 0 *)
G0 X  10.000 Y 422.990
M3 M8
G0 Z   3.000 
G1 Z  -1.500
F400
G1 X  10.000 Y 472.150
G3 X 205.480 Y 472.150 I  97.740 J  81.189
G1 X 205.480 Y 447.570
G1 X 205.480 Y 422.990
G2 X  10.000 Y 422.990 I -97.740 J 130.352
F150
G1 Z  -3.000
F400
G1 X  10.000 Y 472.150
G3 X 205.480 Y 472.150 I  97.740 J  81.189
G1 X 205.480 Y 447.570
G1 X 205.480 Y 422.990
G2 X  10.000 Y 422.990 I -97.740 J 130.352
F150
G1 Z   3.000
G0 Z  15.000 
M9 M5

(* SHAPE Nr: 1 *)
G0 X  10.000 Y 491.820
M3 M8
G0 Z   3.000 
G1 Z  -1.500
F400
G1 X  10.000 Y 540.980
G3 X 205.480 Y 540.980 I  97.740 J  81.189
G1 X 205.480 Y 516.400
G1 X 205.480 Y 491.820
G2 X  10.000 Y 491.820 I -97.740 J 130.352
F150
G1 Z  -3.000
F400
G1 X  10.000 Y 540.980
G3 X 205.480 Y 540.980 I  97.740 J  81.189
G1 X 205.480 Y 516.400
G1 X 205.480 Y 491.820
G2 X  10.000 Y 491.820 I -97.740 J 130.352
F150
G1 Z   3.000
G0 Z  15.000 
M9 M5

(* SHAPE Nr: 4 *)
G0 X 899.820 Y 557.060
M3 M8
G0 Z   3.000 
G1 Z  -1.500
F400
G3 X 899.820 Y 752.540 I -81.189 J  97.740
G1 X 924.400 Y 752.540
G1 X 948.980 Y 752.540
G2 X 948.980 Y 557.060 I-130.352 J -97.740
G1 X 899.820 Y 557.060
F150
G1 Z  -3.000
F400
G3 X 899.820 Y 752.540 I -81.189 J  97.740
G1 X 924.400 Y 752.540
G1 X 948.980 Y 752.540
G2 X 948.980 Y 557.060 I-130.352 J -97.740
G1 X 899.820 Y 557.060
F150
G1 Z   3.000
G0 Z  15.000 
M9 M5

(* SHAPE Nr: 6 *)
G0 X1740.880 Y 566.380
M3 M8
G0 Z   3.000 
G1 Z  -1.500
F400
G1 X1740.880 Y 615.540
G3 X1936.360 Y 615.540 I  97.740 J  81.189
G1 X1936.360 Y 590.960
G1 X1936.360 Y 566.380
G2 X1740.880 Y 566.380 I -97.740 J 130.352
F150
G1 Z  -3.000
F400
G1 X1740.880 Y 615.540
G3 X1936.360 Y 615.540 I  97.740 J  81.189
G1 X1936.360 Y 590.960
G1 X1936.360 Y 566.380
G2 X1740.880 Y 566.380 I -97.740 J 130.352
F150
G1 Z   3.000
G0 Z  15.000 
M9 M5

(* SHAPE Nr: 11 *)
G0 X2540.690 Y  10.000
M3 M8
G0 Z   3.000 
G1 Z  -1.500
F400
G1 X2540.690 Y  34.580
G1 X2540.690 Y  59.160
G2 X2736.170 Y  59.160 I  97.740 J-130.352
G1 X2736.170 Y  10.000
G3 X2540.690 Y  10.000 I -97.740 J -81.189
F150
G1 Z  -3.000
F400
G1 X2540.690 Y  34.580
G1 X2540.690 Y  59.160
G2 X2736.170 Y  59.160 I  97.740 J-130.352
G1 X2736.170 Y  10.000
G3 X2540.690 Y  10.000 I -97.740 J -81.189
F150
G1 Z   3.000
G0 Z  15.000 
M9 M5

(* SHAPE Nr: 16 *)
G0 X2709.980 Y1844.520
M3 M8
G0 Z   3.000 
G1 Z  -1.500
F400
G2 X2709.980 Y2040.000 I 130.352 J  97.740
G1 X2759.140 Y2040.000
G3 X2759.140 Y1844.520 I  81.189 J -97.740
G1 X2734.560 Y1844.520
G1 X2709.980 Y1844.520
F150
G1 Z  -3.000
F400
G2 X2709.980 Y2040.000 I 130.352 J  97.740
G1 X2759.140 Y2040.000
G3 X2759.140 Y1844.520 I  81.189 J -97.740
G1 X2734.560 Y1844.520
G1 X2709.980 Y1844.520
F150
G1 Z   3.000
G0 Z  15.000 
M9 M5

(* SHAPE Nr: 23 *)
G0 X 875.770 Y1990.840
M3 M8
G0 Z   3.000 
G1 Z  -1.500
F400
G1 X 875.770 Y2040.000
G3 X1071.250 Y2040.000 I  97.740 J  81.189
G1 X1071.250 Y2015.420
G1 X1071.250 Y1990.840
G2 X 875.770 Y1990.840 I -97.740 J 130.352
F150
G1 Z  -3.000
F400
G1 X 875.770 Y2040.000
G3 X1071.250 Y2040.000 I  97.740 J  81.189
G1 X1071.250 Y2015.420
G1 X1071.250 Y1990.840
G2 X 875.770 Y1990.840 I -97.740 J 130.352
F150
G1 Z   3.000
G0 Z  15.000 
M9 M5

(*** LAYER: BORDER_D0_T132_RK1_A0_W0_EM1_RI1_ID0007 ***)

(* SHAPE Nr: 2 *)
G0 X 119.280 Y 522.420
M3 M8
G0 Z   3.000 
G1 Z  -1.500
F400
G1 X  77.540 Y 579.870
G1 X  10.000 Y 557.930
G1 X  51.740 Y 615.380
G1 X  10.000 Y 672.830
G1 X  77.540 Y 650.880
G1 X 119.280 Y 708.330
G1 X 119.280 Y 637.320
G1 X 186.810 Y 615.380
G1 X 119.280 Y 593.430
G1 X 119.280 Y 522.420
F150
G1 Z  -3.000
F400
G1 X  77.540 Y 579.870
G1 X  10.000 Y 557.930
G1 X  51.740 Y 615.380
G1 X  10.000 Y 672.830
G1 X  77.540 Y 650.880
G1 X 119.280 Y 708.330
G1 X 119.280 Y 637.320
G1 X 186.810 Y 615.380
G1 X 119.280 Y 593.430
G1 X 119.280 Y 522.420
F150
G1 Z   3.000
G0 Z  15.000 
M9 M5

(* SHAPE Nr: 3 *)
G0 X 795.880 Y 557.050
M3 M8
G0 Z   3.000 
G1 Z  -1.500
F400
G1 X 795.880 Y 628.060
G1 X 728.350 Y 650.000
G1 X 795.880 Y 671.950
G1 X 795.880 Y 742.960
G1 X 837.620 Y 685.510
G1 X 905.160 Y 707.450
G1 X 863.420 Y 650.000
G1 X 905.160 Y 592.550
G1 X 837.620 Y 614.500
G1 X 795.880 Y 557.050
F150
G1 Z  -3.000
F400
G1 X 795.880 Y 628.060
G1 X 728.350 Y 650.000
G1 X 795.880 Y 671.950
G1 X 795.880 Y 742.960
G1 X 837.620 Y 685.510
G1 X 905.160 Y 707.450
G1 X 863.420 Y 650.000
G1 X 905.160 Y 592.550
G1 X 837.620 Y 614.500
G1 X 795.880 Y 557.050
F150
G1 Z   3.000
G0 Z  15.000 
M9 M5

(* SHAPE Nr: 5 *)
G0 X1627.900 Y 675.000
M3 M8
G0 Z   3.000 
G1 Z  -1.500
F400
G1 X1695.430 Y 696.950
G1 X1695.430 Y 767.960
G1 X1737.170 Y 710.510
G1 X1804.710 Y 732.450
G1 X1762.970 Y 675.000
G1 X1804.710 Y 617.550
G1 X1737.170 Y 639.500
G1 X1695.430 Y 582.050
G1 X1695.430 Y 653.060
G1 X1627.900 Y 675.000
F150
G1 Z  -3.000
F400
G1 X1695.430 Y 696.950
G1 X1695.430 Y 767.960
G1 X1737.170 Y 710.510
G1 X1804.710 Y 732.450
G1 X1762.970 Y 675.000
G1 X1804.710 Y 617.550
G1 X1737.170 Y 639.500
G1 X1695.430 Y 582.050
G1 X1695.430 Y 653.060
G1 X1627.900 Y 675.000
F150
G1 Z   3.000
G0 Z  15.000 
M9 M5

(* SHAPE Nr: 7 *)
G0 X1839.320 Y 378.690
M3 M8
G0 Z   3.000 
G1 Z  -1.500
F400
G1 X1881.060 Y 436.140
G1 X1839.320 Y 493.590
G1 X1906.860 Y 471.640
G1 X1948.600 Y 529.090
G1 X1948.600 Y 458.080
G1 X2016.130 Y 436.140
G1 X1948.600 Y 414.190
G1 X1948.600 Y 343.180
G1 X1906.860 Y 400.630
G1 X1839.320 Y 378.690
F150
G1 Z  -3.000
F400
G1 X1881.060 Y 436.140
G1 X1839.320 Y 493.590
G1 X1906.860 Y 471.640
G1 X1948.600 Y 529.090
G1 X1948.600 Y 458.080
G1 X2016.130 Y 436.140
G1 X1948.600 Y 414.190
G1 X1948.600 Y 343.180
G1 X1906.860 Y 400.630
G1 X1839.320 Y 378.690
F150
G1 Z   3.000
G0 Z  15.000 
M9 M5

(* SHAPE Nr: 8 *)
G0 X2007.550 Y 309.870
M3 M8
G0 Z   3.000 
G1 Z  -1.500
F400
G1 X2078.560 Y 309.870
G1 X2100.500 Y 377.400
G1 X2122.450 Y 309.870
G1 X2193.460 Y 309.870
G1 X2136.010 Y 268.130
G1 X2157.950 Y 200.590
G1 X2100.500 Y 242.330
G1 X2043.050 Y 200.590
G1 X2065.000 Y 268.130
G1 X2007.550 Y 309.870
F150
G1 Z  -3.000
F400
G1 X2078.560 Y 309.870
G1 X2100.500 Y 377.400
G1 X2122.450 Y 309.870
G1 X2193.460 Y 309.870
G1 X2136.010 Y 268.130
G1 X2157.950 Y 200.590
G1 X2100.500 Y 242.330
G1 X2043.050 Y 200.590
G1 X2065.000 Y 268.130
G1 X2007.550 Y 309.870
F150
G1 Z   3.000
G0 Z  15.000 
M9 M5

(* SHAPE Nr: 17 *)
G0 X2485.890 Y1889.600
M3 M8
G0 Z   3.000 
G1 Z  -1.500
F400
G1 X2527.630 Y1947.050
G1 X2485.890 Y2004.500
G1 X2553.430 Y1982.550
G1 X2595.170 Y2040.000
G1 X2595.170 Y1968.990
G1 X2662.700 Y1947.050
G1 X2595.170 Y1925.100
G1 X2595.170 Y1854.090
G1 X2553.430 Y1911.540
G1 X2485.890 Y1889.600
F150
G1 Z  -3.000
F400
G1 X2527.630 Y1947.050
G1 X2485.890 Y2004.500
G1 X2553.430 Y1982.550
G1 X2595.170 Y2040.000
G1 X2595.170 Y1968.990
G1 X2662.700 Y1947.050
G1 X2595.170 Y1925.100
G1 X2595.170 Y1854.090
G1 X2553.430 Y1911.540
G1 X2485.890 Y1889.600
F150
G1 Z   3.000
G0 Z  15.000 
M9 M5

(* SHAPE Nr: 19 *)
G0 X1774.860 Y1930.720
M3 M8
G0 Z   3.000 
G1 Z  -1.500
F400
G1 X1832.310 Y1972.460
G1 X1810.370 Y2040.000
G1 X1867.820 Y1998.260
G1 X1925.270 Y2040.000
G1 X1903.320 Y1972.460
G1 X1960.770 Y1930.720
G1 X1889.760 Y1930.720
G1 X1867.820 Y1863.190
G1 X1845.870 Y1930.720
G1 X1774.860 Y1930.720
F150
G1 Z  -3.000
F400
G1 X1832.310 Y1972.460
G1 X1810.370 Y2040.000
G1 X1867.820 Y1998.260
G1 X1925.270 Y2040.000
G1 X1903.320 Y1972.460
G1 X1960.770 Y1930.720
G1 X1889.760 Y1930.720
G1 X1867.820 Y1863.190
G1 X1845.870 Y1930.720
G1 X1774.860 Y1930.720
F150
G1 Z   3.000
G0 Z  15.000 
M9 M5

(* SHAPE Nr: 20 *)
G0 X1690.410 Y1739.180
M3 M8
G0 Z   3.000 
G1 Z  -1.500
F400
G1 X1712.360 Y1806.720
G1 X1654.910 Y1848.460
G1 X1725.920 Y1848.460
G1 X1747.860 Y1915.990
G1 X1769.810 Y1848.460
G1 X1840.820 Y1848.460
G1 X1783.370 Y1806.720
G1 X1805.310 Y1739.180
G1 X1747.860 Y1780.920
G1 X1690.410 Y1739.180
F150
G1 Z  -3.000
F400
G1 X1712.360 Y1806.720
G1 X1654.910 Y1848.460
G1 X1725.920 Y1848.460
G1 X1747.860 Y1915.990
G1 X1769.810 Y1848.460
G1 X1840.820 Y1848.460
G1 X1783.370 Y1806.720
G1 X1805.310 Y1739.180
G1 X1747.860 Y1780.920
G1 X1690.410 Y1739.180
F150
G1 Z   3.000
G0 Z  15.000 
M9 M5

(* SHAPE Nr: 21 *)
G0 X1573.470 Y1930.720
M3 M8
G0 Z   3.000 
G1 Z  -1.500
F400
G1 X1630.920 Y1972.460
G1 X1608.980 Y2040.000
G1 X1666.430 Y1998.260
G1 X1723.880 Y2040.000
G1 X1701.930 Y1972.460
G1 X1759.380 Y1930.720
G1 X1688.370 Y1930.720
G1 X1666.430 Y1863.190
G1 X1644.480 Y1930.720
G1 X1573.470 Y1930.720
F150
G1 Z  -3.000
F400
G1 X1630.920 Y1972.460
G1 X1608.980 Y2040.000
G1 X1666.430 Y1998.260
G1 X1723.880 Y2040.000
G1 X1701.930 Y1972.460
G1 X1759.380 Y1930.720
G1 X1688.370 Y1930.720
G1 X1666.430 Y1863.190
G1 X1644.480 Y1930.720
G1 X1573.470 Y1930.720
F150
G1 Z   3.000
G0 Z  15.000 
M9 M5

(* SHAPE Nr: 24 *)
G0 X 875.800 Y1761.470
M3 M8
G0 Z   3.000 
G1 Z  -1.500
F400
G1 X 875.800 Y1832.480
G1 X 808.270 Y1854.420
G1 X 875.800 Y1876.370
G1 X 875.800 Y1947.380
G1 X 917.540 Y1889.930
G1 X 985.080 Y1911.870
G1 X 943.340 Y1854.420
G1 X 985.080 Y1796.970
G1 X 917.540 Y1818.920
G1 X 875.800 Y1761.470
F150
G1 Z  -3.000
F400
G1 X 875.800 Y1832.480
G1 X 808.270 Y1854.420
G1 X 875.800 Y1876.370
G1 X 875.800 Y1947.380
G1 X 917.540 Y1889.930
G1 X 985.080 Y1911.870
G1 X 943.340 Y1854.420
G1 X 985.080 Y1796.970
G1 X 917.540 Y1818.920
G1 X 875.800 Y1761.470
F150
G1 Z   3.000
G0 Z  15.000 
M9 M5

(* SHAPE Nr: 25 *)
G0 X 748.270 Y1854.090
M3 M8
G0 Z   3.000 
G1 Z  -1.500
F400
G1 X 748.270 Y1925.100
G1 X 680.740 Y1947.040
G1 X 748.270 Y1968.990
G1 X 748.270 Y2040.000
G1 X 790.010 Y1982.550
G1 X 857.550 Y2004.490
G1 X 815.810 Y1947.040
G1 X 857.550 Y1889.590
G1 X 790.010 Y1911.540
G1 X 748.270 Y1854.090
F150
G1 Z  -3.000
F400
G1 X 748.270 Y1925.100
G1 X 680.740 Y1947.040
G1 X 748.270 Y1968.990
G1 X 748.270 Y2040.000
G1 X 790.010 Y1982.550
G1 X 857.550 Y2004.490
G1 X 815.810 Y1947.040
G1 X 857.550 Y1889.590
G1 X 790.010 Y1911.540
G1 X 748.270 Y1854.090
F150
G1 Z   3.000
G0 Z  15.000 
M9 M5

(* SHAPE Nr: 27 *)
G0 X 119.280 Y1854.090
M3 M8
G0 Z   3.000 
G1 Z  -1.500
F400
G1 X  77.540 Y1911.540
G1 X  10.000 Y1889.600
G1 X  51.740 Y1947.050
G1 X  10.000 Y2004.500
G1 X  77.540 Y1982.550
G1 X 119.280 Y2040.000
G1 X 119.280 Y1968.990
G1 X 186.810 Y1947.050
G1 X 119.280 Y1925.100
G1 X 119.280 Y1854.090
F150
G1 Z  -3.000
F400
G1 X  77.540 Y1911.540
G1 X  10.000 Y1889.600
G1 X  51.740 Y1947.050
G1 X  10.000 Y2004.500
G1 X  77.540 Y1982.550
G1 X 119.280 Y2040.000
G1 X 119.280 Y1968.990
G1 X 186.810 Y1947.050
G1 X 119.280 Y1925.100
G1 X 119.280 Y1854.090
F150
G1 Z   3.000
G0 Z  15.000 
M9 M5

(*** LAYER: BORDER_D0_T132_RK1_A0_W0_EM1_RI1_ID0018 ***)

(* SHAPE Nr: 9 *)
G0 X1544.670 Y 234.840
M3 M8
G0 Z   3.000 
G1 Z  -1.500
F400
G2 X1548.410 Y 251.810 I  41.227 J  -0.189
G2 X1559.500 Y 268.270 I  55.807 J -25.634
G2 X1577.620 Y 283.710 I  77.345 J -72.418
G2 X1602.210 Y 297.670 I  99.664 J-146.917
G2 X1632.520 Y 309.710 I 115.619 J-246.893
G2 X1667.640 Y 319.480 I 119.400 J-361.196
G2 X1706.490 Y 326.690 I 107.781 J-472.487
G2 X1747.900 Y 331.090 I  80.598 J-561.472
G2 X1790.610 Y 332.580 I  42.711 J-611.416
G2 X1833.320 Y 331.090 I  -0.001 J-612.906
G2 X1874.730 Y 326.690 I -39.188 J-565.872
G2 X1913.580 Y 319.480 I -68.931 J-479.697
G2 X1948.700 Y 309.710 I -84.280 J-370.966
G2 X1979.010 Y 297.670 I -85.309 J-258.933
G2 X2003.600 Y 283.710 I -75.074 J-160.877
G2 X2021.720 Y 268.270 I -59.224 J -87.857
G2 X2032.810 Y 251.810 I -44.717 J -42.094
G2 X2036.550 Y 234.840 I -37.487 J -17.159
G2 X2032.810 Y 217.870 I -41.227 J   0.189
G2 X2021.720 Y 201.410 I -55.807 J  25.634
G2 X2003.600 Y 185.970 I -77.345 J  72.418
G2 X1979.010 Y 172.010 I -99.664 J 146.917
G2 X1948.700 Y 159.970 I-115.619 J 246.893
G2 X1913.580 Y 150.200 I-119.400 J 361.196
G2 X1874.730 Y 142.990 I-107.781 J 472.487
G2 X1833.320 Y 138.590 I -80.598 J 561.472
G2 X1790.610 Y 137.100 I -42.712 J 611.451
G2 X1747.900 Y 138.590 I   0.002 J 612.941
G2 X1706.490 Y 142.990 I  39.188 J 565.872
G2 X1667.640 Y 150.200 I  68.931 J 479.697
G2 X1632.520 Y 159.970 I  84.280 J 370.966
G2 X1602.210 Y 172.010 I  85.309 J 258.933
G2 X1577.620 Y 185.970 I  75.074 J 160.877
G2 X1559.500 Y 201.410 I  59.225 J  87.858
G2 X1548.410 Y 217.870 I  44.717 J  42.094
G2 X1544.670 Y 234.840 I  37.487 J  17.159
F150
G1 Z  -3.000
F400
G2 X1548.410 Y 251.810 I  41.227 J  -0.189
G2 X1559.500 Y 268.270 I  55.807 J -25.634
G2 X1577.620 Y 283.710 I  77.345 J -72.418
G2 X1602.210 Y 297.670 I  99.664 J-146.917
G2 X1632.520 Y 309.710 I 115.619 J-246.893
G2 X1667.640 Y 319.480 I 119.400 J-361.196
G2 X1706.490 Y 326.690 I 107.781 J-472.487
G2 X1747.900 Y 331.090 I  80.598 J-561.472
G2 X1790.610 Y 332.580 I  42.711 J-611.416
G2 X1833.320 Y 331.090 I  -0.001 J-612.906
G2 X1874.730 Y 326.690 I -39.188 J-565.872
G2 X1913.580 Y 319.480 I -68.931 J-479.697
G2 X1948.700 Y 309.710 I -84.280 J-370.966
G2 X1979.010 Y 297.670 I -85.309 J-258.933
G2 X2003.600 Y 283.710 I -75.074 J-160.877
G2 X2021.720 Y 268.270 I -59.224 J -87.857
G2 X2032.810 Y 251.810 I -44.717 J -42.094
G2 X2036.550 Y 234.840 I -37.487 J -17.159
G2 X2032.810 Y 217.870 I -41.227 J   0.189
G2 X2021.720 Y 201.410 I -55.807 J  25.634
G2 X2003.600 Y 185.970 I -77.345 J  72.418
G2 X1979.010 Y 172.010 I -99.664 J 146.917
G2 X1948.700 Y 159.970 I-115.619 J 246.893
G2 X1913.580 Y 150.200 I-119.400 J 361.196
G2 X1874.730 Y 142.990 I-107.781 J 472.487
G2 X1833.320 Y 138.590 I -80.598 J 561.472
G2 X1790.610 Y 137.100 I -42.712 J 611.451
G2 X1747.900 Y 138.590 I   0.002 J 612.941
G2 X1706.490 Y 142.990 I  39.188 J 565.872
G2 X1667.640 Y 150.200 I  68.931 J 479.697
G2 X1632.520 Y 159.970 I  84.280 J 370.966
G2 X1602.210 Y 172.010 I  85.309 J 258.933
G2 X1577.620 Y 185.970 I  75.074 J 160.877
G2 X1559.500 Y 201.410 I  59.225 J  87.858
G2 X1548.410 Y 217.870 I  44.717 J  42.094
G2 X1544.670 Y 234.840 I  37.487 J  17.159
F150
G1 Z   3.000
G0 Z  15.000 
M9 M5

(* SHAPE Nr: 12 *)
G0 X2295.990 Y 200.410
M3 M8
G0 Z   3.000 
G1 Z  -1.500
F400
G2 X2299.730 Y 217.380 I  41.227 J  -0.189
G2 X2310.820 Y 233.840 I  55.807 J -25.634
G2 X2328.940 Y 249.280 I  77.344 J -72.417
G2 X2353.530 Y 263.240 I  99.664 J-146.917
G2 X2383.840 Y 275.280 I 115.619 J-246.893
G2 X2418.960 Y 285.050 I 119.400 J-361.196
G2 X2457.810 Y 292.260 I 107.781 J-472.487
G2 X2499.220 Y 296.660 I  80.598 J-561.472
G2 X2541.930 Y 298.150 I  42.711 J-611.416
G2 X2584.640 Y 296.660 I  -0.001 J-612.906
G2 X2626.050 Y 292.260 I -39.188 J-565.872
G2 X2664.900 Y 285.050 I -68.931 J-479.697
G2 X2700.020 Y 275.280 I -84.280 J-370.966
G2 X2730.330 Y 263.240 I -85.309 J-258.933
G2 X2754.920 Y 249.280 I -75.074 J-160.877
G2 X2773.040 Y 233.840 I -59.224 J -87.857
G2 X2784.130 Y 217.380 I -44.717 J -42.094
G2 X2787.870 Y 200.410 I -37.487 J -17.159
G2 X2784.130 Y 183.440 I -41.227 J   0.189
G2 X2773.040 Y 166.980 I -55.807 J  25.634
G2 X2754.920 Y 151.540 I -77.344 J  72.417
G2 X2730.330 Y 137.580 I -99.664 J 146.917
G2 X2700.020 Y 125.540 I-115.619 J 246.893
G2 X2664.900 Y 115.770 I-119.400 J 361.196
G2 X2626.050 Y 108.560 I-107.781 J 472.487
G2 X2584.640 Y 104.160 I -80.598 J 561.472
G2 X2541.930 Y 102.670 I -42.711 J 611.416
G2 X2499.220 Y 104.160 I   0.001 J 612.906
G2 X2457.810 Y 108.560 I  39.188 J 565.872
G2 X2418.960 Y 115.770 I  68.931 J 479.697
G2 X2383.840 Y 125.540 I  84.280 J 370.966
G2 X2353.530 Y 137.580 I  85.309 J 258.933
G2 X2328.940 Y 151.540 I  75.072 J 160.873
G2 X2310.820 Y 166.980 I  59.224 J  87.857
G2 X2299.730 Y 183.440 I  44.717 J  42.094
G2 X2295.990 Y 200.410 I  37.487 J  17.159
F150
G1 Z  -3.000
F400
G2 X2299.730 Y 217.380 I  41.227 J  -0.189
G2 X2310.820 Y 233.840 I  55.807 J -25.634
G2 X2328.940 Y 249.280 I  77.344 J -72.417
G2 X2353.530 Y 263.240 I  99.664 J-146.917
G2 X2383.840 Y 275.280 I 115.619 J-246.893
G2 X2418.960 Y 285.050 I 119.400 J-361.196
G2 X2457.810 Y 292.260 I 107.781 J-472.487
G2 X2499.220 Y 296.660 I  80.598 J-561.472
G2 X2541.930 Y 298.150 I  42.711 J-611.416
G2 X2584.640 Y 296.660 I  -0.001 J-612.906
G2 X2626.050 Y 292.260 I -39.188 J-565.872
G2 X2664.900 Y 285.050 I -68.931 J-479.697
G2 X2700.020 Y 275.280 I -84.280 J-370.966
G2 X2730.330 Y 263.240 I -85.309 J-258.933
G2 X2754.920 Y 249.280 I -75.074 J-160.877
G2 X2773.040 Y 233.840 I -59.224 J -87.857
G2 X2784.130 Y 217.380 I -44.717 J -42.094
G2 X2787.870 Y 200.410 I -37.487 J -17.159
G2 X2784.130 Y 183.440 I -41.227 J   0.189
G2 X2773.040 Y 166.980 I -55.807 J  25.634
G2 X2754.920 Y 151.540 I -77.344 J  72.417
G2 X2730.330 Y 137.580 I -99.664 J 146.917
G2 X2700.020 Y 125.540 I-115.619 J 246.893
G2 X2664.900 Y 115.770 I-119.400 J 361.196
G2 X2626.050 Y 108.560 I-107.781 J 472.487
G2 X2584.640 Y 104.160 I -80.598 J 561.472
G2 X2541.930 Y 102.670 I -42.711 J 611.416
G2 X2499.220 Y 104.160 I   0.001 J 612.906
G2 X2457.810 Y 108.560 I  39.188 J 565.872
G2 X2418.960 Y 115.770 I  68.931 J 479.697
G2 X2383.840 Y 125.540 I  84.280 J 370.966
G2 X2353.530 Y 137.580 I  85.309 J 258.933
G2 X2328.940 Y 151.540 I  75.072 J 160.873
G2 X2310.820 Y 166.980 I  59.224 J  87.857
G2 X2299.730 Y 183.440 I  44.717 J  42.094
G2 X2295.990 Y 200.410 I  37.487 J  17.159
F150
G1 Z   3.000
G0 Z  15.000 
M9 M5

(* SHAPE Nr: 13 *)
G0 X2147.280 Y 401.570
M3 M8
G0 Z   3.000 
G1 Z  -1.500
F400
G2 X2151.020 Y 418.540 I  41.227 J  -0.189
G2 X2162.110 Y 435.000 I  55.807 J -25.634
G2 X2180.230 Y 450.440 I  77.344 J -72.417
G2 X2204.820 Y 464.400 I  99.664 J-146.917
G2 X2235.130 Y 476.440 I 115.619 J-246.893
G2 X2270.250 Y 486.210 I 119.400 J-361.196
G2 X2309.100 Y 493.420 I 107.781 J-472.487
G2 X2350.510 Y 497.820 I  80.598 J-561.472
G2 X2393.220 Y 499.310 I  42.711 J-611.416
G2 X2435.930 Y 497.820 I  -0.001 J-612.906
G2 X2477.340 Y 493.420 I -39.188 J-565.872
G2 X2516.190 Y 486.210 I -68.931 J-479.697
G2 X2551.310 Y 476.440 I -84.280 J-370.966
G2 X2581.620 Y 464.400 I -85.309 J-258.933
G2 X2606.210 Y 450.440 I -75.074 J-160.877
G2 X2624.330 Y 435.000 I -59.224 J -87.857
G2 X2635.420 Y 418.540 I -44.717 J -42.094
G2 X2639.160 Y 401.570 I -37.487 J -17.159
G2 X2635.420 Y 384.600 I -41.227 J   0.189
G2 X2624.330 Y 368.140 I -55.807 J  25.634
G2 X2606.210 Y 352.700 I -77.344 J  72.417
G2 X2581.620 Y 338.740 I -99.664 J 146.917
G2 X2551.310 Y 326.700 I-115.619 J 246.893
G2 X2516.190 Y 316.930 I-119.400 J 361.196
G2 X2477.340 Y 309.720 I-107.781 J 472.487
G2 X2435.930 Y 305.320 I -80.598 J 561.472
G2 X2393.220 Y 303.830 I -42.711 J 611.416
G2 X2350.510 Y 305.320 I   0.001 J 612.906
G2 X2309.100 Y 309.720 I  39.188 J 565.872
G2 X2270.250 Y 316.930 I  68.931 J 479.697
G2 X2235.130 Y 326.700 I  84.280 J 370.966
G2 X2204.820 Y 338.740 I  85.309 J 258.933
G2 X2180.230 Y 352.700 I  75.072 J 160.873
G2 X2162.110 Y 368.140 I  59.224 J  87.857
G2 X2151.020 Y 384.600 I  44.717 J  42.094
G2 X2147.280 Y 401.570 I  37.487 J  17.159
F150
G1 Z  -3.000
F400
G2 X2151.020 Y 418.540 I  41.227 J  -0.189
G2 X2162.110 Y 435.000 I  55.807 J -25.634
G2 X2180.230 Y 450.440 I  77.344 J -72.417
G2 X2204.820 Y 464.400 I  99.664 J-146.917
G2 X2235.130 Y 476.440 I 115.619 J-246.893
G2 X2270.250 Y 486.210 I 119.400 J-361.196
G2 X2309.100 Y 493.420 I 107.781 J-472.487
G2 X2350.510 Y 497.820 I  80.598 J-561.472
G2 X2393.220 Y 499.310 I  42.711 J-611.416
G2 X2435.930 Y 497.820 I  -0.001 J-612.906
G2 X2477.340 Y 493.420 I -39.188 J-565.872
G2 X2516.190 Y 486.210 I -68.931 J-479.697
G2 X2551.310 Y 476.440 I -84.280 J-370.966
G2 X2581.620 Y 464.400 I -85.309 J-258.933
G2 X2606.210 Y 450.440 I -75.074 J-160.877
G2 X2624.330 Y 435.000 I -59.224 J -87.857
G2 X2635.420 Y 418.540 I -44.717 J -42.094
G2 X2639.160 Y 401.570 I -37.487 J -17.159
G2 X2635.420 Y 384.600 I -41.227 J   0.189
G2 X2624.330 Y 368.140 I -55.807 J  25.634
G2 X2606.210 Y 352.700 I -77.344 J  72.417
G2 X2581.620 Y 338.740 I -99.664 J 146.917
G2 X2551.310 Y 326.700 I-115.619 J 246.893
G2 X2516.190 Y 316.930 I-119.400 J 361.196
G2 X2477.340 Y 309.720 I-107.781 J 472.487
G2 X2435.930 Y 305.320 I -80.598 J 561.472
G2 X2393.220 Y 303.830 I -42.711 J 611.416
G2 X2350.510 Y 305.320 I   0.001 J 612.906
G2 X2309.100 Y 309.720 I  39.188 J 565.872
G2 X2270.250 Y 316.930 I  68.931 J 479.697
G2 X2235.130 Y 326.700 I  84.280 J 370.966
G2 X2204.820 Y 338.740 I  85.309 J 258.933
G2 X2180.230 Y 352.700 I  75.072 J 160.873
G2 X2162.110 Y 368.140 I  59.224 J  87.857
G2 X2151.020 Y 384.600 I  44.717 J  42.094
G2 X2147.280 Y 401.570 I  37.487 J  17.159
F150
G1 Z   3.000
G0 Z  15.000 
M9 M5

(* SHAPE Nr: 28 *)
G0 X1360.490 Y 413.540
M3 M8
G0 Z   3.000 
G1 Z  -1.500
F400
G2 X1356.750 Y 430.510 I  37.487 J  17.159
G2 X1360.490 Y 447.480 I  41.227 J  -0.189
G2 X1371.580 Y 463.940 I  55.807 J -25.634
G2 X1389.700 Y 479.380 I  77.344 J -72.417
G2 X1414.290 Y 493.340 I  99.664 J-146.917
G2 X1444.600 Y 505.380 I 115.619 J-246.893
G2 X1479.720 Y 515.150 I 119.400 J-361.196
G2 X1518.570 Y 522.360 I 107.781 J-472.487
G2 X1559.980 Y 526.760 I  80.598 J-561.472
G2 X1602.690 Y 528.250 I  42.711 J-611.416
G2 X1645.400 Y 526.760 I  -0.001 J-612.906
G2 X1686.810 Y 522.360 I -39.188 J-565.872
G2 X1725.660 Y 515.150 I -68.931 J-479.697
G2 X1760.780 Y 505.380 I -84.280 J-370.966
G2 X1791.090 Y 493.340 I -85.309 J-258.933
G2 X1815.680 Y 479.380 I -75.074 J-160.877
G2 X1833.800 Y 463.940 I -59.224 J -87.857
G2 X1844.890 Y 447.480 I -44.717 J -42.094
G2 X1848.630 Y 430.510 I -37.487 J -17.159
G2 X1844.890 Y 413.540 I -41.227 J   0.189
G2 X1833.800 Y 397.080 I -55.807 J  25.634
G2 X1815.680 Y 381.640 I -77.344 J  72.417
G2 X1791.090 Y 367.680 I -99.664 J 146.917
G2 X1760.780 Y 355.640 I-115.619 J 246.893
G2 X1725.660 Y 345.870 I-119.400 J 361.196
G2 X1686.810 Y 338.660 I-107.781 J 472.487
G2 X1645.400 Y 334.260 I -80.598 J 561.472
G2 X1602.690 Y 332.770 I -42.711 J 611.416
G2 X1559.980 Y 334.260 I   0.001 J 612.906
G2 X1518.570 Y 338.660 I  39.188 J 565.872
G2 X1479.720 Y 345.870 I  68.931 J 479.697
G2 X1444.600 Y 355.640 I  84.280 J 370.966
G2 X1414.290 Y 367.680 I  85.309 J 258.933
G2 X1389.700 Y 381.640 I  75.074 J 160.877
G2 X1371.580 Y 397.080 I  59.224 J  87.857
G2 X1360.490 Y 413.540 I  44.717 J  42.094
F150
G1 Z  -3.000
F400
G2 X1356.750 Y 430.510 I  37.487 J  17.159
G2 X1360.490 Y 447.480 I  41.227 J  -0.189
G2 X1371.580 Y 463.940 I  55.807 J -25.634
G2 X1389.700 Y 479.380 I  77.344 J -72.417
G2 X1414.290 Y 493.340 I  99.664 J-146.917
G2 X1444.600 Y 505.380 I 115.619 J-246.893
G2 X1479.720 Y 515.150 I 119.400 J-361.196
G2 X1518.570 Y 522.360 I 107.781 J-472.487
G2 X1559.980 Y 526.760 I  80.598 J-561.472
G2 X1602.690 Y 528.250 I  42.711 J-611.416
G2 X1645.400 Y 526.760 I  -0.001 J-612.906
G2 X1686.810 Y 522.360 I -39.188 J-565.872
G2 X1725.660 Y 515.150 I -68.931 J-479.697
G2 X1760.780 Y 505.380 I -84.280 J-370.966
G2 X1791.090 Y 493.340 I -85.309 J-258.933
G2 X1815.680 Y 479.380 I -75.074 J-160.877
G2 X1833.800 Y 463.940 I -59.224 J -87.857
G2 X1844.890 Y 447.480 I -44.717 J -42.094
G2 X1848.630 Y 430.510 I -37.487 J -17.159
G2 X1844.890 Y 413.540 I -41.227 J   0.189
G2 X1833.800 Y 397.080 I -55.807 J  25.634
G2 X1815.680 Y 381.640 I -77.344 J  72.417
G2 X1791.090 Y 367.680 I -99.664 J 146.917
G2 X1760.780 Y 355.640 I-115.619 J 246.893
G2 X1725.660 Y 345.870 I-119.400 J 361.196
G2 X1686.810 Y 338.660 I-107.781 J 472.487
G2 X1645.400 Y 334.260 I -80.598 J 561.472
G2 X1602.690 Y 332.770 I -42.711 J 611.416
G2 X1559.980 Y 334.260 I   0.001 J 612.906
G2 X1518.570 Y 338.660 I  39.188 J 565.872
G2 X1479.720 Y 345.870 I  68.931 J 479.697
G2 X1444.600 Y 355.640 I  84.280 J 370.966
G2 X1414.290 Y 367.680 I  85.309 J 258.933
G2 X1389.700 Y 381.640 I  75.074 J 160.877
G2 X1371.580 Y 397.080 I  59.224 J  87.857
G2 X1360.490 Y 413.540 I  44.717 J  42.094
F150
G1 Z   3.000
G0 Z  15.000 
M9 M5

(*** LAYER: BORDER_D0_T132_RK1_A0_W0_EM1_RI1_ID0028 ***)

(* SHAPE Nr: 10 *)
G0 X2043.730 Y 131.490
M3 M8
G0 Z   3.000 
G1 Z  -1.500
F400
G1 X2057.560 Y 145.310
G3 X2195.780 Y  88.060 I 138.220 J 138.230
G1 X2523.700 Y  88.060
G1 X2523.700 Y  68.510
G1 X2195.780 Y  68.510
G2 X2043.730 Y 131.490 I  -8.170 J 195.309
F150
G1 Z  -3.000
F400
G1 X2057.560 Y 145.310
G3 X2195.780 Y  88.060 I 138.220 J 138.230
G1 X2523.700 Y  88.060
G1 X2523.700 Y  68.510
G1 X2195.780 Y  68.510
G2 X2043.730 Y 131.490 I  -8.170 J 195.309
F150
G1 Z   3.000
G0 Z  15.000 
M9 M5

(* SHAPE Nr: 29 *)
G0 X1560.900 Y 155.960
M3 M8
G0 Z   3.000 
G1 Z  -1.500
F400
G1 X1574.730 Y 169.780
G3 X1712.950 Y 112.530 I 138.220 J 138.230
G1 X2040.870 Y 112.530
G1 X2040.870 Y  92.980
G1 X1712.950 Y  92.980
G2 X1560.900 Y 155.960 I  -8.170 J 195.309
F150
G1 Z  -3.000
F400
G1 X1574.730 Y 169.780
G3 X1712.950 Y 112.530 I 138.220 J 138.230
G1 X2040.870 Y 112.530
G1 X2040.870 Y  92.980
G1 X1712.950 Y  92.980
G2 X1560.900 Y 155.960 I  -8.170 J 195.309
F150
G1 Z   3.000
G0 Z  15.000 
M9 M5

(*** LAYER: BORDER_D0_T132_RK1_A0_W0_EM1_RI1_ID0020 ***)

(* SHAPE Nr: 14 *)
G0 X2642.800 Y 472.560
M3 M8
G0 Z   3.000 
G1 Z  -1.500
F400
G2 X2638.400 Y 513.970 I 561.472 J  80.598
G2 X2636.910 Y 556.680 I 611.416 J  42.711
G2 X2638.400 Y 599.390 I 612.906 J  -0.001
G2 X2642.800 Y 640.800 I 565.872 J -39.188
G2 X2650.010 Y 679.650 I 479.697 J -68.931
G2 X2659.780 Y 714.770 I 370.966 J -84.280
G2 X2671.820 Y 745.080 I 258.933 J -85.309
G2 X2685.780 Y 769.670 I 160.873 J -75.072
G2 X2701.220 Y 787.790 I  87.858 J -59.225
G2 X2717.680 Y 798.880 I  42.094 J -44.717
G2 X2734.650 Y 802.620 I  17.159 J -37.487
G1 X2734.650 Y 556.680
G1 X2734.650 Y 310.740
G2 X2717.680 Y 314.480 I   0.189 J  41.227
G2 X2701.220 Y 325.570 I  25.634 J  55.807
G2 X2685.780 Y 343.690 I  72.418 J  77.345
G2 X2671.820 Y 368.280 I 146.913 J  99.662
G2 X2659.780 Y 398.590 I 246.893 J 115.619
G2 X2650.010 Y 433.710 I 361.196 J 119.400
G2 X2642.800 Y 472.560 I 472.487 J 107.781
F150
G1 Z  -3.000
F400
G2 X2638.400 Y 513.970 I 561.472 J  80.598
G2 X2636.910 Y 556.680 I 611.416 J  42.711
G2 X2638.400 Y 599.390 I 612.906 J  -0.001
G2 X2642.800 Y 640.800 I 565.872 J -39.188
G2 X2650.010 Y 679.650 I 479.697 J -68.931
G2 X2659.780 Y 714.770 I 370.966 J -84.280
G2 X2671.820 Y 745.080 I 258.933 J -85.309
G2 X2685.780 Y 769.670 I 160.873 J -75.072
G2 X2701.220 Y 787.790 I  87.858 J -59.225
G2 X2717.680 Y 798.880 I  42.094 J -44.717
G2 X2734.650 Y 802.620 I  17.159 J -37.487
G1 X2734.650 Y 556.680
G1 X2734.650 Y 310.740
G2 X2717.680 Y 314.480 I   0.189 J  41.227
G2 X2701.220 Y 325.570 I  25.634 J  55.807
G2 X2685.780 Y 343.690 I  72.418 J  77.345
G2 X2671.820 Y 368.280 I 146.913 J  99.662
G2 X2659.780 Y 398.590 I 246.893 J 115.619
G2 X2650.010 Y 433.710 I 361.196 J 119.400
G2 X2642.800 Y 472.560 I 472.487 J 107.781
F150
G1 Z   3.000
G0 Z  15.000 
M9 M5

(*** LAYER: BORDER_D0_T132_RK1_A0_W0_EM1_RI1_ID0027 ***)

(* SHAPE Nr: 15 *)
G0 X2422.320 Y 568.900
M3 M8
G0 Z   3.000 
G1 Z  -1.500
F400
G3 X2658.710 Y1139.610 I-570.711 J 570.702
G1 X2658.710 Y1810.940
G1 X2739.430 Y1810.940
G1 X2739.430 Y1139.610
G2 X2479.390 Y 511.830 I-806.394 J -33.721
G1 X2422.320 Y 568.900
F150
G1 Z  -3.000
F400
G3 X2658.710 Y1139.610 I-570.711 J 570.702
G1 X2658.710 Y1810.940
G1 X2739.430 Y1810.940
G1 X2739.430 Y1139.610
G2 X2479.390 Y 511.830 I-806.394 J -33.721
G1 X2422.320 Y 568.900
F150
G1 Z   3.000
G0 Z  15.000 
M9 M5

(*** LAYER: BORDER_D0_T132_RK1_A0_W0_EM1_RI1_ID0017 ***)

(* SHAPE Nr: 18 *)
G0 X1877.360 Y 770.210
M3 M8
G0 Z   3.000 
G1 Z  -1.500
F400
G2 X1833.960 Y 880.580 I 850.056 J 397.979
G2 X1801.980 Y1002.690 I1077.138 J 347.340
G2 X1782.390 Y1132.830 I1256.951 J 255.754
G2 X1775.800 Y1267.050 I1358.961 J 133.995
G2 X1782.390 Y1401.270 I1365.551 J   0.225
G2 X1801.980 Y1531.410 I1276.541 J-125.614
G2 X1833.960 Y1653.530 I1109.129 J-225.204
G2 X1877.360 Y1763.890 I 893.432 J-287.636
G2 X1930.870 Y1859.160 I 665.040 J-310.869
G2 X1992.850 Y1936.440 I 456.030 J-302.250
G2 X2061.430 Y1993.390 I 287.293 J-276.195
G2 X2134.520 Y2028.260 I 164.043 J-249.810
G2 X2209.900 Y2040.000 I  75.689 J-238.112
G2 X2285.280 Y2028.260 I  -0.309 J-249.852
G2 X2358.370 Y1993.390 I -90.953 J-284.680
G2 X2426.950 Y1936.440 I-218.713 J-333.145
G2 X2488.930 Y1859.160 I-394.050 J-379.530
G2 X2542.440 Y1763.890 I-611.530 J-406.139
G2 X2585.840 Y1653.530 I-850.032 J-397.996
G2 X2617.820 Y1531.410 I-1077.149 J-347.324
G2 X2637.400 Y1401.270 I-1257.005 J-255.664
G2 X2644.000 Y1267.050 I-1358.956 J-134.096
G2 X2637.400 Y1132.830 I-1365.556 J  -0.124
G2 X2617.820 Y1002.690 I-1276.585 J 125.524
G2 X2585.840 Y 880.580 I-1109.118 J 225.230
G2 X2542.440 Y 770.210 I-893.456 J 287.609
G2 X2488.930 Y 674.940 I-665.040 J 310.869
G2 X2426.950 Y 597.660 I-456.030 J 302.250
G2 X2358.370 Y 540.720 I-287.266 J 276.221
G2 X2285.280 Y 505.840 I-164.072 J 249.789
G2 X2209.900 Y 494.100 I -75.689 J 238.112
G2 X2134.520 Y 505.840 I   0.309 J 249.852
G2 X2061.430 Y 540.720 I  90.982 J 284.669
G2 X1992.850 Y 597.660 I 218.686 J 333.161
G2 X1930.870 Y 674.940 I 394.050 J 379.530
G2 X1877.360 Y 770.210 I 611.530 J 406.139
F150
G1 Z  -3.000
F400
G2 X1833.960 Y 880.580 I 850.056 J 397.979
G2 X1801.980 Y1002.690 I1077.138 J 347.340
G2 X1782.390 Y1132.830 I1256.951 J 255.754
G2 X1775.800 Y1267.050 I1358.961 J 133.995
G2 X1782.390 Y1401.270 I1365.551 J   0.225
G2 X1801.980 Y1531.410 I1276.541 J-125.614
G2 X1833.960 Y1653.530 I1109.129 J-225.204
G2 X1877.360 Y1763.890 I 893.432 J-287.636
G2 X1930.870 Y1859.160 I 665.040 J-310.869
G2 X1992.850 Y1936.440 I 456.030 J-302.250
G2 X2061.430 Y1993.390 I 287.293 J-276.195
G2 X2134.520 Y2028.260 I 164.043 J-249.810
G2 X2209.900 Y2040.000 I  75.689 J-238.112
G2 X2285.280 Y2028.260 I  -0.309 J-249.852
G2 X2358.370 Y1993.390 I -90.953 J-284.680
G2 X2426.950 Y1936.440 I-218.713 J-333.145
G2 X2488.930 Y1859.160 I-394.050 J-379.530
G2 X2542.440 Y1763.890 I-611.530 J-406.139
G2 X2585.840 Y1653.530 I-850.032 J-397.996
G2 X2617.820 Y1531.410 I-1077.149 J-347.324
G2 X2637.400 Y1401.270 I-1257.005 J-255.664
G2 X2644.000 Y1267.050 I-1358.956 J-134.096
G2 X2637.400 Y1132.830 I-1365.556 J  -0.124
G2 X2617.820 Y1002.690 I-1276.585 J 125.524
G2 X2585.840 Y 880.580 I-1109.118 J 225.230
G2 X2542.440 Y 770.210 I-893.456 J 287.609
G2 X2488.930 Y 674.940 I-665.040 J 310.869
G2 X2426.950 Y 597.660 I-456.030 J 302.250
G2 X2358.370 Y 540.720 I-287.266 J 276.221
G2 X2285.280 Y 505.840 I-164.072 J 249.789
G2 X2209.900 Y 494.100 I -75.689 J 238.112
G2 X2134.520 Y 505.840 I   0.309 J 249.852
G2 X2061.430 Y 540.720 I  90.982 J 284.669
G2 X1992.850 Y 597.660 I 218.686 J 333.161
G2 X1930.870 Y 674.940 I 394.050 J 379.530
G2 X1877.360 Y 770.210 I 611.530 J 406.139
F150
G1 Z   3.000
G0 Z  15.000 
M9 M5

(* SHAPE Nr: 22 *)
G0 X1047.970 Y 674.940
M3 M8
G0 Z   3.000 
G1 Z  -1.500
F400
G2 X 994.460 Y 770.210 I 611.530 J 406.139
G2 X 951.060 Y 880.580 I 850.056 J 397.979
G2 X 919.080 Y1002.690 I1077.138 J 347.340
G2 X 899.490 Y1132.830 I1256.951 J 255.754
G2 X 892.900 Y1267.050 I1358.961 J 133.995
G2 X 899.490 Y1401.270 I1365.551 J   0.225
G2 X 919.080 Y1531.410 I1276.541 J-125.614
G2 X 951.060 Y1653.530 I1109.129 J-225.204
G2 X 994.460 Y1763.890 I 893.432 J-287.636
G2 X1047.970 Y1859.160 I 665.040 J-310.869
G2 X1109.950 Y1936.440 I 456.030 J-302.250
G2 X1178.530 Y1993.390 I 287.293 J-276.195
G2 X1251.620 Y2028.260 I 164.043 J-249.810
G2 X1327.000 Y2040.000 I  75.689 J-238.112
G2 X1402.380 Y2028.260 I  -0.309 J-249.852
G2 X1475.470 Y1993.390 I -90.953 J-284.680
G2 X1544.050 Y1936.440 I-218.713 J-333.145
G2 X1606.030 Y1859.160 I-394.050 J-379.530
G2 X1659.540 Y1763.890 I-611.530 J-406.139
G2 X1702.940 Y1653.530 I-850.032 J-397.996
G2 X1734.920 Y1531.410 I-1077.149 J-347.324
G2 X1754.500 Y1401.270 I-1257.005 J-255.664
G2 X1761.100 Y1267.050 I-1358.956 J-134.096
G2 X1754.500 Y1132.830 I-1365.556 J  -0.124
G2 X1734.920 Y1002.690 I-1276.585 J 125.524
G2 X1702.940 Y 880.580 I-1109.118 J 225.230
G2 X1659.540 Y 770.210 I-893.456 J 287.609
G2 X1606.030 Y 674.940 I-665.040 J 310.869
G2 X1544.050 Y 597.660 I-456.030 J 302.250
G2 X1475.470 Y 540.720 I-287.266 J 276.221
G2 X1402.380 Y 505.840 I-164.072 J 249.789
G2 X1327.000 Y 494.100 I -75.689 J 238.112
G2 X1251.620 Y 505.840 I   0.309 J 249.852
G2 X1178.530 Y 540.720 I  90.982 J 284.669
G2 X1109.950 Y 597.660 I 218.686 J 333.161
G2 X1047.970 Y 674.940 I 394.050 J 379.530
F150
G1 Z  -3.000
F400
G2 X 994.460 Y 770.210 I 611.530 J 406.139
G2 X 951.060 Y 880.580 I 850.056 J 397.979
G2 X 919.080 Y1002.690 I1077.138 J 347.340
G2 X 899.490 Y1132.830 I1256.951 J 255.754
G2 X 892.900 Y1267.050 I1358.961 J 133.995
G2 X 899.490 Y1401.270 I1365.551 J   0.225
G2 X 919.080 Y1531.410 I1276.541 J-125.614
G2 X 951.060 Y1653.530 I1109.129 J-225.204
G2 X 994.460 Y1763.890 I 893.432 J-287.636
G2 X1047.970 Y1859.160 I 665.040 J-310.869
G2 X1109.950 Y1936.440 I 456.030 J-302.250
G2 X1178.530 Y1993.390 I 287.293 J-276.195
G2 X1251.620 Y2028.260 I 164.043 J-249.810
G2 X1327.000 Y2040.000 I  75.689 J-238.112
G2 X1402.380 Y2028.260 I  -0.309 J-249.852
G2 X1475.470 Y1993.390 I -90.953 J-284.680
G2 X1544.050 Y1936.440 I-218.713 J-333.145
G2 X1606.030 Y1859.160 I-394.050 J-379.530
G2 X1659.540 Y1763.890 I-611.530 J-406.139
G2 X1702.940 Y1653.530 I-850.032 J-397.996
G2 X1734.920 Y1531.410 I-1077.149 J-347.324
G2 X1754.500 Y1401.270 I-1257.005 J-255.664
G2 X1761.100 Y1267.050 I-1358.956 J-134.096
G2 X1754.500 Y1132.830 I-1365.556 J  -0.124
G2 X1734.920 Y1002.690 I-1276.585 J 125.524
G2 X1702.940 Y 880.580 I-1109.118 J 225.230
G2 X1659.540 Y 770.210 I-893.456 J 287.609
G2 X1606.030 Y 674.940 I-665.040 J 310.869
G2 X1544.050 Y 597.660 I-456.030 J 302.250
G2 X1475.470 Y 540.720 I-287.266 J 276.221
G2 X1402.380 Y 505.840 I-164.072 J 249.789
G2 X1327.000 Y 494.100 I -75.689 J 238.112
G2 X1251.620 Y 505.840 I   0.309 J 249.852
G2 X1178.530 Y 540.720 I  90.982 J 284.669
G2 X1109.950 Y 597.660 I 218.686 J 333.161
G2 X1047.970 Y 674.940 I 394.050 J 379.530
F150
G1 Z   3.000
G0 Z  15.000 
M9 M5

(* SHAPE Nr: 26 *)
G0 X 295.630 Y 540.720
M3 M8
G0 Z   3.000 
G1 Z  -1.500
F400
G2 X 227.050 Y 597.660 I 218.686 J 333.161
G2 X 165.070 Y 674.940 I 394.050 J 379.530
G2 X 111.560 Y 770.210 I 611.530 J 406.139
G2 X  68.160 Y 880.580 I 850.056 J 397.979
G2 X  36.180 Y1002.690 I1077.138 J 347.340
G2 X  16.590 Y1132.830 I1256.951 J 255.754
G2 X  10.000 Y1267.050 I1358.961 J 133.995
G2 X  16.590 Y1401.270 I1365.551 J   0.225
G2 X  36.180 Y1531.410 I1276.541 J-125.614
G2 X  68.160 Y1653.530 I1109.129 J-225.204
G2 X 111.560 Y1763.890 I 893.432 J-287.636
G2 X 165.070 Y1859.160 I 665.040 J-310.869
G2 X 227.050 Y1936.440 I 456.030 J-302.250
G2 X 295.630 Y1993.390 I 287.293 J-276.195
G2 X 368.720 Y2028.260 I 164.043 J-249.810
G2 X 444.100 Y2040.000 I  75.689 J-238.112
G2 X 519.480 Y2028.260 I  -0.309 J-249.852
G2 X 592.570 Y1993.390 I -90.953 J-284.680
G2 X 661.150 Y1936.440 I-218.713 J-333.145
G2 X 723.130 Y1859.160 I-394.050 J-379.530
G2 X 776.640 Y1763.890 I-611.530 J-406.139
G2 X 820.040 Y1653.530 I-850.032 J-397.996
G2 X 852.020 Y1531.410 I-1077.149 J-347.324
G2 X 871.600 Y1401.270 I-1257.005 J-255.664
G2 X 878.200 Y1267.050 I-1358.956 J-134.096
G2 X 871.600 Y1132.830 I-1365.556 J  -0.124
G2 X 852.020 Y1002.690 I-1276.585 J 125.524
G2 X 820.040 Y 880.580 I-1109.118 J 225.230
G2 X 776.640 Y 770.210 I-893.456 J 287.609
G2 X 723.130 Y 674.940 I-665.040 J 310.869
G2 X 661.150 Y 597.660 I-456.030 J 302.250
G2 X 592.570 Y 540.720 I-287.266 J 276.221
G2 X 519.480 Y 505.840 I-164.072 J 249.789
G2 X 444.100 Y 494.100 I -75.689 J 238.112
G2 X 368.720 Y 505.840 I   0.309 J 249.852
G2 X 295.630 Y 540.720 I  90.982 J 284.669
F150
G1 Z  -3.000
F400
G2 X 227.050 Y 597.660 I 218.686 J 333.161
G2 X 165.070 Y 674.940 I 394.050 J 379.530
G2 X 111.560 Y 770.210 I 611.530 J 406.139
G2 X  68.160 Y 880.580 I 850.056 J 397.979
G2 X  36.180 Y1002.690 I1077.138 J 347.340
G2 X  16.590 Y1132.830 I1256.951 J 255.754
G2 X  10.000 Y1267.050 I1358.961 J 133.995
G2 X  16.590 Y1401.270 I1365.551 J   0.225
G2 X  36.180 Y1531.410 I1276.541 J-125.614
G2 X  68.160 Y1653.530 I1109.129 J-225.204
G2 X 111.560 Y1763.890 I 893.432 J-287.636
G2 X 165.070 Y1859.160 I 665.040 J-310.869
G2 X 227.050 Y1936.440 I 456.030 J-302.250
G2 X 295.630 Y1993.390 I 287.293 J-276.195
G2 X 368.720 Y2028.260 I 164.043 J-249.810
G2 X 444.100 Y2040.000 I  75.689 J-238.112
G2 X 519.480 Y2028.260 I  -0.309 J-249.852
G2 X 592.570 Y1993.390 I -90.953 J-284.680
G2 X 661.150 Y1936.440 I-218.713 J-333.145
G2 X 723.130 Y1859.160 I-394.050 J-379.530
G2 X 776.640 Y1763.890 I-611.530 J-406.139
G2 X 820.040 Y1653.530 I-850.032 J-397.996
G2 X 852.020 Y1531.410 I-1077.149 J-347.324
G2 X 871.600 Y1401.270 I-1257.005 J-255.664
G2 X 878.200 Y1267.050 I-1358.956 J-134.096
G2 X 871.600 Y1132.830 I-1365.556 J  -0.124
G2 X 852.020 Y1002.690 I-1276.585 J 125.524
G2 X 820.040 Y 880.580 I-1109.118 J 225.230
G2 X 776.640 Y 770.210 I-893.456 J 287.609
G2 X 723.130 Y 674.940 I-665.040 J 310.869
G2 X 661.150 Y 597.660 I-456.030 J 302.250
G2 X 592.570 Y 540.720 I-287.266 J 276.221
G2 X 519.480 Y 505.840 I-164.072 J 249.789
G2 X 444.100 Y 494.100 I -75.689 J 238.112
G2 X 368.720 Y 505.840 I   0.309 J 249.852
G2 X 295.630 Y 540.720 I  90.982 J 284.669
F150
G1 Z   3.000
G0 Z  15.000 
M9 M5

(*** LAYER: BORDER_D0_T132_RK1_A0_W0_EM1_RI1_ID0019 ***)

(* SHAPE Nr: 30 *)
G0 X  10.000 Y  81.160
M3 M8
G0 Z   3.000 
G1 Z  -1.500
F400
G2 X  21.740 Y 156.540 I 249.852 J  -0.309
G2 X  56.620 Y 229.630 I 284.669 J -90.982
G2 X 113.560 Y 298.210 I 333.161 J-218.686
G2 X 190.840 Y 360.190 I 379.530 J-394.050
G2 X 286.110 Y 413.700 I 406.139 J-611.530
G2 X 396.480 Y 457.100 I 397.979 J-850.056
G2 X 518.590 Y 489.080 I 347.340 J-1077.138
G2 X 648.730 Y 508.670 I 255.754 J-1256.951
G2 X 782.950 Y 515.260 I 133.995 J-1358.961
G2 X 917.170 Y 508.670 I   0.225 J-1365.551
G2 X1047.310 Y 489.080 I-125.614 J-1276.541
G2 X1169.430 Y 457.100 I-225.204 J-1109.129
G2 X1279.790 Y 413.700 I-287.636 J-893.432
G2 X1375.060 Y 360.190 I-310.869 J-665.040
G2 X1452.340 Y 298.210 I-302.250 J-456.030
G2 X1509.290 Y 229.630 I-276.195 J-287.293
G2 X1544.160 Y 156.540 I-249.810 J-164.043
G2 X1555.900 Y  81.160 I-238.112 J -75.689
G1 X 782.950 Y  81.160
G1 X  10.000 Y  81.160
F150
G1 Z  -3.000
F400
G2 X  21.740 Y 156.540 I 249.852 J  -0.309
G2 X  56.620 Y 229.630 I 284.669 J -90.982
G2 X 113.560 Y 298.210 I 333.161 J-218.686
G2 X 190.840 Y 360.190 I 379.530 J-394.050
G2 X 286.110 Y 413.700 I 406.139 J-611.530
G2 X 396.480 Y 457.100 I 397.979 J-850.056
G2 X 518.590 Y 489.080 I 347.340 J-1077.138
G2 X 648.730 Y 508.670 I 255.754 J-1256.951
G2 X 782.950 Y 515.260 I 133.995 J-1358.961
G2 X 917.170 Y 508.670 I   0.225 J-1365.551
G2 X1047.310 Y 489.080 I-125.614 J-1276.541
G2 X1169.430 Y 457.100 I-225.204 J-1109.129
G2 X1279.790 Y 413.700 I-287.636 J-893.432
G2 X1375.060 Y 360.190 I-310.869 J-665.040
G2 X1452.340 Y 298.210 I-302.250 J-456.030
G2 X1509.290 Y 229.630 I-276.195 J-287.293
G2 X1544.160 Y 156.540 I-249.810 J-164.043
G2 X1555.900 Y  81.160 I-238.112 J -75.689
G1 X 782.950 Y  81.160
G1 X  10.000 Y  81.160
F150
G1 Z   3.000
G0 Z  15.000 
M9 M5

(*** LAYER: BORDER_D0_T132.1_RK1_A0_W0_EM1 ***)

(* SHAPE Nr: 31 *)
G0 X  10.000 Y 422.980
M3 M8
G0 Z   3.000 
G1 Z  -1.500
F400
G1 X  10.000 Y 472.150
G3 X 205.480 Y 472.150 I  97.740 J  81.189
G1 X 205.480 Y 422.980
G2 X  10.000 Y 422.980 I -97.740 J 130.352
F150
G1 Z  -3.000
F400
G1 X  10.000 Y 472.150
G3 X 205.480 Y 472.150 I  97.740 J  81.189
G1 X 205.480 Y 422.980
G2 X  10.000 Y 422.980 I -97.740 J 130.352
F150
G1 Z   3.000
G0 Z  15.000 
M9 M5

(* SHAPE Nr: 32 *)
G0 X  10.000 Y 491.820
M3 M8
G0 Z   3.000 
G1 Z  -1.500
F400
G1 X  10.000 Y 540.980
G3 X 205.480 Y 540.980 I  97.740 J  81.189
G1 X 205.480 Y 491.820
G2 X  10.000 Y 491.820 I -97.740 J 130.352
F150
G1 Z  -3.000
F400
G1 X  10.000 Y 540.980
G3 X 205.480 Y 540.980 I  97.740 J  81.189
G1 X 205.480 Y 491.820
G2 X  10.000 Y 491.820 I -97.740 J 130.352
F150
G1 Z   3.000
G0 Z  15.000 
M9 M5

(* SHAPE Nr: 33 *)
G0 X 119.280 Y 522.420
M3 M8
G0 Z   3.000 
G1 Z  -1.500
F400
G1 X  77.540 Y 579.870
G1 X  10.000 Y 557.920
G1 X  51.740 Y 615.370
G1 X  10.000 Y 672.820
G1 X  77.540 Y 650.880
G1 X 119.280 Y 708.330
G1 X 119.280 Y 637.320
G1 X 186.810 Y 615.370
G1 X 119.280 Y 593.430
G1 X 119.280 Y 522.420
F150
G1 Z  -3.000
F400
G1 X  77.540 Y 579.870
G1 X  10.000 Y 557.920
G1 X  51.740 Y 615.370
G1 X  10.000 Y 672.820
G1 X  77.540 Y 650.880
G1 X 119.280 Y 708.330
G1 X 119.280 Y 637.320
G1 X 186.810 Y 615.370
G1 X 119.280 Y 593.430
G1 X 119.280 Y 522.420
F150
G1 Z   3.000
G0 Z  15.000 
M9 M5

(* SHAPE Nr: 34 *)
G0 X 795.890 Y 557.040
M3 M8
G0 Z   3.000 
G1 Z  -1.500
F400
G1 X 795.890 Y 628.060
G1 X 728.350 Y 650.000
G1 X 795.890 Y 671.940
G1 X 795.890 Y 742.960
G1 X 837.630 Y 685.510
G1 X 905.160 Y 707.450
G1 X 863.420 Y 650.000
G1 X 905.160 Y 592.550
G1 X 837.630 Y 614.490
G1 X 795.890 Y 557.040
F150
G1 Z  -3.000
F400
G1 X 795.890 Y 628.060
G1 X 728.350 Y 650.000
G1 X 795.890 Y 671.940
G1 X 795.890 Y 742.960
G1 X 837.630 Y 685.510
G1 X 905.160 Y 707.450
G1 X 863.420 Y 650.000
G1 X 905.160 Y 592.550
G1 X 837.630 Y 614.490
G1 X 795.890 Y 557.040
F150
G1 Z   3.000
G0 Z  15.000 
M9 M5

(* SHAPE Nr: 35 *)
G0 X 899.820 Y 557.060
M3 M8
G0 Z   3.000 
G1 Z  -1.500
F400
G3 X 899.820 Y 752.540 I -81.189 J  97.740
G1 X 948.980 Y 752.540
G2 X 948.980 Y 557.060 I-130.352 J -97.740
G1 X 899.820 Y 557.060
F150
G1 Z  -3.000
F400
G3 X 899.820 Y 752.540 I -81.189 J  97.740
G1 X 948.980 Y 752.540
G2 X 948.980 Y 557.060 I-130.352 J -97.740
G1 X 899.820 Y 557.060
F150
G1 Z   3.000
G0 Z  15.000 
M9 M5

(* SHAPE Nr: 36 *)
G0 X1627.900 Y 675.000
M3 M8
G0 Z   3.000 
G1 Z  -1.500
F400
G1 X1695.430 Y 696.940
G1 X1695.430 Y 767.960
G1 X1737.170 Y 710.510
G1 X1804.710 Y 732.450
G1 X1762.970 Y 675.000
G1 X1804.710 Y 617.550
G1 X1737.170 Y 639.490
G1 X1695.430 Y 582.040
G1 X1695.430 Y 653.060
G1 X1627.900 Y 675.000
F150
G1 Z  -3.000
F400
G1 X1695.430 Y 696.940
G1 X1695.430 Y 767.960
G1 X1737.170 Y 710.510
G1 X1804.710 Y 732.450
G1 X1762.970 Y 675.000
G1 X1804.710 Y 617.550
G1 X1737.170 Y 639.490
G1 X1695.430 Y 582.040
G1 X1695.430 Y 653.060
G1 X1627.900 Y 675.000
F150
G1 Z   3.000
G0 Z  15.000 
M9 M5

(* SHAPE Nr: 37 *)
G0 X1740.880 Y 566.380
M3 M8
G0 Z   3.000 
G1 Z  -1.500
F400
G1 X1740.880 Y 615.540
G3 X1936.360 Y 615.540 I  97.740 J  81.189
G1 X1936.360 Y 566.380
G2 X1740.880 Y 566.380 I -97.740 J 130.352
F150
G1 Z  -3.000
F400
G1 X1740.880 Y 615.540
G3 X1936.360 Y 615.540 I  97.740 J  81.189
G1 X1936.360 Y 566.380
G2 X1740.880 Y 566.380 I -97.740 J 130.352
F150
G1 Z   3.000
G0 Z  15.000 
M9 M5

(* SHAPE Nr: 38 *)
G0 X1839.310 Y 378.680
M3 M8
G0 Z   3.000 
G1 Z  -1.500
F400
G1 X1881.060 Y 436.130
G1 X1839.310 Y 493.580
G1 X1906.850 Y 471.640
G1 X1948.590 Y 529.090
G1 X1948.590 Y 458.070
G1 X2016.130 Y 436.130
G1 X1948.590 Y 414.190
G1 X1948.590 Y 343.170
G1 X1906.850 Y 400.620
G1 X1839.310 Y 378.680
F150
G1 Z  -3.000
F400
G1 X1881.060 Y 436.130
G1 X1839.310 Y 493.580
G1 X1906.850 Y 471.640
G1 X1948.590 Y 529.090
G1 X1948.590 Y 458.070
G1 X2016.130 Y 436.130
G1 X1948.590 Y 414.190
G1 X1948.590 Y 343.170
G1 X1906.850 Y 400.620
G1 X1839.310 Y 378.680
F150
G1 Z   3.000
G0 Z  15.000 
M9 M5

(* SHAPE Nr: 39 *)
G0 X2007.550 Y 309.860
M3 M8
G0 Z   3.000 
G1 Z  -1.500
F400
G1 X2078.560 Y 309.860
G1 X2100.500 Y 377.400
G1 X2122.450 Y 309.860
G1 X2193.460 Y 309.860
G1 X2136.010 Y 268.120
G1 X2157.950 Y 200.590
G1 X2100.500 Y 242.330
G1 X2043.050 Y 200.590
G1 X2065.000 Y 268.120
G1 X2007.550 Y 309.860
F150
G1 Z  -3.000
F400
G1 X2078.560 Y 309.860
G1 X2100.500 Y 377.400
G1 X2122.450 Y 309.860
G1 X2193.460 Y 309.860
G1 X2136.010 Y 268.120
G1 X2157.950 Y 200.590
G1 X2100.500 Y 242.330
G1 X2043.050 Y 200.590
G1 X2065.000 Y 268.120
G1 X2007.550 Y 309.860
F150
G1 Z   3.000
G0 Z  15.000 
M9 M5

(* SHAPE Nr: 40 *)
G0 X1544.670 Y 234.840
M3 M8
G0 Z   3.000 
G1 Z  -1.500
F400
G2 X1548.410 Y 251.810 I  41.224 J  -0.188
G2 X1559.500 Y 268.270 I  55.805 J -25.633
G2 X1577.620 Y 283.710 I  77.348 J -72.421
G2 X1602.210 Y 297.660 I  99.608 J-146.934
G2 X1632.530 Y 309.710 I 115.688 J-246.921
G2 X1667.640 Y 319.480 I 119.403 J-361.122
G2 X1706.500 Y 326.680 I 107.659 J-472.591
G2 X1747.910 Y 331.090 I  80.734 J-561.467
G2 X1790.610 Y 332.580 I  42.709 J-611.343
G2 X1833.320 Y 331.090 I  -0.004 J-612.976
G2 X1874.730 Y 326.680 I -39.324 J-565.877
G2 X1913.580 Y 319.480 I -68.804 J-479.668
G2 X1948.700 Y 309.710 I -84.288 J-370.996
G2 X1979.010 Y 297.660 I -85.376 J-258.896
G2 X2003.600 Y 283.710 I -75.018 J-160.884
G2 X2021.720 Y 268.270 I -59.228 J -87.861
G2 X2032.820 Y 251.810 I -44.710 J -42.123
G2 X2036.550 Y 234.840 I -37.489 J -17.135
G2 X2032.820 Y 217.870 I -41.219 J   0.165
G2 X2021.720 Y 201.410 I -55.810 J  25.663
G2 X2003.600 Y 185.970 I -77.348 J  72.421
G2 X1979.010 Y 172.010 I -99.671 J 146.929
G2 X1948.700 Y 159.960 I-115.683 J 246.838
G2 X1913.580 Y 150.190 I-119.408 J 361.226
G2 X1874.730 Y 142.990 I-107.654 J 472.468
G2 X1833.320 Y 138.580 I -80.734 J 561.467
G2 X1790.610 Y 137.100 I -42.570 J 611.491
G2 X1747.910 Y 138.580 I  -0.135 J 612.828
G2 X1706.500 Y 142.990 I  39.324 J 565.877
G2 X1667.640 Y 150.190 I  68.799 J 479.791
G2 X1632.530 Y 159.960 I  84.293 J 370.892
G2 X1602.210 Y 172.010 I  85.368 J 258.971
G2 X1577.620 Y 185.970 I  75.081 J 160.889
G2 X1559.500 Y 201.410 I  59.228 J  87.861
G2 X1548.410 Y 217.870 I  44.715 J  42.093
G2 X1544.670 Y 234.840 I  37.484 J  17.158
F150
G1 Z  -3.000
F400
G2 X1548.410 Y 251.810 I  41.224 J  -0.188
G2 X1559.500 Y 268.270 I  55.805 J -25.633
G2 X1577.620 Y 283.710 I  77.348 J -72.421
G2 X1602.210 Y 297.660 I  99.608 J-146.934
G2 X1632.530 Y 309.710 I 115.688 J-246.921
G2 X1667.640 Y 319.480 I 119.403 J-361.122
G2 X1706.500 Y 326.680 I 107.659 J-472.591
G2 X1747.910 Y 331.090 I  80.734 J-561.467
G2 X1790.610 Y 332.580 I  42.709 J-611.343
G2 X1833.320 Y 331.090 I  -0.004 J-612.976
G2 X1874.730 Y 326.680 I -39.324 J-565.877
G2 X1913.580 Y 319.480 I -68.804 J-479.668
G2 X1948.700 Y 309.710 I -84.288 J-370.996
G2 X1979.010 Y 297.660 I -85.376 J-258.896
G2 X2003.600 Y 283.710 I -75.018 J-160.884
G2 X2021.720 Y 268.270 I -59.228 J -87.861
G2 X2032.820 Y 251.810 I -44.710 J -42.123
G2 X2036.550 Y 234.840 I -37.489 J -17.135
G2 X2032.820 Y 217.870 I -41.219 J   0.165
G2 X2021.720 Y 201.410 I -55.810 J  25.663
G2 X2003.600 Y 185.970 I -77.348 J  72.421
G2 X1979.010 Y 172.010 I -99.671 J 146.929
G2 X1948.700 Y 159.960 I-115.683 J 246.838
G2 X1913.580 Y 150.190 I-119.408 J 361.226
G2 X1874.730 Y 142.990 I-107.654 J 472.468
G2 X1833.320 Y 138.580 I -80.734 J 561.467
G2 X1790.610 Y 137.100 I -42.570 J 611.491
G2 X1747.910 Y 138.580 I  -0.135 J 612.828
G2 X1706.500 Y 142.990 I  39.324 J 565.877
G2 X1667.640 Y 150.190 I  68.799 J 479.791
G2 X1632.530 Y 159.960 I  84.293 J 370.892
G2 X1602.210 Y 172.010 I  85.368 J 258.971
G2 X1577.620 Y 185.970 I  75.081 J 160.889
G2 X1559.500 Y 201.410 I  59.228 J  87.861
G2 X1548.410 Y 217.870 I  44.715 J  42.093
G2 X1544.670 Y 234.840 I  37.484 J  17.158
F150
G1 Z   3.000
G0 Z  15.000 
M9 M5

(* SHAPE Nr: 41 *)
G0 X2043.730 Y 131.490
M3 M8
G0 Z   3.000 
G1 Z  -1.500
F400
G1 X2057.550 Y 145.320
G3 X2195.780 Y  88.060 I 138.234 J 138.229
G1 X2523.700 Y  88.060
G1 X2523.700 Y  68.510
G1 X2195.780 Y  68.510
G2 X2043.730 Y 131.490 I  -8.169 J 195.311
F150
G1 Z  -3.000
F400
G1 X2057.550 Y 145.320
G3 X2195.780 Y  88.060 I 138.234 J 138.229
G1 X2523.700 Y  88.060
G1 X2523.700 Y  68.510
G1 X2195.780 Y  68.510
G2 X2043.730 Y 131.490 I  -8.169 J 195.311
F150
G1 Z   3.000
G0 Z  15.000 
M9 M5

(* SHAPE Nr: 42 *)
G0 X2540.690 Y  10.000
M3 M8
G0 Z   3.000 
G1 Z  -1.500
F400
G1 X2540.690 Y  59.160
G2 X2736.170 Y  59.160 I  97.740 J-130.352
G1 X2736.170 Y  10.000
G3 X2540.690 Y  10.000 I -97.740 J -81.189
F150
G1 Z  -3.000
F400
G1 X2540.690 Y  59.160
G2 X2736.170 Y  59.160 I  97.740 J-130.352
G1 X2736.170 Y  10.000
G3 X2540.690 Y  10.000 I -97.740 J -81.189
F150
G1 Z   3.000
G0 Z  15.000 
M9 M5

(* SHAPE Nr: 43 *)
G0 X2295.990 Y 200.410
M3 M8
G0 Z   3.000 
G1 Z  -1.500
F400
G2 X2299.730 Y 217.380 I  41.224 J  -0.188
G2 X2310.820 Y 233.840 I  55.805 J -25.633
G2 X2328.940 Y 249.280 I  77.348 J -72.421
G2 X2353.530 Y 263.240 I  99.671 J-146.929
G2 X2383.840 Y 275.290 I 115.683 J-246.838
G2 X2418.960 Y 285.060 I 119.408 J-361.226
G2 X2457.810 Y 292.260 I 107.654 J-472.468
G2 X2499.220 Y 296.670 I  80.734 J-561.467
G2 X2541.930 Y 298.150 I  42.570 J-611.491
G2 X2584.640 Y 296.670 I   0.140 J-612.971
G2 X2626.050 Y 292.260 I -39.324 J-565.877
G2 X2664.900 Y 285.060 I -68.804 J-479.668
G2 X2700.020 Y 275.290 I -84.288 J-370.996
G2 X2730.330 Y 263.240 I -85.373 J-258.888
G2 X2754.920 Y 249.280 I -75.083 J-160.893
G2 X2773.040 Y 233.840 I -59.227 J -87.859
G2 X2784.140 Y 217.380 I -44.710 J -42.123
G2 X2787.870 Y 200.410 I -37.489 J -17.135
G2 X2784.140 Y 183.440 I -41.219 J   0.165
G2 X2773.040 Y 166.980 I -55.810 J  25.663
G2 X2754.920 Y 151.540 I -77.347 J  72.419
G2 X2730.330 Y 137.590 I -99.610 J 146.938
G2 X2700.020 Y 125.540 I-115.683 J 246.838
G2 X2664.900 Y 115.770 I-119.408 J 361.226
G2 X2626.050 Y 108.570 I-107.654 J 472.468
G2 X2584.640 Y 104.160 I -80.734 J 561.467
G2 X2541.930 Y 102.670 I -42.714 J 611.486
G2 X2499.220 Y 104.160 I   0.004 J 612.976
G2 X2457.810 Y 108.570 I  39.324 J 565.877
G2 X2418.960 Y 115.770 I  68.804 J 479.668
G2 X2383.840 Y 125.540 I  84.288 J 370.996
G2 X2353.530 Y 137.590 I  85.373 J 258.888
G2 X2328.940 Y 151.540 I  75.018 J 160.884
G2 X2310.820 Y 166.980 I  59.228 J  87.861
G2 X2299.730 Y 183.440 I  44.715 J  42.093
G2 X2295.990 Y 200.410 I  37.484 J  17.158
F150
G1 Z  -3.000
F400
G2 X2299.730 Y 217.380 I  41.224 J  -0.188
G2 X2310.820 Y 233.840 I  55.805 J -25.633
G2 X2328.940 Y 249.280 I  77.348 J -72.421
G2 X2353.530 Y 263.240 I  99.671 J-146.929
G2 X2383.840 Y 275.290 I 115.683 J-246.838
G2 X2418.960 Y 285.060 I 119.408 J-361.226
G2 X2457.810 Y 292.260 I 107.654 J-472.468
G2 X2499.220 Y 296.670 I  80.734 J-561.467
G2 X2541.930 Y 298.150 I  42.570 J-611.491
G2 X2584.640 Y 296.670 I   0.140 J-612.971
G2 X2626.050 Y 292.260 I -39.324 J-565.877
G2 X2664.900 Y 285.060 I -68.804 J-479.668
G2 X2700.020 Y 275.290 I -84.288 J-370.996
G2 X2730.330 Y 263.240 I -85.373 J-258.888
G2 X2754.920 Y 249.280 I -75.083 J-160.893
G2 X2773.040 Y 233.840 I -59.227 J -87.859
G2 X2784.140 Y 217.380 I -44.710 J -42.123
G2 X2787.870 Y 200.410 I -37.489 J -17.135
G2 X2784.140 Y 183.440 I -41.219 J   0.165
G2 X2773.040 Y 166.980 I -55.810 J  25.663
G2 X2754.920 Y 151.540 I -77.347 J  72.419
G2 X2730.330 Y 137.590 I -99.610 J 146.938
G2 X2700.020 Y 125.540 I-115.683 J 246.838
G2 X2664.900 Y 115.770 I-119.408 J 361.226
G2 X2626.050 Y 108.570 I-107.654 J 472.468
G2 X2584.640 Y 104.160 I -80.734 J 561.467
G2 X2541.930 Y 102.670 I -42.714 J 611.486
G2 X2499.220 Y 104.160 I   0.004 J 612.976
G2 X2457.810 Y 108.570 I  39.324 J 565.877
G2 X2418.960 Y 115.770 I  68.804 J 479.668
G2 X2383.840 Y 125.540 I  84.288 J 370.996
G2 X2353.530 Y 137.590 I  85.373 J 258.888
G2 X2328.940 Y 151.540 I  75.018 J 160.884
G2 X2310.820 Y 166.980 I  59.228 J  87.861
G2 X2299.730 Y 183.440 I  44.715 J  42.093
G2 X2295.990 Y 200.410 I  37.484 J  17.158
F150
G1 Z   3.000
G0 Z  15.000 
M9 M5

(* SHAPE Nr: 44 *)
G0 X2147.280 Y 401.570
M3 M8
G0 Z   3.000 
G1 Z  -1.500
F400
G2 X2151.020 Y 418.550 I  41.247 J  -0.183
G2 X2162.110 Y 435.000 I  55.774 J -25.638
G2 X2180.230 Y 450.440 I  77.348 J -72.421
G2 X2204.820 Y 464.400 I  99.671 J-146.929
G2 X2235.140 Y 476.450 I 115.688 J-246.921
G2 X2270.250 Y 486.220 I 119.403 J-361.122
G2 X2309.110 Y 493.420 I 107.659 J-472.591
G2 X2350.510 Y 497.830 I  80.729 J-561.330
G2 X2393.220 Y 499.310 I  42.570 J-611.491
G2 X2435.930 Y 497.830 I   0.140 J-612.971
G2 X2477.340 Y 493.420 I -39.324 J-565.877
G2 X2516.190 Y 486.220 I -68.804 J-479.668
G2 X2551.310 Y 476.450 I -84.288 J-370.996
G2 X2581.620 Y 464.400 I -85.373 J-258.888
G2 X2606.210 Y 450.440 I -75.083 J-160.893
G2 X2624.330 Y 435.000 I -59.227 J -87.859
G2 X2635.430 Y 418.550 I -44.679 J -42.118
G2 X2639.160 Y 401.570 I -37.512 J -17.140
G2 X2635.430 Y 384.600 I -41.219 J   0.165
G2 X2624.330 Y 368.140 I -55.810 J  25.663
G2 X2606.210 Y 352.700 I -77.347 J  72.419
G2 X2581.620 Y 338.750 I -99.610 J 146.938
G2 X2551.310 Y 326.700 I-115.683 J 246.838
G2 X2516.190 Y 316.930 I-119.408 J 361.226
G2 X2477.340 Y 309.730 I-107.654 J 472.468
G2 X2435.930 Y 305.320 I -80.734 J 561.467
G2 X2393.220 Y 303.830 I -42.714 J 611.486
G2 X2350.510 Y 305.320 I   0.004 J 612.976
G2 X2309.110 Y 309.730 I  39.329 J 565.740
G2 X2270.250 Y 316.930 I  68.799 J 479.791
G2 X2235.140 Y 326.700 I  84.293 J 370.892
G2 X2204.820 Y 338.750 I  85.368 J 258.971
G2 X2180.230 Y 352.700 I  75.018 J 160.884
G2 X2162.110 Y 368.140 I  59.228 J  87.861
G2 X2151.020 Y 384.600 I  44.715 J  42.093
G2 X2147.280 Y 401.570 I  37.484 J  17.158
F150
G1 Z  -3.000
F400
G2 X2151.020 Y 418.550 I  41.247 J  -0.183
G2 X2162.110 Y 435.000 I  55.774 J -25.638
G2 X2180.230 Y 450.440 I  77.348 J -72.421
G2 X2204.820 Y 464.400 I  99.671 J-146.929
G2 X2235.140 Y 476.450 I 115.688 J-246.921
G2 X2270.250 Y 486.220 I 119.403 J-361.122
G2 X2309.110 Y 493.420 I 107.659 J-472.591
G2 X2350.510 Y 497.830 I  80.729 J-561.330
G2 X2393.220 Y 499.310 I  42.570 J-611.491
G2 X2435.930 Y 497.830 I   0.140 J-612.971
G2 X2477.340 Y 493.420 I -39.324 J-565.877
G2 X2516.190 Y 486.220 I -68.804 J-479.668
G2 X2551.310 Y 476.450 I -84.288 J-370.996
G2 X2581.620 Y 464.400 I -85.373 J-258.888
G2 X2606.210 Y 450.440 I -75.083 J-160.893
G2 X2624.330 Y 435.000 I -59.227 J -87.859
G2 X2635.430 Y 418.550 I -44.679 J -42.118
G2 X2639.160 Y 401.570 I -37.512 J -17.140
G2 X2635.430 Y 384.600 I -41.219 J   0.165
G2 X2624.330 Y 368.140 I -55.810 J  25.663
G2 X2606.210 Y 352.700 I -77.347 J  72.419
G2 X2581.620 Y 338.750 I -99.610 J 146.938
G2 X2551.310 Y 326.700 I-115.683 J 246.838
G2 X2516.190 Y 316.930 I-119.408 J 361.226
G2 X2477.340 Y 309.730 I-107.654 J 472.468
G2 X2435.930 Y 305.320 I -80.734 J 561.467
G2 X2393.220 Y 303.830 I -42.714 J 611.486
G2 X2350.510 Y 305.320 I   0.004 J 612.976
G2 X2309.110 Y 309.730 I  39.329 J 565.740
G2 X2270.250 Y 316.930 I  68.799 J 479.791
G2 X2235.140 Y 326.700 I  84.293 J 370.892
G2 X2204.820 Y 338.750 I  85.368 J 258.971
G2 X2180.230 Y 352.700 I  75.018 J 160.884
G2 X2162.110 Y 368.140 I  59.228 J  87.861
G2 X2151.020 Y 384.600 I  44.715 J  42.093
G2 X2147.280 Y 401.570 I  37.484 J  17.158
F150
G1 Z   3.000
G0 Z  15.000 
M9 M5

(* SHAPE Nr: 45 *)
G0 X2642.810 Y 472.570
M3 M8
G0 Z   3.000 
G1 Z  -1.500
F400
G2 X2638.400 Y 513.980 I 561.467 J  80.734
G2 X2636.910 Y 556.680 I 611.343 J  42.709
G2 X2638.400 Y 599.390 I 612.976 J  -0.004
G2 X2642.810 Y 640.800 I 565.877 J -39.324
G2 X2650.010 Y 679.650 I 479.668 J -68.804
G2 X2659.780 Y 714.770 I 370.996 J -84.288
G2 X2671.830 Y 745.080 I 258.888 J -85.373
G2 X2685.780 Y 769.670 I 160.888 J -75.020
G2 X2701.230 Y 787.790 I  87.864 J -59.271
G2 X2717.680 Y 798.890 I  42.119 J -44.680
G2 X2734.650 Y 802.620 I  17.135 J -37.489
G1 X2734.650 Y 310.740
G2 X2717.680 Y 314.480 I   0.188 J  41.224
G2 X2701.230 Y 325.580 I  25.669 J  55.780
G2 X2685.780 Y 343.690 I  72.370 J  77.386
G2 X2671.830 Y 368.280 I 146.938 J  99.610
G2 X2659.780 Y 398.600 I 246.921 J 115.688
G2 X2650.010 Y 433.710 I 361.122 J 119.403
G2 X2642.810 Y 472.570 I 472.591 J 107.659
F150
G1 Z  -3.000
F400
G2 X2638.400 Y 513.980 I 561.467 J  80.734
G2 X2636.910 Y 556.680 I 611.343 J  42.709
G2 X2638.400 Y 599.390 I 612.976 J  -0.004
G2 X2642.810 Y 640.800 I 565.877 J -39.324
G2 X2650.010 Y 679.650 I 479.668 J -68.804
G2 X2659.780 Y 714.770 I 370.996 J -84.288
G2 X2671.830 Y 745.080 I 258.888 J -85.373
G2 X2685.780 Y 769.670 I 160.888 J -75.020
G2 X2701.230 Y 787.790 I  87.864 J -59.271
G2 X2717.680 Y 798.890 I  42.119 J -44.680
G2 X2734.650 Y 802.620 I  17.135 J -37.489
G1 X2734.650 Y 310.740
G2 X2717.680 Y 314.480 I   0.188 J  41.224
G2 X2701.230 Y 325.580 I  25.669 J  55.780
G2 X2685.780 Y 343.690 I  72.370 J  77.386
G2 X2671.830 Y 368.280 I 146.938 J  99.610
G2 X2659.780 Y 398.600 I 246.921 J 115.688
G2 X2650.010 Y 433.710 I 361.122 J 119.403
G2 X2642.810 Y 472.570 I 472.591 J 107.659
F150
G1 Z   3.000
G0 Z  15.000 
M9 M5

(* SHAPE Nr: 46 *)
G0 X2422.320 Y 568.900
M3 M8
G0 Z   3.000 
G1 Z  -1.500
F400
G3 X2658.720 Y1139.610 I-570.709 J 570.716
G1 X2658.720 Y1810.940
G1 X2739.430 Y1810.940
G1 X2739.430 Y1139.610
G2 X2479.390 Y 511.830 I-806.401 J -33.718
G1 X2422.320 Y 568.900
F150
G1 Z  -3.000
F400
G3 X2658.720 Y1139.610 I-570.709 J 570.716
G1 X2658.720 Y1810.940
G1 X2739.430 Y1810.940
G1 X2739.430 Y1139.610
G2 X2479.390 Y 511.830 I-806.401 J -33.718
G1 X2422.320 Y 568.900
F150
G1 Z   3.000
G0 Z  15.000 
M9 M5

(* SHAPE Nr: 47 *)
G0 X2709.970 Y1844.520
M3 M8
G0 Z   3.000 
G1 Z  -1.500
F400
G2 X2709.970 Y2040.000 I 130.352 J  97.740
G1 X2759.140 Y2040.000
G3 X2759.140 Y1844.520 I  81.189 J -97.740
G1 X2709.970 Y1844.520
F150
G1 Z  -3.000
F400
G2 X2709.970 Y2040.000 I 130.352 J  97.740
G1 X2759.140 Y2040.000
G3 X2759.140 Y1844.520 I  81.189 J -97.740
G1 X2709.970 Y1844.520
F150
G1 Z   3.000
G0 Z  15.000 
M9 M5

(* SHAPE Nr: 48 *)
G0 X2485.890 Y1889.590
M3 M8
G0 Z   3.000 
G1 Z  -1.500
F400
G1 X2527.630 Y1947.040
G1 X2485.890 Y2004.490
G1 X2553.420 Y1982.550
G1 X2595.160 Y2040.000
G1 X2595.160 Y1968.990
G1 X2662.700 Y1947.040
G1 X2595.160 Y1925.100
G1 X2595.160 Y1854.090
G1 X2553.420 Y1911.540
G1 X2485.890 Y1889.590
F150
G1 Z  -3.000
F400
G1 X2527.630 Y1947.040
G1 X2485.890 Y2004.490
G1 X2553.420 Y1982.550
G1 X2595.160 Y2040.000
G1 X2595.160 Y1968.990
G1 X2662.700 Y1947.040
G1 X2595.160 Y1925.100
G1 X2595.160 Y1854.090
G1 X2553.420 Y1911.540
G1 X2485.890 Y1889.590
F150
G1 Z   3.000
G0 Z  15.000 
M9 M5

(* SHAPE Nr: 49 *)
G0 X1877.360 Y 770.210
M3 M8
G0 Z   3.000 
G1 Z  -1.500
F400
G2 X1833.960 Y 880.580 I 850.056 J 397.979
G2 X1801.980 Y1002.690 I1077.138 J 347.340
G2 X1782.400 Y1132.830 I1256.956 J 255.656
G2 X1775.800 Y1267.050 I1358.956 J 134.096
G2 X1782.400 Y1401.270 I1365.556 J   0.124
G2 X1801.980 Y1531.410 I1276.536 J-125.516
G2 X1833.960 Y1653.530 I1109.207 J-225.225
G2 X1877.360 Y1763.890 I 893.377 J-287.614
G2 X1930.870 Y1859.160 I 665.040 J-310.869
G2 X1992.850 Y1936.440 I 456.021 J-302.243
G2 X2061.430 Y1993.390 I 287.311 J-276.216
G2 X2134.520 Y2028.260 I 164.041 J-249.806
G2 X2209.900 Y2040.000 I  75.688 J-238.105
G2 X2285.280 Y2028.260 I  -0.308 J-249.845
G2 X2358.370 Y1993.390 I -90.951 J-284.676
G2 X2426.950 Y1936.440 I-218.731 J-333.166
G2 X2488.930 Y1859.160 I-394.041 J-379.523
G2 X2542.440 Y1763.890 I-611.530 J-406.139
G2 X2585.840 Y1653.530 I-849.977 J-397.974
G2 X2617.820 Y1531.410 I-1077.227 J-347.345
G2 X2637.410 Y1401.270 I-1256.951 J-255.754
G2 X2644.000 Y1267.050 I-1358.961 J-133.995
G2 X2637.410 Y1132.830 I-1365.551 J  -0.225
G2 X2617.820 Y1002.690 I-1276.541 J 125.614
G2 X2585.840 Y 880.580 I-1109.118 J 225.230
G2 X2542.440 Y 770.210 I-893.456 J 287.609
G2 X2488.930 Y 674.940 I-665.040 J 310.869
G2 X2426.950 Y 597.660 I-456.021 J 302.243
G2 X2358.370 Y 540.720 I-287.266 J 276.221
G2 X2285.280 Y 505.840 I-164.078 J 249.801
G2 X2209.900 Y 494.100 I -75.688 J 238.105
G2 X2134.520 Y 505.840 I   0.308 J 249.845
G2 X2061.430 Y 540.720 I  90.988 J 284.681
G2 X1992.850 Y 597.660 I 218.686 J 333.161
G2 X1930.870 Y 674.940 I 394.041 J 379.523
G2 X1877.360 Y 770.210 I 611.530 J 406.139
F150
G1 Z  -3.000
F400
G2 X1833.960 Y 880.580 I 850.056 J 397.979
G2 X1801.980 Y1002.690 I1077.138 J 347.340
G2 X1782.400 Y1132.830 I1256.956 J 255.656
G2 X1775.800 Y1267.050 I1358.956 J 134.096
G2 X1782.400 Y1401.270 I1365.556 J   0.124
G2 X1801.980 Y1531.410 I1276.536 J-125.516
G2 X1833.960 Y1653.530 I1109.207 J-225.225
G2 X1877.360 Y1763.890 I 893.377 J-287.614
G2 X1930.870 Y1859.160 I 665.040 J-310.869
G2 X1992.850 Y1936.440 I 456.021 J-302.243
G2 X2061.430 Y1993.390 I 287.311 J-276.216
G2 X2134.520 Y2028.260 I 164.041 J-249.806
G2 X2209.900 Y2040.000 I  75.688 J-238.105
G2 X2285.280 Y2028.260 I  -0.308 J-249.845
G2 X2358.370 Y1993.390 I -90.951 J-284.676
G2 X2426.950 Y1936.440 I-218.731 J-333.166
G2 X2488.930 Y1859.160 I-394.041 J-379.523
G2 X2542.440 Y1763.890 I-611.530 J-406.139
G2 X2585.840 Y1653.530 I-849.977 J-397.974
G2 X2617.820 Y1531.410 I-1077.227 J-347.345
G2 X2637.410 Y1401.270 I-1256.951 J-255.754
G2 X2644.000 Y1267.050 I-1358.961 J-133.995
G2 X2637.410 Y1132.830 I-1365.551 J  -0.225
G2 X2617.820 Y1002.690 I-1276.541 J 125.614
G2 X2585.840 Y 880.580 I-1109.118 J 225.230
G2 X2542.440 Y 770.210 I-893.456 J 287.609
G2 X2488.930 Y 674.940 I-665.040 J 310.869
G2 X2426.950 Y 597.660 I-456.021 J 302.243
G2 X2358.370 Y 540.720 I-287.266 J 276.221
G2 X2285.280 Y 505.840 I-164.078 J 249.801
G2 X2209.900 Y 494.100 I -75.688 J 238.105
G2 X2134.520 Y 505.840 I   0.308 J 249.845
G2 X2061.430 Y 540.720 I  90.988 J 284.681
G2 X1992.850 Y 597.660 I 218.686 J 333.161
G2 X1930.870 Y 674.940 I 394.041 J 379.523
G2 X1877.360 Y 770.210 I 611.530 J 406.139
F150
G1 Z   3.000
G0 Z  15.000 
M9 M5

(* SHAPE Nr: 50 *)
G0 X1774.860 Y1930.720
M3 M8
G0 Z   3.000 
G1 Z  -1.500
F400
G1 X1832.310 Y1972.460
G1 X1810.360 Y2040.000
G1 X1867.810 Y1998.260
G1 X1925.260 Y2040.000
G1 X1903.320 Y1972.460
G1 X1960.770 Y1930.720
G1 X1889.760 Y1930.720
G1 X1867.810 Y1863.190
G1 X1845.870 Y1930.720
G1 X1774.860 Y1930.720
F150
G1 Z  -3.000
F400
G1 X1832.310 Y1972.460
G1 X1810.360 Y2040.000
G1 X1867.810 Y1998.260
G1 X1925.260 Y2040.000
G1 X1903.320 Y1972.460
G1 X1960.770 Y1930.720
G1 X1889.760 Y1930.720
G1 X1867.810 Y1863.190
G1 X1845.870 Y1930.720
G1 X1774.860 Y1930.720
F150
G1 Z   3.000
G0 Z  15.000 
M9 M5

(* SHAPE Nr: 51 *)
G0 X1690.420 Y1739.180
M3 M8
G0 Z   3.000 
G1 Z  -1.500
F400
G1 X1712.360 Y1806.720
G1 X1654.910 Y1848.460
G1 X1725.920 Y1848.460
G1 X1747.860 Y1915.990
G1 X1769.810 Y1848.460
G1 X1840.820 Y1848.460
G1 X1783.370 Y1806.720
G1 X1805.310 Y1739.180
G1 X1747.860 Y1780.920
G1 X1690.420 Y1739.180
F150
G1 Z  -3.000
F400
G1 X1712.360 Y1806.720
G1 X1654.910 Y1848.460
G1 X1725.920 Y1848.460
G1 X1747.860 Y1915.990
G1 X1769.810 Y1848.460
G1 X1840.820 Y1848.460
G1 X1783.370 Y1806.720
G1 X1805.310 Y1739.180
G1 X1747.860 Y1780.920
G1 X1690.420 Y1739.180
F150
G1 Z   3.000
G0 Z  15.000 
M9 M5

(* SHAPE Nr: 52 *)
G0 X1573.470 Y1930.720
M3 M8
G0 Z   3.000 
G1 Z  -1.500
F400
G1 X1630.920 Y1972.460
G1 X1608.970 Y2040.000
G1 X1666.430 Y1998.260
G1 X1723.880 Y2040.000
G1 X1701.930 Y1972.460
G1 X1759.380 Y1930.720
G1 X1688.370 Y1930.720
G1 X1666.430 Y1863.190
G1 X1644.480 Y1930.720
G1 X1573.470 Y1930.720
F150
G1 Z  -3.000
F400
G1 X1630.920 Y1972.460
G1 X1608.970 Y2040.000
G1 X1666.430 Y1998.260
G1 X1723.880 Y2040.000
G1 X1701.930 Y1972.460
G1 X1759.380 Y1930.720
G1 X1688.370 Y1930.720
G1 X1666.430 Y1863.190
G1 X1644.480 Y1930.720
G1 X1573.470 Y1930.720
F150
G1 Z   3.000
G0 Z  15.000 
M9 M5

(* SHAPE Nr: 53 *)
G0 X1047.970 Y 674.940
M3 M8
G0 Z   3.000 
G1 Z  -1.500
F400
G2 X 994.460 Y 770.210 I 611.530 J 406.139
G2 X 951.060 Y 880.580 I 850.056 J 397.979
G2 X 919.080 Y1002.690 I1077.138 J 347.340
G2 X 899.490 Y1132.830 I1256.951 J 255.754
G2 X 892.900 Y1267.050 I1358.961 J 133.995
G2 X 899.490 Y1401.270 I1365.551 J   0.225
G2 X 919.080 Y1531.410 I1276.541 J-125.614
G2 X 951.060 Y1653.530 I1109.207 J-225.225
G2 X 994.460 Y1763.890 I 893.377 J-287.614
G2 X1047.970 Y1859.160 I 665.040 J-310.869
G2 X1109.950 Y1936.440 I 456.021 J-302.243
G2 X1178.530 Y1993.390 I 287.311 J-276.216
G2 X1251.620 Y2028.260 I 164.041 J-249.806
G2 X1327.000 Y2040.000 I  75.688 J-238.105
G2 X1402.380 Y2028.260 I  -0.308 J-249.845
G2 X1475.470 Y1993.390 I -90.951 J-284.676
G2 X1544.050 Y1936.440 I-218.731 J-333.166
G2 X1606.030 Y1859.160 I-394.041 J-379.523
G2 X1659.540 Y1763.890 I-611.530 J-406.139
G2 X1702.940 Y1653.530 I-849.977 J-397.974
G2 X1734.920 Y1531.410 I-1077.227 J-347.345
G2 X1754.510 Y1401.270 I-1256.951 J-255.754
G2 X1761.100 Y1267.050 I-1358.961 J-133.995
G2 X1754.510 Y1132.830 I-1365.551 J  -0.225
G2 X1734.920 Y1002.690 I-1276.541 J 125.614
G2 X1702.940 Y 880.580 I-1109.118 J 225.230
G2 X1659.540 Y 770.210 I-893.456 J 287.609
G2 X1606.030 Y 674.940 I-665.040 J 310.869
G2 X1544.050 Y 597.660 I-456.021 J 302.243
G2 X1475.470 Y 540.720 I-287.266 J 276.221
G2 X1402.380 Y 505.840 I-164.078 J 249.801
G2 X1327.000 Y 494.100 I -75.688 J 238.105
G2 X1251.620 Y 505.840 I   0.308 J 249.845
G2 X1178.530 Y 540.720 I  90.988 J 284.681
G2 X1109.950 Y 597.660 I 218.686 J 333.161
G2 X1047.970 Y 674.940 I 394.041 J 379.523
F150
G1 Z  -3.000
F400
G2 X 994.460 Y 770.210 I 611.530 J 406.139
G2 X 951.060 Y 880.580 I 850.056 J 397.979
G2 X 919.080 Y1002.690 I1077.138 J 347.340
G2 X 899.490 Y1132.830 I1256.951 J 255.754
G2 X 892.900 Y1267.050 I1358.961 J 133.995
G2 X 899.490 Y1401.270 I1365.551 J   0.225
G2 X 919.080 Y1531.410 I1276.541 J-125.614
G2 X 951.060 Y1653.530 I1109.207 J-225.225
G2 X 994.460 Y1763.890 I 893.377 J-287.614
G2 X1047.970 Y1859.160 I 665.040 J-310.869
G2 X1109.950 Y1936.440 I 456.021 J-302.243
G2 X1178.530 Y1993.390 I 287.311 J-276.216
G2 X1251.620 Y2028.260 I 164.041 J-249.806
G2 X1327.000 Y2040.000 I  75.688 J-238.105
G2 X1402.380 Y2028.260 I  -0.308 J-249.845
G2 X1475.470 Y1993.390 I -90.951 J-284.676
G2 X1544.050 Y1936.440 I-218.731 J-333.166
G2 X1606.030 Y1859.160 I-394.041 J-379.523
G2 X1659.540 Y1763.890 I-611.530 J-406.139
G2 X1702.940 Y1653.530 I-849.977 J-397.974
G2 X1734.920 Y1531.410 I-1077.227 J-347.345
G2 X1754.510 Y1401.270 I-1256.951 J-255.754
G2 X1761.100 Y1267.050 I-1358.961 J-133.995
G2 X1754.510 Y1132.830 I-1365.551 J  -0.225
G2 X1734.920 Y1002.690 I-1276.541 J 125.614
G2 X1702.940 Y 880.580 I-1109.118 J 225.230
G2 X1659.540 Y 770.210 I-893.456 J 287.609
G2 X1606.030 Y 674.940 I-665.040 J 310.869
G2 X1544.050 Y 597.660 I-456.021 J 302.243
G2 X1475.470 Y 540.720 I-287.266 J 276.221
G2 X1402.380 Y 505.840 I-164.078 J 249.801
G2 X1327.000 Y 494.100 I -75.688 J 238.105
G2 X1251.620 Y 505.840 I   0.308 J 249.845
G2 X1178.530 Y 540.720 I  90.988 J 284.681
G2 X1109.950 Y 597.660 I 218.686 J 333.161
G2 X1047.970 Y 674.940 I 394.041 J 379.523
F150
G1 Z   3.000
G0 Z  15.000 
M9 M5

(* SHAPE Nr: 54 *)
G0 X 875.770 Y1990.840
M3 M8
G0 Z   3.000 
G1 Z  -1.500
F400
G1 X 875.770 Y2040.000
G3 X1071.250 Y2040.000 I  97.740 J  81.189
G1 X1071.250 Y1990.840
G2 X 875.770 Y1990.840 I -97.740 J 130.352
F150
G1 Z  -3.000
F400
G1 X 875.770 Y2040.000
G3 X1071.250 Y2040.000 I  97.740 J  81.189
G1 X1071.250 Y1990.840
G2 X 875.770 Y1990.840 I -97.740 J 130.352
F150
G1 Z   3.000
G0 Z  15.000 
M9 M5

(* SHAPE Nr: 55 *)
G0 X 875.810 Y1761.470
M3 M8
G0 Z   3.000 
G1 Z  -1.500
F400
G1 X 875.810 Y1832.480
G1 X 808.270 Y1854.430
G1 X 875.810 Y1876.370
G1 X 875.810 Y1947.380
G1 X 917.550 Y1889.930
G1 X 985.080 Y1911.880
G1 X 943.340 Y1854.430
G1 X 985.080 Y1796.980
G1 X 917.550 Y1818.920
G1 X 875.810 Y1761.470
F150
G1 Z  -3.000
F400
G1 X 875.810 Y1832.480
G1 X 808.270 Y1854.430
G1 X 875.810 Y1876.370
G1 X 875.810 Y1947.380
G1 X 917.550 Y1889.930
G1 X 985.080 Y1911.880
G1 X 943.340 Y1854.430
G1 X 985.080 Y1796.980
G1 X 917.550 Y1818.920
G1 X 875.810 Y1761.470
F150
G1 Z   3.000
G0 Z  15.000 
M9 M5

(* SHAPE Nr: 56 *)
G0 X 748.280 Y1854.090
M3 M8
G0 Z   3.000 
G1 Z  -1.500
F400
G1 X 748.280 Y1925.100
G1 X 680.740 Y1947.040
G1 X 748.280 Y1968.990
G1 X 748.280 Y2040.000
G1 X 790.020 Y1982.550
G1 X 857.550 Y2004.490
G1 X 815.810 Y1947.040
G1 X 857.550 Y1889.590
G1 X 790.020 Y1911.540
G1 X 748.280 Y1854.090
F150
G1 Z  -3.000
F400
G1 X 748.280 Y1925.100
G1 X 680.740 Y1947.040
G1 X 748.280 Y1968.990
G1 X 748.280 Y2040.000
G1 X 790.020 Y1982.550
G1 X 857.550 Y2004.490
G1 X 815.810 Y1947.040
G1 X 857.550 Y1889.590
G1 X 790.020 Y1911.540
G1 X 748.280 Y1854.090
F150
G1 Z   3.000
G0 Z  15.000 
M9 M5

(* SHAPE Nr: 57 *)
G0 X 295.630 Y 540.720
M3 M8
G0 Z   3.000 
G1 Z  -1.500
F400
G2 X 227.050 Y 597.660 I 218.686 J 333.161
G2 X 165.070 Y 674.940 I 394.041 J 379.523
G2 X 111.560 Y 770.210 I 611.530 J 406.139
G2 X  68.160 Y 880.580 I 850.056 J 397.979
G2 X  36.180 Y1002.690 I1077.138 J 347.340
G2 X  16.590 Y1132.830 I1256.951 J 255.754
G2 X  10.000 Y1267.050 I1358.961 J 133.995
G2 X  16.590 Y1401.270 I1365.551 J   0.225
G2 X  36.180 Y1531.410 I1276.541 J-125.614
G2 X  68.160 Y1653.530 I1109.207 J-225.225
G2 X 111.560 Y1763.890 I 893.377 J-287.614
G2 X 165.070 Y1859.160 I 665.040 J-310.869
G2 X 227.050 Y1936.440 I 456.021 J-302.243
G2 X 295.630 Y1993.390 I 287.311 J-276.216
G2 X 368.720 Y2028.260 I 164.041 J-249.806
G2 X 444.100 Y2040.000 I  75.688 J-238.105
G2 X 519.480 Y2028.260 I  -0.308 J-249.845
G2 X 592.570 Y1993.390 I -90.951 J-284.676
G2 X 661.150 Y1936.440 I-218.731 J-333.166
G2 X 723.130 Y1859.160 I-394.041 J-379.523
G2 X 776.640 Y1763.890 I-611.530 J-406.139
G2 X 820.040 Y1653.530 I-849.977 J-397.974
G2 X 852.020 Y1531.410 I-1077.227 J-347.345
G2 X 871.600 Y1401.270 I-1256.956 J-255.656
G2 X 878.200 Y1267.050 I-1358.956 J-134.096
G2 X 871.600 Y1132.830 I-1365.556 J  -0.124
G2 X 852.020 Y1002.690 I-1276.536 J 125.516
G2 X 820.040 Y 880.580 I-1109.118 J 225.230
G2 X 776.640 Y 770.210 I-893.456 J 287.609
G2 X 723.130 Y 674.940 I-665.040 J 310.869
G2 X 661.150 Y 597.660 I-456.021 J 302.243
G2 X 592.570 Y 540.720 I-287.266 J 276.221
G2 X 519.480 Y 505.840 I-164.078 J 249.801
G2 X 444.100 Y 494.100 I -75.688 J 238.105
G2 X 368.720 Y 505.840 I   0.308 J 249.845
G2 X 295.630 Y 540.720 I  90.988 J 284.681
F150
G1 Z  -3.000
F400
G2 X 227.050 Y 597.660 I 218.686 J 333.161
G2 X 165.070 Y 674.940 I 394.041 J 379.523
G2 X 111.560 Y 770.210 I 611.530 J 406.139
G2 X  68.160 Y 880.580 I 850.056 J 397.979
G2 X  36.180 Y1002.690 I1077.138 J 347.340
G2 X  16.590 Y1132.830 I1256.951 J 255.754
G2 X  10.000 Y1267.050 I1358.961 J 133.995
G2 X  16.590 Y1401.270 I1365.551 J   0.225
G2 X  36.180 Y1531.410 I1276.541 J-125.614
G2 X  68.160 Y1653.530 I1109.207 J-225.225
G2 X 111.560 Y1763.890 I 893.377 J-287.614
G2 X 165.070 Y1859.160 I 665.040 J-310.869
G2 X 227.050 Y1936.440 I 456.021 J-302.243
G2 X 295.630 Y1993.390 I 287.311 J-276.216
G2 X 368.720 Y2028.260 I 164.041 J-249.806
G2 X 444.100 Y2040.000 I  75.688 J-238.105
G2 X 519.480 Y2028.260 I  -0.308 J-249.845
G2 X 592.570 Y1993.390 I -90.951 J-284.676
G2 X 661.150 Y1936.440 I-218.731 J-333.166
G2 X 723.130 Y1859.160 I-394.041 J-379.523
G2 X 776.640 Y1763.890 I-611.530 J-406.139
G2 X 820.040 Y1653.530 I-849.977 J-397.974
G2 X 852.020 Y1531.410 I-1077.227 J-347.345
G2 X 871.600 Y1401.270 I-1256.956 J-255.656
G2 X 878.200 Y1267.050 I-1358.956 J-134.096
G2 X 871.600 Y1132.830 I-1365.556 J  -0.124
G2 X 852.020 Y1002.690 I-1276.536 J 125.516
G2 X 820.040 Y 880.580 I-1109.118 J 225.230
G2 X 776.640 Y 770.210 I-893.456 J 287.609
G2 X 723.130 Y 674.940 I-665.040 J 310.869
G2 X 661.150 Y 597.660 I-456.021 J 302.243
G2 X 592.570 Y 540.720 I-287.266 J 276.221
G2 X 519.480 Y 505.840 I-164.078 J 249.801
G2 X 444.100 Y 494.100 I -75.688 J 238.105
G2 X 368.720 Y 505.840 I   0.308 J 249.845
G2 X 295.630 Y 540.720 I  90.988 J 284.681
F150
G1 Z   3.000
G0 Z  15.000 
M9 M5

(* SHAPE Nr: 58 *)
G0 X 119.280 Y1854.090
M3 M8
G0 Z   3.000 
G1 Z  -1.500
F400
G1 X  77.540 Y1911.540
G1 X  10.000 Y1889.590
G1 X  51.740 Y1947.040
G1 X  10.000 Y2004.490
G1 X  77.540 Y1982.550
G1 X 119.280 Y2040.000
G1 X 119.280 Y1968.990
G1 X 186.810 Y1947.040
G1 X 119.280 Y1925.100
G1 X 119.280 Y1854.090
F150
G1 Z  -3.000
F400
G1 X  77.540 Y1911.540
G1 X  10.000 Y1889.590
G1 X  51.740 Y1947.040
G1 X  10.000 Y2004.490
G1 X  77.540 Y1982.550
G1 X 119.280 Y2040.000
G1 X 119.280 Y1968.990
G1 X 186.810 Y1947.040
G1 X 119.280 Y1925.100
G1 X 119.280 Y1854.090
F150
G1 Z   3.000
G0 Z  15.000 
M9 M5

(* SHAPE Nr: 59 *)
G0 X1360.480 Y 413.540
M3 M8
G0 Z   3.000 
G1 Z  -1.500
F400
G2 X1356.750 Y 430.510 I  37.489 J  17.135
G2 X1360.480 Y 447.480 I  41.219 J  -0.165
G2 X1371.580 Y 463.940 I  55.810 J -25.663
G2 X1389.700 Y 479.380 I  77.347 J -72.419
G2 X1414.290 Y 493.340 I  99.673 J-146.933
G2 X1444.600 Y 505.390 I 115.683 J-246.838
G2 X1479.720 Y 515.160 I 119.408 J-361.226
G2 X1518.570 Y 522.360 I 107.654 J-472.468
G2 X1559.980 Y 526.770 I  80.734 J-561.467
G2 X1602.690 Y 528.250 I  42.570 J-611.491
G2 X1645.390 Y 526.770 I   0.135 J-612.828
G2 X1686.800 Y 522.360 I -39.324 J-565.877
G2 X1725.660 Y 515.160 I -68.799 J-479.791
G2 X1760.770 Y 505.390 I -84.293 J-370.892
G2 X1791.090 Y 493.340 I -85.371 J-258.980
G2 X1815.680 Y 479.380 I -75.083 J-160.893
G2 X1833.800 Y 463.940 I -59.227 J -87.859
G2 X1844.890 Y 447.480 I -44.715 J -42.093
G2 X1848.630 Y 430.510 I -37.484 J -17.158
G2 X1844.890 Y 413.540 I -41.224 J   0.188
G2 X1833.800 Y 397.080 I -55.805 J  25.633
G2 X1815.680 Y 381.640 I -77.347 J  72.419
G2 X1791.090 Y 367.690 I -99.610 J 146.938
G2 X1760.770 Y 355.640 I-115.688 J 246.921
G2 X1725.660 Y 345.870 I-119.403 J 361.122
G2 X1686.800 Y 338.670 I-107.659 J 472.591
G2 X1645.390 Y 334.260 I -80.734 J 561.467
G2 X1602.690 Y 332.770 I -42.709 J 611.343
G2 X1559.980 Y 334.260 I   0.004 J 612.976
G2 X1518.570 Y 338.670 I  39.324 J 565.877
G2 X1479.720 Y 345.870 I  68.804 J 479.668
G2 X1444.600 Y 355.640 I  84.288 J 370.996
G2 X1414.290 Y 367.690 I  85.373 J 258.888
G2 X1389.700 Y 381.640 I  75.020 J 160.888
G2 X1371.580 Y 397.080 I  59.227 J  87.859
G2 X1360.480 Y 413.540 I  44.710 J  42.123
F150
G1 Z  -3.000
F400
G2 X1356.750 Y 430.510 I  37.489 J  17.135
G2 X1360.480 Y 447.480 I  41.219 J  -0.165
G2 X1371.580 Y 463.940 I  55.810 J -25.663
G2 X1389.700 Y 479.380 I  77.347 J -72.419
G2 X1414.290 Y 493.340 I  99.673 J-146.933
G2 X1444.600 Y 505.390 I 115.683 J-246.838
G2 X1479.720 Y 515.160 I 119.408 J-361.226
G2 X1518.570 Y 522.360 I 107.654 J-472.468
G2 X1559.980 Y 526.770 I  80.734 J-561.467
G2 X1602.690 Y 528.250 I  42.570 J-611.491
G2 X1645.390 Y 526.770 I   0.135 J-612.828
G2 X1686.800 Y 522.360 I -39.324 J-565.877
G2 X1725.660 Y 515.160 I -68.799 J-479.791
G2 X1760.770 Y 505.390 I -84.293 J-370.892
G2 X1791.090 Y 493.340 I -85.371 J-258.980
G2 X1815.680 Y 479.380 I -75.083 J-160.893
G2 X1833.800 Y 463.940 I -59.227 J -87.859
G2 X1844.890 Y 447.480 I -44.715 J -42.093
G2 X1848.630 Y 430.510 I -37.484 J -17.158
G2 X1844.890 Y 413.540 I -41.224 J   0.188
G2 X1833.800 Y 397.080 I -55.805 J  25.633
G2 X1815.680 Y 381.640 I -77.347 J  72.419
G2 X1791.090 Y 367.690 I -99.610 J 146.938
G2 X1760.770 Y 355.640 I-115.688 J 246.921
G2 X1725.660 Y 345.870 I-119.403 J 361.122
G2 X1686.800 Y 338.670 I-107.659 J 472.591
G2 X1645.390 Y 334.260 I -80.734 J 561.467
G2 X1602.690 Y 332.770 I -42.709 J 611.343
G2 X1559.980 Y 334.260 I   0.004 J 612.976
G2 X1518.570 Y 338.670 I  39.324 J 565.877
G2 X1479.720 Y 345.870 I  68.804 J 479.668
G2 X1444.600 Y 355.640 I  84.288 J 370.996
G2 X1414.290 Y 367.690 I  85.373 J 258.888
G2 X1389.700 Y 381.640 I  75.020 J 160.888
G2 X1371.580 Y 397.080 I  59.227 J  87.859
G2 X1360.480 Y 413.540 I  44.710 J  42.123
F150
G1 Z   3.000
G0 Z  15.000 
M9 M5

(* SHAPE Nr: 60 *)
G0 X1560.900 Y 155.960
M3 M8
G0 Z   3.000 
G1 Z  -1.500
F400
G1 X1574.720 Y 169.790
G3 X1712.950 Y 112.530 I 138.234 J 138.229
G1 X2040.870 Y 112.530
G1 X2040.870 Y  92.980
G1 X1712.950 Y  92.980
G2 X1560.900 Y 155.960 I  -8.169 J 195.311
F150
G1 Z  -3.000
F400
G1 X1574.720 Y 169.790
G3 X1712.950 Y 112.530 I 138.234 J 138.229
G1 X2040.870 Y 112.530
G1 X2040.870 Y  92.980
G1 X1712.950 Y  92.980
G2 X1560.900 Y 155.960 I  -8.169 J 195.311
F150
G1 Z   3.000
G0 Z  15.000 
M9 M5

(* SHAPE Nr: 61 *)
G0 X  10.000 Y  81.000
M3 M8
G0 Z   3.000 
G1 Z  -1.500
F400
G2 X  21.740 Y 156.380 I 249.845 J  -0.308
G2 X  56.620 Y 229.470 I 284.681 J -90.988
G2 X 113.560 Y 298.050 I 333.161 J-218.686
G2 X 190.840 Y 360.040 I 379.578 J-394.036
G2 X 286.110 Y 413.540 I 406.072 J-611.535
G2 X 396.480 Y 456.950 I 398.058 J-850.051
G2 X 518.590 Y 488.920 I 347.250 J-1077.143
G2 X 648.730 Y 508.510 I 255.754 J-1256.951
G2 X 782.950 Y 515.100 I 133.995 J-1358.961
G2 X 917.170 Y 508.510 I   0.225 J-1365.551
G2 X1047.310 Y 488.920 I-125.614 J-1276.541
G2 X1169.430 Y 456.950 I-225.135 J-1109.202
G2 X1279.790 Y 413.540 I-287.693 J-893.382
G2 X1375.060 Y 360.040 I-310.802 J-665.035
G2 X1452.340 Y 298.050 I-302.298 J-456.026
G2 X1509.290 Y 229.470 I-276.216 J-287.311
G2 X1544.160 Y 156.380 I-249.806 J-164.041
G2 X1555.900 Y  81.000 I-238.105 J -75.688
G1 X  10.000 Y  81.000
F150
G1 Z  -3.000
F400
G2 X  21.740 Y 156.380 I 249.845 J  -0.308
G2 X  56.620 Y 229.470 I 284.681 J -90.988
G2 X 113.560 Y 298.050 I 333.161 J-218.686
G2 X 190.840 Y 360.040 I 379.578 J-394.036
G2 X 286.110 Y 413.540 I 406.072 J-611.535
G2 X 396.480 Y 456.950 I 398.058 J-850.051
G2 X 518.590 Y 488.920 I 347.250 J-1077.143
G2 X 648.730 Y 508.510 I 255.754 J-1256.951
G2 X 782.950 Y 515.100 I 133.995 J-1358.961
G2 X 917.170 Y 508.510 I   0.225 J-1365.551
G2 X1047.310 Y 488.920 I-125.614 J-1276.541
G2 X1169.430 Y 456.950 I-225.135 J-1109.202
G2 X1279.790 Y 413.540 I-287.693 J-893.382
G2 X1375.060 Y 360.040 I-310.802 J-665.035
G2 X1452.340 Y 298.050 I-302.298 J-456.026
G2 X1509.290 Y 229.470 I-276.216 J-287.311
G2 X1544.160 Y 156.380 I-249.806 J-164.041
G2 X1555.900 Y  81.000 I-238.105 J -75.688
G1 X  10.000 Y  81.000
F150
G1 Z   3.000
G0 Z  15.000 
M9 M5
G0 X   0.000 Y   0.000
M2 (Program end)