(Generated with: DXF2GCODE, Version: REMOVED, Date: $Date$)
(Created from file: )
(Output format description: G-CODE for LinuxCNC)
(Time: Thu Sep 13 16:01:15 2018)
G21 (Units in millimeters)
G90 (Absolute programming)
G64 (Default cutting) G17 (XY plane) G40 (Cancel radius comp.) G49 (Cancel length comp.)
G0 Z  15.000 

(*** LAYER: FRAME_Z18 ***)
T1 M6
S6000

(* SHAPE Nr: 3 *)
G0 X   0.000 Y   0.000
M3 M8
G0 Z   3.000 
F150
G1 Z  -1.500
F400
G1 X   0.000 Y2050.000
G1 X2800.000 Y2050.000
G1 X2800.000 Y   0.000
G1 X   0.000 Y   0.000
F150
G1 Z  -3.000
F400
G1 X   0.000 Y2050.000
G1 X2800.000 Y2050.000
G1 X2800.000 Y   0.000
G1 X   0.000 Y   0.000
F150
G1 Z   3.000
G0 Z  15.000 
M9 M5

(*** LAYER: OFFCUT_D0_T132.2_RK1_A2_W2_EM1 ***)

(* SHAPE Nr: 4 *)
G0 X 778.990 Y2050.000
M3 M8
G0 Z   3.000 
G1 Z  -1.500
F400
G1 X 778.990 Y   0.000
F150
G1 Z  -3.000
F400
G1 X 778.990 Y2050.000
F150
G1 Z   3.000
G0 Z  15.000 
M9 M5

(*** LAYER: BORDER_D0_T132_RK1_A0_W0_EM1_RI1_ID0024 ***)

(* SHAPE Nr: 0 *)
G0 X 385.940 Y 286.630
M3 M8
G0 Z   3.000 
G1 Z  -1.500
F400
G1 X  10.000 Y 503.680
G1 X  10.000 Y 937.780
G1 X 385.940 Y1154.830
G1 X 761.880 Y 937.780
G1 X 761.880 Y 503.680
G1 X 385.940 Y 286.630
F150
G1 Z  -3.000
F400
G1 X  10.000 Y 503.680
G1 X  10.000 Y 937.780
G1 X 385.940 Y1154.830
G1 X 761.880 Y 937.780
G1 X 761.880 Y 503.680
G1 X 385.940 Y 286.630
F150
G1 Z   3.000
G0 Z  15.000 
M9 M5

(*** LAYER: BORDER_D0_T132_RK1_A0_W0_EM1_RI1_ID0012 ***)

(* SHAPE Nr: 1 *)
G0 X 385.940 Y1171.800
M3 M8
G0 Z   3.000 
G1 Z  -1.500
F400
G1 X 260.630 Y1388.850
G1 X  10.000 Y1388.850
G1 X 135.310 Y1605.900
G1 X  10.000 Y1822.950
G1 X 260.630 Y1822.950
G1 X 385.940 Y2040.000
G1 X 511.260 Y1822.950
G1 X 761.880 Y1822.950
G1 X 636.570 Y1605.900
G1 X 761.880 Y1388.850
G1 X 511.260 Y1388.850
G1 X 385.940 Y1171.800
F150
G1 Z  -3.000
F400
G1 X 260.630 Y1388.850
G1 X  10.000 Y1388.850
G1 X 135.310 Y1605.900
G1 X  10.000 Y1822.950
G1 X 260.630 Y1822.950
G1 X 385.940 Y2040.000
G1 X 511.260 Y1822.950
G1 X 761.880 Y1822.950
G1 X 636.570 Y1605.900
G1 X 761.880 Y1388.850
G1 X 511.260 Y1388.850
G1 X 385.940 Y1171.800
F150
G1 Z   3.000
G0 Z  15.000 
M9 M5

(*** LAYER: BORDER_D0_T132_RK1_A0_W0_EM1_RI1_ID0011 ***)

(* SHAPE Nr: 2 *)
G0 X 503.280 Y1870.710
M3 M8
G0 Z   3.000 
G1 Z  -1.500
F400
G1 X 503.280 Y1927.140
G1 X 454.410 Y1955.350
G1 X 503.280 Y1983.570
G1 X 503.280 Y2040.000
G1 X 552.150 Y2011.790
G1 X 601.020 Y2040.000
G1 X 601.020 Y1983.570
G1 X 649.890 Y1955.350
G1 X 601.020 Y1927.140
G1 X 601.020 Y1870.710
G1 X 552.150 Y1898.930
G1 X 503.280 Y1870.710
F150
G1 Z  -3.000
F400
G1 X 503.280 Y1927.140
G1 X 454.410 Y1955.350
G1 X 503.280 Y1983.570
G1 X 503.280 Y2040.000
G1 X 552.150 Y2011.790
G1 X 601.020 Y2040.000
G1 X 601.020 Y1983.570
G1 X 649.890 Y1955.350
G1 X 601.020 Y1927.140
G1 X 601.020 Y1870.710
G1 X 552.150 Y1898.930
G1 X 503.280 Y1870.710
F150
G1 Z   3.000
G0 Z  15.000 
M9 M5

(*** LAYER: BORDER_D0_T132.1_RK1_A0_W0_EM1 ***)

(* SHAPE Nr: 5 *)
G0 X -14.700 Y 488.980
M3 M8
G0 Z   3.000 
G1 Z  -1.500
F400
G1 X  10.000 Y 488.980
G1 X  10.000 Y 937.780
G1 X 385.940 Y1154.830
G1 X 392.560 Y1160.340
G1 X 385.940 Y1171.800
G1 X 260.630 Y1388.850
G1 X  10.000 Y1388.850
G1 X 135.310 Y1605.900
G1 X  10.000 Y1822.950
G1 X 260.630 Y1822.950
G1 X 385.940 Y2040.000
G1 X 511.260 Y1822.950
G1 X 761.880 Y1822.950
F150
G1 Z  -3.000
F400
G1 X 511.260 Y1822.950
G1 X 385.940 Y2040.000
G1 X 260.630 Y1822.950
G1 X  10.000 Y1822.950
G1 X 135.310 Y1605.900
G1 X  10.000 Y1388.850
G1 X 260.630 Y1388.850
G1 X 385.940 Y1171.800
G1 X 392.560 Y1160.340
G1 X 385.940 Y1154.830
G1 X  10.000 Y 937.780
G1 X  10.000 Y 488.980
G1 X -14.700 Y 488.980
F150
G1 Z   3.000
G0 Z  15.000 
M9 M5

(* SHAPE Nr: 6 *)
G0 X 601.020 Y1870.710
M3 M8
G0 Z   3.000 
G1 Z  -1.500
F400
G1 X 552.150 Y1898.930
G1 X 503.280 Y1870.710
G1 X 503.280 Y1927.140
G1 X 454.410 Y1955.350
G1 X 503.280 Y1983.570
G1 X 503.280 Y2040.000
G1 X 552.150 Y2011.790
G1 X 601.020 Y2040.000
G1 X 601.020 Y1983.570
G1 X 649.890 Y1955.350
G1 X 601.020 Y1927.140
G1 X 601.020 Y1857.480
G1 X 761.880 Y1822.950
G1 X 636.570 Y1605.900
G1 X 761.880 Y1388.850
G1 X 511.260 Y1388.850
G1 X 379.330 Y1160.340
G1 X 385.940 Y1154.830
G1 X 761.880 Y 937.780
G1 X 761.880 Y 503.680
G1 X 385.940 Y 286.630
G1 X  10.000 Y 503.680
F150
G1 Z  -3.000
F400
G1 X 385.940 Y 286.630
G1 X 761.880 Y 503.680
G1 X 761.880 Y 937.780
G1 X 385.940 Y1154.830
G1 X 379.330 Y1160.340
G1 X 511.260 Y1388.850
G1 X 761.880 Y1388.850
G1 X 636.570 Y1605.900
G1 X 761.880 Y1822.950
G1 X 601.020 Y1857.480
G1 X 601.020 Y1927.140
G1 X 649.890 Y1955.350
G1 X 601.020 Y1983.570
G1 X 601.020 Y2040.000
G1 X 552.150 Y2011.790
G1 X 503.280 Y2040.000
G1 X 503.280 Y1983.570
G1 X 454.410 Y1955.350
G1 X 503.280 Y1927.140
G1 X 503.280 Y1870.710
G1 X 552.150 Y1898.930
G1 X 601.020 Y1870.710
F150
G1 Z   3.000
G0 Z  15.000 
M9 M5
G0 X   0.000 Y   0.000
M2 (Program end)