(Generated with: DXF2GCODE, Version: REMOVED, Date: $Date$)
(Created from file: )
(Output format description: G-CODE for LinuxCNC)
(Time: Thu Sep 13 16:00:29 2018)
G21 (Units in millimeters)
G90 (Absolute programming)
G64 (Default cutting) G17 (XY plane) G40 (Cancel radius comp.) G49 (Cancel length comp.)
G0 Z  15.000 

(*** LAYER: FRAME_Z18 ***)
T1 M6
S6000

(* SHAPE Nr: 52 *)
G0 X   0.000 Y   0.000
M3 M8
G0 Z   3.000 
F150
G1 Z  -1.500
F400
G1 X   0.000 Y2050.000
G1 X2800.000 Y2050.000
G1 X2800.000 Y   0.000
G1 X   0.000 Y   0.000
F150
G1 Z  -3.000
F400
G1 X   0.000 Y2050.000
G1 X2800.000 Y2050.000
G1 X2800.000 Y   0.000
G1 X   0.000 Y   0.000
F150
G1 Z   3.000
G0 Z  15.000 
M9 M5

(*** LAYER: BORDER_D0_T132_RK1_A0_W0_EM1_RI1_ID0023 ***)

(* SHAPE Nr: 0 *)
G0 X 126.430 Y 126.120
M3 M8
G0 Z   3.000 
G1 Z  -1.500
F400
G1 X 126.430 Y 223.860
G1 X 211.070 Y 272.730
G1 X 295.710 Y 223.860
G1 X 295.710 Y 126.120
G1 X 211.070 Y  77.250
G1 X 126.430 Y 126.120
F150
G1 Z  -3.000
F400
G1 X 126.430 Y 223.860
G1 X 211.070 Y 272.730
G1 X 295.710 Y 223.860
G1 X 295.710 Y 126.120
G1 X 211.070 Y  77.250
G1 X 126.430 Y 126.120
F150
G1 Z   3.000
G0 Z  15.000 
M9 M5

(* SHAPE Nr: 5 *)
G0 X 820.820 Y 101.340
M3 M8
G0 Z   3.000 
G1 Z  -1.500
F400
G1 X 820.820 Y 199.080
G1 X 905.460 Y 247.950
G1 X 990.100 Y 199.080
G1 X 990.100 Y 101.340
G1 X 905.460 Y  52.470
G1 X 820.820 Y 101.340
F150
G1 Z  -3.000
F400
G1 X 820.820 Y 199.080
G1 X 905.460 Y 247.950
G1 X 990.100 Y 199.080
G1 X 990.100 Y 101.340
G1 X 905.460 Y  52.470
G1 X 820.820 Y 101.340
F150
G1 Z   3.000
G0 Z  15.000 
M9 M5

(*** LAYER: BORDER_D0_T132_RK1_A0_W0_EM1_RI1_ID0028 ***)

(* SHAPE Nr: 1 *)
G0 X 247.220 Y  74.230
M3 M8
G0 Z   3.000 
G1 Z  -1.500
F400
G1 X 261.050 Y  88.050
G3 X 399.270 Y  30.800 I 138.220 J 138.230
G1 X 727.190 Y  30.800
G1 X 727.190 Y  11.250
G1 X 399.270 Y  11.250
G2 X 247.220 Y  74.230 I  -8.170 J 195.309
F150
G1 Z  -3.000
F400
G1 X 261.050 Y  88.050
G3 X 399.270 Y  30.800 I 138.220 J 138.230
G1 X 727.190 Y  30.800
G1 X 727.190 Y  11.250
G1 X 399.270 Y  11.250
G2 X 247.220 Y  74.230 I  -8.170 J 195.309
F150
G1 Z   3.000
G0 Z  15.000 
M9 M5

(*** LAYER: BORDER_D0_T132_RK1_A0_W0_EM1_RI1_ID0003 ***)

(* SHAPE Nr: 2 *)
G0 X 310.450 Y 172.010
M3 M8
G0 Z   3.000 
G1 Z  -1.500
F400
G1 X 310.450 Y 232.410
G1 X 345.960 Y 281.280
G1 X 403.410 Y 299.950
G1 X 460.870 Y 281.280
G1 X 496.370 Y 232.410
G1 X 496.370 Y 172.010
G1 X 460.870 Y 123.140
G1 X 403.410 Y 104.470
G1 X 345.960 Y 123.140
G1 X 310.450 Y 172.010
F150
G1 Z  -3.000
F400
G1 X 310.450 Y 232.410
G1 X 345.960 Y 281.280
G1 X 403.410 Y 299.950
G1 X 460.870 Y 281.280
G1 X 496.370 Y 232.410
G1 X 496.370 Y 172.010
G1 X 460.870 Y 123.140
G1 X 403.410 Y 104.470
G1 X 345.960 Y 123.140
G1 X 310.450 Y 172.010
F150
G1 Z   3.000
G0 Z  15.000 
M9 M5

(* SHAPE Nr: 4 *)
G0 X 589.830 Y 153.080
M3 M8
G0 Z   3.000 
G1 Z  -1.500
F400
G1 X 608.500 Y 210.530
G1 X 657.370 Y 246.030
G1 X 717.770 Y 246.030
G1 X 766.640 Y 210.530
G1 X 785.310 Y 153.080
G1 X 766.640 Y  95.630
G1 X 717.770 Y  60.120
G1 X 657.370 Y  60.120
G1 X 608.500 Y  95.630
G1 X 589.830 Y 153.080
F150
G1 Z  -3.000
F400
G1 X 608.500 Y 210.530
G1 X 657.370 Y 246.030
G1 X 717.770 Y 246.030
G1 X 766.640 Y 210.530
G1 X 785.310 Y 153.080
G1 X 766.640 Y  95.630
G1 X 717.770 Y  60.120
G1 X 657.370 Y  60.120
G1 X 608.500 Y  95.630
G1 X 589.830 Y 153.080
F150
G1 Z   3.000
G0 Z  15.000 
M9 M5

(* SHAPE Nr: 6 *)
G0 X  77.540 Y 248.010
M3 M8
G0 Z   3.000 
G1 Z  -1.500
F400
G1 X  28.670 Y 283.520
G1 X  10.000 Y 340.970
G1 X  28.670 Y 398.420
G1 X  77.540 Y 433.920
G1 X 137.940 Y 433.920
G1 X 186.810 Y 398.420
G1 X 205.480 Y 340.970
G1 X 186.810 Y 283.520
G1 X 137.940 Y 248.010
G1 X  77.540 Y 248.010
F150
G1 Z  -3.000
F400
G1 X  28.670 Y 283.520
G1 X  10.000 Y 340.970
G1 X  28.670 Y 398.420
G1 X  77.540 Y 433.920
G1 X 137.940 Y 433.920
G1 X 186.810 Y 398.420
G1 X 205.480 Y 340.970
G1 X 186.810 Y 283.520
G1 X 137.940 Y 248.010
G1 X  77.540 Y 248.010
F150
G1 Z   3.000
G0 Z  15.000 
M9 M5

(* SHAPE Nr: 17 *)
G0 X2204.240 Y 469.800
M3 M8
G0 Z   3.000 
G1 Z  -1.500
F400
G1 X2204.240 Y 530.200
G1 X2239.750 Y 579.070
G1 X2297.200 Y 597.740
G1 X2354.660 Y 579.070
G1 X2390.160 Y 530.200
G1 X2390.160 Y 469.800
G1 X2354.660 Y 420.930
G1 X2297.200 Y 402.260
G1 X2239.750 Y 420.930
G1 X2204.240 Y 469.800
F150
G1 Z  -3.000
F400
G1 X2204.240 Y 530.200
G1 X2239.750 Y 579.070
G1 X2297.200 Y 597.740
G1 X2354.660 Y 579.070
G1 X2390.160 Y 530.200
G1 X2390.160 Y 469.800
G1 X2354.660 Y 420.930
G1 X2297.200 Y 402.260
G1 X2239.750 Y 420.930
G1 X2204.240 Y 469.800
F150
G1 Z   3.000
G0 Z  15.000 
M9 M5

(*** LAYER: BORDER_D0_T132_RK1_A0_W0_EM1_RI1_ID0013 ***)

(* SHAPE Nr: 3 *)
G0 X 492.640 Y  69.550
M3 M8
G0 Z   3.000 
G1 Z  -1.500
F400
G3 X 492.640 Y 265.030 I -81.189 J  97.740
G1 X 517.220 Y 265.030
G1 X 541.800 Y 265.030
G2 X 541.800 Y  69.550 I-130.352 J -97.740
G1 X 492.640 Y  69.550
F150
G1 Z  -3.000
F400
G3 X 492.640 Y 265.030 I -81.189 J  97.740
G1 X 517.220 Y 265.030
G1 X 541.800 Y 265.030
G2 X 541.800 Y  69.550 I-130.352 J -97.740
G1 X 492.640 Y  69.550
F150
G1 Z   3.000
G0 Z  15.000 
M9 M5

(* SHAPE Nr: 9 *)
G0 X  10.000 Y1233.670
M3 M8
G0 Z   3.000 
G1 Z  -1.500
F400
G1 X  10.000 Y1258.250
G1 X  10.000 Y1282.830
G2 X 205.480 Y1282.830 I  97.740 J-130.352
G1 X 205.480 Y1233.670
G3 X  10.000 Y1233.670 I -97.740 J -81.189
F150
G1 Z  -3.000
F400
G1 X  10.000 Y1258.250
G1 X  10.000 Y1282.830
G2 X 205.480 Y1282.830 I  97.740 J-130.352
G1 X 205.480 Y1233.670
G3 X  10.000 Y1233.670 I -97.740 J -81.189
F150
G1 Z   3.000
G0 Z  15.000 
M9 M5

(* SHAPE Nr: 13 *)
G0 X1326.940 Y1216.710
M3 M8
G0 Z   3.000 
G1 Z  -1.500
F400
G1 X1326.940 Y1265.870
G3 X1522.420 Y1265.870 I  97.740 J  81.189
G1 X1522.420 Y1241.290
G1 X1522.420 Y1216.710
G2 X1326.940 Y1216.710 I -97.740 J 130.352
F150
G1 Z  -3.000
F400
G1 X1326.940 Y1265.870
G3 X1522.420 Y1265.870 I  97.740 J  81.189
G1 X1522.420 Y1241.290
G1 X1522.420 Y1216.710
G2 X1326.940 Y1216.710 I -97.740 J 130.352
F150
G1 Z   3.000
G0 Z  15.000 
M9 M5

(* SHAPE Nr: 15 *)
G0 X1735.310 Y 484.130
M3 M8
G0 Z   3.000 
G1 Z  -1.500
F400
G1 X1735.310 Y 508.710
G1 X1735.310 Y 533.290
G2 X1930.790 Y 533.290 I  97.740 J-130.352
G1 X1930.790 Y 484.130
G3 X1735.310 Y 484.130 I -97.740 J -81.189
F150
G1 Z  -3.000
F400
G1 X1735.310 Y 508.710
G1 X1735.310 Y 533.290
G2 X1930.790 Y 533.290 I  97.740 J-130.352
G1 X1930.790 Y 484.130
G3 X1735.310 Y 484.130 I -97.740 J -81.189
F150
G1 Z   3.000
G0 Z  15.000 
M9 M5

(*** LAYER: BORDER_D0_T132_RK1_A0_W0_EM1_RI1_ID0019 ***)

(* SHAPE Nr: 7 *)
G0 X 190.840 Y 414.410
M3 M8
G0 Z   3.000 
G1 Z  -1.500
F400
G2 X 113.560 Y 476.390 I 302.250 J 456.030
G2 X  56.610 Y 544.970 I 276.195 J 287.293
G2 X  21.740 Y 618.060 I 249.810 J 164.043
G2 X  10.000 Y 693.440 I 238.112 J  75.689
G1 X 782.950 Y 693.440
G1 X1555.900 Y 693.440
G2 X1544.160 Y 618.060 I-249.852 J   0.309
G2 X1509.280 Y 544.970 I-284.669 J  90.982
G2 X1452.340 Y 476.390 I-333.161 J 218.686
G2 X1375.060 Y 414.410 I-379.530 J 394.050
G2 X1279.790 Y 360.900 I-406.139 J 611.530
G2 X1169.420 Y 317.500 I-397.979 J 850.056
G2 X1047.310 Y 285.520 I-347.340 J1077.138
G2 X 917.170 Y 265.930 I-255.754 J1256.951
G2 X 782.950 Y 259.340 I-133.997 J1359.017
G2 X 648.730 Y 265.930 I  -0.225 J1365.551
G2 X 518.590 Y 285.520 I 125.614 J1276.541
G2 X 396.470 Y 317.500 I 225.204 J1109.129
G2 X 286.110 Y 360.900 I 287.636 J 893.432
G2 X 190.840 Y 414.410 I 310.869 J 665.040
F150
G1 Z  -3.000
F400
G2 X 113.560 Y 476.390 I 302.250 J 456.030
G2 X  56.610 Y 544.970 I 276.195 J 287.293
G2 X  21.740 Y 618.060 I 249.810 J 164.043
G2 X  10.000 Y 693.440 I 238.112 J  75.689
G1 X 782.950 Y 693.440
G1 X1555.900 Y 693.440
G2 X1544.160 Y 618.060 I-249.852 J   0.309
G2 X1509.280 Y 544.970 I-284.669 J  90.982
G2 X1452.340 Y 476.390 I-333.161 J 218.686
G2 X1375.060 Y 414.410 I-379.530 J 394.050
G2 X1279.790 Y 360.900 I-406.139 J 611.530
G2 X1169.420 Y 317.500 I-397.979 J 850.056
G2 X1047.310 Y 285.520 I-347.340 J1077.138
G2 X 917.170 Y 265.930 I-255.754 J1256.951
G2 X 782.950 Y 259.340 I-133.997 J1359.017
G2 X 648.730 Y 265.930 I  -0.225 J1365.551
G2 X 518.590 Y 285.520 I 125.614 J1276.541
G2 X 396.470 Y 317.500 I 225.204 J1109.129
G2 X 286.110 Y 360.900 I 287.636 J 893.432
G2 X 190.840 Y 414.410 I 310.869 J 665.040
F150
G1 Z   3.000
G0 Z  15.000 
M9 M5

(* SHAPE Nr: 8 *)
G0 X 286.110 Y 809.700
M3 M8
G0 Z   3.000 
G1 Z  -1.500
F400
G2 X 190.840 Y 863.210 I 310.869 J 665.040
G2 X 113.560 Y 925.190 I 302.250 J 456.030
G2 X  56.610 Y 993.770 I 276.195 J 287.293
G2 X  21.740 Y1066.860 I 249.810 J 164.043
G2 X  10.000 Y1142.240 I 238.112 J  75.689
G1 X 782.950 Y1142.240
G1 X1555.900 Y1142.240
G2 X1544.160 Y1066.860 I-249.852 J   0.309
G2 X1509.280 Y 993.770 I-284.669 J  90.982
G2 X1452.340 Y 925.190 I-333.161 J 218.686
G2 X1375.060 Y 863.210 I-379.530 J 394.050
G2 X1279.790 Y 809.700 I-406.139 J 611.530
G2 X1169.420 Y 766.300 I-397.979 J 850.056
G2 X1047.310 Y 734.320 I-347.340 J1077.138
G2 X 917.170 Y 714.730 I-255.754 J1256.951
G2 X 782.950 Y 708.140 I-133.997 J1359.017
G2 X 648.730 Y 714.730 I  -0.223 J1365.607
G2 X 518.590 Y 734.320 I 125.614 J1276.541
G2 X 396.470 Y 766.300 I 225.204 J1109.129
G2 X 286.110 Y 809.700 I 287.636 J 893.432
F150
G1 Z  -3.000
F400
G2 X 190.840 Y 863.210 I 310.869 J 665.040
G2 X 113.560 Y 925.190 I 302.250 J 456.030
G2 X  56.610 Y 993.770 I 276.195 J 287.293
G2 X  21.740 Y1066.860 I 249.810 J 164.043
G2 X  10.000 Y1142.240 I 238.112 J  75.689
G1 X 782.950 Y1142.240
G1 X1555.900 Y1142.240
G2 X1544.160 Y1066.860 I-249.852 J   0.309
G2 X1509.280 Y 993.770 I-284.669 J  90.982
G2 X1452.340 Y 925.190 I-333.161 J 218.686
G2 X1375.060 Y 863.210 I-379.530 J 394.050
G2 X1279.790 Y 809.700 I-406.139 J 611.530
G2 X1169.420 Y 766.300 I-397.979 J 850.056
G2 X1047.310 Y 734.320 I-347.340 J1077.138
G2 X 917.170 Y 714.730 I-255.754 J1256.951
G2 X 782.950 Y 708.140 I-133.997 J1359.017
G2 X 648.730 Y 714.730 I  -0.223 J1365.607
G2 X 518.590 Y 734.320 I 125.614 J1276.541
G2 X 396.470 Y 766.300 I 225.204 J1109.129
G2 X 286.110 Y 809.700 I 287.636 J 893.432
F150
G1 Z   3.000
G0 Z  15.000 
M9 M5

(* SHAPE Nr: 10 *)
G0 X 396.470 Y1215.100
M3 M8
G0 Z   3.000 
G1 Z  -1.500
F400
G2 X 286.110 Y1258.500 I 287.636 J 893.432
G2 X 190.840 Y1312.010 I 310.869 J 665.040
G2 X 113.560 Y1373.990 I 302.250 J 456.030
G2 X  56.610 Y1442.570 I 276.195 J 287.293
G2 X  21.740 Y1515.660 I 249.810 J 164.043
G2 X  10.000 Y1591.040 I 238.112 J  75.689
G1 X 782.950 Y1591.040
G1 X1555.900 Y1591.040
G2 X1544.160 Y1515.660 I-249.852 J   0.309
G2 X1509.280 Y1442.570 I-284.669 J  90.982
G2 X1452.340 Y1373.990 I-333.161 J 218.686
G2 X1375.060 Y1312.010 I-379.530 J 394.050
G2 X1279.790 Y1258.500 I-406.139 J 611.530
G2 X1169.420 Y1215.100 I-397.979 J 850.056
G2 X1047.310 Y1183.120 I-347.340 J1077.138
G2 X 917.170 Y1163.530 I-255.754 J1256.951
G2 X 782.950 Y1156.940 I-133.997 J1359.017
G2 X 648.730 Y1163.530 I  -0.225 J1365.551
G2 X 518.590 Y1183.120 I 125.614 J1276.541
G2 X 396.470 Y1215.100 I 225.204 J1109.129
F150
G1 Z  -3.000
F400
G2 X 286.110 Y1258.500 I 287.636 J 893.432
G2 X 190.840 Y1312.010 I 310.869 J 665.040
G2 X 113.560 Y1373.990 I 302.250 J 456.030
G2 X  56.610 Y1442.570 I 276.195 J 287.293
G2 X  21.740 Y1515.660 I 249.810 J 164.043
G2 X  10.000 Y1591.040 I 238.112 J  75.689
G1 X 782.950 Y1591.040
G1 X1555.900 Y1591.040
G2 X1544.160 Y1515.660 I-249.852 J   0.309
G2 X1509.280 Y1442.570 I-284.669 J  90.982
G2 X1452.340 Y1373.990 I-333.161 J 218.686
G2 X1375.060 Y1312.010 I-379.530 J 394.050
G2 X1279.790 Y1258.500 I-406.139 J 611.530
G2 X1169.420 Y1215.100 I-397.979 J 850.056
G2 X1047.310 Y1183.120 I-347.340 J1077.138
G2 X 917.170 Y1163.530 I-255.754 J1256.951
G2 X 782.950 Y1156.940 I-133.997 J1359.017
G2 X 648.730 Y1163.530 I  -0.225 J1365.551
G2 X 518.590 Y1183.120 I 125.614 J1276.541
G2 X 396.470 Y1215.100 I 225.204 J1109.129
F150
G1 Z   3.000
G0 Z  15.000 
M9 M5

(* SHAPE Nr: 12 *)
G0 X  10.000 Y1606.060
M3 M8
G0 Z   3.000 
G1 Z  -1.500
F400
G2 X  21.740 Y1681.440 I 249.852 J  -0.309
G2 X  56.620 Y1754.530 I 284.669 J -90.982
G2 X 113.560 Y1823.110 I 333.161 J-218.686
G2 X 190.840 Y1885.090 I 379.530 J-394.050
G2 X 286.110 Y1938.600 I 406.139 J-611.530
G2 X 396.480 Y1982.000 I 397.979 J-850.056
G2 X 518.590 Y2013.980 I 347.340 J-1077.138
G2 X 648.730 Y2033.570 I 255.754 J-1256.951
G2 X 782.950 Y2040.160 I 133.995 J-1358.961
G2 X 917.170 Y2033.570 I   0.225 J-1365.551
G2 X1047.310 Y2013.980 I-125.614 J-1276.541
G2 X1169.430 Y1982.000 I-225.204 J-1109.129
G2 X1279.790 Y1938.600 I-287.636 J-893.432
G2 X1375.060 Y1885.090 I-310.869 J-665.040
G2 X1452.340 Y1823.110 I-302.250 J-456.030
G2 X1509.290 Y1754.530 I-276.195 J-287.293
G2 X1544.160 Y1681.440 I-249.810 J-164.043
G2 X1555.900 Y1606.060 I-238.112 J -75.689
G1 X 782.950 Y1606.060
G1 X  10.000 Y1606.060
F150
G1 Z  -3.000
F400
G2 X  21.740 Y1681.440 I 249.852 J  -0.309
G2 X  56.620 Y1754.530 I 284.669 J -90.982
G2 X 113.560 Y1823.110 I 333.161 J-218.686
G2 X 190.840 Y1885.090 I 379.530 J-394.050
G2 X 286.110 Y1938.600 I 406.139 J-611.530
G2 X 396.480 Y1982.000 I 397.979 J-850.056
G2 X 518.590 Y2013.980 I 347.340 J-1077.138
G2 X 648.730 Y2033.570 I 255.754 J-1256.951
G2 X 782.950 Y2040.160 I 133.995 J-1358.961
G2 X 917.170 Y2033.570 I   0.225 J-1365.551
G2 X1047.310 Y2013.980 I-125.614 J-1276.541
G2 X1169.430 Y1982.000 I-225.204 J-1109.129
G2 X1279.790 Y1938.600 I-287.636 J-893.432
G2 X1375.060 Y1885.090 I-310.869 J-665.040
G2 X1452.340 Y1823.110 I-302.250 J-456.030
G2 X1509.290 Y1754.530 I-276.195 J-287.293
G2 X1544.160 Y1681.440 I-249.810 J-164.043
G2 X1555.900 Y1606.060 I-238.112 J -75.689
G1 X 782.950 Y1606.060
G1 X  10.000 Y1606.060
F150
G1 Z   3.000
G0 Z  15.000 
M9 M5

(* SHAPE Nr: 14 *)
G0 X1570.770 Y 494.100
M3 M8
G0 Z   3.000 
G1 Z  -1.500
F400
G1 X1570.770 Y1267.050
G1 X1570.770 Y2040.000
G2 X1646.150 Y2028.260 I  -0.309 J-249.852
G2 X1719.240 Y1993.380 I -90.982 J-284.669
G2 X1787.820 Y1936.440 I-218.686 J-333.161
G2 X1849.800 Y1859.160 I-394.050 J-379.530
G2 X1903.310 Y1763.890 I-611.530 J-406.139
G2 X1946.710 Y1653.520 I-850.056 J-397.979
G2 X1978.690 Y1531.410 I-1077.138 J-347.340
G2 X1998.280 Y1401.270 I-1256.951 J-255.754
G2 X2004.870 Y1267.050 I-1359.017 J-133.997
G2 X1998.280 Y1132.830 I-1365.551 J  -0.225
G2 X1978.690 Y1002.690 I-1276.541 J 125.614
G2 X1946.710 Y 880.570 I-1109.129 J 225.204
G2 X1903.310 Y 770.210 I-893.432 J 287.636
G2 X1849.800 Y 674.940 I-665.040 J 310.869
G2 X1787.820 Y 597.660 I-456.030 J 302.250
G2 X1719.240 Y 540.710 I-287.293 J 276.195
G2 X1646.150 Y 505.840 I-164.043 J 249.810
G2 X1570.770 Y 494.100 I -75.689 J 238.112
F150
G1 Z  -3.000
F400
G1 X1570.770 Y1267.050
G1 X1570.770 Y2040.000
G2 X1646.150 Y2028.260 I  -0.309 J-249.852
G2 X1719.240 Y1993.380 I -90.982 J-284.669
G2 X1787.820 Y1936.440 I-218.686 J-333.161
G2 X1849.800 Y1859.160 I-394.050 J-379.530
G2 X1903.310 Y1763.890 I-611.530 J-406.139
G2 X1946.710 Y1653.520 I-850.056 J-397.979
G2 X1978.690 Y1531.410 I-1077.138 J-347.340
G2 X1998.280 Y1401.270 I-1256.951 J-255.754
G2 X2004.870 Y1267.050 I-1359.017 J-133.997
G2 X1998.280 Y1132.830 I-1365.551 J  -0.225
G2 X1978.690 Y1002.690 I-1276.541 J 125.614
G2 X1946.710 Y 880.570 I-1109.129 J 225.204
G2 X1903.310 Y 770.210 I-893.432 J 287.636
G2 X1849.800 Y 674.940 I-665.040 J 310.869
G2 X1787.820 Y 597.660 I-456.030 J 302.250
G2 X1719.240 Y 540.710 I-287.293 J 276.195
G2 X1646.150 Y 505.840 I-164.043 J 249.810
G2 X1570.770 Y 494.100 I -75.689 J 238.112
F150
G1 Z   3.000
G0 Z  15.000 
M9 M5

(* SHAPE Nr: 16 *)
G0 X2019.570 Y 494.100
M3 M8
G0 Z   3.000 
G1 Z  -1.500
F400
G1 X2019.570 Y1267.050
G1 X2019.570 Y2040.000
G2 X2094.950 Y2028.260 I  -0.309 J-249.852
G2 X2168.040 Y1993.380 I -90.982 J-284.669
G2 X2236.620 Y1936.440 I-218.686 J-333.161
G2 X2298.600 Y1859.160 I-394.050 J-379.530
G2 X2352.110 Y1763.890 I-611.530 J-406.139
G2 X2395.510 Y1653.520 I-850.056 J-397.979
G2 X2427.490 Y1531.410 I-1077.138 J-347.340
G2 X2447.080 Y1401.270 I-1256.951 J-255.754
G2 X2453.670 Y1267.050 I-1358.961 J-133.995
G2 X2447.080 Y1132.830 I-1365.607 J  -0.223
G2 X2427.490 Y1002.690 I-1276.541 J 125.614
G2 X2395.510 Y 880.570 I-1109.129 J 225.204
G2 X2352.110 Y 770.210 I-893.432 J 287.636
G2 X2298.600 Y 674.940 I-665.040 J 310.869
G2 X2236.620 Y 597.660 I-456.030 J 302.250
G2 X2168.040 Y 540.710 I-287.293 J 276.195
G2 X2094.950 Y 505.840 I-164.043 J 249.810
G2 X2019.570 Y 494.100 I -75.689 J 238.112
F150
G1 Z  -3.000
F400
G1 X2019.570 Y1267.050
G1 X2019.570 Y2040.000
G2 X2094.950 Y2028.260 I  -0.309 J-249.852
G2 X2168.040 Y1993.380 I -90.982 J-284.669
G2 X2236.620 Y1936.440 I-218.686 J-333.161
G2 X2298.600 Y1859.160 I-394.050 J-379.530
G2 X2352.110 Y1763.890 I-611.530 J-406.139
G2 X2395.510 Y1653.520 I-850.056 J-397.979
G2 X2427.490 Y1531.410 I-1077.138 J-347.340
G2 X2447.080 Y1401.270 I-1256.951 J-255.754
G2 X2453.670 Y1267.050 I-1358.961 J-133.995
G2 X2447.080 Y1132.830 I-1365.607 J  -0.223
G2 X2427.490 Y1002.690 I-1276.541 J 125.614
G2 X2395.510 Y 880.570 I-1109.129 J 225.204
G2 X2352.110 Y 770.210 I-893.432 J 287.636
G2 X2298.600 Y 674.940 I-665.040 J 310.869
G2 X2236.620 Y 597.660 I-456.030 J 302.250
G2 X2168.040 Y 540.710 I-287.293 J 276.195
G2 X2094.950 Y 505.840 I-164.043 J 249.810
G2 X2019.570 Y 494.100 I -75.689 J 238.112
F150
G1 Z   3.000
G0 Z  15.000 
M9 M5

(* SHAPE Nr: 18 *)
G0 X 998.850 Y  10.160
M3 M8
G0 Z   3.000 
G1 Z  -1.500
F400
G2 X1010.590 Y  85.540 I 249.852 J  -0.309
G2 X1045.470 Y 158.630 I 284.669 J -90.982
G2 X1102.410 Y 227.210 I 333.161 J-218.686
G2 X1179.690 Y 289.190 I 379.530 J-394.050
G2 X1274.960 Y 342.700 I 406.139 J-611.530
G2 X1385.330 Y 386.100 I 397.979 J-850.056
G2 X1507.440 Y 418.080 I 347.340 J-1077.138
G2 X1637.580 Y 437.670 I 255.754 J-1256.951
G2 X1771.800 Y 444.260 I 133.995 J-1358.961
G2 X1906.020 Y 437.670 I   0.225 J-1365.551
G2 X2036.160 Y 418.080 I-125.614 J-1276.541
G2 X2158.280 Y 386.100 I-225.204 J-1109.129
G2 X2268.640 Y 342.700 I-287.636 J-893.432
G2 X2363.910 Y 289.190 I-310.869 J-665.040
G2 X2441.190 Y 227.210 I-302.250 J-456.030
G2 X2498.140 Y 158.630 I-276.195 J-287.293
G2 X2533.010 Y  85.540 I-249.810 J-164.043
G2 X2544.750 Y  10.160 I-238.112 J -75.689
G1 X1771.800 Y  10.160
G1 X 998.850 Y  10.160
F150
G1 Z  -3.000
F400
G2 X1010.590 Y  85.540 I 249.852 J  -0.309
G2 X1045.470 Y 158.630 I 284.669 J -90.982
G2 X1102.410 Y 227.210 I 333.161 J-218.686
G2 X1179.690 Y 289.190 I 379.530 J-394.050
G2 X1274.960 Y 342.700 I 406.139 J-611.530
G2 X1385.330 Y 386.100 I 397.979 J-850.056
G2 X1507.440 Y 418.080 I 347.340 J-1077.138
G2 X1637.580 Y 437.670 I 255.754 J-1256.951
G2 X1771.800 Y 444.260 I 133.995 J-1358.961
G2 X1906.020 Y 437.670 I   0.225 J-1365.551
G2 X2036.160 Y 418.080 I-125.614 J-1276.541
G2 X2158.280 Y 386.100 I-225.204 J-1109.129
G2 X2268.640 Y 342.700 I-287.636 J-893.432
G2 X2363.910 Y 289.190 I-310.869 J-665.040
G2 X2441.190 Y 227.210 I-302.250 J-456.030
G2 X2498.140 Y 158.630 I-276.195 J-287.293
G2 X2533.010 Y  85.540 I-249.810 J-164.043
G2 X2544.750 Y  10.160 I-238.112 J -75.689
G1 X1771.800 Y  10.160
G1 X 998.850 Y  10.160
F150
G1 Z   3.000
G0 Z  15.000 
M9 M5

(*** LAYER: BORDER_D0_T132_RK1_A0_W0_EM1_RI1_ID0025 ***)

(* SHAPE Nr: 11 *)
G0 X 119.280 Y1854.090
M3 M8
G0 Z   3.000 
G1 Z  -1.500
F400
G1 X  10.000 Y1889.600
G1 X  10.000 Y2004.500
G1 X 119.280 Y2040.000
G1 X 186.810 Y1947.050
G1 X 119.280 Y1854.090
F150
G1 Z  -3.000
F400
G1 X  10.000 Y1889.600
G1 X  10.000 Y2004.500
G1 X 119.280 Y2040.000
G1 X 186.810 Y1947.050
G1 X 119.280 Y1854.090
F150
G1 Z   3.000
G0 Z  15.000 
M9 M5

(*** LAYER: BORDER_D0_T132_RK1_A0_W0_EM1_RI1_ID0011 ***)

(* SHAPE Nr: 19 *)
G0 X2595.700 Y  58.860
M3 M8
G0 Z   3.000 
G1 Z  -1.500
F400
G1 X2623.920 Y 107.730
G1 X2595.700 Y 156.600
G1 X2652.130 Y 156.600
G1 X2680.340 Y 205.470
G1 X2708.560 Y 156.600
G1 X2764.980 Y 156.600
G1 X2736.780 Y 107.730
G1 X2764.980 Y  58.860
G1 X2708.560 Y  58.860
G1 X2680.340 Y   9.990
G1 X2652.130 Y  58.860
G1 X2595.700 Y  58.860
F150
G1 Z  -3.000
F400
G1 X2623.920 Y 107.730
G1 X2595.700 Y 156.600
G1 X2652.130 Y 156.600
G1 X2680.340 Y 205.470
G1 X2708.560 Y 156.600
G1 X2764.980 Y 156.600
G1 X2736.780 Y 107.730
G1 X2764.980 Y  58.860
G1 X2708.560 Y  58.860
G1 X2680.340 Y   9.990
G1 X2652.130 Y  58.860
G1 X2595.700 Y  58.860
F150
G1 Z   3.000
G0 Z  15.000 
M9 M5

(*** LAYER: BORDER_D0_T132_RK1_A0_W0_EM1_RI1_ID0018 ***)

(* SHAPE Nr: 20 *)
G0 X2525.070 Y 339.540
M3 M8
G0 Z   3.000 
G1 Z  -1.500
F400
G2 X2520.670 Y 380.950 I 561.472 J  80.598
G2 X2519.180 Y 423.660 I 611.451 J  42.712
G2 X2520.670 Y 466.370 I 612.906 J  -0.001
G2 X2525.070 Y 507.780 I 565.872 J -39.188
G2 X2532.280 Y 546.630 I 479.697 J -68.931
G2 X2542.050 Y 581.750 I 370.966 J -84.280
G2 X2554.090 Y 612.060 I 258.933 J -85.309
G2 X2568.050 Y 636.650 I 160.873 J -75.072
G2 X2583.490 Y 654.770 I  87.858 J -59.225
G2 X2599.950 Y 665.860 I  42.094 J -44.717
G2 X2616.920 Y 669.600 I  17.159 J -37.487
G2 X2633.890 Y 665.860 I  -0.189 J -41.227
G2 X2650.350 Y 654.770 I -25.634 J -55.807
G2 X2665.790 Y 636.650 I -72.417 J -77.344
G2 X2679.750 Y 612.060 I-146.917 J -99.664
G2 X2691.790 Y 581.750 I-246.893 J-115.619
G2 X2701.560 Y 546.630 I-361.196 J-119.400
G2 X2708.770 Y 507.780 I-472.487 J-107.781
G2 X2713.170 Y 466.370 I-561.472 J -80.598
G2 X2714.660 Y 423.660 I-611.416 J -42.711
G2 X2713.170 Y 380.950 I-612.906 J   0.001
G2 X2708.770 Y 339.540 I-565.872 J  39.188
G2 X2701.560 Y 300.690 I-479.697 J  68.931
G2 X2691.790 Y 265.570 I-370.966 J  84.280
G2 X2679.750 Y 235.260 I-258.933 J  85.309
G2 X2665.790 Y 210.670 I-160.877 J  75.074
G2 X2650.350 Y 192.550 I -87.857 J  59.224
G2 X2633.890 Y 181.460 I -42.094 J  44.717
G2 X2616.920 Y 177.720 I -17.159 J  37.487
G2 X2599.950 Y 181.460 I   0.189 J  41.227
G2 X2583.490 Y 192.550 I  25.634 J  55.807
G2 X2568.050 Y 210.670 I  72.418 J  77.345
G2 X2554.090 Y 235.260 I 146.913 J  99.662
G2 X2542.050 Y 265.570 I 246.893 J 115.619
G2 X2532.280 Y 300.690 I 361.196 J 119.400
G2 X2525.070 Y 339.540 I 472.487 J 107.781
F150
G1 Z  -3.000
F400
G2 X2520.670 Y 380.950 I 561.472 J  80.598
G2 X2519.180 Y 423.660 I 611.451 J  42.712
G2 X2520.670 Y 466.370 I 612.906 J  -0.001
G2 X2525.070 Y 507.780 I 565.872 J -39.188
G2 X2532.280 Y 546.630 I 479.697 J -68.931
G2 X2542.050 Y 581.750 I 370.966 J -84.280
G2 X2554.090 Y 612.060 I 258.933 J -85.309
G2 X2568.050 Y 636.650 I 160.873 J -75.072
G2 X2583.490 Y 654.770 I  87.858 J -59.225
G2 X2599.950 Y 665.860 I  42.094 J -44.717
G2 X2616.920 Y 669.600 I  17.159 J -37.487
G2 X2633.890 Y 665.860 I  -0.189 J -41.227
G2 X2650.350 Y 654.770 I -25.634 J -55.807
G2 X2665.790 Y 636.650 I -72.417 J -77.344
G2 X2679.750 Y 612.060 I-146.917 J -99.664
G2 X2691.790 Y 581.750 I-246.893 J-115.619
G2 X2701.560 Y 546.630 I-361.196 J-119.400
G2 X2708.770 Y 507.780 I-472.487 J-107.781
G2 X2713.170 Y 466.370 I-561.472 J -80.598
G2 X2714.660 Y 423.660 I-611.416 J -42.711
G2 X2713.170 Y 380.950 I-612.906 J   0.001
G2 X2708.770 Y 339.540 I-565.872 J  39.188
G2 X2701.560 Y 300.690 I-479.697 J  68.931
G2 X2691.790 Y 265.570 I-370.966 J  84.280
G2 X2679.750 Y 235.260 I-258.933 J  85.309
G2 X2665.790 Y 210.670 I-160.877 J  75.074
G2 X2650.350 Y 192.550 I -87.857 J  59.224
G2 X2633.890 Y 181.460 I -42.094 J  44.717
G2 X2616.920 Y 177.720 I -17.159 J  37.487
G2 X2599.950 Y 181.460 I   0.189 J  41.227
G2 X2583.490 Y 192.550 I  25.634 J  55.807
G2 X2568.050 Y 210.670 I  72.418 J  77.345
G2 X2554.090 Y 235.260 I 146.913 J  99.662
G2 X2542.050 Y 265.570 I 246.893 J 115.619
G2 X2532.280 Y 300.690 I 361.196 J 119.400
G2 X2525.070 Y 339.540 I 472.487 J 107.781
F150
G1 Z   3.000
G0 Z  15.000 
M9 M5

(* SHAPE Nr: 21 *)
G0 X2453.270 Y 726.560
M3 M8
G0 Z   3.000 
G1 Z  -1.500
F400
G2 X2443.500 Y 761.680 I 361.196 J 119.400
G2 X2436.290 Y 800.530 I 472.487 J 107.781
G2 X2431.890 Y 841.940 I 561.472 J  80.598
G2 X2430.400 Y 884.650 I 611.451 J  42.712
G2 X2431.890 Y 927.360 I 612.906 J  -0.001
G2 X2436.290 Y 968.770 I 565.872 J -39.188
G2 X2443.500 Y1007.620 I 479.697 J -68.931
G2 X2453.270 Y1042.740 I 370.966 J -84.280
G2 X2465.310 Y1073.050 I 258.933 J -85.309
G2 X2479.270 Y1097.640 I 160.877 J -75.074
G2 X2494.710 Y1115.760 I  87.858 J -59.225
G2 X2511.170 Y1126.850 I  42.094 J -44.717
G2 X2528.140 Y1130.590 I  17.159 J -37.487
G2 X2545.110 Y1126.850 I  -0.189 J -41.227
G2 X2561.570 Y1115.760 I -25.634 J -55.807
G2 X2577.010 Y1097.640 I -72.417 J -77.344
G2 X2590.970 Y1073.050 I-146.917 J -99.664
G2 X2603.010 Y1042.740 I-246.893 J-115.619
G2 X2612.780 Y1007.620 I-361.196 J-119.400
G2 X2619.990 Y 968.770 I-472.487 J-107.781
G2 X2624.390 Y 927.360 I-561.472 J -80.598
G2 X2625.880 Y 884.650 I-611.416 J -42.711
G2 X2624.390 Y 841.940 I-612.906 J   0.001
G2 X2619.990 Y 800.530 I-565.872 J  39.188
G2 X2612.780 Y 761.680 I-479.697 J  68.931
G2 X2603.010 Y 726.560 I-370.966 J  84.280
G2 X2590.970 Y 696.250 I-258.933 J  85.309
G2 X2577.010 Y 671.660 I-160.877 J  75.074
G2 X2561.570 Y 653.540 I -87.857 J  59.224
G2 X2545.110 Y 642.450 I -42.094 J  44.717
G2 X2528.140 Y 638.710 I -17.159 J  37.487
G2 X2511.170 Y 642.450 I   0.189 J  41.227
G2 X2494.710 Y 653.540 I  25.634 J  55.807
G2 X2479.270 Y 671.660 I  72.418 J  77.345
G2 X2465.310 Y 696.250 I 146.917 J  99.664
G2 X2453.270 Y 726.560 I 246.893 J 115.619
F150
G1 Z  -3.000
F400
G2 X2443.500 Y 761.680 I 361.196 J 119.400
G2 X2436.290 Y 800.530 I 472.487 J 107.781
G2 X2431.890 Y 841.940 I 561.472 J  80.598
G2 X2430.400 Y 884.650 I 611.451 J  42.712
G2 X2431.890 Y 927.360 I 612.906 J  -0.001
G2 X2436.290 Y 968.770 I 565.872 J -39.188
G2 X2443.500 Y1007.620 I 479.697 J -68.931
G2 X2453.270 Y1042.740 I 370.966 J -84.280
G2 X2465.310 Y1073.050 I 258.933 J -85.309
G2 X2479.270 Y1097.640 I 160.877 J -75.074
G2 X2494.710 Y1115.760 I  87.858 J -59.225
G2 X2511.170 Y1126.850 I  42.094 J -44.717
G2 X2528.140 Y1130.590 I  17.159 J -37.487
G2 X2545.110 Y1126.850 I  -0.189 J -41.227
G2 X2561.570 Y1115.760 I -25.634 J -55.807
G2 X2577.010 Y1097.640 I -72.417 J -77.344
G2 X2590.970 Y1073.050 I-146.917 J -99.664
G2 X2603.010 Y1042.740 I-246.893 J-115.619
G2 X2612.780 Y1007.620 I-361.196 J-119.400
G2 X2619.990 Y 968.770 I-472.487 J-107.781
G2 X2624.390 Y 927.360 I-561.472 J -80.598
G2 X2625.880 Y 884.650 I-611.416 J -42.711
G2 X2624.390 Y 841.940 I-612.906 J   0.001
G2 X2619.990 Y 800.530 I-565.872 J  39.188
G2 X2612.780 Y 761.680 I-479.697 J  68.931
G2 X2603.010 Y 726.560 I-370.966 J  84.280
G2 X2590.970 Y 696.250 I-258.933 J  85.309
G2 X2577.010 Y 671.660 I-160.877 J  75.074
G2 X2561.570 Y 653.540 I -87.857 J  59.224
G2 X2545.110 Y 642.450 I -42.094 J  44.717
G2 X2528.140 Y 638.710 I -17.159 J  37.487
G2 X2511.170 Y 642.450 I   0.189 J  41.227
G2 X2494.710 Y 653.540 I  25.634 J  55.807
G2 X2479.270 Y 671.660 I  72.418 J  77.345
G2 X2465.310 Y 696.250 I 146.917 J  99.664
G2 X2453.270 Y 726.560 I 246.893 J 115.619
F150
G1 Z   3.000
G0 Z  15.000 
M9 M5

(* SHAPE Nr: 23 *)
G0 X2556.040 Y1199.940
M3 M8
G0 Z   3.000 
G1 Z  -1.500
F400
G2 X2544.000 Y1230.250 I 246.893 J 115.619
G2 X2534.230 Y1265.370 I 361.196 J 119.400
G2 X2527.020 Y1304.220 I 472.487 J 107.781
G2 X2522.620 Y1345.630 I 561.472 J  80.598
G2 X2521.130 Y1388.340 I 611.416 J  42.711
G2 X2522.620 Y1431.050 I 612.941 J  -0.002
G2 X2527.020 Y1472.460 I 565.872 J -39.188
G2 X2534.230 Y1511.310 I 479.697 J -68.931
G2 X2544.000 Y1546.430 I 370.966 J -84.280
G2 X2556.040 Y1576.740 I 258.933 J -85.309
G2 X2570.000 Y1601.330 I 160.873 J -75.072
G2 X2585.440 Y1619.450 I  87.858 J -59.225
G2 X2601.900 Y1630.540 I  42.094 J -44.717
G2 X2618.870 Y1634.280 I  17.159 J -37.487
G2 X2635.840 Y1630.540 I  -0.189 J -41.227
G2 X2652.300 Y1619.450 I -25.634 J -55.807
G2 X2667.740 Y1601.330 I -72.417 J -77.344
G2 X2681.700 Y1576.740 I-146.917 J -99.664
G2 X2693.740 Y1546.430 I-246.893 J-115.619
G2 X2703.510 Y1511.310 I-361.196 J-119.400
G2 X2710.720 Y1472.460 I-472.487 J-107.781
G2 X2715.120 Y1431.050 I-561.472 J -80.598
G2 X2716.610 Y1388.340 I-611.416 J -42.711
G2 X2715.120 Y1345.630 I-612.906 J   0.001
G2 X2710.720 Y1304.220 I-565.872 J  39.188
G2 X2703.510 Y1265.370 I-479.697 J  68.931
G2 X2693.740 Y1230.250 I-370.966 J  84.280
G2 X2681.700 Y1199.940 I-258.933 J  85.309
G2 X2667.740 Y1175.350 I-160.877 J  75.074
G2 X2652.300 Y1157.230 I -87.857 J  59.224
G2 X2635.840 Y1146.140 I -42.094 J  44.717
G2 X2618.870 Y1142.400 I -17.159 J  37.487
G2 X2601.900 Y1146.140 I   0.189 J  41.227
G2 X2585.440 Y1157.230 I  25.634 J  55.807
G2 X2570.000 Y1175.350 I  72.418 J  77.345
G2 X2556.040 Y1199.940 I 146.913 J  99.662
F150
G1 Z  -3.000
F400
G2 X2544.000 Y1230.250 I 246.893 J 115.619
G2 X2534.230 Y1265.370 I 361.196 J 119.400
G2 X2527.020 Y1304.220 I 472.487 J 107.781
G2 X2522.620 Y1345.630 I 561.472 J  80.598
G2 X2521.130 Y1388.340 I 611.416 J  42.711
G2 X2522.620 Y1431.050 I 612.941 J  -0.002
G2 X2527.020 Y1472.460 I 565.872 J -39.188
G2 X2534.230 Y1511.310 I 479.697 J -68.931
G2 X2544.000 Y1546.430 I 370.966 J -84.280
G2 X2556.040 Y1576.740 I 258.933 J -85.309
G2 X2570.000 Y1601.330 I 160.873 J -75.072
G2 X2585.440 Y1619.450 I  87.858 J -59.225
G2 X2601.900 Y1630.540 I  42.094 J -44.717
G2 X2618.870 Y1634.280 I  17.159 J -37.487
G2 X2635.840 Y1630.540 I  -0.189 J -41.227
G2 X2652.300 Y1619.450 I -25.634 J -55.807
G2 X2667.740 Y1601.330 I -72.417 J -77.344
G2 X2681.700 Y1576.740 I-146.917 J -99.664
G2 X2693.740 Y1546.430 I-246.893 J-115.619
G2 X2703.510 Y1511.310 I-361.196 J-119.400
G2 X2710.720 Y1472.460 I-472.487 J-107.781
G2 X2715.120 Y1431.050 I-561.472 J -80.598
G2 X2716.610 Y1388.340 I-611.416 J -42.711
G2 X2715.120 Y1345.630 I-612.906 J   0.001
G2 X2710.720 Y1304.220 I-565.872 J  39.188
G2 X2703.510 Y1265.370 I-479.697 J  68.931
G2 X2693.740 Y1230.250 I-370.966 J  84.280
G2 X2681.700 Y1199.940 I-258.933 J  85.309
G2 X2667.740 Y1175.350 I-160.877 J  75.074
G2 X2652.300 Y1157.230 I -87.857 J  59.224
G2 X2635.840 Y1146.140 I -42.094 J  44.717
G2 X2618.870 Y1142.400 I -17.159 J  37.487
G2 X2601.900 Y1146.140 I   0.189 J  41.227
G2 X2585.440 Y1157.230 I  25.634 J  55.807
G2 X2570.000 Y1175.350 I  72.418 J  77.345
G2 X2556.040 Y1199.940 I 146.913 J  99.662
F150
G1 Z   3.000
G0 Z  15.000 
M9 M5

(* SHAPE Nr: 24 *)
G0 X2442.510 Y1581.070
M3 M8
G0 Z   3.000 
G1 Z  -1.500
F400
G2 X2428.550 Y1605.660 I 146.913 J  99.662
G2 X2416.510 Y1635.970 I 246.893 J 115.619
G2 X2406.740 Y1671.090 I 361.196 J 119.400
G2 X2399.530 Y1709.940 I 472.487 J 107.781
G2 X2395.130 Y1751.350 I 561.472 J  80.598
G2 X2393.640 Y1794.060 I 611.416 J  42.711
G2 X2395.130 Y1836.770 I 612.941 J  -0.002
G2 X2399.530 Y1878.180 I 565.872 J -39.188
G2 X2406.740 Y1917.030 I 479.697 J -68.931
G2 X2416.510 Y1952.150 I 370.966 J -84.280
G2 X2428.550 Y1982.460 I 258.933 J -85.309
G2 X2442.510 Y2007.050 I 160.873 J -75.072
G2 X2457.950 Y2025.170 I  87.858 J -59.225
G2 X2474.410 Y2036.260 I  42.094 J -44.717
G2 X2491.380 Y2040.000 I  17.159 J -37.487
G2 X2508.350 Y2036.260 I  -0.189 J -41.227
G2 X2524.810 Y2025.170 I -25.634 J -55.807
G2 X2540.250 Y2007.050 I -72.418 J -77.345
G2 X2554.210 Y1982.460 I-146.917 J -99.664
G2 X2566.250 Y1952.150 I-246.893 J-115.619
G2 X2576.020 Y1917.030 I-361.196 J-119.400
G2 X2583.230 Y1878.180 I-472.487 J-107.781
G2 X2587.630 Y1836.770 I-561.472 J -80.598
G2 X2589.120 Y1794.060 I-611.416 J -42.711
G2 X2587.630 Y1751.350 I-612.906 J   0.001
G2 X2583.230 Y1709.940 I-565.872 J  39.188
G2 X2576.020 Y1671.090 I-479.697 J  68.931
G2 X2566.250 Y1635.970 I-370.966 J  84.280
G2 X2554.210 Y1605.660 I-258.933 J  85.309
G2 X2540.250 Y1581.070 I-160.877 J  75.074
G2 X2524.810 Y1562.950 I -87.857 J  59.224
G2 X2508.350 Y1551.860 I -42.094 J  44.717
G2 X2491.380 Y1548.120 I -17.159 J  37.487
G2 X2474.410 Y1551.860 I   0.189 J  41.227
G2 X2457.950 Y1562.950 I  25.634 J  55.807
G2 X2442.510 Y1581.070 I  72.418 J  77.345
F150
G1 Z  -3.000
F400
G2 X2428.550 Y1605.660 I 146.913 J  99.662
G2 X2416.510 Y1635.970 I 246.893 J 115.619
G2 X2406.740 Y1671.090 I 361.196 J 119.400
G2 X2399.530 Y1709.940 I 472.487 J 107.781
G2 X2395.130 Y1751.350 I 561.472 J  80.598
G2 X2393.640 Y1794.060 I 611.416 J  42.711
G2 X2395.130 Y1836.770 I 612.941 J  -0.002
G2 X2399.530 Y1878.180 I 565.872 J -39.188
G2 X2406.740 Y1917.030 I 479.697 J -68.931
G2 X2416.510 Y1952.150 I 370.966 J -84.280
G2 X2428.550 Y1982.460 I 258.933 J -85.309
G2 X2442.510 Y2007.050 I 160.873 J -75.072
G2 X2457.950 Y2025.170 I  87.858 J -59.225
G2 X2474.410 Y2036.260 I  42.094 J -44.717
G2 X2491.380 Y2040.000 I  17.159 J -37.487
G2 X2508.350 Y2036.260 I  -0.189 J -41.227
G2 X2524.810 Y2025.170 I -25.634 J -55.807
G2 X2540.250 Y2007.050 I -72.418 J -77.345
G2 X2554.210 Y1982.460 I-146.917 J -99.664
G2 X2566.250 Y1952.150 I-246.893 J-115.619
G2 X2576.020 Y1917.030 I-361.196 J-119.400
G2 X2583.230 Y1878.180 I-472.487 J-107.781
G2 X2587.630 Y1836.770 I-561.472 J -80.598
G2 X2589.120 Y1794.060 I-611.416 J -42.711
G2 X2587.630 Y1751.350 I-612.906 J   0.001
G2 X2583.230 Y1709.940 I-565.872 J  39.188
G2 X2576.020 Y1671.090 I-479.697 J  68.931
G2 X2566.250 Y1635.970 I-370.966 J  84.280
G2 X2554.210 Y1605.660 I-258.933 J  85.309
G2 X2540.250 Y1581.070 I-160.877 J  75.074
G2 X2524.810 Y1562.950 I -87.857 J  59.224
G2 X2508.350 Y1551.860 I -42.094 J  44.717
G2 X2491.380 Y1548.120 I -17.159 J  37.487
G2 X2474.410 Y1551.860 I   0.189 J  41.227
G2 X2457.950 Y1562.950 I  25.634 J  55.807
G2 X2442.510 Y1581.070 I  72.418 J  77.345
F150
G1 Z   3.000
G0 Z  15.000 
M9 M5

(*** LAYER: BORDER_D0_T132_RK1_A0_W0_EM1_RI1_ID0020 ***)

(* SHAPE Nr: 22 *)
G0 X2662.120 Y 808.590
M3 M8
G0 Z   3.000 
G1 Z  -1.500
F400
G2 X2652.350 Y 843.710 I 361.196 J 119.400
G2 X2645.140 Y 882.560 I 472.487 J 107.781
G2 X2640.740 Y 923.970 I 561.472 J  80.598
G2 X2639.250 Y 966.680 I 611.416 J  42.711
G2 X2640.740 Y1009.390 I 612.906 J  -0.001
G2 X2645.140 Y1050.800 I 565.872 J -39.188
G2 X2652.350 Y1089.650 I 479.697 J -68.931
G2 X2662.120 Y1124.770 I 370.966 J -84.280
G2 X2674.160 Y1155.080 I 258.933 J -85.309
G2 X2688.120 Y1179.670 I 160.877 J -75.074
G2 X2703.560 Y1197.790 I  87.857 J -59.224
G2 X2720.020 Y1208.880 I  42.094 J -44.717
G2 X2736.990 Y1212.620 I  17.159 J -37.487
G1 X2736.990 Y 966.680
G1 X2736.990 Y 720.740
G2 X2720.020 Y 724.480 I   0.189 J  41.227
G2 X2703.560 Y 735.570 I  25.634 J  55.807
G2 X2688.120 Y 753.690 I  72.418 J  77.345
G2 X2674.160 Y 778.280 I 146.917 J  99.664
G2 X2662.120 Y 808.590 I 246.893 J 115.619
F150
G1 Z  -3.000
F400
G2 X2652.350 Y 843.710 I 361.196 J 119.400
G2 X2645.140 Y 882.560 I 472.487 J 107.781
G2 X2640.740 Y 923.970 I 561.472 J  80.598
G2 X2639.250 Y 966.680 I 611.416 J  42.711
G2 X2640.740 Y1009.390 I 612.906 J  -0.001
G2 X2645.140 Y1050.800 I 565.872 J -39.188
G2 X2652.350 Y1089.650 I 479.697 J -68.931
G2 X2662.120 Y1124.770 I 370.966 J -84.280
G2 X2674.160 Y1155.080 I 258.933 J -85.309
G2 X2688.120 Y1179.670 I 160.877 J -75.074
G2 X2703.560 Y1197.790 I  87.857 J -59.224
G2 X2720.020 Y1208.880 I  42.094 J -44.717
G2 X2736.990 Y1212.620 I  17.159 J -37.487
G1 X2736.990 Y 966.680
G1 X2736.990 Y 720.740
G2 X2720.020 Y 724.480 I   0.189 J  41.227
G2 X2703.560 Y 735.570 I  25.634 J  55.807
G2 X2688.120 Y 753.690 I  72.418 J  77.345
G2 X2674.160 Y 778.280 I 146.917 J  99.664
G2 X2662.120 Y 808.590 I 246.893 J 115.619
F150
G1 Z   3.000
G0 Z  15.000 
M9 M5

(* SHAPE Nr: 25 *)
G0 X2697.520 Y1581.070
M3 M8
G0 Z   3.000 
G1 Z  -1.500
F400
G2 X2683.560 Y1605.660 I 146.913 J  99.662
G2 X2671.520 Y1635.970 I 246.893 J 115.619
G2 X2661.750 Y1671.090 I 361.196 J 119.400
G2 X2654.540 Y1709.940 I 472.487 J 107.781
G2 X2650.140 Y1751.350 I 561.472 J  80.598
G2 X2648.650 Y1794.060 I 611.416 J  42.711
G2 X2650.140 Y1836.770 I 612.941 J  -0.002
G2 X2654.540 Y1878.180 I 565.872 J -39.188
G2 X2661.750 Y1917.030 I 479.697 J -68.931
G2 X2671.520 Y1952.150 I 370.966 J -84.280
G2 X2683.560 Y1982.460 I 258.933 J -85.309
G2 X2697.520 Y2007.050 I 160.873 J -75.072
G2 X2712.960 Y2025.170 I  87.858 J -59.225
G2 X2729.420 Y2036.260 I  42.094 J -44.717
G2 X2746.390 Y2040.000 I  17.159 J -37.487
G1 X2746.390 Y1794.060
G1 X2746.390 Y1548.120
G2 X2729.420 Y1551.860 I   0.189 J  41.227
G2 X2712.960 Y1562.950 I  25.634 J  55.807
G2 X2697.520 Y1581.070 I  72.418 J  77.345
F150
G1 Z  -3.000
F400
G2 X2683.560 Y1605.660 I 146.913 J  99.662
G2 X2671.520 Y1635.970 I 246.893 J 115.619
G2 X2661.750 Y1671.090 I 361.196 J 119.400
G2 X2654.540 Y1709.940 I 472.487 J 107.781
G2 X2650.140 Y1751.350 I 561.472 J  80.598
G2 X2648.650 Y1794.060 I 611.416 J  42.711
G2 X2650.140 Y1836.770 I 612.941 J  -0.002
G2 X2654.540 Y1878.180 I 565.872 J -39.188
G2 X2661.750 Y1917.030 I 479.697 J -68.931
G2 X2671.520 Y1952.150 I 370.966 J -84.280
G2 X2683.560 Y1982.460 I 258.933 J -85.309
G2 X2697.520 Y2007.050 I 160.873 J -75.072
G2 X2712.960 Y2025.170 I  87.858 J -59.225
G2 X2729.420 Y2036.260 I  42.094 J -44.717
G2 X2746.390 Y2040.000 I  17.159 J -37.487
G1 X2746.390 Y1794.060
G1 X2746.390 Y1548.120
G2 X2729.420 Y1551.860 I   0.189 J  41.227
G2 X2712.960 Y1562.950 I  25.634 J  55.807
G2 X2697.520 Y1581.070 I  72.418 J  77.345
F150
G1 Z   3.000
G0 Z  15.000 
M9 M5

(*** LAYER: BORDER_D0_T132.1_RK1_A0_W0_EM1 ***)

(* SHAPE Nr: 26 *)
G0 X 126.430 Y 126.130
M3 M8
G0 Z   3.000 
G1 Z  -1.500
F400
G1 X 126.430 Y 223.870
G1 X 211.070 Y 272.740
G1 X 295.720 Y 223.870
G1 X 295.720 Y 126.130
G1 X 211.070 Y  77.260
G1 X 126.430 Y 126.130
F150
G1 Z  -3.000
F400
G1 X 126.430 Y 223.870
G1 X 211.070 Y 272.740
G1 X 295.720 Y 223.870
G1 X 295.720 Y 126.130
G1 X 211.070 Y  77.260
G1 X 126.430 Y 126.130
F150
G1 Z   3.000
G0 Z  15.000 
M9 M5

(* SHAPE Nr: 27 *)
G0 X 247.220 Y  74.230
M3 M8
G0 Z   3.000 
G1 Z  -1.500
F400
G1 X 261.040 Y  88.060
G3 X 399.260 Y  30.800 I 138.229 J 138.217
G1 X 727.180 Y  30.800
G1 X 727.180 Y  11.250
G1 X 399.260 Y  11.250
G2 X 247.220 Y  74.230 I  -8.164 J 195.301
F150
G1 Z  -3.000
F400
G1 X 261.040 Y  88.060
G3 X 399.260 Y  30.800 I 138.229 J 138.217
G1 X 727.180 Y  30.800
G1 X 727.180 Y  11.250
G1 X 399.260 Y  11.250
G2 X 247.220 Y  74.230 I  -8.164 J 195.301
F150
G1 Z   3.000
G0 Z  15.000 
M9 M5

(* SHAPE Nr: 28 *)
G0 X 310.460 Y 172.010
M3 M8
G0 Z   3.000 
G1 Z  -1.500
F400
G1 X 310.460 Y 232.420
G1 X 345.960 Y 281.290
G1 X 403.410 Y 299.950
G1 X 460.860 Y 281.290
G1 X 496.370 Y 232.420
G1 X 496.370 Y 172.010
G1 X 460.860 Y 123.140
G1 X 403.410 Y 104.470
G1 X 345.960 Y 123.140
G1 X 310.460 Y 172.010
F150
G1 Z  -3.000
F400
G1 X 310.460 Y 232.420
G1 X 345.960 Y 281.290
G1 X 403.410 Y 299.950
G1 X 460.860 Y 281.290
G1 X 496.370 Y 232.420
G1 X 496.370 Y 172.010
G1 X 460.860 Y 123.140
G1 X 403.410 Y 104.470
G1 X 345.960 Y 123.140
G1 X 310.460 Y 172.010
F150
G1 Z   3.000
G0 Z  15.000 
M9 M5

(* SHAPE Nr: 29 *)
G0 X 492.640 Y  69.550
M3 M8
G0 Z   3.000 
G1 Z  -1.500
F400
G3 X 492.640 Y 265.030 I -81.189 J  97.740
G1 X 541.810 Y 265.030
G2 X 541.810 Y  69.550 I-130.352 J -97.740
G1 X 492.640 Y  69.550
F150
G1 Z  -3.000
F400
G3 X 492.640 Y 265.030 I -81.189 J  97.740
G1 X 541.810 Y 265.030
G2 X 541.810 Y  69.550 I-130.352 J -97.740
G1 X 492.640 Y  69.550
F150
G1 Z   3.000
G0 Z  15.000 
M9 M5

(* SHAPE Nr: 30 *)
G0 X 589.830 Y 153.080
M3 M8
G0 Z   3.000 
G1 Z  -1.500
F400
G1 X 608.500 Y 210.530
G1 X 657.370 Y 246.030
G1 X 717.780 Y 246.030
G1 X 766.650 Y 210.530
G1 X 785.310 Y 153.080
G1 X 766.650 Y  95.630
G1 X 717.780 Y  60.120
G1 X 657.370 Y  60.120
G1 X 608.500 Y  95.630
G1 X 589.830 Y 153.080
F150
G1 Z  -3.000
F400
G1 X 608.500 Y 210.530
G1 X 657.370 Y 246.030
G1 X 717.780 Y 246.030
G1 X 766.650 Y 210.530
G1 X 785.310 Y 153.080
G1 X 766.650 Y  95.630
G1 X 717.780 Y  60.120
G1 X 657.370 Y  60.120
G1 X 608.500 Y  95.630
G1 X 589.830 Y 153.080
F150
G1 Z   3.000
G0 Z  15.000 
M9 M5

(* SHAPE Nr: 31 *)
G0 X 820.810 Y 101.350
M3 M8
G0 Z   3.000 
G1 Z  -1.500
F400
G1 X 820.810 Y 199.090
G1 X 905.460 Y 247.960
G1 X 990.100 Y 199.090
G1 X 990.100 Y 101.350
G1 X 905.460 Y  52.480
G1 X 820.810 Y 101.350
F150
G1 Z  -3.000
F400
G1 X 820.810 Y 199.090
G1 X 905.460 Y 247.960
G1 X 990.100 Y 199.090
G1 X 990.100 Y 101.350
G1 X 905.460 Y  52.480
G1 X 820.810 Y 101.350
F150
G1 Z   3.000
G0 Z  15.000 
M9 M5

(* SHAPE Nr: 32 *)
G0 X  77.540 Y 248.010
M3 M8
G0 Z   3.000 
G1 Z  -1.500
F400
G1 X  28.670 Y 283.510
G1 X  10.000 Y 340.960
G1 X  28.670 Y 398.410
G1 X  77.540 Y 433.920
G1 X 137.940 Y 433.920
G1 X 186.810 Y 398.410
G1 X 205.480 Y 340.960
G1 X 186.810 Y 283.510
G1 X 137.940 Y 248.010
G1 X  77.540 Y 248.010
F150
G1 Z  -3.000
F400
G1 X  28.670 Y 283.510
G1 X  10.000 Y 340.960
G1 X  28.670 Y 398.410
G1 X  77.540 Y 433.920
G1 X 137.940 Y 433.920
G1 X 186.810 Y 398.410
G1 X 205.480 Y 340.960
G1 X 186.810 Y 283.510
G1 X 137.940 Y 248.010
G1 X  77.540 Y 248.010
F150
G1 Z   3.000
G0 Z  15.000 
M9 M5

(* SHAPE Nr: 33 *)
G0 X 190.840 Y 414.570
M3 M8
G0 Z   3.000 
G1 Z  -1.500
F400
G2 X 113.560 Y 476.550 I 302.243 J 456.021
G2 X  56.620 Y 545.130 I 276.221 J 287.266
G2 X  21.740 Y 618.220 I 249.801 J 164.078
G2 X  10.000 Y 693.600 I 238.105 J  75.688
G1 X1555.900 Y 693.600
G2 X1544.160 Y 618.220 I-249.845 J   0.308
G2 X1509.290 Y 545.130 I-284.676 J  90.951
G2 X1452.340 Y 476.550 I-333.166 J 218.731
G2 X1375.060 Y 414.570 I-379.523 J 394.041
G2 X1279.790 Y 361.060 I-406.139 J 611.530
G2 X1169.430 Y 317.660 I-397.974 J 849.977
G2 X1047.310 Y 285.680 I-347.345 J1077.227
G2 X 917.170 Y 266.100 I-255.656 J1256.956
G2 X 782.950 Y 259.500 I-134.096 J1358.956
G2 X 648.730 Y 266.100 I  -0.124 J1365.556
G2 X 518.590 Y 285.680 I 125.516 J1276.536
G2 X 396.480 Y 317.660 I 225.230 J1109.118
G2 X 286.110 Y 361.060 I 287.609 J 893.456
G2 X 190.840 Y 414.570 I 310.869 J 665.040
F150
G1 Z  -3.000
F400
G2 X 113.560 Y 476.550 I 302.243 J 456.021
G2 X  56.620 Y 545.130 I 276.221 J 287.266
G2 X  21.740 Y 618.220 I 249.801 J 164.078
G2 X  10.000 Y 693.600 I 238.105 J  75.688
G1 X1555.900 Y 693.600
G2 X1544.160 Y 618.220 I-249.845 J   0.308
G2 X1509.290 Y 545.130 I-284.676 J  90.951
G2 X1452.340 Y 476.550 I-333.166 J 218.731
G2 X1375.060 Y 414.570 I-379.523 J 394.041
G2 X1279.790 Y 361.060 I-406.139 J 611.530
G2 X1169.430 Y 317.660 I-397.974 J 849.977
G2 X1047.310 Y 285.680 I-347.345 J1077.227
G2 X 917.170 Y 266.100 I-255.656 J1256.956
G2 X 782.950 Y 259.500 I-134.096 J1358.956
G2 X 648.730 Y 266.100 I  -0.124 J1365.556
G2 X 518.590 Y 285.680 I 125.516 J1276.536
G2 X 396.480 Y 317.660 I 225.230 J1109.118
G2 X 286.110 Y 361.060 I 287.609 J 893.456
G2 X 190.840 Y 414.570 I 310.869 J 665.040
F150
G1 Z   3.000
G0 Z  15.000 
M9 M5

(* SHAPE Nr: 34 *)
G0 X 286.110 Y 809.860
M3 M8
G0 Z   3.000 
G1 Z  -1.500
F400
G2 X 190.840 Y 863.370 I 310.869 J 665.040
G2 X 113.560 Y 925.350 I 302.243 J 456.021
G2 X  56.620 Y 993.930 I 276.221 J 287.266
G2 X  21.740 Y1067.020 I 249.801 J 164.078
G2 X  10.000 Y1142.400 I 238.105 J  75.688
G1 X1555.900 Y1142.400
G2 X1544.160 Y1067.020 I-249.845 J   0.308
G2 X1509.290 Y 993.930 I-284.676 J  90.951
G2 X1452.340 Y 925.350 I-333.166 J 218.731
G2 X1375.060 Y 863.370 I-379.523 J 394.041
G2 X1279.790 Y 809.860 I-406.139 J 611.530
G2 X1169.430 Y 766.460 I-397.974 J 849.977
G2 X1047.310 Y 734.480 I-347.345 J1077.227
G2 X 917.170 Y 714.900 I-255.656 J1256.956
G2 X 782.950 Y 708.300 I-134.096 J1358.956
G2 X 648.730 Y 714.900 I  -0.124 J1365.556
G2 X 518.590 Y 734.480 I 125.516 J1276.536
G2 X 396.480 Y 766.460 I 225.230 J1109.118
G2 X 286.110 Y 809.860 I 287.609 J 893.456
F150
G1 Z  -3.000
F400
G2 X 190.840 Y 863.370 I 310.869 J 665.040
G2 X 113.560 Y 925.350 I 302.243 J 456.021
G2 X  56.620 Y 993.930 I 276.221 J 287.266
G2 X  21.740 Y1067.020 I 249.801 J 164.078
G2 X  10.000 Y1142.400 I 238.105 J  75.688
G1 X1555.900 Y1142.400
G2 X1544.160 Y1067.020 I-249.845 J   0.308
G2 X1509.290 Y 993.930 I-284.676 J  90.951
G2 X1452.340 Y 925.350 I-333.166 J 218.731
G2 X1375.060 Y 863.370 I-379.523 J 394.041
G2 X1279.790 Y 809.860 I-406.139 J 611.530
G2 X1169.430 Y 766.460 I-397.974 J 849.977
G2 X1047.310 Y 734.480 I-347.345 J1077.227
G2 X 917.170 Y 714.900 I-255.656 J1256.956
G2 X 782.950 Y 708.300 I-134.096 J1358.956
G2 X 648.730 Y 714.900 I  -0.124 J1365.556
G2 X 518.590 Y 734.480 I 125.516 J1276.536
G2 X 396.480 Y 766.460 I 225.230 J1109.118
G2 X 286.110 Y 809.860 I 287.609 J 893.456
F150
G1 Z   3.000
G0 Z  15.000 
M9 M5

(* SHAPE Nr: 35 *)
G0 X  10.000 Y1233.670
M3 M8
G0 Z   3.000 
G1 Z  -1.500
F400
G1 X  10.000 Y1282.830
G2 X 205.480 Y1282.830 I  97.740 J-130.352
G1 X 205.480 Y1233.670
G3 X  10.000 Y1233.670 I -97.740 J -81.189
F150
G1 Z  -3.000
F400
G1 X  10.000 Y1282.830
G2 X 205.480 Y1282.830 I  97.740 J-130.352
G1 X 205.480 Y1233.670
G3 X  10.000 Y1233.670 I -97.740 J -81.189
F150
G1 Z   3.000
G0 Z  15.000 
M9 M5

(* SHAPE Nr: 36 *)
G0 X 396.480 Y1215.260
M3 M8
G0 Z   3.000 
G1 Z  -1.500
F400
G2 X 286.110 Y1258.660 I 287.609 J 893.456
G2 X 190.840 Y1312.170 I 310.869 J 665.040
G2 X 113.560 Y1374.150 I 302.243 J 456.021
G2 X  56.620 Y1442.730 I 276.221 J 287.266
G2 X  21.740 Y1515.820 I 249.801 J 164.078
G2 X  10.000 Y1591.200 I 238.105 J  75.688
G1 X1555.900 Y1591.200
G2 X1544.160 Y1515.820 I-249.845 J   0.308
G2 X1509.290 Y1442.730 I-284.676 J  90.951
G2 X1452.340 Y1374.150 I-333.166 J 218.731
G2 X1375.060 Y1312.170 I-379.523 J 394.041
G2 X1279.790 Y1258.660 I-406.139 J 611.530
G2 X1169.430 Y1215.260 I-397.974 J 849.977
G2 X1047.310 Y1183.280 I-347.345 J1077.227
G2 X 917.170 Y1163.690 I-255.754 J1256.951
G2 X 782.950 Y1157.100 I-133.995 J1358.961
G2 X 648.730 Y1163.690 I  -0.225 J1365.551
G2 X 518.590 Y1183.280 I 125.614 J1276.541
G2 X 396.480 Y1215.260 I 225.230 J1109.118
F150
G1 Z  -3.000
F400
G2 X 286.110 Y1258.660 I 287.609 J 893.456
G2 X 190.840 Y1312.170 I 310.869 J 665.040
G2 X 113.560 Y1374.150 I 302.243 J 456.021
G2 X  56.620 Y1442.730 I 276.221 J 287.266
G2 X  21.740 Y1515.820 I 249.801 J 164.078
G2 X  10.000 Y1591.200 I 238.105 J  75.688
G1 X1555.900 Y1591.200
G2 X1544.160 Y1515.820 I-249.845 J   0.308
G2 X1509.290 Y1442.730 I-284.676 J  90.951
G2 X1452.340 Y1374.150 I-333.166 J 218.731
G2 X1375.060 Y1312.170 I-379.523 J 394.041
G2 X1279.790 Y1258.660 I-406.139 J 611.530
G2 X1169.430 Y1215.260 I-397.974 J 849.977
G2 X1047.310 Y1183.280 I-347.345 J1077.227
G2 X 917.170 Y1163.690 I-255.754 J1256.951
G2 X 782.950 Y1157.100 I-133.995 J1358.961
G2 X 648.730 Y1163.690 I  -0.225 J1365.551
G2 X 518.590 Y1183.280 I 125.614 J1276.541
G2 X 396.480 Y1215.260 I 225.230 J1109.118
F150
G1 Z   3.000
G0 Z  15.000 
M9 M5

(* SHAPE Nr: 37 *)
G0 X 119.280 Y1854.090
M3 M8
G0 Z   3.000 
G1 Z  -1.500
F400
G1 X  10.000 Y1889.590
G1 X  10.000 Y2004.490
G1 X 119.280 Y2040.000
G1 X 186.810 Y1947.040
G1 X 119.280 Y1854.090
F150
G1 Z  -3.000
F400
G1 X  10.000 Y1889.590
G1 X  10.000 Y2004.490
G1 X 119.280 Y2040.000
G1 X 186.810 Y1947.040
G1 X 119.280 Y1854.090
F150
G1 Z   3.000
G0 Z  15.000 
M9 M5

(* SHAPE Nr: 38 *)
G0 X  10.000 Y1605.900
M3 M8
G0 Z   3.000 
G1 Z  -1.500
F400
G2 X  21.740 Y1681.280 I 249.845 J  -0.308
G2 X  56.620 Y1754.370 I 284.681 J -90.988
G2 X 113.560 Y1822.950 I 333.161 J-218.686
G2 X 190.840 Y1884.930 I 379.523 J-394.041
G2 X 286.110 Y1938.440 I 406.139 J-611.530
G2 X 396.480 Y1981.840 I 397.979 J-850.056
G2 X 518.590 Y2013.820 I 347.340 J-1077.138
G2 X 648.730 Y2033.410 I 255.754 J-1256.951
G2 X 782.950 Y2040.000 I 133.995 J-1358.961
G2 X 917.170 Y2033.410 I   0.225 J-1365.551
G2 X1047.310 Y2013.820 I-125.614 J-1276.541
G2 X1169.430 Y1981.840 I-225.225 J-1109.207
G2 X1279.790 Y1938.440 I-287.614 J-893.377
G2 X1375.060 Y1884.930 I-310.869 J-665.040
G2 X1452.340 Y1822.950 I-302.243 J-456.021
G2 X1509.290 Y1754.370 I-276.216 J-287.311
G2 X1544.160 Y1681.280 I-249.806 J-164.041
G2 X1555.900 Y1605.900 I-238.105 J -75.688
G1 X  10.000 Y1605.900
F150
G1 Z  -3.000
F400
G2 X  21.740 Y1681.280 I 249.845 J  -0.308
G2 X  56.620 Y1754.370 I 284.681 J -90.988
G2 X 113.560 Y1822.950 I 333.161 J-218.686
G2 X 190.840 Y1884.930 I 379.523 J-394.041
G2 X 286.110 Y1938.440 I 406.139 J-611.530
G2 X 396.480 Y1981.840 I 397.979 J-850.056
G2 X 518.590 Y2013.820 I 347.340 J-1077.138
G2 X 648.730 Y2033.410 I 255.754 J-1256.951
G2 X 782.950 Y2040.000 I 133.995 J-1358.961
G2 X 917.170 Y2033.410 I   0.225 J-1365.551
G2 X1047.310 Y2013.820 I-125.614 J-1276.541
G2 X1169.430 Y1981.840 I-225.225 J-1109.207
G2 X1279.790 Y1938.440 I-287.614 J-893.377
G2 X1375.060 Y1884.930 I-310.869 J-665.040
G2 X1452.340 Y1822.950 I-302.243 J-456.021
G2 X1509.290 Y1754.370 I-276.216 J-287.311
G2 X1544.160 Y1681.280 I-249.806 J-164.041
G2 X1555.900 Y1605.900 I-238.105 J -75.688
G1 X  10.000 Y1605.900
F150
G1 Z   3.000
G0 Z  15.000 
M9 M5

(* SHAPE Nr: 39 *)
G0 X1326.940 Y1216.700
M3 M8
G0 Z   3.000 
G1 Z  -1.500
F400
G1 X1326.940 Y1265.870
G3 X1522.420 Y1265.870 I  97.740 J  81.189
G1 X1522.420 Y1216.700
G2 X1326.940 Y1216.700 I -97.740 J 130.352
F150
G1 Z  -3.000
F400
G1 X1326.940 Y1265.870
G3 X1522.420 Y1265.870 I  97.740 J  81.189
G1 X1522.420 Y1216.700
G2 X1326.940 Y1216.700 I -97.740 J 130.352
F150
G1 Z   3.000
G0 Z  15.000 
M9 M5

(* SHAPE Nr: 40 *)
G0 X1570.610 Y 494.100
M3 M8
G0 Z   3.000 
G1 Z  -1.500
F400
G1 X1570.610 Y2040.000
G2 X1645.990 Y2028.260 I  -0.308 J-249.845
G2 X1719.080 Y1993.390 I -90.951 J-284.676
G2 X1787.660 Y1936.440 I-218.731 J-333.166
G2 X1849.640 Y1859.160 I-394.041 J-379.523
G2 X1903.150 Y1763.890 I-611.530 J-406.139
G2 X1946.550 Y1653.530 I-849.977 J-397.974
G2 X1978.530 Y1531.410 I-1077.227 J-347.345
G2 X1998.110 Y1401.270 I-1256.956 J-255.656
G2 X2004.710 Y1267.050 I-1358.956 J-134.096
G2 X1998.110 Y1132.830 I-1365.556 J  -0.124
G2 X1978.530 Y1002.690 I-1276.536 J 125.516
G2 X1946.550 Y 880.580 I-1109.118 J 225.230
G2 X1903.150 Y 770.210 I-893.456 J 287.609
G2 X1849.640 Y 674.940 I-665.040 J 310.869
G2 X1787.660 Y 597.660 I-456.021 J 302.243
G2 X1719.080 Y 540.720 I-287.266 J 276.221
G2 X1645.990 Y 505.840 I-164.078 J 249.801
G2 X1570.610 Y 494.100 I -75.688 J 238.105
F150
G1 Z  -3.000
F400
G1 X1570.610 Y2040.000
G2 X1645.990 Y2028.260 I  -0.308 J-249.845
G2 X1719.080 Y1993.390 I -90.951 J-284.676
G2 X1787.660 Y1936.440 I-218.731 J-333.166
G2 X1849.640 Y1859.160 I-394.041 J-379.523
G2 X1903.150 Y1763.890 I-611.530 J-406.139
G2 X1946.550 Y1653.530 I-849.977 J-397.974
G2 X1978.530 Y1531.410 I-1077.227 J-347.345
G2 X1998.110 Y1401.270 I-1256.956 J-255.656
G2 X2004.710 Y1267.050 I-1358.956 J-134.096
G2 X1998.110 Y1132.830 I-1365.556 J  -0.124
G2 X1978.530 Y1002.690 I-1276.536 J 125.516
G2 X1946.550 Y 880.580 I-1109.118 J 225.230
G2 X1903.150 Y 770.210 I-893.456 J 287.609
G2 X1849.640 Y 674.940 I-665.040 J 310.869
G2 X1787.660 Y 597.660 I-456.021 J 302.243
G2 X1719.080 Y 540.720 I-287.266 J 276.221
G2 X1645.990 Y 505.840 I-164.078 J 249.801
G2 X1570.610 Y 494.100 I -75.688 J 238.105
F150
G1 Z   3.000
G0 Z  15.000 
M9 M5

(* SHAPE Nr: 41 *)
G0 X1735.310 Y 484.130
M3 M8
G0 Z   3.000 
G1 Z  -1.500
F400
G1 X1735.310 Y 533.290
G2 X1930.790 Y 533.290 I  97.740 J-130.352
G1 X1930.790 Y 484.130
G3 X1735.310 Y 484.130 I -97.740 J -81.189
F150
G1 Z  -3.000
F400
G1 X1735.310 Y 533.290
G2 X1930.790 Y 533.290 I  97.740 J-130.352
G1 X1930.790 Y 484.130
G3 X1735.310 Y 484.130 I -97.740 J -81.189
F150
G1 Z   3.000
G0 Z  15.000 
M9 M5

(* SHAPE Nr: 42 *)
G0 X2019.410 Y 494.100
M3 M8
G0 Z   3.000 
G1 Z  -1.500
F400
G1 X2019.410 Y2040.000
G2 X2094.790 Y2028.260 I  -0.308 J-249.845
G2 X2167.880 Y1993.390 I -90.951 J-284.676
G2 X2236.460 Y1936.440 I-218.731 J-333.166
G2 X2298.440 Y1859.160 I-394.041 J-379.523
G2 X2351.950 Y1763.890 I-611.530 J-406.139
G2 X2395.350 Y1653.530 I-849.977 J-397.974
G2 X2427.330 Y1531.410 I-1077.227 J-347.345
G2 X2446.910 Y1401.270 I-1256.956 J-255.656
G2 X2453.510 Y1267.050 I-1358.956 J-134.096
G2 X2446.910 Y1132.830 I-1365.556 J  -0.124
G2 X2427.330 Y1002.690 I-1276.536 J 125.516
G2 X2395.350 Y 880.580 I-1109.118 J 225.230
G2 X2351.950 Y 770.210 I-893.456 J 287.609
G2 X2298.440 Y 674.940 I-665.040 J 310.869
G2 X2236.460 Y 597.660 I-456.021 J 302.243
G2 X2167.880 Y 540.720 I-287.266 J 276.221
G2 X2094.790 Y 505.840 I-164.078 J 249.801
G2 X2019.410 Y 494.100 I -75.688 J 238.105
F150
G1 Z  -3.000
F400
G1 X2019.410 Y2040.000
G2 X2094.790 Y2028.260 I  -0.308 J-249.845
G2 X2167.880 Y1993.390 I -90.951 J-284.676
G2 X2236.460 Y1936.440 I-218.731 J-333.166
G2 X2298.440 Y1859.160 I-394.041 J-379.523
G2 X2351.950 Y1763.890 I-611.530 J-406.139
G2 X2395.350 Y1653.530 I-849.977 J-397.974
G2 X2427.330 Y1531.410 I-1077.227 J-347.345
G2 X2446.910 Y1401.270 I-1256.956 J-255.656
G2 X2453.510 Y1267.050 I-1358.956 J-134.096
G2 X2446.910 Y1132.830 I-1365.556 J  -0.124
G2 X2427.330 Y1002.690 I-1276.536 J 125.516
G2 X2395.350 Y 880.580 I-1109.118 J 225.230
G2 X2351.950 Y 770.210 I-893.456 J 287.609
G2 X2298.440 Y 674.940 I-665.040 J 310.869
G2 X2236.460 Y 597.660 I-456.021 J 302.243
G2 X2167.880 Y 540.720 I-287.266 J 276.221
G2 X2094.790 Y 505.840 I-164.078 J 249.801
G2 X2019.410 Y 494.100 I -75.688 J 238.105
F150
G1 Z   3.000
G0 Z  15.000 
M9 M5

(* SHAPE Nr: 43 *)
G0 X2204.240 Y 469.800
M3 M8
G0 Z   3.000 
G1 Z  -1.500
F400
G1 X2204.240 Y 530.200
G1 X2239.750 Y 579.070
G1 X2297.200 Y 597.740
G1 X2354.650 Y 579.070
G1 X2390.150 Y 530.200
G1 X2390.150 Y 469.800
G1 X2354.650 Y 420.930
G1 X2297.200 Y 402.260
G1 X2239.750 Y 420.930
G1 X2204.240 Y 469.800
F150
G1 Z  -3.000
F400
G1 X2204.240 Y 530.200
G1 X2239.750 Y 579.070
G1 X2297.200 Y 597.740
G1 X2354.650 Y 579.070
G1 X2390.150 Y 530.200
G1 X2390.150 Y 469.800
G1 X2354.650 Y 420.930
G1 X2297.200 Y 402.260
G1 X2239.750 Y 420.930
G1 X2204.240 Y 469.800
F150
G1 Z   3.000
G0 Z  15.000 
M9 M5

(* SHAPE Nr: 44 *)
G0 X 998.850 Y  10.000
M3 M8
G0 Z   3.000 
G1 Z  -1.500
F400
G2 X1010.590 Y  85.380 I 249.845 J  -0.308
G2 X1045.460 Y 158.470 I 284.676 J -90.951
G2 X1102.400 Y 227.050 I 333.161 J-218.686
G2 X1179.680 Y 289.030 I 379.523 J-394.041
G2 X1274.950 Y 342.540 I 406.139 J-611.530
G2 X1385.320 Y 385.940 I 397.979 J-850.056
G2 X1507.430 Y 417.920 I 347.340 J-1077.138
G2 X1637.570 Y 437.510 I 255.754 J-1256.951
G2 X1771.800 Y 444.100 I 134.000 J-1359.063
G2 X1906.020 Y 437.510 I   0.225 J-1365.551
G2 X2036.160 Y 417.920 I-125.614 J-1276.541
G2 X2158.270 Y 385.940 I-225.230 J-1109.118
G2 X2268.640 Y 342.540 I-287.609 J-893.456
G2 X2363.910 Y 289.030 I-310.869 J-665.040
G2 X2441.190 Y 227.050 I-302.243 J-456.021
G2 X2498.130 Y 158.470 I-276.221 J-287.266
G2 X2533.000 Y  85.380 I-249.806 J-164.041
G2 X2544.750 Y  10.000 I-238.100 J -75.720
G1 X 998.850 Y  10.000
F150
G1 Z  -3.000
F400
G2 X1010.590 Y  85.380 I 249.845 J  -0.308
G2 X1045.460 Y 158.470 I 284.676 J -90.951
G2 X1102.400 Y 227.050 I 333.161 J-218.686
G2 X1179.680 Y 289.030 I 379.523 J-394.041
G2 X1274.950 Y 342.540 I 406.139 J-611.530
G2 X1385.320 Y 385.940 I 397.979 J-850.056
G2 X1507.430 Y 417.920 I 347.340 J-1077.138
G2 X1637.570 Y 437.510 I 255.754 J-1256.951
G2 X1771.800 Y 444.100 I 134.000 J-1359.063
G2 X1906.020 Y 437.510 I   0.225 J-1365.551
G2 X2036.160 Y 417.920 I-125.614 J-1276.541
G2 X2158.270 Y 385.940 I-225.230 J-1109.118
G2 X2268.640 Y 342.540 I-287.609 J-893.456
G2 X2363.910 Y 289.030 I-310.869 J-665.040
G2 X2441.190 Y 227.050 I-302.243 J-456.021
G2 X2498.130 Y 158.470 I-276.221 J-287.266
G2 X2533.000 Y  85.380 I-249.806 J-164.041
G2 X2544.750 Y  10.000 I-238.100 J -75.720
G1 X 998.850 Y  10.000
F150
G1 Z   3.000
G0 Z  15.000 
M9 M5

(* SHAPE Nr: 45 *)
G0 X2595.690 Y  58.870
M3 M8
G0 Z   3.000 
G1 Z  -1.500
F400
G1 X2623.910 Y 107.740
G1 X2595.690 Y 156.610
G1 X2652.120 Y 156.610
G1 X2680.340 Y 205.480
G1 X2708.550 Y 156.610
G1 X2764.980 Y 156.610
G1 X2736.770 Y 107.740
G1 X2764.980 Y  58.870
G1 X2708.550 Y  58.870
G1 X2680.340 Y  10.000
G1 X2652.120 Y  58.870
G1 X2595.690 Y  58.870
F150
G1 Z  -3.000
F400
G1 X2623.910 Y 107.740
G1 X2595.690 Y 156.610
G1 X2652.120 Y 156.610
G1 X2680.340 Y 205.480
G1 X2708.550 Y 156.610
G1 X2764.980 Y 156.610
G1 X2736.770 Y 107.740
G1 X2764.980 Y  58.870
G1 X2708.550 Y  58.870
G1 X2680.340 Y  10.000
G1 X2652.120 Y  58.870
G1 X2595.690 Y  58.870
F150
G1 Z   3.000
G0 Z  15.000 
M9 M5

(* SHAPE Nr: 46 *)
G0 X2525.070 Y 339.540
M3 M8
G0 Z   3.000 
G1 Z  -1.500
F400
G2 X2520.670 Y 380.950 I 561.472 J  80.598
G2 X2519.180 Y 423.660 I 611.486 J  42.714
G2 X2520.670 Y 466.370 I 612.976 J  -0.004
G2 X2525.070 Y 507.770 I 565.735 J -39.193
G2 X2532.280 Y 546.630 I 479.796 J -68.921
G2 X2542.050 Y 581.750 I 370.996 J -84.288
G2 X2554.090 Y 612.060 I 258.883 J -85.289
G2 X2568.050 Y 636.650 I 160.893 J -75.083
G2 X2583.490 Y 654.770 I  87.861 J -59.228
G2 X2599.950 Y 665.860 I  42.093 J -44.715
G2 X2616.920 Y 669.600 I  17.158 J -37.484
G2 X2633.890 Y 665.860 I  -0.188 J -41.224
G2 X2650.350 Y 654.770 I -25.633 J -55.805
G2 X2665.790 Y 636.650 I -72.421 J -77.348
G2 X2679.750 Y 612.060 I-146.933 J -99.673
G2 X2691.790 Y 581.750 I-246.843 J-115.599
G2 X2701.570 Y 546.630 I-361.221 J-119.512
G2 X2708.770 Y 507.770 I-472.591 J-107.659
G2 X2713.180 Y 466.370 I-561.330 J -80.729
G2 X2714.660 Y 423.660 I-611.491 J -42.570
G2 X2713.180 Y 380.950 I-612.971 J  -0.140
G2 X2708.770 Y 339.540 I-565.877 J  39.324
G2 X2701.570 Y 300.690 I-479.668 J  68.804
G2 X2691.790 Y 265.570 I-371.001 J  84.392
G2 X2679.750 Y 235.260 I-258.883 J  85.289
G2 X2665.790 Y 210.670 I-160.893 J  75.083
G2 X2650.350 Y 192.550 I -87.861 J  59.228
G2 X2633.890 Y 181.460 I -42.093 J  44.715
G2 X2616.920 Y 177.720 I -17.158 J  37.484
G2 X2599.950 Y 181.460 I   0.188 J  41.224
G2 X2583.490 Y 192.550 I  25.633 J  55.805
G2 X2568.050 Y 210.670 I  72.421 J  77.348
G2 X2554.090 Y 235.260 I 146.933 J  99.673
G2 X2542.050 Y 265.570 I 246.851 J 115.603
G2 X2532.280 Y 300.690 I 361.226 J 119.408
G2 X2525.070 Y 339.540 I 472.463 J 107.776
F150
G1 Z  -3.000
F400
G2 X2520.670 Y 380.950 I 561.472 J  80.598
G2 X2519.180 Y 423.660 I 611.486 J  42.714
G2 X2520.670 Y 466.370 I 612.976 J  -0.004
G2 X2525.070 Y 507.770 I 565.735 J -39.193
G2 X2532.280 Y 546.630 I 479.796 J -68.921
G2 X2542.050 Y 581.750 I 370.996 J -84.288
G2 X2554.090 Y 612.060 I 258.883 J -85.289
G2 X2568.050 Y 636.650 I 160.893 J -75.083
G2 X2583.490 Y 654.770 I  87.861 J -59.228
G2 X2599.950 Y 665.860 I  42.093 J -44.715
G2 X2616.920 Y 669.600 I  17.158 J -37.484
G2 X2633.890 Y 665.860 I  -0.188 J -41.224
G2 X2650.350 Y 654.770 I -25.633 J -55.805
G2 X2665.790 Y 636.650 I -72.421 J -77.348
G2 X2679.750 Y 612.060 I-146.933 J -99.673
G2 X2691.790 Y 581.750 I-246.843 J-115.599
G2 X2701.570 Y 546.630 I-361.221 J-119.512
G2 X2708.770 Y 507.770 I-472.591 J-107.659
G2 X2713.180 Y 466.370 I-561.330 J -80.729
G2 X2714.660 Y 423.660 I-611.491 J -42.570
G2 X2713.180 Y 380.950 I-612.971 J  -0.140
G2 X2708.770 Y 339.540 I-565.877 J  39.324
G2 X2701.570 Y 300.690 I-479.668 J  68.804
G2 X2691.790 Y 265.570 I-371.001 J  84.392
G2 X2679.750 Y 235.260 I-258.883 J  85.289
G2 X2665.790 Y 210.670 I-160.893 J  75.083
G2 X2650.350 Y 192.550 I -87.861 J  59.228
G2 X2633.890 Y 181.460 I -42.093 J  44.715
G2 X2616.920 Y 177.720 I -17.158 J  37.484
G2 X2599.950 Y 181.460 I   0.188 J  41.224
G2 X2583.490 Y 192.550 I  25.633 J  55.805
G2 X2568.050 Y 210.670 I  72.421 J  77.348
G2 X2554.090 Y 235.260 I 146.933 J  99.673
G2 X2542.050 Y 265.570 I 246.851 J 115.603
G2 X2532.280 Y 300.690 I 361.226 J 119.408
G2 X2525.070 Y 339.540 I 472.463 J 107.776
F150
G1 Z   3.000
G0 Z  15.000 
M9 M5

(* SHAPE Nr: 47 *)
G0 X2453.270 Y 726.570
M3 M8
G0 Z   3.000 
G1 Z  -1.500
F400
G2 X2443.500 Y 761.680 I 361.122 J 119.403
G2 X2436.300 Y 800.540 I 472.591 J 107.659
G2 X2431.890 Y 841.950 I 561.467 J  80.734
G2 X2430.400 Y 884.650 I 611.343 J  42.709
G2 X2431.890 Y 927.360 I 612.976 J  -0.004
G2 X2436.300 Y 968.770 I 565.877 J -39.324
G2 X2443.500 Y1007.620 I 479.668 J -68.804
G2 X2453.270 Y1042.740 I 370.996 J -84.288
G2 X2465.320 Y1073.060 I 258.971 J -85.368
G2 X2479.270 Y1097.640 I 160.825 J -75.025
G2 X2494.710 Y1115.760 I  87.861 J -59.228
G2 X2511.170 Y1126.860 I  42.123 J -44.710
G2 X2528.140 Y1130.590 I  17.135 J -37.489
G2 X2545.110 Y1126.860 I  -0.165 J -41.219
G2 X2561.570 Y1115.760 I -25.663 J -55.810
G2 X2577.010 Y1097.640 I -72.421 J -77.348
G2 X2590.970 Y1073.060 I-146.870 J -99.668
G2 X2603.010 Y1042.740 I-246.926 J-115.604
G2 X2612.790 Y1007.620 I-361.221 J-119.512
G2 X2619.990 Y 968.770 I-472.468 J-107.654
G2 X2624.400 Y 927.360 I-561.467 J -80.734
G2 X2625.880 Y 884.650 I-611.491 J -42.570
G2 X2624.400 Y 841.950 I-612.828 J  -0.135
G2 X2619.990 Y 800.540 I-565.877 J  39.324
G2 X2612.790 Y 761.680 I-479.791 J  68.799
G2 X2603.010 Y 726.570 I-370.897 J  84.397
G2 X2590.970 Y 696.250 I-258.975 J  85.288
G2 X2577.010 Y 671.660 I-160.893 J  75.083
G2 X2561.570 Y 653.550 I -87.817 J  59.233
G2 X2545.110 Y 642.450 I -42.123 J  44.710
G2 X2528.140 Y 638.710 I -17.158 J  37.484
G2 X2511.170 Y 642.450 I   0.188 J  41.224
G2 X2494.710 Y 653.550 I  25.663 J  55.810
G2 X2479.270 Y 671.660 I  72.377 J  77.343
G2 X2465.320 Y 696.250 I 146.938 J  99.610
G2 X2453.270 Y 726.570 I 246.930 J 115.691
F150
G1 Z  -3.000
F400
G2 X2443.500 Y 761.680 I 361.122 J 119.403
G2 X2436.300 Y 800.540 I 472.591 J 107.659
G2 X2431.890 Y 841.950 I 561.467 J  80.734
G2 X2430.400 Y 884.650 I 611.343 J  42.709
G2 X2431.890 Y 927.360 I 612.976 J  -0.004
G2 X2436.300 Y 968.770 I 565.877 J -39.324
G2 X2443.500 Y1007.620 I 479.668 J -68.804
G2 X2453.270 Y1042.740 I 370.996 J -84.288
G2 X2465.320 Y1073.060 I 258.971 J -85.368
G2 X2479.270 Y1097.640 I 160.825 J -75.025
G2 X2494.710 Y1115.760 I  87.861 J -59.228
G2 X2511.170 Y1126.860 I  42.123 J -44.710
G2 X2528.140 Y1130.590 I  17.135 J -37.489
G2 X2545.110 Y1126.860 I  -0.165 J -41.219
G2 X2561.570 Y1115.760 I -25.663 J -55.810
G2 X2577.010 Y1097.640 I -72.421 J -77.348
G2 X2590.970 Y1073.060 I-146.870 J -99.668
G2 X2603.010 Y1042.740 I-246.926 J-115.604
G2 X2612.790 Y1007.620 I-361.221 J-119.512
G2 X2619.990 Y 968.770 I-472.468 J-107.654
G2 X2624.400 Y 927.360 I-561.467 J -80.734
G2 X2625.880 Y 884.650 I-611.491 J -42.570
G2 X2624.400 Y 841.950 I-612.828 J  -0.135
G2 X2619.990 Y 800.540 I-565.877 J  39.324
G2 X2612.790 Y 761.680 I-479.791 J  68.799
G2 X2603.010 Y 726.570 I-370.897 J  84.397
G2 X2590.970 Y 696.250 I-258.975 J  85.288
G2 X2577.010 Y 671.660 I-160.893 J  75.083
G2 X2561.570 Y 653.550 I -87.817 J  59.233
G2 X2545.110 Y 642.450 I -42.123 J  44.710
G2 X2528.140 Y 638.710 I -17.158 J  37.484
G2 X2511.170 Y 642.450 I   0.188 J  41.224
G2 X2494.710 Y 653.550 I  25.663 J  55.810
G2 X2479.270 Y 671.660 I  72.377 J  77.343
G2 X2465.320 Y 696.250 I 146.938 J  99.610
G2 X2453.270 Y 726.570 I 246.930 J 115.691
F150
G1 Z   3.000
G0 Z  15.000 
M9 M5

(* SHAPE Nr: 48 *)
G0 X2662.120 Y 808.590
M3 M8
G0 Z   3.000 
G1 Z  -1.500
F400
G2 X2652.350 Y 843.710 I 361.226 J 119.408
G2 X2645.150 Y 882.560 I 472.468 J 107.654
G2 X2640.740 Y 923.970 I 561.467 J  80.734
G2 X2639.250 Y 966.680 I 611.486 J  42.714
G2 X2640.740 Y1009.390 I 612.976 J  -0.004
G2 X2645.150 Y1050.800 I 565.877 J -39.324
G2 X2652.350 Y1089.650 I 479.668 J -68.804
G2 X2662.120 Y1124.770 I 370.996 J -84.288
G2 X2674.170 Y1155.080 I 258.888 J -85.373
G2 X2688.130 Y1179.670 I 160.893 J -75.083
G2 X2703.570 Y1197.790 I  87.861 J -59.228
G2 X2720.020 Y1208.880 I  42.088 J -44.684
G2 X2737.000 Y1212.620 I  17.163 J -37.507
G1 X2737.000 Y 720.740
G2 X2720.020 Y 724.470 I   0.160 J  41.242
G2 X2703.570 Y 735.570 I  25.668 J  55.779
G2 X2688.130 Y 753.690 I  72.421 J  77.348
G2 X2674.170 Y 778.280 I 146.933 J  99.673
G2 X2662.120 Y 808.590 I 246.838 J 115.683
F150
G1 Z  -3.000
F400
G2 X2652.350 Y 843.710 I 361.226 J 119.408
G2 X2645.150 Y 882.560 I 472.468 J 107.654
G2 X2640.740 Y 923.970 I 561.467 J  80.734
G2 X2639.250 Y 966.680 I 611.486 J  42.714
G2 X2640.740 Y1009.390 I 612.976 J  -0.004
G2 X2645.150 Y1050.800 I 565.877 J -39.324
G2 X2652.350 Y1089.650 I 479.668 J -68.804
G2 X2662.120 Y1124.770 I 370.996 J -84.288
G2 X2674.170 Y1155.080 I 258.888 J -85.373
G2 X2688.130 Y1179.670 I 160.893 J -75.083
G2 X2703.570 Y1197.790 I  87.861 J -59.228
G2 X2720.020 Y1208.880 I  42.088 J -44.684
G2 X2737.000 Y1212.620 I  17.163 J -37.507
G1 X2737.000 Y 720.740
G2 X2720.020 Y 724.470 I   0.160 J  41.242
G2 X2703.570 Y 735.570 I  25.668 J  55.779
G2 X2688.130 Y 753.690 I  72.421 J  77.348
G2 X2674.170 Y 778.280 I 146.933 J  99.673
G2 X2662.120 Y 808.590 I 246.838 J 115.683
F150
G1 Z   3.000
G0 Z  15.000 
M9 M5

(* SHAPE Nr: 49 *)
G0 X2556.050 Y1199.940
M3 M8
G0 Z   3.000 
G1 Z  -1.500
F400
G2 X2544.000 Y1230.250 I 246.838 J 115.683
G2 X2534.230 Y1265.370 I 361.226 J 119.408
G2 X2527.030 Y1304.220 I 472.468 J 107.654
G2 X2522.620 Y1345.630 I 561.467 J  80.734
G2 X2521.130 Y1388.340 I 611.486 J  42.714
G2 X2522.620 Y1431.050 I 612.976 J  -0.004
G2 X2527.030 Y1472.450 I 565.740 J -39.329
G2 X2534.230 Y1511.310 I 479.791 J -68.799
G2 X2544.000 Y1546.430 I 370.996 J -84.288
G2 X2556.050 Y1576.740 I 258.888 J -85.373
G2 X2570.000 Y1601.330 I 160.888 J -75.020
G2 X2585.450 Y1619.450 I  87.864 J -59.271
G2 X2601.900 Y1630.540 I  42.088 J -44.684
G2 X2618.870 Y1634.280 I  17.158 J -37.484
G2 X2635.850 Y1630.540 I  -0.183 J -41.248
G2 X2652.300 Y1619.450 I -25.638 J -55.774
G2 X2667.740 Y1601.330 I -72.421 J -77.348
G2 X2681.700 Y1576.740 I-146.933 J -99.673
G2 X2693.750 Y1546.430 I-246.838 J-115.683
G2 X2703.520 Y1511.310 I-361.226 J-119.408
G2 X2710.720 Y1472.450 I-472.591 J-107.659
G2 X2715.130 Y1431.050 I-561.330 J -80.729
G2 X2716.610 Y1388.340 I-611.491 J -42.570
G2 X2715.130 Y1345.630 I-612.971 J  -0.140
G2 X2710.720 Y1304.220 I-565.877 J  39.324
G2 X2703.520 Y1265.370 I-479.668 J  68.804
G2 X2693.750 Y1230.250 I-370.996 J  84.288
G2 X2681.700 Y1199.940 I-258.888 J  85.373
G2 X2667.740 Y1175.350 I-160.893 J  75.083
G2 X2652.300 Y1157.230 I -87.861 J  59.228
G2 X2635.850 Y1146.130 I -42.118 J  44.679
G2 X2618.870 Y1142.400 I -17.140 J  37.512
G2 X2601.900 Y1146.130 I   0.165 J  41.219
G2 X2585.450 Y1157.230 I  25.668 J  55.779
G2 X2570.000 Y1175.350 I  72.414 J  77.391
G2 X2556.050 Y1199.940 I 146.938 J  99.610
F150
G1 Z  -3.000
F400
G2 X2544.000 Y1230.250 I 246.838 J 115.683
G2 X2534.230 Y1265.370 I 361.226 J 119.408
G2 X2527.030 Y1304.220 I 472.468 J 107.654
G2 X2522.620 Y1345.630 I 561.467 J  80.734
G2 X2521.130 Y1388.340 I 611.486 J  42.714
G2 X2522.620 Y1431.050 I 612.976 J  -0.004
G2 X2527.030 Y1472.450 I 565.740 J -39.329
G2 X2534.230 Y1511.310 I 479.791 J -68.799
G2 X2544.000 Y1546.430 I 370.996 J -84.288
G2 X2556.050 Y1576.740 I 258.888 J -85.373
G2 X2570.000 Y1601.330 I 160.888 J -75.020
G2 X2585.450 Y1619.450 I  87.864 J -59.271
G2 X2601.900 Y1630.540 I  42.088 J -44.684
G2 X2618.870 Y1634.280 I  17.158 J -37.484
G2 X2635.850 Y1630.540 I  -0.183 J -41.248
G2 X2652.300 Y1619.450 I -25.638 J -55.774
G2 X2667.740 Y1601.330 I -72.421 J -77.348
G2 X2681.700 Y1576.740 I-146.933 J -99.673
G2 X2693.750 Y1546.430 I-246.838 J-115.683
G2 X2703.520 Y1511.310 I-361.226 J-119.408
G2 X2710.720 Y1472.450 I-472.591 J-107.659
G2 X2715.130 Y1431.050 I-561.330 J -80.729
G2 X2716.610 Y1388.340 I-611.491 J -42.570
G2 X2715.130 Y1345.630 I-612.971 J  -0.140
G2 X2710.720 Y1304.220 I-565.877 J  39.324
G2 X2703.520 Y1265.370 I-479.668 J  68.804
G2 X2693.750 Y1230.250 I-370.996 J  84.288
G2 X2681.700 Y1199.940 I-258.888 J  85.373
G2 X2667.740 Y1175.350 I-160.893 J  75.083
G2 X2652.300 Y1157.230 I -87.861 J  59.228
G2 X2635.850 Y1146.130 I -42.118 J  44.679
G2 X2618.870 Y1142.400 I -17.140 J  37.512
G2 X2601.900 Y1146.130 I   0.165 J  41.219
G2 X2585.450 Y1157.230 I  25.668 J  55.779
G2 X2570.000 Y1175.350 I  72.414 J  77.391
G2 X2556.050 Y1199.940 I 146.938 J  99.610
F150
G1 Z   3.000
G0 Z  15.000 
M9 M5

(* SHAPE Nr: 50 *)
G0 X2442.510 Y1581.070
M3 M8
G0 Z   3.000 
G1 Z  -1.500
F400
G2 X2428.550 Y1605.660 I 146.929 J  99.671
G2 X2416.510 Y1635.970 I 246.843 J 115.599
G2 X2406.740 Y1671.090 I 361.226 J 119.408
G2 X2399.530 Y1709.940 I 472.463 J 107.776
G2 X2395.130 Y1751.350 I 561.472 J  80.598
G2 X2393.640 Y1794.060 I 611.486 J  42.714
G2 X2395.130 Y1836.770 I 612.976 J  -0.004
G2 X2399.530 Y1878.180 I 565.872 J -39.188
G2 X2406.740 Y1917.030 I 479.673 J -68.926
G2 X2416.510 Y1952.150 I 370.996 J -84.288
G2 X2428.550 Y1982.460 I 258.883 J -85.289
G2 X2442.510 Y2007.050 I 160.893 J -75.083
G2 X2457.950 Y2025.170 I  87.861 J -59.228
G2 X2474.410 Y2036.260 I  42.093 J -44.715
G2 X2491.380 Y2040.000 I  17.158 J -37.484
G2 X2508.350 Y2036.260 I  -0.188 J -41.224
G2 X2524.810 Y2025.170 I -25.633 J -55.805
G2 X2540.250 Y2007.050 I -72.421 J -77.348
G2 X2554.210 Y1982.460 I-146.933 J -99.673
G2 X2566.250 Y1952.150 I-246.843 J-115.599
G2 X2576.030 Y1917.030 I-361.221 J-119.512
G2 X2583.230 Y1878.180 I-472.468 J-107.654
G2 X2587.640 Y1836.770 I-561.467 J -80.734
G2 X2589.120 Y1794.060 I-611.491 J -42.570
G2 X2587.640 Y1751.350 I-612.971 J  -0.140
G2 X2583.230 Y1709.940 I-565.877 J  39.324
G2 X2576.030 Y1671.090 I-479.668 J  68.804
G2 X2566.250 Y1635.970 I-371.001 J  84.392
G2 X2554.210 Y1605.660 I-258.891 J  85.293
G2 X2540.250 Y1581.070 I-160.889 J  75.081
G2 X2524.810 Y1562.950 I -87.861 J  59.228
G2 X2508.350 Y1551.860 I -42.093 J  44.715
G2 X2491.380 Y1548.120 I -17.158 J  37.484
G2 X2474.410 Y1551.860 I   0.188 J  41.224
G2 X2457.950 Y1562.950 I  25.633 J  55.805
G2 X2442.510 Y1581.070 I  72.421 J  77.348
F150
G1 Z  -3.000
F400
G2 X2428.550 Y1605.660 I 146.929 J  99.671
G2 X2416.510 Y1635.970 I 246.843 J 115.599
G2 X2406.740 Y1671.090 I 361.226 J 119.408
G2 X2399.530 Y1709.940 I 472.463 J 107.776
G2 X2395.130 Y1751.350 I 561.472 J  80.598
G2 X2393.640 Y1794.060 I 611.486 J  42.714
G2 X2395.130 Y1836.770 I 612.976 J  -0.004
G2 X2399.530 Y1878.180 I 565.872 J -39.188
G2 X2406.740 Y1917.030 I 479.673 J -68.926
G2 X2416.510 Y1952.150 I 370.996 J -84.288
G2 X2428.550 Y1982.460 I 258.883 J -85.289
G2 X2442.510 Y2007.050 I 160.893 J -75.083
G2 X2457.950 Y2025.170 I  87.861 J -59.228
G2 X2474.410 Y2036.260 I  42.093 J -44.715
G2 X2491.380 Y2040.000 I  17.158 J -37.484
G2 X2508.350 Y2036.260 I  -0.188 J -41.224
G2 X2524.810 Y2025.170 I -25.633 J -55.805
G2 X2540.250 Y2007.050 I -72.421 J -77.348
G2 X2554.210 Y1982.460 I-146.933 J -99.673
G2 X2566.250 Y1952.150 I-246.843 J-115.599
G2 X2576.030 Y1917.030 I-361.221 J-119.512
G2 X2583.230 Y1878.180 I-472.468 J-107.654
G2 X2587.640 Y1836.770 I-561.467 J -80.734
G2 X2589.120 Y1794.060 I-611.491 J -42.570
G2 X2587.640 Y1751.350 I-612.971 J  -0.140
G2 X2583.230 Y1709.940 I-565.877 J  39.324
G2 X2576.030 Y1671.090 I-479.668 J  68.804
G2 X2566.250 Y1635.970 I-371.001 J  84.392
G2 X2554.210 Y1605.660 I-258.891 J  85.293
G2 X2540.250 Y1581.070 I-160.889 J  75.081
G2 X2524.810 Y1562.950 I -87.861 J  59.228
G2 X2508.350 Y1551.860 I -42.093 J  44.715
G2 X2491.380 Y1548.120 I -17.158 J  37.484
G2 X2474.410 Y1551.860 I   0.188 J  41.224
G2 X2457.950 Y1562.950 I  25.633 J  55.805
G2 X2442.510 Y1581.070 I  72.421 J  77.348
F150
G1 Z   3.000
G0 Z  15.000 
M9 M5

(* SHAPE Nr: 51 *)
G0 X2697.520 Y1581.070
M3 M8
G0 Z   3.000 
G1 Z  -1.500
F400
G2 X2683.570 Y1605.660 I 146.934 J  99.608
G2 X2671.520 Y1635.970 I 246.838 J 115.683
G2 X2661.750 Y1671.090 I 361.226 J 119.408
G2 X2654.550 Y1709.940 I 472.468 J 107.654
G2 X2650.140 Y1751.350 I 561.467 J  80.734
G2 X2648.650 Y1794.060 I 611.486 J  42.714
G2 X2650.140 Y1836.770 I 612.976 J  -0.004
G2 X2654.550 Y1878.180 I 565.877 J -39.324
G2 X2661.750 Y1917.030 I 479.668 J -68.804
G2 X2671.520 Y1952.150 I 370.996 J -84.288
G2 X2683.570 Y1982.460 I 258.888 J -85.373
G2 X2697.520 Y2007.050 I 160.888 J -75.020
G2 X2712.960 Y2025.170 I  87.861 J -59.228
G2 X2729.420 Y2036.260 I  42.093 J -44.715
G2 X2746.390 Y2040.000 I  17.158 J -37.484
G1 X2746.390 Y1548.120
G2 X2729.420 Y1551.860 I   0.188 J  41.224
G2 X2712.960 Y1562.950 I  25.633 J  55.805
G2 X2697.520 Y1581.070 I  72.421 J  77.348
F150
G1 Z  -3.000
F400
G2 X2683.570 Y1605.660 I 146.934 J  99.608
G2 X2671.520 Y1635.970 I 246.838 J 115.683
G2 X2661.750 Y1671.090 I 361.226 J 119.408
G2 X2654.550 Y1709.940 I 472.468 J 107.654
G2 X2650.140 Y1751.350 I 561.467 J  80.734
G2 X2648.650 Y1794.060 I 611.486 J  42.714
G2 X2650.140 Y1836.770 I 612.976 J  -0.004
G2 X2654.550 Y1878.180 I 565.877 J -39.324
G2 X2661.750 Y1917.030 I 479.668 J -68.804
G2 X2671.520 Y1952.150 I 370.996 J -84.288
G2 X2683.570 Y1982.460 I 258.888 J -85.373
G2 X2697.520 Y2007.050 I 160.888 J -75.020
G2 X2712.960 Y2025.170 I  87.861 J -59.228
G2 X2729.420 Y2036.260 I  42.093 J -44.715
G2 X2746.390 Y2040.000 I  17.158 J -37.484
G1 X2746.390 Y1548.120
G2 X2729.420 Y1551.860 I   0.188 J  41.224
G2 X2712.960 Y1562.950 I  25.633 J  55.805
G2 X2697.520 Y1581.070 I  72.421 J  77.348
F150
G1 Z   3.000
G0 Z  15.000 
M9 M5
G0 X   0.000 Y   0.000
M2 (Program end)