(Generated with: DXF2GCODE, Version: REMOVED, Date: $Date$)
(Created from file: )
(Output format description: G-CODE for LinuxCNC)
(Time: Thu Sep 13 16:01:19 2018)
G21 (Units in millimeters)
G90 (Absolute programming)
G64 (Default cutting) G17 (XY plane) G40 (Cancel radius comp.) G49 (Cancel length comp.)
G0 Z  15.000 

(*** LAYER: FRAME_Z18 ***)
T1 M6
S6000

(* SHAPE Nr: 107 *)
G0 X   0.000 Y   0.000
M3 M8
G0 Z   3.000 
F150
G1 Z  -1.500
F400
G1 X   0.000 Y1525.000
G1 X3050.000 Y1525.000
G1 X3050.000 Y   0.000
G1 X   0.000 Y   0.000
F150
G1 Z  -3.000
F400
G1 X   0.000 Y1525.000
G1 X3050.000 Y1525.000
G1 X3050.000 Y   0.000
G1 X   0.000 Y   0.000
F150
G1 Z   3.000
G0 Z  15.000 
M9 M5

(*** LAYER: VBORE_Z10_D10 ***)

(* SHAPE Nr: 0 *)
G0 X  61.464 Y 286.464
M3 M8
G0 Z   3.000 
G1 Z  -1.500
F400
G2 X  68.536 Y 293.536 I   3.536 J   3.536
G2 X  61.464 Y 286.464 I  -3.536 J  -3.536
F150
G1 Z  -3.000
F400
G2 X  68.536 Y 293.536 I   3.536 J   3.536
G2 X  61.464 Y 286.464 I  -3.536 J  -3.536
F150
G1 Z   3.000
G0 Z  15.000 
M9 M5

(* SHAPE Nr: 1 *)
G0 X 561.464 Y 286.464
M3 M8
G0 Z   3.000 
G1 Z  -1.500
F400
G2 X 568.536 Y 293.536 I   3.536 J   3.536
G2 X 561.464 Y 286.464 I  -3.536 J  -3.536
F150
G1 Z  -3.000
F400
G2 X 568.536 Y 293.536 I   3.536 J   3.536
G2 X 561.464 Y 286.464 I  -3.536 J  -3.536
F150
G1 Z   3.000
G0 Z  15.000 
M9 M5

(* SHAPE Nr: 5 *)
G0 X2817.394 Y 841.464
M3 M8
G0 Z   3.000 
G1 Z  -1.500
F400
G2 X2824.466 Y 848.536 I   3.536 J   3.536
G2 X2817.394 Y 841.464 I  -3.536 J  -3.536
F150
G1 Z  -3.000
F400
G2 X2824.466 Y 848.536 I   3.536 J   3.536
G2 X2817.394 Y 841.464 I  -3.536 J  -3.536
F150
G1 Z   3.000
G0 Z  15.000 
M9 M5

(* SHAPE Nr: 6 *)
G0 X2817.394 Y 341.464
M3 M8
G0 Z   3.000 
G1 Z  -1.500
F400
G2 X2824.466 Y 348.536 I   3.536 J   3.536
G2 X2817.394 Y 341.464 I  -3.536 J  -3.536
F150
G1 Z  -3.000
F400
G2 X2824.466 Y 348.536 I   3.536 J   3.536
G2 X2817.394 Y 341.464 I  -3.536 J  -3.536
F150
G1 Z   3.000
G0 Z  15.000 
M9 M5

(* SHAPE Nr: 10 *)
G0 X2816.454 Y1456.464
M3 M8
G0 Z   3.000 
G1 Z  -1.500
F400
G2 X2823.526 Y1463.536 I   3.536 J   3.536
G2 X2816.454 Y1456.464 I  -3.536 J  -3.536
F150
G1 Z  -3.000
F400
G2 X2823.526 Y1463.536 I   3.536 J   3.536
G2 X2816.454 Y1456.464 I  -3.536 J  -3.536
F150
G1 Z   3.000
G0 Z  15.000 
M9 M5

(* SHAPE Nr: 11 *)
G0 X2816.454 Y 956.464
M3 M8
G0 Z   3.000 
G1 Z  -1.500
F400
G2 X2823.526 Y 963.536 I   3.536 J   3.536
G2 X2816.454 Y 956.464 I  -3.536 J  -3.536
F150
G1 Z  -3.000
F400
G2 X2823.526 Y 963.536 I   3.536 J   3.536
G2 X2816.454 Y 956.464 I  -3.536 J  -3.536
F150
G1 Z   3.000
G0 Z  15.000 
M9 M5

(*** LAYER: VBORE_Z6_D6 ***)

(* SHAPE Nr: 2 *)
G0 X  77.879 Y 287.879
M3 M8
G0 Z   3.000 
G1 Z  -1.500
F400
G2 X  82.121 Y 292.121 I   2.121 J   2.121
G2 X  77.879 Y 287.879 I  -2.121 J  -2.121
F150
G1 Z  -3.000
F400
G2 X  82.121 Y 292.121 I   2.121 J   2.121
G2 X  77.879 Y 287.879 I  -2.121 J  -2.121
F150
G1 Z   3.000
G0 Z  15.000 
M9 M5

(* SHAPE Nr: 3 *)
G0 X 547.879 Y 287.879
M3 M8
G0 Z   3.000 
G1 Z  -1.500
F400
G2 X 552.121 Y 292.121 I   2.121 J   2.121
G2 X 547.879 Y 287.879 I  -2.121 J  -2.121
F150
G1 Z  -3.000
F400
G2 X 552.121 Y 292.121 I   2.121 J   2.121
G2 X 547.879 Y 287.879 I  -2.121 J  -2.121
F150
G1 Z   3.000
G0 Z  15.000 
M9 M5

(* SHAPE Nr: 7 *)
G0 X2818.809 Y 827.879
M3 M8
G0 Z   3.000 
G1 Z  -1.500
F400
G2 X2823.051 Y 832.121 I   2.121 J   2.121
G2 X2818.809 Y 827.879 I  -2.121 J  -2.121
F150
G1 Z  -3.000
F400
G2 X2823.051 Y 832.121 I   2.121 J   2.121
G2 X2818.809 Y 827.879 I  -2.121 J  -2.121
F150
G1 Z   3.000
G0 Z  15.000 
M9 M5

(* SHAPE Nr: 8 *)
G0 X2818.809 Y 357.879
M3 M8
G0 Z   3.000 
G1 Z  -1.500
F400
G2 X2823.051 Y 362.121 I   2.121 J   2.121
G2 X2818.809 Y 357.879 I  -2.121 J  -2.121
F150
G1 Z  -3.000
F400
G2 X2823.051 Y 362.121 I   2.121 J   2.121
G2 X2818.809 Y 357.879 I  -2.121 J  -2.121
F150
G1 Z   3.000
G0 Z  15.000 
M9 M5

(* SHAPE Nr: 12 *)
G0 X2817.869 Y1442.879
M3 M8
G0 Z   3.000 
G1 Z  -1.500
F400
G2 X2822.111 Y1447.121 I   2.121 J   2.121
G2 X2817.869 Y1442.879 I  -2.121 J  -2.121
F150
G1 Z  -3.000
F400
G2 X2822.111 Y1447.121 I   2.121 J   2.121
G2 X2817.869 Y1442.879 I  -2.121 J  -2.121
F150
G1 Z   3.000
G0 Z  15.000 
M9 M5

(* SHAPE Nr: 13 *)
G0 X2817.869 Y 972.879
M3 M8
G0 Z   3.000 
G1 Z  -1.500
F400
G2 X2822.111 Y 977.121 I   2.121 J   2.121
G2 X2817.869 Y 972.879 I  -2.121 J  -2.121
F150
G1 Z  -3.000
F400
G2 X2822.111 Y 977.121 I   2.121 J   2.121
G2 X2817.869 Y 972.879 I  -2.121 J  -2.121
F150
G1 Z   3.000
G0 Z  15.000 
M9 M5

(*** LAYER: POCKET_D0 ***)

(* SHAPE Nr: 4 *)
G0 X 115.000 Y 100.000
M3 M8
G0 Z   3.000 
G1 Z  -1.500
F400
G1 X 115.000 Y 230.000
G2 X 125.000 Y 240.000 I  10.000 J   0.000
G1 X 290.000 Y 240.000
G1 X 505.000 Y 240.000
G2 X 515.000 Y 230.000 I   0.000 J -10.000
G1 X 515.000 Y 100.000
G2 X 505.000 Y  90.000 I -10.000 J  -0.000
G1 X 315.000 Y  90.000
G1 X 125.000 Y  90.000
G2 X 115.000 Y 100.000 I  -0.000 J  10.000
F150
G1 Z  -3.000
F400
G1 X 115.000 Y 230.000
G2 X 125.000 Y 240.000 I  10.000 J   0.000
G1 X 290.000 Y 240.000
G1 X 505.000 Y 240.000
G2 X 515.000 Y 230.000 I   0.000 J -10.000
G1 X 515.000 Y 100.000
G2 X 505.000 Y  90.000 I -10.000 J  -0.000
G1 X 315.000 Y  90.000
G1 X 125.000 Y  90.000
G2 X 115.000 Y 100.000 I  -0.000 J  10.000
F150
G1 Z   3.000
G0 Z  15.000 
M9 M5

(* SHAPE Nr: 9 *)
G0 X2620.930 Y 405.000
M3 M8
G0 Z   3.000 
G1 Z  -1.500
F400
G1 X2620.930 Y 595.000
G1 X2620.930 Y 785.000
G2 X2630.930 Y 795.000 I  10.000 J   0.000
G1 X2760.930 Y 795.000
G2 X2770.930 Y 785.000 I   0.000 J -10.000
G1 X2770.930 Y 620.000
G1 X2770.930 Y 405.000
G2 X2760.930 Y 395.000 I -10.000 J  -0.000
G1 X2630.930 Y 395.000
G2 X2620.930 Y 405.000 I  -0.000 J  10.000
F150
G1 Z  -3.000
F400
G1 X2620.930 Y 595.000
G1 X2620.930 Y 785.000
G2 X2630.930 Y 795.000 I  10.000 J   0.000
G1 X2760.930 Y 795.000
G2 X2770.930 Y 785.000 I   0.000 J -10.000
G1 X2770.930 Y 620.000
G1 X2770.930 Y 405.000
G2 X2760.930 Y 395.000 I -10.000 J  -0.000
G1 X2630.930 Y 395.000
G2 X2620.930 Y 405.000 I  -0.000 J  10.000
F150
G1 Z   3.000
G0 Z  15.000 
M9 M5

(* SHAPE Nr: 14 *)
G0 X2619.990 Y1020.000
M3 M8
G0 Z   3.000 
G1 Z  -1.500
F400
G1 X2619.990 Y1210.000
G1 X2619.990 Y1400.000
G2 X2629.990 Y1410.000 I  10.000 J   0.000
G1 X2759.990 Y1410.000
G2 X2769.990 Y1400.000 I   0.000 J -10.000
G1 X2769.990 Y1235.000
G1 X2769.990 Y1020.000
G2 X2759.990 Y1010.000 I -10.000 J  -0.000
G1 X2629.990 Y1010.000
G2 X2619.990 Y1020.000 I  -0.000 J  10.000
F150
G1 Z  -3.000
F400
G1 X2619.990 Y1210.000
G1 X2619.990 Y1400.000
G2 X2629.990 Y1410.000 I  10.000 J   0.000
G1 X2759.990 Y1410.000
G2 X2769.990 Y1400.000 I   0.000 J -10.000
G1 X2769.990 Y1235.000
G1 X2769.990 Y1020.000
G2 X2759.990 Y1010.000 I -10.000 J  -0.000
G1 X2629.990 Y1010.000
G2 X2619.990 Y1020.000 I  -0.000 J  10.000
F150
G1 Z   3.000
G0 Z  15.000 
M9 M5

(*** LAYER: ROUT_Z6_D5 ***)

(* SHAPE Nr: 108 *)
G0 X 115.000 Y 290.000
M3 M8
G0 Z   3.000 
G1 Z  -1.500
F400
G1 X 515.000 Y 290.000
F150
G1 Z  -3.000
F400
G1 X 115.000 Y 290.000
F150
G1 Z   3.000
G0 Z  15.000 
M9 M5

(* SHAPE Nr: 109 *)
G0 X2820.930 Y 795.000
M3 M8
G0 Z   3.000 
G1 Z  -1.500
F400
G1 X2820.930 Y 395.000
F150
G1 Z  -3.000
F400
G1 X2820.930 Y 795.000
F150
G1 Z   3.000
G0 Z  15.000 
M9 M5

(* SHAPE Nr: 110 *)
G0 X2819.990 Y1410.000
M3 M8
G0 Z   3.000 
G1 Z  -1.500
F400
G1 X2819.990 Y1010.000
F150
G1 Z  -3.000
F400
G1 X2819.990 Y1410.000
F150
G1 Z   3.000
G0 Z  15.000 
M9 M5

(*** LAYER: VBORE_Z10_D35 ***)

(* SHAPE Nr: 15 *)
G0 X1562.626 Y 392.626
M3 M8
G0 Z   3.000 
G1 Z  -1.500
F400
G2 X1587.374 Y 417.374 I  12.374 J  12.374
G2 X1562.626 Y 392.626 I -12.374 J -12.374
F150
G1 Z  -3.000
F400
G2 X1587.374 Y 417.374 I  12.374 J  12.374
G2 X1562.626 Y 392.626 I -12.374 J -12.374
F150
G1 Z   3.000
G0 Z  15.000 
M9 M5

(* SHAPE Nr: 16 *)
G0 X1562.626 Y 862.626
M3 M8
G0 Z   3.000 
G1 Z  -1.500
F400
G2 X1587.374 Y 887.374 I  12.374 J  12.374
G2 X1562.626 Y 862.626 I -12.374 J -12.374
F150
G1 Z  -3.000
F400
G2 X1587.374 Y 887.374 I  12.374 J  12.374
G2 X1562.626 Y 862.626 I -12.374 J -12.374
F150
G1 Z   3.000
G0 Z  15.000 
M9 M5

(* SHAPE Nr: 22 *)
G0 X1052.626 Y 392.626
M3 M8
G0 Z   3.000 
G1 Z  -1.500
F400
G2 X1077.374 Y 417.374 I  12.374 J  12.374
G2 X1052.626 Y 392.626 I -12.374 J -12.374
F150
G1 Z  -3.000
F400
G2 X1077.374 Y 417.374 I  12.374 J  12.374
G2 X1052.626 Y 392.626 I -12.374 J -12.374
F150
G1 Z   3.000
G0 Z  15.000 
M9 M5

(* SHAPE Nr: 23 *)
G0 X1052.626 Y 862.626
M3 M8
G0 Z   3.000 
G1 Z  -1.500
F400
G2 X1077.374 Y 887.374 I  12.374 J  12.374
G2 X1052.626 Y 862.626 I -12.374 J -12.374
F150
G1 Z  -3.000
F400
G2 X1077.374 Y 887.374 I  12.374 J  12.374
G2 X1052.626 Y 862.626 I -12.374 J -12.374
F150
G1 Z   3.000
G0 Z  15.000 
M9 M5

(* SHAPE Nr: 29 *)
G0 X 542.626 Y 392.626
M3 M8
G0 Z   3.000 
G1 Z  -1.500
F400
G2 X 567.374 Y 417.374 I  12.374 J  12.374
G2 X 542.626 Y 392.626 I -12.374 J -12.374
F150
G1 Z  -3.000
F400
G2 X 567.374 Y 417.374 I  12.374 J  12.374
G2 X 542.626 Y 392.626 I -12.374 J -12.374
F150
G1 Z   3.000
G0 Z  15.000 
M9 M5

(* SHAPE Nr: 30 *)
G0 X 542.626 Y 862.626
M3 M8
G0 Z   3.000 
G1 Z  -1.500
F400
G2 X 567.374 Y 887.374 I  12.374 J  12.374
G2 X 542.626 Y 862.626 I -12.374 J -12.374
F150
G1 Z  -3.000
F400
G2 X 567.374 Y 887.374 I  12.374 J  12.374
G2 X 542.626 Y 862.626 I -12.374 J -12.374
F150
G1 Z   3.000
G0 Z  15.000 
M9 M5

(* SHAPE Nr: 36 *)
G0 X  32.626 Y 392.626
M3 M8
G0 Z   3.000 
G1 Z  -1.500
F400
G2 X  57.374 Y 417.374 I  12.374 J  12.374
G2 X  32.626 Y 392.626 I -12.374 J -12.374
F150
G1 Z  -3.000
F400
G2 X  57.374 Y 417.374 I  12.374 J  12.374
G2 X  32.626 Y 392.626 I -12.374 J -12.374
F150
G1 Z   3.000
G0 Z  15.000 
M9 M5

(* SHAPE Nr: 37 *)
G0 X  32.626 Y 862.626
M3 M8
G0 Z   3.000 
G1 Z  -1.500
F400
G2 X  57.374 Y 887.374 I  12.374 J  12.374
G2 X  32.626 Y 862.626 I -12.374 J -12.374
F150
G1 Z  -3.000
F400
G2 X  57.374 Y 887.374 I  12.374 J  12.374
G2 X  32.626 Y 862.626 I -12.374 J -12.374
F150
G1 Z   3.000
G0 Z  15.000 
M9 M5

(* SHAPE Nr: 43 *)
G0 X  32.626 Y 977.626
M3 M8
G0 Z   3.000 
G1 Z  -1.500
F400
G2 X  57.374 Y1002.374 I  12.374 J  12.374
G2 X  32.626 Y 977.626 I -12.374 J -12.374
F150
G1 Z  -3.000
F400
G2 X  57.374 Y1002.374 I  12.374 J  12.374
G2 X  32.626 Y 977.626 I -12.374 J -12.374
F150
G1 Z   3.000
G0 Z  15.000 
M9 M5

(* SHAPE Nr: 44 *)
G0 X  32.626 Y1447.626
M3 M8
G0 Z   3.000 
G1 Z  -1.500
F400
G2 X  57.374 Y1472.374 I  12.374 J  12.374
G2 X  32.626 Y1447.626 I -12.374 J -12.374
F150
G1 Z  -3.000
F400
G2 X  57.374 Y1472.374 I  12.374 J  12.374
G2 X  32.626 Y1447.626 I -12.374 J -12.374
F150
G1 Z   3.000
G0 Z  15.000 
M9 M5

(* SHAPE Nr: 50 *)
G0 X 542.626 Y 977.626
M3 M8
G0 Z   3.000 
G1 Z  -1.500
F400
G2 X 567.374 Y1002.374 I  12.374 J  12.374
G2 X 542.626 Y 977.626 I -12.374 J -12.374
F150
G1 Z  -3.000
F400
G2 X 567.374 Y1002.374 I  12.374 J  12.374
G2 X 542.626 Y 977.626 I -12.374 J -12.374
F150
G1 Z   3.000
G0 Z  15.000 
M9 M5

(* SHAPE Nr: 51 *)
G0 X 542.626 Y1447.626
M3 M8
G0 Z   3.000 
G1 Z  -1.500
F400
G2 X 567.374 Y1472.374 I  12.374 J  12.374
G2 X 542.626 Y1447.626 I -12.374 J -12.374
F150
G1 Z  -3.000
F400
G2 X 567.374 Y1472.374 I  12.374 J  12.374
G2 X 542.626 Y1447.626 I -12.374 J -12.374
F150
G1 Z   3.000
G0 Z  15.000 
M9 M5

(* SHAPE Nr: 57 *)
G0 X1052.626 Y 977.626
M3 M8
G0 Z   3.000 
G1 Z  -1.500
F400
G2 X1077.374 Y1002.374 I  12.374 J  12.374
G2 X1052.626 Y 977.626 I -12.374 J -12.374
F150
G1 Z  -3.000
F400
G2 X1077.374 Y1002.374 I  12.374 J  12.374
G2 X1052.626 Y 977.626 I -12.374 J -12.374
F150
G1 Z   3.000
G0 Z  15.000 
M9 M5

(* SHAPE Nr: 58 *)
G0 X1052.626 Y1447.626
M3 M8
G0 Z   3.000 
G1 Z  -1.500
F400
G2 X1077.374 Y1472.374 I  12.374 J  12.374
G2 X1052.626 Y1447.626 I -12.374 J -12.374
F150
G1 Z  -3.000
F400
G2 X1077.374 Y1472.374 I  12.374 J  12.374
G2 X1052.626 Y1447.626 I -12.374 J -12.374
F150
G1 Z   3.000
G0 Z  15.000 
M9 M5

(* SHAPE Nr: 64 *)
G0 X1562.626 Y 977.626
M3 M8
G0 Z   3.000 
G1 Z  -1.500
F400
G2 X1587.374 Y1002.374 I  12.374 J  12.374
G2 X1562.626 Y 977.626 I -12.374 J -12.374
F150
G1 Z  -3.000
F400
G2 X1587.374 Y1002.374 I  12.374 J  12.374
G2 X1562.626 Y 977.626 I -12.374 J -12.374
F150
G1 Z   3.000
G0 Z  15.000 
M9 M5

(* SHAPE Nr: 65 *)
G0 X1562.626 Y1447.626
M3 M8
G0 Z   3.000 
G1 Z  -1.500
F400
G2 X1587.374 Y1472.374 I  12.374 J  12.374
G2 X1562.626 Y1447.626 I -12.374 J -12.374
F150
G1 Z  -3.000
F400
G2 X1587.374 Y1472.374 I  12.374 J  12.374
G2 X1562.626 Y1447.626 I -12.374 J -12.374
F150
G1 Z   3.000
G0 Z  15.000 
M9 M5

(*** LAYER: VBORE_Z10_D8 ***)

(* SHAPE Nr: 17 *)
G0 X1586.172 Y 381.172
M3 M8
G0 Z   3.000 
G1 Z  -1.500
F400
G2 X1591.828 Y 386.828 I   2.828 J   2.828
G2 X1586.172 Y 381.172 I  -2.828 J  -2.828
F150
G1 Z  -3.000
F400
G2 X1591.828 Y 386.828 I   2.828 J   2.828
G2 X1586.172 Y 381.172 I  -2.828 J  -2.828
F150
G1 Z   3.000
G0 Z  15.000 
M9 M5

(* SHAPE Nr: 18 *)
G0 X1586.172 Y 423.172
M3 M8
G0 Z   3.000 
G1 Z  -1.500
F400
G2 X1591.828 Y 428.828 I   2.828 J   2.828
G2 X1586.172 Y 423.172 I  -2.828 J  -2.828
F150
G1 Z  -3.000
F400
G2 X1591.828 Y 428.828 I   2.828 J   2.828
G2 X1586.172 Y 423.172 I  -2.828 J  -2.828
F150
G1 Z   3.000
G0 Z  15.000 
M9 M5

(* SHAPE Nr: 19 *)
G0 X1586.172 Y 851.172
M3 M8
G0 Z   3.000 
G1 Z  -1.500
F400
G2 X1591.828 Y 856.828 I   2.828 J   2.828
G2 X1586.172 Y 851.172 I  -2.828 J  -2.828
F150
G1 Z  -3.000
F400
G2 X1591.828 Y 856.828 I   2.828 J   2.828
G2 X1586.172 Y 851.172 I  -2.828 J  -2.828
F150
G1 Z   3.000
G0 Z  15.000 
M9 M5

(* SHAPE Nr: 20 *)
G0 X1586.172 Y 893.172
M3 M8
G0 Z   3.000 
G1 Z  -1.500
F400
G2 X1591.828 Y 898.828 I   2.828 J   2.828
G2 X1586.172 Y 893.172 I  -2.828 J  -2.828
F150
G1 Z  -3.000
F400
G2 X1591.828 Y 898.828 I   2.828 J   2.828
G2 X1586.172 Y 893.172 I  -2.828 J  -2.828
F150
G1 Z   3.000
G0 Z  15.000 
M9 M5

(* SHAPE Nr: 24 *)
G0 X1076.172 Y 381.172
M3 M8
G0 Z   3.000 
G1 Z  -1.500
F400
G2 X1081.828 Y 386.828 I   2.828 J   2.828
G2 X1076.172 Y 381.172 I  -2.828 J  -2.828
F150
G1 Z  -3.000
F400
G2 X1081.828 Y 386.828 I   2.828 J   2.828
G2 X1076.172 Y 381.172 I  -2.828 J  -2.828
F150
G1 Z   3.000
G0 Z  15.000 
M9 M5

(* SHAPE Nr: 25 *)
G0 X1076.172 Y 423.172
M3 M8
G0 Z   3.000 
G1 Z  -1.500
F400
G2 X1081.828 Y 428.828 I   2.828 J   2.828
G2 X1076.172 Y 423.172 I  -2.828 J  -2.828
F150
G1 Z  -3.000
F400
G2 X1081.828 Y 428.828 I   2.828 J   2.828
G2 X1076.172 Y 423.172 I  -2.828 J  -2.828
F150
G1 Z   3.000
G0 Z  15.000 
M9 M5

(* SHAPE Nr: 26 *)
G0 X1076.172 Y 851.172
M3 M8
G0 Z   3.000 
G1 Z  -1.500
F400
G2 X1081.828 Y 856.828 I   2.828 J   2.828
G2 X1076.172 Y 851.172 I  -2.828 J  -2.828
F150
G1 Z  -3.000
F400
G2 X1081.828 Y 856.828 I   2.828 J   2.828
G2 X1076.172 Y 851.172 I  -2.828 J  -2.828
F150
G1 Z   3.000
G0 Z  15.000 
M9 M5

(* SHAPE Nr: 27 *)
G0 X1076.172 Y 893.172
M3 M8
G0 Z   3.000 
G1 Z  -1.500
F400
G2 X1081.828 Y 898.828 I   2.828 J   2.828
G2 X1076.172 Y 893.172 I  -2.828 J  -2.828
F150
G1 Z  -3.000
F400
G2 X1081.828 Y 898.828 I   2.828 J   2.828
G2 X1076.172 Y 893.172 I  -2.828 J  -2.828
F150
G1 Z   3.000
G0 Z  15.000 
M9 M5

(* SHAPE Nr: 31 *)
G0 X 566.172 Y 381.172
M3 M8
G0 Z   3.000 
G1 Z  -1.500
F400
G2 X 571.828 Y 386.828 I   2.828 J   2.828
G2 X 566.172 Y 381.172 I  -2.828 J  -2.828
F150
G1 Z  -3.000
F400
G2 X 571.828 Y 386.828 I   2.828 J   2.828
G2 X 566.172 Y 381.172 I  -2.828 J  -2.828
F150
G1 Z   3.000
G0 Z  15.000 
M9 M5

(* SHAPE Nr: 32 *)
G0 X 566.172 Y 423.172
M3 M8
G0 Z   3.000 
G1 Z  -1.500
F400
G2 X 571.828 Y 428.828 I   2.828 J   2.828
G2 X 566.172 Y 423.172 I  -2.828 J  -2.828
F150
G1 Z  -3.000
F400
G2 X 571.828 Y 428.828 I   2.828 J   2.828
G2 X 566.172 Y 423.172 I  -2.828 J  -2.828
F150
G1 Z   3.000
G0 Z  15.000 
M9 M5

(* SHAPE Nr: 33 *)
G0 X 566.172 Y 851.172
M3 M8
G0 Z   3.000 
G1 Z  -1.500
F400
G2 X 571.828 Y 856.828 I   2.828 J   2.828
G2 X 566.172 Y 851.172 I  -2.828 J  -2.828
F150
G1 Z  -3.000
F400
G2 X 571.828 Y 856.828 I   2.828 J   2.828
G2 X 566.172 Y 851.172 I  -2.828 J  -2.828
F150
G1 Z   3.000
G0 Z  15.000 
M9 M5

(* SHAPE Nr: 34 *)
G0 X 566.172 Y 893.172
M3 M8
G0 Z   3.000 
G1 Z  -1.500
F400
G2 X 571.828 Y 898.828 I   2.828 J   2.828
G2 X 566.172 Y 893.172 I  -2.828 J  -2.828
F150
G1 Z  -3.000
F400
G2 X 571.828 Y 898.828 I   2.828 J   2.828
G2 X 566.172 Y 893.172 I  -2.828 J  -2.828
F150
G1 Z   3.000
G0 Z  15.000 
M9 M5

(* SHAPE Nr: 38 *)
G0 X  56.172 Y 381.172
M3 M8
G0 Z   3.000 
G1 Z  -1.500
F400
G2 X  61.828 Y 386.828 I   2.828 J   2.828
G2 X  56.172 Y 381.172 I  -2.828 J  -2.828
F150
G1 Z  -3.000
F400
G2 X  61.828 Y 386.828 I   2.828 J   2.828
G2 X  56.172 Y 381.172 I  -2.828 J  -2.828
F150
G1 Z   3.000
G0 Z  15.000 
M9 M5

(* SHAPE Nr: 39 *)
G0 X  56.172 Y 423.172
M3 M8
G0 Z   3.000 
G1 Z  -1.500
F400
G2 X  61.828 Y 428.828 I   2.828 J   2.828
G2 X  56.172 Y 423.172 I  -2.828 J  -2.828
F150
G1 Z  -3.000
F400
G2 X  61.828 Y 428.828 I   2.828 J   2.828
G2 X  56.172 Y 423.172 I  -2.828 J  -2.828
F150
G1 Z   3.000
G0 Z  15.000 
M9 M5

(* SHAPE Nr: 40 *)
G0 X  56.172 Y 851.172
M3 M8
G0 Z   3.000 
G1 Z  -1.500
F400
G2 X  61.828 Y 856.828 I   2.828 J   2.828
G2 X  56.172 Y 851.172 I  -2.828 J  -2.828
F150
G1 Z  -3.000
F400
G2 X  61.828 Y 856.828 I   2.828 J   2.828
G2 X  56.172 Y 851.172 I  -2.828 J  -2.828
F150
G1 Z   3.000
G0 Z  15.000 
M9 M5

(* SHAPE Nr: 41 *)
G0 X  56.172 Y 893.172
M3 M8
G0 Z   3.000 
G1 Z  -1.500
F400
G2 X  61.828 Y 898.828 I   2.828 J   2.828
G2 X  56.172 Y 893.172 I  -2.828 J  -2.828
F150
G1 Z  -3.000
F400
G2 X  61.828 Y 898.828 I   2.828 J   2.828
G2 X  56.172 Y 893.172 I  -2.828 J  -2.828
F150
G1 Z   3.000
G0 Z  15.000 
M9 M5

(* SHAPE Nr: 45 *)
G0 X  56.172 Y 966.172
M3 M8
G0 Z   3.000 
G1 Z  -1.500
F400
G2 X  61.828 Y 971.828 I   2.828 J   2.828
G2 X  56.172 Y 966.172 I  -2.828 J  -2.828
F150
G1 Z  -3.000
F400
G2 X  61.828 Y 971.828 I   2.828 J   2.828
G2 X  56.172 Y 966.172 I  -2.828 J  -2.828
F150
G1 Z   3.000
G0 Z  15.000 
M9 M5

(* SHAPE Nr: 46 *)
G0 X  56.172 Y1008.172
M3 M8
G0 Z   3.000 
G1 Z  -1.500
F400
G2 X  61.828 Y1013.828 I   2.828 J   2.828
G2 X  56.172 Y1008.172 I  -2.828 J  -2.828
F150
G1 Z  -3.000
F400
G2 X  61.828 Y1013.828 I   2.828 J   2.828
G2 X  56.172 Y1008.172 I  -2.828 J  -2.828
F150
G1 Z   3.000
G0 Z  15.000 
M9 M5

(* SHAPE Nr: 47 *)
G0 X  56.172 Y1436.172
M3 M8
G0 Z   3.000 
G1 Z  -1.500
F400
G2 X  61.828 Y1441.828 I   2.828 J   2.828
G2 X  56.172 Y1436.172 I  -2.828 J  -2.828
F150
G1 Z  -3.000
F400
G2 X  61.828 Y1441.828 I   2.828 J   2.828
G2 X  56.172 Y1436.172 I  -2.828 J  -2.828
F150
G1 Z   3.000
G0 Z  15.000 
M9 M5

(* SHAPE Nr: 48 *)
G0 X  56.172 Y1478.172
M3 M8
G0 Z   3.000 
G1 Z  -1.500
F400
G2 X  61.828 Y1483.828 I   2.828 J   2.828
G2 X  56.172 Y1478.172 I  -2.828 J  -2.828
F150
G1 Z  -3.000
F400
G2 X  61.828 Y1483.828 I   2.828 J   2.828
G2 X  56.172 Y1478.172 I  -2.828 J  -2.828
F150
G1 Z   3.000
G0 Z  15.000 
M9 M5

(* SHAPE Nr: 52 *)
G0 X 566.172 Y 966.172
M3 M8
G0 Z   3.000 
G1 Z  -1.500
F400
G2 X 571.828 Y 971.828 I   2.828 J   2.828
G2 X 566.172 Y 966.172 I  -2.828 J  -2.828
F150
G1 Z  -3.000
F400
G2 X 571.828 Y 971.828 I   2.828 J   2.828
G2 X 566.172 Y 966.172 I  -2.828 J  -2.828
F150
G1 Z   3.000
G0 Z  15.000 
M9 M5

(* SHAPE Nr: 53 *)
G0 X 566.172 Y1008.172
M3 M8
G0 Z   3.000 
G1 Z  -1.500
F400
G2 X 571.828 Y1013.828 I   2.828 J   2.828
G2 X 566.172 Y1008.172 I  -2.828 J  -2.828
F150
G1 Z  -3.000
F400
G2 X 571.828 Y1013.828 I   2.828 J   2.828
G2 X 566.172 Y1008.172 I  -2.828 J  -2.828
F150
G1 Z   3.000
G0 Z  15.000 
M9 M5

(* SHAPE Nr: 54 *)
G0 X 566.172 Y1436.172
M3 M8
G0 Z   3.000 
G1 Z  -1.500
F400
G2 X 571.828 Y1441.828 I   2.828 J   2.828
G2 X 566.172 Y1436.172 I  -2.828 J  -2.828
F150
G1 Z  -3.000
F400
G2 X 571.828 Y1441.828 I   2.828 J   2.828
G2 X 566.172 Y1436.172 I  -2.828 J  -2.828
F150
G1 Z   3.000
G0 Z  15.000 
M9 M5

(* SHAPE Nr: 55 *)
G0 X 566.172 Y1478.172
M3 M8
G0 Z   3.000 
G1 Z  -1.500
F400
G2 X 571.828 Y1483.828 I   2.828 J   2.828
G2 X 566.172 Y1478.172 I  -2.828 J  -2.828
F150
G1 Z  -3.000
F400
G2 X 571.828 Y1483.828 I   2.828 J   2.828
G2 X 566.172 Y1478.172 I  -2.828 J  -2.828
F150
G1 Z   3.000
G0 Z  15.000 
M9 M5

(* SHAPE Nr: 59 *)
G0 X1076.172 Y 966.172
M3 M8
G0 Z   3.000 
G1 Z  -1.500
F400
G2 X1081.828 Y 971.828 I   2.828 J   2.828
G2 X1076.172 Y 966.172 I  -2.828 J  -2.828
F150
G1 Z  -3.000
F400
G2 X1081.828 Y 971.828 I   2.828 J   2.828
G2 X1076.172 Y 966.172 I  -2.828 J  -2.828
F150
G1 Z   3.000
G0 Z  15.000 
M9 M5

(* SHAPE Nr: 60 *)
G0 X1076.172 Y1008.172
M3 M8
G0 Z   3.000 
G1 Z  -1.500
F400
G2 X1081.828 Y1013.828 I   2.828 J   2.828
G2 X1076.172 Y1008.172 I  -2.828 J  -2.828
F150
G1 Z  -3.000
F400
G2 X1081.828 Y1013.828 I   2.828 J   2.828
G2 X1076.172 Y1008.172 I  -2.828 J  -2.828
F150
G1 Z   3.000
G0 Z  15.000 
M9 M5

(* SHAPE Nr: 61 *)
G0 X1076.172 Y1436.172
M3 M8
G0 Z   3.000 
G1 Z  -1.500
F400
G2 X1081.828 Y1441.828 I   2.828 J   2.828
G2 X1076.172 Y1436.172 I  -2.828 J  -2.828
F150
G1 Z  -3.000
F400
G2 X1081.828 Y1441.828 I   2.828 J   2.828
G2 X1076.172 Y1436.172 I  -2.828 J  -2.828
F150
G1 Z   3.000
G0 Z  15.000 
M9 M5

(* SHAPE Nr: 62 *)
G0 X1076.172 Y1478.172
M3 M8
G0 Z   3.000 
G1 Z  -1.500
F400
G2 X1081.828 Y1483.828 I   2.828 J   2.828
G2 X1076.172 Y1478.172 I  -2.828 J  -2.828
F150
G1 Z  -3.000
F400
G2 X1081.828 Y1483.828 I   2.828 J   2.828
G2 X1076.172 Y1478.172 I  -2.828 J  -2.828
F150
G1 Z   3.000
G0 Z  15.000 
M9 M5

(* SHAPE Nr: 66 *)
G0 X1586.172 Y 966.172
M3 M8
G0 Z   3.000 
G1 Z  -1.500
F400
G2 X1591.828 Y 971.828 I   2.828 J   2.828
G2 X1586.172 Y 966.172 I  -2.828 J  -2.828
F150
G1 Z  -3.000
F400
G2 X1591.828 Y 971.828 I   2.828 J   2.828
G2 X1586.172 Y 966.172 I  -2.828 J  -2.828
F150
G1 Z   3.000
G0 Z  15.000 
M9 M5

(* SHAPE Nr: 67 *)
G0 X1586.172 Y1008.172
M3 M8
G0 Z   3.000 
G1 Z  -1.500
F400
G2 X1591.828 Y1013.828 I   2.828 J   2.828
G2 X1586.172 Y1008.172 I  -2.828 J  -2.828
F150
G1 Z  -3.000
F400
G2 X1591.828 Y1013.828 I   2.828 J   2.828
G2 X1586.172 Y1008.172 I  -2.828 J  -2.828
F150
G1 Z   3.000
G0 Z  15.000 
M9 M5

(* SHAPE Nr: 68 *)
G0 X1586.172 Y1436.172
M3 M8
G0 Z   3.000 
G1 Z  -1.500
F400
G2 X1591.828 Y1441.828 I   2.828 J   2.828
G2 X1586.172 Y1436.172 I  -2.828 J  -2.828
F150
G1 Z  -3.000
F400
G2 X1591.828 Y1441.828 I   2.828 J   2.828
G2 X1586.172 Y1436.172 I  -2.828 J  -2.828
F150
G1 Z   3.000
G0 Z  15.000 
M9 M5

(* SHAPE Nr: 69 *)
G0 X1586.172 Y1478.172
M3 M8
G0 Z   3.000 
G1 Z  -1.500
F400
G2 X1591.828 Y1483.828 I   2.828 J   2.828
G2 X1586.172 Y1478.172 I  -2.828 J  -2.828
F150
G1 Z  -3.000
F400
G2 X1591.828 Y1483.828 I   2.828 J   2.828
G2 X1586.172 Y1478.172 I  -2.828 J  -2.828
F150
G1 Z   3.000
G0 Z  15.000 
M9 M5

(*** LAYER: VBORE_Z18_D8 ***)

(* SHAPE Nr: 21 *)
G0 X2007.172 Y 892.172
M3 M8
G0 Z   3.000 
G1 Z  -1.500
F400
G2 X2012.828 Y 897.828 I   2.828 J   2.828
G2 X2007.172 Y 892.172 I  -2.828 J  -2.828
F150
G1 Z  -3.000
F400
G2 X2012.828 Y 897.828 I   2.828 J   2.828
G2 X2007.172 Y 892.172 I  -2.828 J  -2.828
F150
G1 Z   3.000
G0 Z  15.000 
M9 M5

(* SHAPE Nr: 28 *)
G0 X1497.172 Y 892.172
M3 M8
G0 Z   3.000 
G1 Z  -1.500
F400
G2 X1502.828 Y 897.828 I   2.828 J   2.828
G2 X1497.172 Y 892.172 I  -2.828 J  -2.828
F150
G1 Z  -3.000
F400
G2 X1502.828 Y 897.828 I   2.828 J   2.828
G2 X1497.172 Y 892.172 I  -2.828 J  -2.828
F150
G1 Z   3.000
G0 Z  15.000 
M9 M5

(* SHAPE Nr: 35 *)
G0 X 987.172 Y 892.172
M3 M8
G0 Z   3.000 
G1 Z  -1.500
F400
G2 X 992.828 Y 897.828 I   2.828 J   2.828
G2 X 987.172 Y 892.172 I  -2.828 J  -2.828
F150
G1 Z  -3.000
F400
G2 X 992.828 Y 897.828 I   2.828 J   2.828
G2 X 987.172 Y 892.172 I  -2.828 J  -2.828
F150
G1 Z   3.000
G0 Z  15.000 
M9 M5

(* SHAPE Nr: 42 *)
G0 X 477.172 Y 892.172
M3 M8
G0 Z   3.000 
G1 Z  -1.500
F400
G2 X 482.828 Y 897.828 I   2.828 J   2.828
G2 X 477.172 Y 892.172 I  -2.828 J  -2.828
F150
G1 Z  -3.000
F400
G2 X 482.828 Y 897.828 I   2.828 J   2.828
G2 X 477.172 Y 892.172 I  -2.828 J  -2.828
F150
G1 Z   3.000
G0 Z  15.000 
M9 M5

(* SHAPE Nr: 49 *)
G0 X 477.172 Y1477.172
M3 M8
G0 Z   3.000 
G1 Z  -1.500
F400
G2 X 482.828 Y1482.828 I   2.828 J   2.828
G2 X 477.172 Y1477.172 I  -2.828 J  -2.828
F150
G1 Z  -3.000
F400
G2 X 482.828 Y1482.828 I   2.828 J   2.828
G2 X 477.172 Y1477.172 I  -2.828 J  -2.828
F150
G1 Z   3.000
G0 Z  15.000 
M9 M5

(* SHAPE Nr: 56 *)
G0 X 987.172 Y1477.172
M3 M8
G0 Z   3.000 
G1 Z  -1.500
F400
G2 X 992.828 Y1482.828 I   2.828 J   2.828
G2 X 987.172 Y1477.172 I  -2.828 J  -2.828
F150
G1 Z  -3.000
F400
G2 X 992.828 Y1482.828 I   2.828 J   2.828
G2 X 987.172 Y1477.172 I  -2.828 J  -2.828
F150
G1 Z   3.000
G0 Z  15.000 
M9 M5

(* SHAPE Nr: 63 *)
G0 X1497.172 Y1477.172
M3 M8
G0 Z   3.000 
G1 Z  -1.500
F400
G2 X1502.828 Y1482.828 I   2.828 J   2.828
G2 X1497.172 Y1477.172 I  -2.828 J  -2.828
F150
G1 Z  -3.000
F400
G2 X1502.828 Y1482.828 I   2.828 J   2.828
G2 X1497.172 Y1477.172 I  -2.828 J  -2.828
F150
G1 Z   3.000
G0 Z  15.000 
M9 M5

(* SHAPE Nr: 70 *)
G0 X2007.172 Y1477.172
M3 M8
G0 Z   3.000 
G1 Z  -1.500
F400
G2 X2012.828 Y1482.828 I   2.828 J   2.828
G2 X2007.172 Y1477.172 I  -2.828 J  -2.828
F150
G1 Z  -3.000
F400
G2 X2012.828 Y1482.828 I   2.828 J   2.828
G2 X2007.172 Y1477.172 I  -2.828 J  -2.828
F150
G1 Z   3.000
G0 Z  15.000 
M9 M5

(*** LAYER: BORDER_D0_T128_RK1_A0_W0_RI1_EM1_ID0014 ***)

(* SHAPE Nr: 71 *)
G0 X  15.000 Y  40.000
M3 M8
G0 Z   3.000 
G1 Z  -1.500
F400
G1 X  15.000 Y 340.000
G1 X 315.000 Y 340.000
G1 X 615.000 Y 340.000
G1 X 615.000 Y  40.000
G1 X 315.000 Y  40.000
G1 X  15.000 Y  40.000
F150
G1 Z  -3.000
F400
G1 X  15.000 Y 340.000
G1 X 315.000 Y 340.000
G1 X 615.000 Y 340.000
G1 X 615.000 Y  40.000
G1 X 315.000 Y  40.000
G1 X  15.000 Y  40.000
F150
G1 Z   3.000
G0 Z  15.000 
M9 M5

(* SHAPE Nr: 76 *)
G0 X2570.930 Y 295.000
M3 M8
G0 Z   3.000 
G1 Z  -1.500
F400
G1 X2570.930 Y 595.000
G1 X2570.930 Y 895.000
G1 X2870.930 Y 895.000
G1 X2870.930 Y 595.000
G1 X2870.930 Y 295.000
G1 X2570.930 Y 295.000
F150
G1 Z  -3.000
F400
G1 X2570.930 Y 595.000
G1 X2570.930 Y 895.000
G1 X2870.930 Y 895.000
G1 X2870.930 Y 595.000
G1 X2870.930 Y 295.000
G1 X2570.930 Y 295.000
F150
G1 Z   3.000
G0 Z  15.000 
M9 M5

(* SHAPE Nr: 78 *)
G0 X2569.990 Y 910.000
M3 M8
G0 Z   3.000 
G1 Z  -1.500
F400
G1 X2569.990 Y1210.000
G1 X2569.990 Y1510.000
G1 X2869.990 Y1510.000
G1 X2869.990 Y1210.000
G1 X2869.990 Y 910.000
G1 X2569.990 Y 910.000
F150
G1 Z  -3.000
F400
G1 X2569.990 Y1210.000
G1 X2569.990 Y1510.000
G1 X2869.990 Y1510.000
G1 X2869.990 Y1210.000
G1 X2869.990 Y 910.000
G1 X2569.990 Y 910.000
F150
G1 Z   3.000
G0 Z  15.000 
M9 M5

(*** LAYER: BORDER_D0_T128_RK1_A0_W0_RI1_EM1_ID0001 ***)

(* SHAPE Nr: 72 *)
G0 X 630.000 Y  40.000
M3 M8
G0 Z   3.000 
G1 Z  -1.500
F400
G1 X 630.000 Y 340.000
G1 X 761.000 Y 340.000
G1 X 892.000 Y 340.000
G1 X 892.000 Y 190.000
G1 X 892.000 Y  40.000
G1 X 630.000 Y  40.000
F150
G1 Z  -3.000
F400
G1 X 630.000 Y 340.000
G1 X 761.000 Y 340.000
G1 X 892.000 Y 340.000
G1 X 892.000 Y 190.000
G1 X 892.000 Y  40.000
G1 X 630.000 Y  40.000
F150
G1 Z   3.000
G0 Z  15.000 
M9 M5

(* SHAPE Nr: 73 *)
G0 X 907.000 Y  40.000
M3 M8
G0 Z   3.000 
G1 Z  -1.500
F400
G1 X 907.000 Y 340.000
G1 X1038.000 Y 340.000
G1 X1169.000 Y 340.000
G1 X1169.000 Y 190.000
G1 X1169.000 Y  40.000
G1 X 907.000 Y  40.000
F150
G1 Z  -3.000
F400
G1 X 907.000 Y 340.000
G1 X1038.000 Y 340.000
G1 X1169.000 Y 340.000
G1 X1169.000 Y 190.000
G1 X1169.000 Y  40.000
G1 X 907.000 Y  40.000
F150
G1 Z   3.000
G0 Z  15.000 
M9 M5

(* SHAPE Nr: 74 *)
G0 X1184.000 Y  78.000
M3 M8
G0 Z   3.000 
G1 Z  -1.500
F400
G1 X1184.000 Y 340.000
G1 X1484.000 Y 340.000
G1 X1484.000 Y 209.000
G1 X1484.000 Y  78.000
G1 X1334.000 Y  78.000
G1 X1184.000 Y  78.000
F150
G1 Z  -3.000
F400
G1 X1184.000 Y 340.000
G1 X1484.000 Y 340.000
G1 X1484.000 Y 209.000
G1 X1484.000 Y  78.000
G1 X1334.000 Y  78.000
G1 X1184.000 Y  78.000
F150
G1 Z   3.000
G0 Z  15.000 
M9 M5

(*** LAYER: BORDER_D0_T128_RK1_A0_W0_RI1_EM1_ID0011 ***)

(* SHAPE Nr: 75 *)
G0 X2055.000 Y 261.480
M3 M8
G0 Z   3.000 
G1 Z  -1.500
F400
G1 X2055.000 Y 561.480
G1 X2555.000 Y 361.480
G1 X2555.000 Y 320.340
G1 X2555.000 Y  61.480
G1 X2305.000 Y 161.480
G1 X2055.000 Y 261.480
F150
G1 Z  -3.000
F400
G1 X2055.000 Y 561.480
G1 X2555.000 Y 361.480
G1 X2555.000 Y 320.340
G1 X2555.000 Y  61.480
G1 X2305.000 Y 161.480
G1 X2055.000 Y 261.480
F150
G1 Z   3.000
G0 Z  15.000 
M9 M5

(* SHAPE Nr: 77 *)
G0 X2055.940 Y 577.270
M3 M8
G0 Z   3.000 
G1 Z  -1.500
F400
G1 X2055.940 Y 877.270
G1 X2555.940 Y 677.270
G1 X2555.940 Y 636.130
G1 X2555.940 Y 377.270
G1 X2305.940 Y 477.270
G1 X2055.940 Y 577.270
F150
G1 Z  -3.000
F400
G1 X2055.940 Y 877.270
G1 X2555.940 Y 677.270
G1 X2555.940 Y 636.130
G1 X2555.940 Y 377.270
G1 X2305.940 Y 477.270
G1 X2055.940 Y 577.270
F150
G1 Z   3.000
G0 Z  15.000 
M9 M5

(* SHAPE Nr: 79 *)
G0 X2055.000 Y 893.830
M3 M8
G0 Z   3.000 
G1 Z  -1.500
F400
G1 X2055.000 Y 934.970
G1 X2055.000 Y1193.830
G1 X2305.000 Y1093.830
G1 X2555.000 Y 993.830
G1 X2555.000 Y 693.830
G1 X2055.000 Y 893.830
F150
G1 Z  -3.000
F400
G1 X2055.000 Y 934.970
G1 X2055.000 Y1193.830
G1 X2305.000 Y1093.830
G1 X2555.000 Y 993.830
G1 X2555.000 Y 693.830
G1 X2055.000 Y 893.830
F150
G1 Z   3.000
G0 Z  15.000 
M9 M5

(* SHAPE Nr: 88 *)
G0 X2055.000 Y1210.000
M3 M8
G0 Z   3.000 
G1 Z  -1.500
F400
G1 X2055.000 Y1251.140
G1 X2055.000 Y1510.000
G1 X2305.000 Y1410.000
G1 X2555.000 Y1310.000
G1 X2555.000 Y1010.000
G1 X2055.000 Y1210.000
F150
G1 Z  -3.000
F400
G1 X2055.000 Y1251.140
G1 X2055.000 Y1510.000
G1 X2305.000 Y1410.000
G1 X2555.000 Y1310.000
G1 X2555.000 Y1010.000
G1 X2055.000 Y1210.000
F150
G1 Z   3.000
G0 Z  15.000 
M9 M5

(*** LAYER: BORDER_D0_T128_RK1_A0_W0_RI1_EM1_ID0013 ***)

(* SHAPE Nr: 80 *)
G0 X1545.000 Y 355.000
M3 M8
G0 Z   3.000 
G1 Z  -1.500
F400
G1 X1545.000 Y 925.000
G1 X1792.500 Y 925.000
G1 X2040.000 Y 925.000
G1 X2040.000 Y 640.000
G1 X2040.000 Y 355.000
G1 X1545.000 Y 355.000
F150
G1 Z  -3.000
F400
G1 X1545.000 Y 925.000
G1 X1792.500 Y 925.000
G1 X2040.000 Y 925.000
G1 X2040.000 Y 640.000
G1 X2040.000 Y 355.000
G1 X1545.000 Y 355.000
F150
G1 Z   3.000
G0 Z  15.000 
M9 M5

(* SHAPE Nr: 81 *)
G0 X1035.000 Y 355.000
M3 M8
G0 Z   3.000 
G1 Z  -1.500
F400
G1 X1035.000 Y 925.000
G1 X1282.500 Y 925.000
G1 X1530.000 Y 925.000
G1 X1530.000 Y 640.000
G1 X1530.000 Y 355.000
G1 X1035.000 Y 355.000
F150
G1 Z  -3.000
F400
G1 X1035.000 Y 925.000
G1 X1282.500 Y 925.000
G1 X1530.000 Y 925.000
G1 X1530.000 Y 640.000
G1 X1530.000 Y 355.000
G1 X1035.000 Y 355.000
F150
G1 Z   3.000
G0 Z  15.000 
M9 M5

(* SHAPE Nr: 82 *)
G0 X 525.000 Y 355.000
M3 M8
G0 Z   3.000 
G1 Z  -1.500
F400
G1 X 525.000 Y 925.000
G1 X 772.500 Y 925.000
G1 X1020.000 Y 925.000
G1 X1020.000 Y 640.000
G1 X1020.000 Y 355.000
G1 X 525.000 Y 355.000
F150
G1 Z  -3.000
F400
G1 X 525.000 Y 925.000
G1 X 772.500 Y 925.000
G1 X1020.000 Y 925.000
G1 X1020.000 Y 640.000
G1 X1020.000 Y 355.000
G1 X 525.000 Y 355.000
F150
G1 Z   3.000
G0 Z  15.000 
M9 M5

(* SHAPE Nr: 83 *)
G0 X  15.000 Y 355.000
M3 M8
G0 Z   3.000 
G1 Z  -1.500
F400
G1 X  15.000 Y 925.000
G1 X 262.500 Y 925.000
G1 X 510.000 Y 925.000
G1 X 510.000 Y 640.000
G1 X 510.000 Y 355.000
G1 X  15.000 Y 355.000
F150
G1 Z  -3.000
F400
G1 X  15.000 Y 925.000
G1 X 262.500 Y 925.000
G1 X 510.000 Y 925.000
G1 X 510.000 Y 640.000
G1 X 510.000 Y 355.000
G1 X  15.000 Y 355.000
F150
G1 Z   3.000
G0 Z  15.000 
M9 M5

(* SHAPE Nr: 84 *)
G0 X  15.000 Y 940.000
M3 M8
G0 Z   3.000 
G1 Z  -1.500
F400
G1 X  15.000 Y1510.000
G1 X 262.500 Y1510.000
G1 X 510.000 Y1510.000
G1 X 510.000 Y1225.000
G1 X 510.000 Y 940.000
G1 X  15.000 Y 940.000
F150
G1 Z  -3.000
F400
G1 X  15.000 Y1510.000
G1 X 262.500 Y1510.000
G1 X 510.000 Y1510.000
G1 X 510.000 Y1225.000
G1 X 510.000 Y 940.000
G1 X  15.000 Y 940.000
F150
G1 Z   3.000
G0 Z  15.000 
M9 M5

(* SHAPE Nr: 85 *)
G0 X 525.000 Y 940.000
M3 M8
G0 Z   3.000 
G1 Z  -1.500
F400
G1 X 525.000 Y1510.000
G1 X 772.500 Y1510.000
G1 X1020.000 Y1510.000
G1 X1020.000 Y1225.000
G1 X1020.000 Y 940.000
G1 X 525.000 Y 940.000
F150
G1 Z  -3.000
F400
G1 X 525.000 Y1510.000
G1 X 772.500 Y1510.000
G1 X1020.000 Y1510.000
G1 X1020.000 Y1225.000
G1 X1020.000 Y 940.000
G1 X 525.000 Y 940.000
F150
G1 Z   3.000
G0 Z  15.000 
M9 M5

(* SHAPE Nr: 86 *)
G0 X1035.000 Y 940.000
M3 M8
G0 Z   3.000 
G1 Z  -1.500
F400
G1 X1035.000 Y1510.000
G1 X1282.500 Y1510.000
G1 X1530.000 Y1510.000
G1 X1530.000 Y1225.000
G1 X1530.000 Y 940.000
G1 X1035.000 Y 940.000
F150
G1 Z  -3.000
F400
G1 X1035.000 Y1510.000
G1 X1282.500 Y1510.000
G1 X1530.000 Y1510.000
G1 X1530.000 Y1225.000
G1 X1530.000 Y 940.000
G1 X1035.000 Y 940.000
F150
G1 Z   3.000
G0 Z  15.000 
M9 M5

(* SHAPE Nr: 87 *)
G0 X1545.000 Y 940.000
M3 M8
G0 Z   3.000 
G1 Z  -1.500
F400
G1 X1545.000 Y1510.000
G1 X1792.500 Y1510.000
G1 X2040.000 Y1510.000
G1 X2040.000 Y1225.000
G1 X2040.000 Y 940.000
G1 X1545.000 Y 940.000
F150
G1 Z  -3.000
F400
G1 X1545.000 Y1510.000
G1 X1792.500 Y1510.000
G1 X2040.000 Y1510.000
G1 X2040.000 Y1225.000
G1 X2040.000 Y 940.000
G1 X1545.000 Y 940.000
F150
G1 Z   3.000
G0 Z  15.000 
M9 M5

(*** LAYER: BORDER_D0_T128.1_RK1_A0_W0_RI1_EM1_ID0014 ***)

(* SHAPE Nr: 89 *)
G0 X  15.000 Y  40.000
M3 M8
G0 Z   3.000 
G1 Z  -1.500
F400
G1 X  15.000 Y 340.000
G1 X 315.000 Y 340.000
G1 X 615.000 Y 340.000
G1 X 615.000 Y  40.000
G1 X 315.000 Y  40.000
G1 X  15.000 Y  40.000
F150
G1 Z  -3.000
F400
G1 X  15.000 Y 340.000
G1 X 315.000 Y 340.000
G1 X 615.000 Y 340.000
G1 X 615.000 Y  40.000
G1 X 315.000 Y  40.000
G1 X  15.000 Y  40.000
F150
G1 Z   3.000
G0 Z  15.000 
M9 M5

(* SHAPE Nr: 94 *)
G0 X2570.930 Y 295.000
M3 M8
G0 Z   3.000 
G1 Z  -1.500
F400
G1 X2570.930 Y 595.000
G1 X2570.930 Y 895.000
G1 X2870.930 Y 895.000
G1 X2870.930 Y 595.000
G1 X2870.930 Y 295.000
G1 X2570.930 Y 295.000
F150
G1 Z  -3.000
F400
G1 X2570.930 Y 595.000
G1 X2570.930 Y 895.000
G1 X2870.930 Y 895.000
G1 X2870.930 Y 595.000
G1 X2870.930 Y 295.000
G1 X2570.930 Y 295.000
F150
G1 Z   3.000
G0 Z  15.000 
M9 M5

(* SHAPE Nr: 96 *)
G0 X2569.990 Y 910.000
M3 M8
G0 Z   3.000 
G1 Z  -1.500
F400
G1 X2569.990 Y1210.000
G1 X2569.990 Y1510.000
G1 X2869.990 Y1510.000
G1 X2869.990 Y1210.000
G1 X2869.990 Y 910.000
G1 X2569.990 Y 910.000
F150
G1 Z  -3.000
F400
G1 X2569.990 Y1210.000
G1 X2569.990 Y1510.000
G1 X2869.990 Y1510.000
G1 X2869.990 Y1210.000
G1 X2869.990 Y 910.000
G1 X2569.990 Y 910.000
F150
G1 Z   3.000
G0 Z  15.000 
M9 M5

(*** LAYER: BORDER_D0_T128.1_RK1_A0_W0_RI1_EM1_ID0001 ***)

(* SHAPE Nr: 90 *)
G0 X 630.000 Y  40.000
M3 M8
G0 Z   3.000 
G1 Z  -1.500
F400
G1 X 630.000 Y 340.000
G1 X 761.000 Y 340.000
G1 X 892.000 Y 340.000
G1 X 892.000 Y 190.000
G1 X 892.000 Y  40.000
G1 X 630.000 Y  40.000
F150
G1 Z  -3.000
F400
G1 X 630.000 Y 340.000
G1 X 761.000 Y 340.000
G1 X 892.000 Y 340.000
G1 X 892.000 Y 190.000
G1 X 892.000 Y  40.000
G1 X 630.000 Y  40.000
F150
G1 Z   3.000
G0 Z  15.000 
M9 M5

(* SHAPE Nr: 91 *)
G0 X 907.000 Y  40.000
M3 M8
G0 Z   3.000 
G1 Z  -1.500
F400
G1 X 907.000 Y 340.000
G1 X1038.000 Y 340.000
G1 X1169.000 Y 340.000
G1 X1169.000 Y 190.000
G1 X1169.000 Y  40.000
G1 X 907.000 Y  40.000
F150
G1 Z  -3.000
F400
G1 X 907.000 Y 340.000
G1 X1038.000 Y 340.000
G1 X1169.000 Y 340.000
G1 X1169.000 Y 190.000
G1 X1169.000 Y  40.000
G1 X 907.000 Y  40.000
F150
G1 Z   3.000
G0 Z  15.000 
M9 M5

(* SHAPE Nr: 92 *)
G0 X1184.000 Y  78.000
M3 M8
G0 Z   3.000 
G1 Z  -1.500
F400
G1 X1184.000 Y 340.000
G1 X1484.000 Y 340.000
G1 X1484.000 Y 209.000
G1 X1484.000 Y  78.000
G1 X1334.000 Y  78.000
G1 X1184.000 Y  78.000
F150
G1 Z  -3.000
F400
G1 X1184.000 Y 340.000
G1 X1484.000 Y 340.000
G1 X1484.000 Y 209.000
G1 X1484.000 Y  78.000
G1 X1334.000 Y  78.000
G1 X1184.000 Y  78.000
F150
G1 Z   3.000
G0 Z  15.000 
M9 M5

(*** LAYER: BORDER_D0_T128.1_RK1_A0_W0_RI1_EM1_ID0011 ***)

(* SHAPE Nr: 93 *)
G0 X2055.000 Y 261.480
M3 M8
G0 Z   3.000 
G1 Z  -1.500
F400
G1 X2055.000 Y 561.480
G1 X2555.000 Y 361.480
G1 X2555.000 Y 320.340
G1 X2555.000 Y  61.480
G1 X2305.000 Y 161.480
G1 X2055.000 Y 261.480
F150
G1 Z  -3.000
F400
G1 X2055.000 Y 561.480
G1 X2555.000 Y 361.480
G1 X2555.000 Y 320.340
G1 X2555.000 Y  61.480
G1 X2305.000 Y 161.480
G1 X2055.000 Y 261.480
F150
G1 Z   3.000
G0 Z  15.000 
M9 M5

(* SHAPE Nr: 95 *)
G0 X2055.940 Y 577.270
M3 M8
G0 Z   3.000 
G1 Z  -1.500
F400
G1 X2055.940 Y 877.270
G1 X2555.940 Y 677.270
G1 X2555.940 Y 636.130
G1 X2555.940 Y 377.270
G1 X2305.940 Y 477.270
G1 X2055.940 Y 577.270
F150
G1 Z  -3.000
F400
G1 X2055.940 Y 877.270
G1 X2555.940 Y 677.270
G1 X2555.940 Y 636.130
G1 X2555.940 Y 377.270
G1 X2305.940 Y 477.270
G1 X2055.940 Y 577.270
F150
G1 Z   3.000
G0 Z  15.000 
M9 M5

(* SHAPE Nr: 97 *)
G0 X2055.000 Y 893.830
M3 M8
G0 Z   3.000 
G1 Z  -1.500
F400
G1 X2055.000 Y 934.970
G1 X2055.000 Y1193.830
G1 X2305.000 Y1093.830
G1 X2555.000 Y 993.830
G1 X2555.000 Y 693.830
G1 X2055.000 Y 893.830
F150
G1 Z  -3.000
F400
G1 X2055.000 Y 934.970
G1 X2055.000 Y1193.830
G1 X2305.000 Y1093.830
G1 X2555.000 Y 993.830
G1 X2555.000 Y 693.830
G1 X2055.000 Y 893.830
F150
G1 Z   3.000
G0 Z  15.000 
M9 M5

(* SHAPE Nr: 106 *)
G0 X2055.000 Y1210.000
M3 M8
G0 Z   3.000 
G1 Z  -1.500
F400
G1 X2055.000 Y1251.140
G1 X2055.000 Y1510.000
G1 X2305.000 Y1410.000
G1 X2555.000 Y1310.000
G1 X2555.000 Y1010.000
G1 X2055.000 Y1210.000
F150
G1 Z  -3.000
F400
G1 X2055.000 Y1251.140
G1 X2055.000 Y1510.000
G1 X2305.000 Y1410.000
G1 X2555.000 Y1310.000
G1 X2555.000 Y1010.000
G1 X2055.000 Y1210.000
F150
G1 Z   3.000
G0 Z  15.000 
M9 M5

(*** LAYER: BORDER_D0_T128.1_RK1_A0_W0_RI1_EM1_ID0013 ***)

(* SHAPE Nr: 98 *)
G0 X1545.000 Y 355.000
M3 M8
G0 Z   3.000 
G1 Z  -1.500
F400
G1 X1545.000 Y 925.000
G1 X1792.500 Y 925.000
G1 X2040.000 Y 925.000
G1 X2040.000 Y 640.000
G1 X2040.000 Y 355.000
G1 X1545.000 Y 355.000
F150
G1 Z  -3.000
F400
G1 X1545.000 Y 925.000
G1 X1792.500 Y 925.000
G1 X2040.000 Y 925.000
G1 X2040.000 Y 640.000
G1 X2040.000 Y 355.000
G1 X1545.000 Y 355.000
F150
G1 Z   3.000
G0 Z  15.000 
M9 M5

(* SHAPE Nr: 99 *)
G0 X1035.000 Y 355.000
M3 M8
G0 Z   3.000 
G1 Z  -1.500
F400
G1 X1035.000 Y 925.000
G1 X1282.500 Y 925.000
G1 X1530.000 Y 925.000
G1 X1530.000 Y 640.000
G1 X1530.000 Y 355.000
G1 X1035.000 Y 355.000
F150
G1 Z  -3.000
F400
G1 X1035.000 Y 925.000
G1 X1282.500 Y 925.000
G1 X1530.000 Y 925.000
G1 X1530.000 Y 640.000
G1 X1530.000 Y 355.000
G1 X1035.000 Y 355.000
F150
G1 Z   3.000
G0 Z  15.000 
M9 M5

(* SHAPE Nr: 100 *)
G0 X 525.000 Y 355.000
M3 M8
G0 Z   3.000 
G1 Z  -1.500
F400
G1 X 525.000 Y 925.000
G1 X 772.500 Y 925.000
G1 X1020.000 Y 925.000
G1 X1020.000 Y 640.000
G1 X1020.000 Y 355.000
G1 X 525.000 Y 355.000
F150
G1 Z  -3.000
F400
G1 X 525.000 Y 925.000
G1 X 772.500 Y 925.000
G1 X1020.000 Y 925.000
G1 X1020.000 Y 640.000
G1 X1020.000 Y 355.000
G1 X 525.000 Y 355.000
F150
G1 Z   3.000
G0 Z  15.000 
M9 M5

(* SHAPE Nr: 101 *)
G0 X  15.000 Y 355.000
M3 M8
G0 Z   3.000 
G1 Z  -1.500
F400
G1 X  15.000 Y 925.000
G1 X 262.500 Y 925.000
G1 X 510.000 Y 925.000
G1 X 510.000 Y 640.000
G1 X 510.000 Y 355.000
G1 X  15.000 Y 355.000
F150
G1 Z  -3.000
F400
G1 X  15.000 Y 925.000
G1 X 262.500 Y 925.000
G1 X 510.000 Y 925.000
G1 X 510.000 Y 640.000
G1 X 510.000 Y 355.000
G1 X  15.000 Y 355.000
F150
G1 Z   3.000
G0 Z  15.000 
M9 M5

(* SHAPE Nr: 102 *)
G0 X  15.000 Y 940.000
M3 M8
G0 Z   3.000 
G1 Z  -1.500
F400
G1 X  15.000 Y1510.000
G1 X 262.500 Y1510.000
G1 X 510.000 Y1510.000
G1 X 510.000 Y1225.000
G1 X 510.000 Y 940.000
G1 X  15.000 Y 940.000
F150
G1 Z  -3.000
F400
G1 X  15.000 Y1510.000
G1 X 262.500 Y1510.000
G1 X 510.000 Y1510.000
G1 X 510.000 Y1225.000
G1 X 510.000 Y 940.000
G1 X  15.000 Y 940.000
F150
G1 Z   3.000
G0 Z  15.000 
M9 M5

(* SHAPE Nr: 103 *)
G0 X 525.000 Y 940.000
M3 M8
G0 Z   3.000 
G1 Z  -1.500
F400
G1 X 525.000 Y1510.000
G1 X 772.500 Y1510.000
G1 X1020.000 Y1510.000
G1 X1020.000 Y1225.000
G1 X1020.000 Y 940.000
G1 X 525.000 Y 940.000
F150
G1 Z  -3.000
F400
G1 X 525.000 Y1510.000
G1 X 772.500 Y1510.000
G1 X1020.000 Y1510.000
G1 X1020.000 Y1225.000
G1 X1020.000 Y 940.000
G1 X 525.000 Y 940.000
F150
G1 Z   3.000
G0 Z  15.000 
M9 M5

(* SHAPE Nr: 104 *)
G0 X1035.000 Y 940.000
M3 M8
G0 Z   3.000 
G1 Z  -1.500
F400
G1 X1035.000 Y1510.000
G1 X1282.500 Y1510.000
G1 X1530.000 Y1510.000
G1 X1530.000 Y1225.000
G1 X1530.000 Y 940.000
G1 X1035.000 Y 940.000
F150
G1 Z  -3.000
F400
G1 X1035.000 Y1510.000
G1 X1282.500 Y1510.000
G1 X1530.000 Y1510.000
G1 X1530.000 Y1225.000
G1 X1530.000 Y 940.000
G1 X1035.000 Y 940.000
F150
G1 Z   3.000
G0 Z  15.000 
M9 M5

(* SHAPE Nr: 105 *)
G0 X1545.000 Y 940.000
M3 M8
G0 Z   3.000 
G1 Z  -1.500
F400
G1 X1545.000 Y1510.000
G1 X1792.500 Y1510.000
G1 X2040.000 Y1510.000
G1 X2040.000 Y1225.000
G1 X2040.000 Y 940.000
G1 X1545.000 Y 940.000
F150
G1 Z  -3.000
F400
G1 X1545.000 Y1510.000
G1 X1792.500 Y1510.000
G1 X2040.000 Y1510.000
G1 X2040.000 Y1225.000
G1 X2040.000 Y 940.000
G1 X1545.000 Y 940.000
F150
G1 Z   3.000
G0 Z  15.000 
M9 M5
G0 X   0.000 Y   0.000
M2 (Program end)