(Generated with: DXF2GCODE, Version: REMOVED, Date: $Date$)
(Created from file: )
(Output format description: G-CODE for LinuxCNC)
(Time: Thu Sep 13 16:01:17 2018)
G21 (Units in millimeters)
G90 (Absolute programming)
G64 (Default cutting) G17 (XY plane) G40 (Cancel radius comp.) G49 (Cancel length comp.)
G0 Z  15.000 

(*** LAYER: FRAME_Z18 ***)
T1 M6
S6000

(* SHAPE Nr: 116 *)
G0 X   0.000 Y   0.000
M3 M8
G0 Z   3.000 
F150
G1 Z  -1.500
F400
G1 X   0.000 Y1525.000
G1 X3050.000 Y1525.000
G1 X3050.000 Y   0.000
G1 X   0.000 Y   0.000
F150
G1 Z  -3.000
F400
G1 X   0.000 Y1525.000
G1 X3050.000 Y1525.000
G1 X3050.000 Y   0.000
G1 X   0.000 Y   0.000
F150
G1 Z   3.000
G0 Z  15.000 
M9 M5

(*** LAYER: POCKET_D0_T133_AZ1 ***)

(* SHAPE Nr: 0 *)
G0 X  80.590 Y 102.670
M3 M8
G0 Z   3.000 
G1 Z  -1.500
F400
G3 X  38.000 Y 145.260 I -64.066 J -21.476
G1 X  38.000 Y 238.140
G2 X 173.470 Y 102.670 I -23.000 J-158.470
G1 X 127.030 Y 102.670
G1 X  80.590 Y 102.670
F150
G1 Z  -3.000
F400
G3 X  38.000 Y 145.260 I -64.066 J -21.476
G1 X  38.000 Y 238.140
G2 X 173.470 Y 102.670 I -23.000 J-158.470
G1 X 127.030 Y 102.670
G1 X  80.590 Y 102.670
F150
G1 Z   3.000
G0 Z  15.000 
M9 M5

(* SHAPE Nr: 4 *)
G0 X 571.600 Y 656.670
M3 M8
G0 Z   3.000 
G1 Z  -1.500
F400
G1 X 618.040 Y 656.670
G1 X 664.480 Y 656.670
G3 X 707.070 Y 614.080 I  64.066 J  21.476
G1 X 707.070 Y 521.200
G2 X 571.600 Y 656.670 I  23.000 J 158.470
F150
G1 Z  -3.000
F400
G1 X 618.040 Y 656.670
G1 X 664.480 Y 656.670
G3 X 707.070 Y 614.080 I  64.066 J  21.476
G1 X 707.070 Y 521.200
G2 X 571.600 Y 656.670 I  23.000 J 158.470
F150
G1 Z   3.000
G0 Z  15.000 
M9 M5

(* SHAPE Nr: 14 *)
G0 X 986.600 Y 656.670
M3 M8
G0 Z   3.000 
G1 Z  -1.500
F400
G1 X1033.040 Y 656.670
G1 X1079.480 Y 656.670
G3 X1122.070 Y 614.080 I  64.066 J  21.476
G1 X1122.070 Y 521.200
G2 X 986.600 Y 656.670 I  22.999 J 158.469
F150
G1 Z  -3.000
F400
G1 X1033.040 Y 656.670
G1 X1079.480 Y 656.670
G3 X1122.070 Y 614.080 I  64.066 J  21.476
G1 X1122.070 Y 521.200
G2 X 986.600 Y 656.670 I  22.999 J 158.469
F150
G1 Z   3.000
G0 Z  15.000 
M9 M5

(*** LAYER: VBORE_Z10_D8 ***)

(* SHAPE Nr: 1 *)
G0 X 396.132 Y 114.342
M3 M8
G0 Z   3.000 
G1 Z  -1.500
F400
G2 X 401.788 Y 119.998 I   2.828 J   2.828
G2 X 396.132 Y 114.342 I  -2.828 J  -2.828
F150
G1 Z  -3.000
F400
G2 X 401.788 Y 119.998 I   2.828 J   2.828
G2 X 396.132 Y 114.342 I  -2.828 J  -2.828
F150
G1 Z   3.000
G0 Z  15.000 
M9 M5

(* SHAPE Nr: 2 *)
G0 X 396.172 Y 151.842
M3 M8
G0 Z   3.000 
G1 Z  -1.500
F400
G2 X 401.828 Y 157.498 I   2.828 J   2.828
G2 X 396.172 Y 151.842 I  -2.828 J  -2.828
F150
G1 Z  -3.000
F400
G2 X 401.828 Y 157.498 I   2.828 J   2.828
G2 X 396.172 Y 151.842 I  -2.828 J  -2.828
F150
G1 Z   3.000
G0 Z  15.000 
M9 M5

(* SHAPE Nr: 3 *)
G0 X 396.172 Y 189.342
M3 M8
G0 Z   3.000 
G1 Z  -1.500
F400
G2 X 401.828 Y 194.998 I   2.828 J   2.828
G2 X 396.172 Y 189.342 I  -2.828 J  -2.828
F150
G1 Z  -3.000
F400
G2 X 401.828 Y 194.998 I   2.828 J   2.828
G2 X 396.172 Y 189.342 I  -2.828 J  -2.828
F150
G1 Z   3.000
G0 Z  15.000 
M9 M5

(* SHAPE Nr: 5 *)
G0 X 343.282 Y 639.342
M3 M8
G0 Z   3.000 
G1 Z  -1.500
F400
G2 X 348.938 Y 644.998 I   2.828 J   2.828
G2 X 343.282 Y 639.342 I  -2.828 J  -2.828
F150
G1 Z  -3.000
F400
G2 X 348.938 Y 644.998 I   2.828 J   2.828
G2 X 343.282 Y 639.342 I  -2.828 J  -2.828
F150
G1 Z   3.000
G0 Z  15.000 
M9 M5

(* SHAPE Nr: 6 *)
G0 X 343.242 Y 601.842
M3 M8
G0 Z   3.000 
G1 Z  -1.500
F400
G2 X 348.898 Y 607.498 I   2.828 J   2.828
G2 X 343.242 Y 601.842 I  -2.828 J  -2.828
F150
G1 Z  -3.000
F400
G2 X 348.898 Y 607.498 I   2.828 J   2.828
G2 X 343.242 Y 601.842 I  -2.828 J  -2.828
F150
G1 Z   3.000
G0 Z  15.000 
M9 M5

(* SHAPE Nr: 7 *)
G0 X 343.242 Y 564.342
M3 M8
G0 Z   3.000 
G1 Z  -1.500
F400
G2 X 348.898 Y 569.998 I   2.828 J   2.828
G2 X 343.242 Y 564.342 I  -2.828 J  -2.828
F150
G1 Z  -3.000
F400
G2 X 348.898 Y 569.998 I   2.828 J   2.828
G2 X 343.242 Y 564.342 I  -2.828 J  -2.828
F150
G1 Z   3.000
G0 Z  15.000 
M9 M5

(* SHAPE Nr: 15 *)
G0 X 758.282 Y 639.342
M3 M8
G0 Z   3.000 
G1 Z  -1.500
F400
G2 X 763.938 Y 644.998 I   2.828 J   2.828
G2 X 758.282 Y 639.342 I  -2.828 J  -2.828
F150
G1 Z  -3.000
F400
G2 X 763.938 Y 644.998 I   2.828 J   2.828
G2 X 758.282 Y 639.342 I  -2.828 J  -2.828
F150
G1 Z   3.000
G0 Z  15.000 
M9 M5

(* SHAPE Nr: 16 *)
G0 X 758.242 Y 601.842
M3 M8
G0 Z   3.000 
G1 Z  -1.500
F400
G2 X 763.898 Y 607.498 I   2.828 J   2.828
G2 X 758.242 Y 601.842 I  -2.828 J  -2.828
F150
G1 Z  -3.000
F400
G2 X 763.898 Y 607.498 I   2.828 J   2.828
G2 X 758.242 Y 601.842 I  -2.828 J  -2.828
F150
G1 Z   3.000
G0 Z  15.000 
M9 M5

(* SHAPE Nr: 17 *)
G0 X 758.242 Y 564.342
M3 M8
G0 Z   3.000 
G1 Z  -1.500
F400
G2 X 763.898 Y 569.998 I   2.828 J   2.828
G2 X 758.242 Y 564.342 I  -2.828 J  -2.828
F150
G1 Z  -3.000
F400
G2 X 763.898 Y 569.998 I   2.828 J   2.828
G2 X 758.242 Y 564.342 I  -2.828 J  -2.828
F150
G1 Z   3.000
G0 Z  15.000 
M9 M5

(* SHAPE Nr: 30 *)
G0 X1001.052 Y 966.172
M3 M8
G0 Z   3.000 
G1 Z  -1.500
F400
G2 X1006.708 Y 971.828 I   2.828 J   2.828
G2 X1001.052 Y 966.172 I  -2.828 J  -2.828
F150
G1 Z  -3.000
F400
G2 X1006.708 Y 971.828 I   2.828 J   2.828
G2 X1001.052 Y 966.172 I  -2.828 J  -2.828
F150
G1 Z   3.000
G0 Z  15.000 
M9 M5

(* SHAPE Nr: 31 *)
G0 X1001.052 Y1008.172
M3 M8
G0 Z   3.000 
G1 Z  -1.500
F400
G2 X1006.708 Y1013.828 I   2.828 J   2.828
G2 X1001.052 Y1008.172 I  -2.828 J  -2.828
F150
G1 Z  -3.000
F400
G2 X1006.708 Y1013.828 I   2.828 J   2.828
G2 X1001.052 Y1008.172 I  -2.828 J  -2.828
F150
G1 Z   3.000
G0 Z  15.000 
M9 M5

(* SHAPE Nr: 32 *)
G0 X1001.052 Y1436.172
M3 M8
G0 Z   3.000 
G1 Z  -1.500
F400
G2 X1006.708 Y1441.828 I   2.828 J   2.828
G2 X1001.052 Y1436.172 I  -2.828 J  -2.828
F150
G1 Z  -3.000
F400
G2 X1006.708 Y1441.828 I   2.828 J   2.828
G2 X1001.052 Y1436.172 I  -2.828 J  -2.828
F150
G1 Z   3.000
G0 Z  15.000 
M9 M5

(* SHAPE Nr: 33 *)
G0 X1001.052 Y1478.172
M3 M8
G0 Z   3.000 
G1 Z  -1.500
F400
G2 X1006.708 Y1483.828 I   2.828 J   2.828
G2 X1001.052 Y1478.172 I  -2.828 J  -2.828
F150
G1 Z  -3.000
F400
G2 X1006.708 Y1483.828 I   2.828 J   2.828
G2 X1001.052 Y1478.172 I  -2.828 J  -2.828
F150
G1 Z   3.000
G0 Z  15.000 
M9 M5

(* SHAPE Nr: 37 *)
G0 X1201.242 Y 381.172
M3 M8
G0 Z   3.000 
G1 Z  -1.500
F400
G2 X1206.898 Y 386.828 I   2.828 J   2.828
G2 X1201.242 Y 381.172 I  -2.828 J  -2.828
F150
G1 Z  -3.000
F400
G2 X1206.898 Y 386.828 I   2.828 J   2.828
G2 X1201.242 Y 381.172 I  -2.828 J  -2.828
F150
G1 Z   3.000
G0 Z  15.000 
M9 M5

(* SHAPE Nr: 38 *)
G0 X1201.242 Y 423.172
M3 M8
G0 Z   3.000 
G1 Z  -1.500
F400
G2 X1206.898 Y 428.828 I   2.828 J   2.828
G2 X1201.242 Y 423.172 I  -2.828 J  -2.828
F150
G1 Z  -3.000
F400
G2 X1206.898 Y 428.828 I   2.828 J   2.828
G2 X1201.242 Y 423.172 I  -2.828 J  -2.828
F150
G1 Z   3.000
G0 Z  15.000 
M9 M5

(* SHAPE Nr: 39 *)
G0 X1201.242 Y 851.172
M3 M8
G0 Z   3.000 
G1 Z  -1.500
F400
G2 X1206.898 Y 856.828 I   2.828 J   2.828
G2 X1201.242 Y 851.172 I  -2.828 J  -2.828
F150
G1 Z  -3.000
F400
G2 X1206.898 Y 856.828 I   2.828 J   2.828
G2 X1201.242 Y 851.172 I  -2.828 J  -2.828
F150
G1 Z   3.000
G0 Z  15.000 
M9 M5

(* SHAPE Nr: 40 *)
G0 X1201.242 Y 893.172
M3 M8
G0 Z   3.000 
G1 Z  -1.500
F400
G2 X1206.898 Y 898.828 I   2.828 J   2.828
G2 X1201.242 Y 893.172 I  -2.828 J  -2.828
F150
G1 Z  -3.000
F400
G2 X1206.898 Y 898.828 I   2.828 J   2.828
G2 X1201.242 Y 893.172 I  -2.828 J  -2.828
F150
G1 Z   3.000
G0 Z  15.000 
M9 M5

(* SHAPE Nr: 44 *)
G0 X1711.222 Y 381.172
M3 M8
G0 Z   3.000 
G1 Z  -1.500
F400
G2 X1716.878 Y 386.828 I   2.828 J   2.828
G2 X1711.222 Y 381.172 I  -2.828 J  -2.828
F150
G1 Z  -3.000
F400
G2 X1716.878 Y 386.828 I   2.828 J   2.828
G2 X1711.222 Y 381.172 I  -2.828 J  -2.828
F150
G1 Z   3.000
G0 Z  15.000 
M9 M5

(* SHAPE Nr: 45 *)
G0 X1711.222 Y 423.172
M3 M8
G0 Z   3.000 
G1 Z  -1.500
F400
G2 X1716.878 Y 428.828 I   2.828 J   2.828
G2 X1711.222 Y 423.172 I  -2.828 J  -2.828
F150
G1 Z  -3.000
F400
G2 X1716.878 Y 428.828 I   2.828 J   2.828
G2 X1711.222 Y 423.172 I  -2.828 J  -2.828
F150
G1 Z   3.000
G0 Z  15.000 
M9 M5

(* SHAPE Nr: 46 *)
G0 X1711.222 Y 851.172
M3 M8
G0 Z   3.000 
G1 Z  -1.500
F400
G2 X1716.878 Y 856.828 I   2.828 J   2.828
G2 X1711.222 Y 851.172 I  -2.828 J  -2.828
F150
G1 Z  -3.000
F400
G2 X1716.878 Y 856.828 I   2.828 J   2.828
G2 X1711.222 Y 851.172 I  -2.828 J  -2.828
F150
G1 Z   3.000
G0 Z  15.000 
M9 M5

(* SHAPE Nr: 47 *)
G0 X1711.222 Y 893.172
M3 M8
G0 Z   3.000 
G1 Z  -1.500
F400
G2 X1716.878 Y 898.828 I   2.828 J   2.828
G2 X1711.222 Y 893.172 I  -2.828 J  -2.828
F150
G1 Z  -3.000
F400
G2 X1716.878 Y 898.828 I   2.828 J   2.828
G2 X1711.222 Y 893.172 I  -2.828 J  -2.828
F150
G1 Z   3.000
G0 Z  15.000 
M9 M5

(* SHAPE Nr: 51 *)
G0 X1511.052 Y 966.172
M3 M8
G0 Z   3.000 
G1 Z  -1.500
F400
G2 X1516.708 Y 971.828 I   2.828 J   2.828
G2 X1511.052 Y 966.172 I  -2.828 J  -2.828
F150
G1 Z  -3.000
F400
G2 X1516.708 Y 971.828 I   2.828 J   2.828
G2 X1511.052 Y 966.172 I  -2.828 J  -2.828
F150
G1 Z   3.000
G0 Z  15.000 
M9 M5

(* SHAPE Nr: 52 *)
G0 X1511.052 Y1008.172
M3 M8
G0 Z   3.000 
G1 Z  -1.500
F400
G2 X1516.708 Y1013.828 I   2.828 J   2.828
G2 X1511.052 Y1008.172 I  -2.828 J  -2.828
F150
G1 Z  -3.000
F400
G2 X1516.708 Y1013.828 I   2.828 J   2.828
G2 X1511.052 Y1008.172 I  -2.828 J  -2.828
F150
G1 Z   3.000
G0 Z  15.000 
M9 M5

(* SHAPE Nr: 53 *)
G0 X1511.052 Y1436.172
M3 M8
G0 Z   3.000 
G1 Z  -1.500
F400
G2 X1516.708 Y1441.828 I   2.828 J   2.828
G2 X1511.052 Y1436.172 I  -2.828 J  -2.828
F150
G1 Z  -3.000
F400
G2 X1516.708 Y1441.828 I   2.828 J   2.828
G2 X1511.052 Y1436.172 I  -2.828 J  -2.828
F150
G1 Z   3.000
G0 Z  15.000 
M9 M5

(* SHAPE Nr: 54 *)
G0 X1511.052 Y1478.172
M3 M8
G0 Z   3.000 
G1 Z  -1.500
F400
G2 X1516.708 Y1483.828 I   2.828 J   2.828
G2 X1511.052 Y1478.172 I  -2.828 J  -2.828
F150
G1 Z  -3.000
F400
G2 X1516.708 Y1483.828 I   2.828 J   2.828
G2 X1511.052 Y1478.172 I  -2.828 J  -2.828
F150
G1 Z   3.000
G0 Z  15.000 
M9 M5

(* SHAPE Nr: 58 *)
G0 X2021.052 Y 966.172
M3 M8
G0 Z   3.000 
G1 Z  -1.500
F400
G2 X2026.708 Y 971.828 I   2.828 J   2.828
G2 X2021.052 Y 966.172 I  -2.828 J  -2.828
F150
G1 Z  -3.000
F400
G2 X2026.708 Y 971.828 I   2.828 J   2.828
G2 X2021.052 Y 966.172 I  -2.828 J  -2.828
F150
G1 Z   3.000
G0 Z  15.000 
M9 M5

(* SHAPE Nr: 59 *)
G0 X2021.052 Y1008.172
M3 M8
G0 Z   3.000 
G1 Z  -1.500
F400
G2 X2026.708 Y1013.828 I   2.828 J   2.828
G2 X2021.052 Y1008.172 I  -2.828 J  -2.828
F150
G1 Z  -3.000
F400
G2 X2026.708 Y1013.828 I   2.828 J   2.828
G2 X2021.052 Y1008.172 I  -2.828 J  -2.828
F150
G1 Z   3.000
G0 Z  15.000 
M9 M5

(* SHAPE Nr: 60 *)
G0 X2021.052 Y1436.172
M3 M8
G0 Z   3.000 
G1 Z  -1.500
F400
G2 X2026.708 Y1441.828 I   2.828 J   2.828
G2 X2021.052 Y1436.172 I  -2.828 J  -2.828
F150
G1 Z  -3.000
F400
G2 X2026.708 Y1441.828 I   2.828 J   2.828
G2 X2021.052 Y1436.172 I  -2.828 J  -2.828
F150
G1 Z   3.000
G0 Z  15.000 
M9 M5

(* SHAPE Nr: 61 *)
G0 X2021.052 Y1478.172
M3 M8
G0 Z   3.000 
G1 Z  -1.500
F400
G2 X2026.708 Y1483.828 I   2.828 J   2.828
G2 X2021.052 Y1478.172 I  -2.828 J  -2.828
F150
G1 Z  -3.000
F400
G2 X2026.708 Y1483.828 I   2.828 J   2.828
G2 X2021.052 Y1478.172 I  -2.828 J  -2.828
F150
G1 Z   3.000
G0 Z  15.000 
M9 M5

(* SHAPE Nr: 65 *)
G0 X2531.052 Y 966.172
M3 M8
G0 Z   3.000 
G1 Z  -1.500
F400
G2 X2536.708 Y 971.828 I   2.828 J   2.828
G2 X2531.052 Y 966.172 I  -2.828 J  -2.828
F150
G1 Z  -3.000
F400
G2 X2536.708 Y 971.828 I   2.828 J   2.828
G2 X2531.052 Y 966.172 I  -2.828 J  -2.828
F150
G1 Z   3.000
G0 Z  15.000 
M9 M5

(* SHAPE Nr: 66 *)
G0 X2531.052 Y1008.172
M3 M8
G0 Z   3.000 
G1 Z  -1.500
F400
G2 X2536.708 Y1013.828 I   2.828 J   2.828
G2 X2531.052 Y1008.172 I  -2.828 J  -2.828
F150
G1 Z  -3.000
F400
G2 X2536.708 Y1013.828 I   2.828 J   2.828
G2 X2531.052 Y1008.172 I  -2.828 J  -2.828
F150
G1 Z   3.000
G0 Z  15.000 
M9 M5

(* SHAPE Nr: 67 *)
G0 X2531.052 Y1436.172
M3 M8
G0 Z   3.000 
G1 Z  -1.500
F400
G2 X2536.708 Y1441.828 I   2.828 J   2.828
G2 X2531.052 Y1436.172 I  -2.828 J  -2.828
F150
G1 Z  -3.000
F400
G2 X2536.708 Y1441.828 I   2.828 J   2.828
G2 X2531.052 Y1436.172 I  -2.828 J  -2.828
F150
G1 Z   3.000
G0 Z  15.000 
M9 M5

(* SHAPE Nr: 68 *)
G0 X2531.052 Y1478.172
M3 M8
G0 Z   3.000 
G1 Z  -1.500
F400
G2 X2536.708 Y1483.828 I   2.828 J   2.828
G2 X2531.052 Y1478.172 I  -2.828 J  -2.828
F150
G1 Z  -3.000
F400
G2 X2536.708 Y1483.828 I   2.828 J   2.828
G2 X2531.052 Y1478.172 I  -2.828 J  -2.828
F150
G1 Z   3.000
G0 Z  15.000 
M9 M5

(* SHAPE Nr: 72 *)
G0 X2221.222 Y 381.172
M3 M8
G0 Z   3.000 
G1 Z  -1.500
F400
G2 X2226.878 Y 386.828 I   2.828 J   2.828
G2 X2221.222 Y 381.172 I  -2.828 J  -2.828
F150
G1 Z  -3.000
F400
G2 X2226.878 Y 386.828 I   2.828 J   2.828
G2 X2221.222 Y 381.172 I  -2.828 J  -2.828
F150
G1 Z   3.000
G0 Z  15.000 
M9 M5

(* SHAPE Nr: 73 *)
G0 X2221.222 Y 423.172
M3 M8
G0 Z   3.000 
G1 Z  -1.500
F400
G2 X2226.878 Y 428.828 I   2.828 J   2.828
G2 X2221.222 Y 423.172 I  -2.828 J  -2.828
F150
G1 Z  -3.000
F400
G2 X2226.878 Y 428.828 I   2.828 J   2.828
G2 X2221.222 Y 423.172 I  -2.828 J  -2.828
F150
G1 Z   3.000
G0 Z  15.000 
M9 M5

(* SHAPE Nr: 74 *)
G0 X2221.222 Y 851.172
M3 M8
G0 Z   3.000 
G1 Z  -1.500
F400
G2 X2226.878 Y 856.828 I   2.828 J   2.828
G2 X2221.222 Y 851.172 I  -2.828 J  -2.828
F150
G1 Z  -3.000
F400
G2 X2226.878 Y 856.828 I   2.828 J   2.828
G2 X2221.222 Y 851.172 I  -2.828 J  -2.828
F150
G1 Z   3.000
G0 Z  15.000 
M9 M5

(* SHAPE Nr: 75 *)
G0 X2221.222 Y 893.172
M3 M8
G0 Z   3.000 
G1 Z  -1.500
F400
G2 X2226.878 Y 898.828 I   2.828 J   2.828
G2 X2221.222 Y 893.172 I  -2.828 J  -2.828
F150
G1 Z  -3.000
F400
G2 X2226.878 Y 898.828 I   2.828 J   2.828
G2 X2221.222 Y 893.172 I  -2.828 J  -2.828
F150
G1 Z   3.000
G0 Z  15.000 
M9 M5

(*** LAYER: ROUT_Z8_D8_T135_A2_W2 ***)

(* SHAPE Nr: 117 *)
G0 X 665.000 Y 844.670
M3 M8
G0 Z   3.000 
G1 Z  -1.500
F400
G1 X 865.000 Y 844.670
F150
G1 Z  -3.000
F400
G1 X 665.000 Y 844.670
F150
G1 Z   3.000
G0 Z  15.000 
M9 M5

(* SHAPE Nr: 118 *)
G0 X 365.000 Y1054.340
M3 M8
G0 Z   3.000 
G1 Z  -1.500
F400
G1 X 565.000 Y1054.340
F150
G1 Z  -3.000
F400
G1 X 365.000 Y1054.340
F150
G1 Z   3.000
G0 Z  15.000 
M9 M5

(* SHAPE Nr: 119 *)
G0 X  65.000 Y1252.850
M3 M8
G0 Z   3.000 
G1 Z  -1.500
F400
G1 X 265.000 Y1252.850
F150
G1 Z  -3.000
F400
G1 X  65.000 Y1252.850
F150
G1 Z   3.000
G0 Z  15.000 
M9 M5

(* SHAPE Nr: 120 *)
G0 X  94.880 Y1360.000
M3 M8
G0 Z   3.000 
G1 Z  -1.500
F400
G1 X 294.880 Y1360.000
F150
G1 Z  -3.000
F400
G1 X  94.880 Y1360.000
F150
G1 Z   3.000
G0 Z  15.000 
M9 M5

(* SHAPE Nr: 121 *)
G0 X 394.880 Y1150.330
M3 M8
G0 Z   3.000 
G1 Z  -1.500
F400
G1 X 594.880 Y1150.330
F150
G1 Z  -3.000
F400
G1 X 394.880 Y1150.330
F150
G1 Z   3.000
G0 Z  15.000 
M9 M5

(* SHAPE Nr: 122 *)
G0 X 694.880 Y 951.820
M3 M8
G0 Z   3.000 
G1 Z  -1.500
F400
G1 X 894.880 Y 951.820
F150
G1 Z  -3.000
F400
G1 X 694.880 Y 951.820
F150
G1 Z   3.000
G0 Z  15.000 
M9 M5

(*** LAYER: VBORE_Z6_D10 ***)

(* SHAPE Nr: 8 *)
G0 X  61.464 Y 741.134
M3 M8
G0 Z   3.000 
G1 Z  -1.500
F400
G2 X  68.536 Y 748.206 I   3.536 J   3.536
G2 X  61.464 Y 741.134 I  -3.536 J  -3.536
F150
G1 Z  -3.000
F400
G2 X  68.536 Y 748.206 I   3.536 J   3.536
G2 X  61.464 Y 741.134 I  -3.536 J  -3.536
F150
G1 Z   3.000
G0 Z  15.000 
M9 M5

(* SHAPE Nr: 9 *)
G0 X 261.464 Y 741.134
M3 M8
G0 Z   3.000 
G1 Z  -1.500
F400
G2 X 268.536 Y 748.206 I   3.536 J   3.536
G2 X 261.464 Y 741.134 I  -3.536 J  -3.536
F150
G1 Z  -3.000
F400
G2 X 268.536 Y 748.206 I   3.536 J   3.536
G2 X 261.464 Y 741.134 I  -3.536 J  -3.536
F150
G1 Z   3.000
G0 Z  15.000 
M9 M5

(* SHAPE Nr: 10 *)
G0 X 361.464 Y 741.134
M3 M8
G0 Z   3.000 
G1 Z  -1.500
F400
G2 X 368.536 Y 748.206 I   3.536 J   3.536
G2 X 361.464 Y 741.134 I  -3.536 J  -3.536
F150
G1 Z  -3.000
F400
G2 X 368.536 Y 748.206 I   3.536 J   3.536
G2 X 361.464 Y 741.134 I  -3.536 J  -3.536
F150
G1 Z   3.000
G0 Z  15.000 
M9 M5

(* SHAPE Nr: 11 *)
G0 X 561.464 Y 741.134
M3 M8
G0 Z   3.000 
G1 Z  -1.500
F400
G2 X 568.536 Y 748.206 I   3.536 J   3.536
G2 X 561.464 Y 741.134 I  -3.536 J  -3.536
F150
G1 Z  -3.000
F400
G2 X 568.536 Y 748.206 I   3.536 J   3.536
G2 X 561.464 Y 741.134 I  -3.536 J  -3.536
F150
G1 Z   3.000
G0 Z  15.000 
M9 M5

(* SHAPE Nr: 12 *)
G0 X 661.464 Y 741.134
M3 M8
G0 Z   3.000 
G1 Z  -1.500
F400
G2 X 668.536 Y 748.206 I   3.536 J   3.536
G2 X 661.464 Y 741.134 I  -3.536 J  -3.536
F150
G1 Z  -3.000
F400
G2 X 668.536 Y 748.206 I   3.536 J   3.536
G2 X 661.464 Y 741.134 I  -3.536 J  -3.536
F150
G1 Z   3.000
G0 Z  15.000 
M9 M5

(* SHAPE Nr: 13 *)
G0 X 861.464 Y 741.134
M3 M8
G0 Z   3.000 
G1 Z  -1.500
F400
G2 X 868.536 Y 748.206 I   3.536 J   3.536
G2 X 861.464 Y 741.134 I  -3.536 J  -3.536
F150
G1 Z  -3.000
F400
G2 X 868.536 Y 748.206 I   3.536 J   3.536
G2 X 861.464 Y 741.134 I  -3.536 J  -3.536
F150
G1 Z   3.000
G0 Z  15.000 
M9 M5

(* SHAPE Nr: 22 *)
G0 X 891.344 Y1456.464
M3 M8
G0 Z   3.000 
G1 Z  -1.500
F400
G2 X 898.416 Y1463.536 I   3.536 J   3.536
G2 X 891.344 Y1456.464 I  -3.536 J  -3.536
F150
G1 Z  -3.000
F400
G2 X 898.416 Y1463.536 I   3.536 J   3.536
G2 X 891.344 Y1456.464 I  -3.536 J  -3.536
F150
G1 Z   3.000
G0 Z  15.000 
M9 M5

(* SHAPE Nr: 23 *)
G0 X 691.344 Y1456.464
M3 M8
G0 Z   3.000 
G1 Z  -1.500
F400
G2 X 698.416 Y1463.536 I   3.536 J   3.536
G2 X 691.344 Y1456.464 I  -3.536 J  -3.536
F150
G1 Z  -3.000
F400
G2 X 698.416 Y1463.536 I   3.536 J   3.536
G2 X 691.344 Y1456.464 I  -3.536 J  -3.536
F150
G1 Z   3.000
G0 Z  15.000 
M9 M5

(* SHAPE Nr: 24 *)
G0 X 591.344 Y1456.464
M3 M8
G0 Z   3.000 
G1 Z  -1.500
F400
G2 X 598.416 Y1463.536 I   3.536 J   3.536
G2 X 591.344 Y1456.464 I  -3.536 J  -3.536
F150
G1 Z  -3.000
F400
G2 X 598.416 Y1463.536 I   3.536 J   3.536
G2 X 591.344 Y1456.464 I  -3.536 J  -3.536
F150
G1 Z   3.000
G0 Z  15.000 
M9 M5

(* SHAPE Nr: 25 *)
G0 X 391.344 Y1456.464
M3 M8
G0 Z   3.000 
G1 Z  -1.500
F400
G2 X 398.416 Y1463.536 I   3.536 J   3.536
G2 X 391.344 Y1456.464 I  -3.536 J  -3.536
F150
G1 Z  -3.000
F400
G2 X 398.416 Y1463.536 I   3.536 J   3.536
G2 X 391.344 Y1456.464 I  -3.536 J  -3.536
F150
G1 Z   3.000
G0 Z  15.000 
M9 M5

(* SHAPE Nr: 26 *)
G0 X 291.344 Y1456.464
M3 M8
G0 Z   3.000 
G1 Z  -1.500
F400
G2 X 298.416 Y1463.536 I   3.536 J   3.536
G2 X 291.344 Y1456.464 I  -3.536 J  -3.536
F150
G1 Z  -3.000
F400
G2 X 298.416 Y1463.536 I   3.536 J   3.536
G2 X 291.344 Y1456.464 I  -3.536 J  -3.536
F150
G1 Z   3.000
G0 Z  15.000 
M9 M5

(* SHAPE Nr: 27 *)
G0 X  91.344 Y1456.464
M3 M8
G0 Z   3.000 
G1 Z  -1.500
F400
G2 X  98.416 Y1463.536 I   3.536 J   3.536
G2 X  91.344 Y1456.464 I  -3.536 J  -3.536
F150
G1 Z  -3.000
F400
G2 X  98.416 Y1463.536 I   3.536 J   3.536
G2 X  91.344 Y1456.464 I  -3.536 J  -3.536
F150
G1 Z   3.000
G0 Z  15.000 
M9 M5

(*** LAYER: ROUT_Z18_D5_T133_A2_W2 ***)

(* SHAPE Nr: 18 *)
G0 X1185.321 Y 250.251
M3 M8
G0 Z   3.000 
G1 Z  -1.500
F400
G2 X1234.819 Y 299.749 I  24.749 J  24.749
G2 X1185.321 Y 250.251 I -24.749 J -24.749
F150
G1 Z  -3.000
F400
G2 X1234.819 Y 299.749 I  24.749 J  24.749
G2 X1185.321 Y 250.251 I -24.749 J -24.749
F150
G1 Z   3.000
G0 Z  15.000 
M9 M5

(* SHAPE Nr: 19 *)
G0 X2005.321 Y 250.251
M3 M8
G0 Z   3.000 
G1 Z  -1.500
F400
G2 X2054.819 Y 299.749 I  24.749 J  24.749
G2 X2005.321 Y 250.251 I -24.749 J -24.749
F150
G1 Z  -3.000
F400
G2 X2054.819 Y 299.749 I  24.749 J  24.749
G2 X2005.321 Y 250.251 I -24.749 J -24.749
F150
G1 Z   3.000
G0 Z  15.000 
M9 M5

(*** LAYER: ROUT_Z6_D10_T160_A2_W2 ***)

(* SHAPE Nr: 20 *)
G0 X1181.786 Y 246.716
M3 M8
G0 Z   3.000 
G1 Z  -1.500
F400
G2 X1238.354 Y 303.284 I  28.284 J  28.284
G2 X1181.786 Y 246.716 I -28.284 J -28.284
F150
G1 Z  -3.000
F400
G2 X1238.354 Y 303.284 I  28.284 J  28.284
G2 X1181.786 Y 246.716 I -28.284 J -28.284
F150
G1 Z   3.000
G0 Z  15.000 
M9 M5

(* SHAPE Nr: 21 *)
G0 X2001.786 Y 246.716
M3 M8
G0 Z   3.000 
G1 Z  -1.500
F400
G2 X2058.354 Y 303.284 I  28.284 J  28.284
G2 X2001.786 Y 246.716 I -28.284 J -28.284
F150
G1 Z  -3.000
F400
G2 X2058.354 Y 303.284 I  28.284 J  28.284
G2 X2001.786 Y 246.716 I -28.284 J -28.284
F150
G1 Z   3.000
G0 Z  15.000 
M9 M5

(*** LAYER: VBORE_Z10_D35 ***)

(* SHAPE Nr: 28 *)
G0 X 977.506 Y 977.626
M3 M8
G0 Z   3.000 
G1 Z  -1.500
F400
G2 X1002.254 Y1002.374 I  12.374 J  12.374
G2 X 977.506 Y 977.626 I -12.374 J -12.374
F150
G1 Z  -3.000
F400
G2 X1002.254 Y1002.374 I  12.374 J  12.374
G2 X 977.506 Y 977.626 I -12.374 J -12.374
F150
G1 Z   3.000
G0 Z  15.000 
M9 M5

(* SHAPE Nr: 29 *)
G0 X 977.506 Y1447.626
M3 M8
G0 Z   3.000 
G1 Z  -1.500
F400
G2 X1002.254 Y1472.374 I  12.374 J  12.374
G2 X 977.506 Y1447.626 I -12.374 J -12.374
F150
G1 Z  -3.000
F400
G2 X1002.254 Y1472.374 I  12.374 J  12.374
G2 X 977.506 Y1447.626 I -12.374 J -12.374
F150
G1 Z   3.000
G0 Z  15.000 
M9 M5

(* SHAPE Nr: 35 *)
G0 X1177.696 Y 392.626
M3 M8
G0 Z   3.000 
G1 Z  -1.500
F400
G2 X1202.444 Y 417.374 I  12.374 J  12.374
G2 X1177.696 Y 392.626 I -12.374 J -12.374
F150
G1 Z  -3.000
F400
G2 X1202.444 Y 417.374 I  12.374 J  12.374
G2 X1177.696 Y 392.626 I -12.374 J -12.374
F150
G1 Z   3.000
G0 Z  15.000 
M9 M5

(* SHAPE Nr: 36 *)
G0 X1177.696 Y 862.626
M3 M8
G0 Z   3.000 
G1 Z  -1.500
F400
G2 X1202.444 Y 887.374 I  12.374 J  12.374
G2 X1177.696 Y 862.626 I -12.374 J -12.374
F150
G1 Z  -3.000
F400
G2 X1202.444 Y 887.374 I  12.374 J  12.374
G2 X1177.696 Y 862.626 I -12.374 J -12.374
F150
G1 Z   3.000
G0 Z  15.000 
M9 M5

(* SHAPE Nr: 42 *)
G0 X1687.676 Y 392.626
M3 M8
G0 Z   3.000 
G1 Z  -1.500
F400
G2 X1712.424 Y 417.374 I  12.374 J  12.374
G2 X1687.676 Y 392.626 I -12.374 J -12.374
F150
G1 Z  -3.000
F400
G2 X1712.424 Y 417.374 I  12.374 J  12.374
G2 X1687.676 Y 392.626 I -12.374 J -12.374
F150
G1 Z   3.000
G0 Z  15.000 
M9 M5

(* SHAPE Nr: 43 *)
G0 X1687.676 Y 862.626
M3 M8
G0 Z   3.000 
G1 Z  -1.500
F400
G2 X1712.424 Y 887.374 I  12.374 J  12.374
G2 X1687.676 Y 862.626 I -12.374 J -12.374
F150
G1 Z  -3.000
F400
G2 X1712.424 Y 887.374 I  12.374 J  12.374
G2 X1687.676 Y 862.626 I -12.374 J -12.374
F150
G1 Z   3.000
G0 Z  15.000 
M9 M5

(* SHAPE Nr: 49 *)
G0 X1487.506 Y 977.626
M3 M8
G0 Z   3.000 
G1 Z  -1.500
F400
G2 X1512.254 Y1002.374 I  12.374 J  12.374
G2 X1487.506 Y 977.626 I -12.374 J -12.374
F150
G1 Z  -3.000
F400
G2 X1512.254 Y1002.374 I  12.374 J  12.374
G2 X1487.506 Y 977.626 I -12.374 J -12.374
F150
G1 Z   3.000
G0 Z  15.000 
M9 M5

(* SHAPE Nr: 50 *)
G0 X1487.506 Y1447.626
M3 M8
G0 Z   3.000 
G1 Z  -1.500
F400
G2 X1512.254 Y1472.374 I  12.374 J  12.374
G2 X1487.506 Y1447.626 I -12.374 J -12.374
F150
G1 Z  -3.000
F400
G2 X1512.254 Y1472.374 I  12.374 J  12.374
G2 X1487.506 Y1447.626 I -12.374 J -12.374
F150
G1 Z   3.000
G0 Z  15.000 
M9 M5

(* SHAPE Nr: 56 *)
G0 X1997.506 Y 977.626
M3 M8
G0 Z   3.000 
G1 Z  -1.500
F400
G2 X2022.254 Y1002.374 I  12.374 J  12.374
G2 X1997.506 Y 977.626 I -12.374 J -12.374
F150
G1 Z  -3.000
F400
G2 X2022.254 Y1002.374 I  12.374 J  12.374
G2 X1997.506 Y 977.626 I -12.374 J -12.374
F150
G1 Z   3.000
G0 Z  15.000 
M9 M5

(* SHAPE Nr: 57 *)
G0 X1997.506 Y1447.626
M3 M8
G0 Z   3.000 
G1 Z  -1.500
F400
G2 X2022.254 Y1472.374 I  12.374 J  12.374
G2 X1997.506 Y1447.626 I -12.374 J -12.374
F150
G1 Z  -3.000
F400
G2 X2022.254 Y1472.374 I  12.374 J  12.374
G2 X1997.506 Y1447.626 I -12.374 J -12.374
F150
G1 Z   3.000
G0 Z  15.000 
M9 M5

(* SHAPE Nr: 63 *)
G0 X2507.506 Y 977.626
M3 M8
G0 Z   3.000 
G1 Z  -1.500
F400
G2 X2532.254 Y1002.374 I  12.374 J  12.374
G2 X2507.506 Y 977.626 I -12.374 J -12.374
F150
G1 Z  -3.000
F400
G2 X2532.254 Y1002.374 I  12.374 J  12.374
G2 X2507.506 Y 977.626 I -12.374 J -12.374
F150
G1 Z   3.000
G0 Z  15.000 
M9 M5

(* SHAPE Nr: 64 *)
G0 X2507.506 Y1447.626
M3 M8
G0 Z   3.000 
G1 Z  -1.500
F400
G2 X2532.254 Y1472.374 I  12.374 J  12.374
G2 X2507.506 Y1447.626 I -12.374 J -12.374
F150
G1 Z  -3.000
F400
G2 X2532.254 Y1472.374 I  12.374 J  12.374
G2 X2507.506 Y1447.626 I -12.374 J -12.374
F150
G1 Z   3.000
G0 Z  15.000 
M9 M5

(* SHAPE Nr: 70 *)
G0 X2197.676 Y 392.626
M3 M8
G0 Z   3.000 
G1 Z  -1.500
F400
G2 X2222.424 Y 417.374 I  12.374 J  12.374
G2 X2197.676 Y 392.626 I -12.374 J -12.374
F150
G1 Z  -3.000
F400
G2 X2222.424 Y 417.374 I  12.374 J  12.374
G2 X2197.676 Y 392.626 I -12.374 J -12.374
F150
G1 Z   3.000
G0 Z  15.000 
M9 M5

(* SHAPE Nr: 71 *)
G0 X2197.676 Y 862.626
M3 M8
G0 Z   3.000 
G1 Z  -1.500
F400
G2 X2222.424 Y 887.374 I  12.374 J  12.374
G2 X2197.676 Y 862.626 I -12.374 J -12.374
F150
G1 Z  -3.000
F400
G2 X2222.424 Y 887.374 I  12.374 J  12.374
G2 X2197.676 Y 862.626 I -12.374 J -12.374
F150
G1 Z   3.000
G0 Z  15.000 
M9 M5

(*** LAYER: VBORE_Z18_D8 ***)

(* SHAPE Nr: 34 *)
G0 X1422.052 Y1477.172
M3 M8
G0 Z   3.000 
G1 Z  -1.500
F400
G2 X1427.708 Y1482.828 I   2.828 J   2.828
G2 X1422.052 Y1477.172 I  -2.828 J  -2.828
F150
G1 Z  -3.000
F400
G2 X1427.708 Y1482.828 I   2.828 J   2.828
G2 X1422.052 Y1477.172 I  -2.828 J  -2.828
F150
G1 Z   3.000
G0 Z  15.000 
M9 M5

(* SHAPE Nr: 41 *)
G0 X1622.242 Y 892.172
M3 M8
G0 Z   3.000 
G1 Z  -1.500
F400
G2 X1627.898 Y 897.828 I   2.828 J   2.828
G2 X1622.242 Y 892.172 I  -2.828 J  -2.828
F150
G1 Z  -3.000
F400
G2 X1627.898 Y 897.828 I   2.828 J   2.828
G2 X1622.242 Y 892.172 I  -2.828 J  -2.828
F150
G1 Z   3.000
G0 Z  15.000 
M9 M5

(* SHAPE Nr: 48 *)
G0 X2132.222 Y 892.172
M3 M8
G0 Z   3.000 
G1 Z  -1.500
F400
G2 X2137.878 Y 897.828 I   2.828 J   2.828
G2 X2132.222 Y 892.172 I  -2.828 J  -2.828
F150
G1 Z  -3.000
F400
G2 X2137.878 Y 897.828 I   2.828 J   2.828
G2 X2132.222 Y 892.172 I  -2.828 J  -2.828
F150
G1 Z   3.000
G0 Z  15.000 
M9 M5

(* SHAPE Nr: 55 *)
G0 X1932.052 Y1477.172
M3 M8
G0 Z   3.000 
G1 Z  -1.500
F400
G2 X1937.708 Y1482.828 I   2.828 J   2.828
G2 X1932.052 Y1477.172 I  -2.828 J  -2.828
F150
G1 Z  -3.000
F400
G2 X1937.708 Y1482.828 I   2.828 J   2.828
G2 X1932.052 Y1477.172 I  -2.828 J  -2.828
F150
G1 Z   3.000
G0 Z  15.000 
M9 M5

(* SHAPE Nr: 62 *)
G0 X2442.052 Y1477.172
M3 M8
G0 Z   3.000 
G1 Z  -1.500
F400
G2 X2447.708 Y1482.828 I   2.828 J   2.828
G2 X2442.052 Y1477.172 I  -2.828 J  -2.828
F150
G1 Z  -3.000
F400
G2 X2447.708 Y1482.828 I   2.828 J   2.828
G2 X2442.052 Y1477.172 I  -2.828 J  -2.828
F150
G1 Z   3.000
G0 Z  15.000 
M9 M5

(* SHAPE Nr: 69 *)
G0 X2952.052 Y1477.172
M3 M8
G0 Z   3.000 
G1 Z  -1.500
F400
G2 X2957.708 Y1482.828 I   2.828 J   2.828
G2 X2952.052 Y1477.172 I  -2.828 J  -2.828
F150
G1 Z  -3.000
F400
G2 X2957.708 Y1482.828 I   2.828 J   2.828
G2 X2952.052 Y1477.172 I  -2.828 J  -2.828
F150
G1 Z   3.000
G0 Z  15.000 
M9 M5

(* SHAPE Nr: 76 *)
G0 X2642.222 Y 892.172
M3 M8
G0 Z   3.000 
G1 Z  -1.500
F400
G2 X2647.878 Y 897.828 I   2.828 J   2.828
G2 X2642.222 Y 892.172 I  -2.828 J  -2.828
F150
G1 Z  -3.000
F400
G2 X2647.878 Y 897.828 I   2.828 J   2.828
G2 X2642.222 Y 892.172 I  -2.828 J  -2.828
F150
G1 Z   3.000
G0 Z  15.000 
M9 M5

(*** LAYER: VBORE_Z10_D10 ***)

(* SHAPE Nr: 77 *)
G0 X2936.514 Y 871.464
M3 M8
G0 Z   3.000 
G1 Z  -1.500
F400
G2 X2943.586 Y 878.536 I   3.536 J   3.536
G2 X2936.514 Y 871.464 I  -3.536 J  -3.536
F150
G1 Z  -3.000
F400
G2 X2943.586 Y 878.536 I   3.536 J   3.536
G2 X2936.514 Y 871.464 I  -3.536 J  -3.536
F150
G1 Z   3.000
G0 Z  15.000 
M9 M5

(* SHAPE Nr: 78 *)
G0 X2936.514 Y 371.464
M3 M8
G0 Z   3.000 
G1 Z  -1.500
F400
G2 X2943.586 Y 378.536 I   3.536 J   3.536
G2 X2936.514 Y 371.464 I  -3.536 J  -3.536
F150
G1 Z  -3.000
F400
G2 X2943.586 Y 378.536 I   3.536 J   3.536
G2 X2936.514 Y 371.464 I  -3.536 J  -3.536
F150
G1 Z   3.000
G0 Z  15.000 
M9 M5

(*** LAYER: VBORE_Z6_D6 ***)

(* SHAPE Nr: 79 *)
G0 X2937.929 Y 857.879
M3 M8
G0 Z   3.000 
G1 Z  -1.500
F400
G2 X2942.171 Y 862.121 I   2.121 J   2.121
G2 X2937.929 Y 857.879 I  -2.121 J  -2.121
F150
G1 Z  -3.000
F400
G2 X2942.171 Y 862.121 I   2.121 J   2.121
G2 X2937.929 Y 857.879 I  -2.121 J  -2.121
F150
G1 Z   3.000
G0 Z  15.000 
M9 M5

(* SHAPE Nr: 80 *)
G0 X2937.929 Y 387.879
M3 M8
G0 Z   3.000 
G1 Z  -1.500
F400
G2 X2942.171 Y 392.121 I   2.121 J   2.121
G2 X2937.929 Y 387.879 I  -2.121 J  -2.121
F150
G1 Z  -3.000
F400
G2 X2942.171 Y 392.121 I   2.121 J   2.121
G2 X2937.929 Y 387.879 I  -2.121 J  -2.121
F150
G1 Z   3.000
G0 Z  15.000 
M9 M5

(*** LAYER: POCKET_D0 ***)

(* SHAPE Nr: 81 *)
G0 X2740.050 Y 435.000
M3 M8
G0 Z   3.000 
G1 Z  -1.500
F400
G1 X2740.050 Y 625.000
G1 X2740.050 Y 815.000
G2 X2750.050 Y 825.000 I  10.000 J   0.000
G1 X2880.050 Y 825.000
G2 X2890.050 Y 815.000 I   0.000 J -10.000
G1 X2890.050 Y 650.000
G1 X2890.050 Y 435.000
G2 X2880.050 Y 425.000 I -10.000 J  -0.000
G1 X2750.050 Y 425.000
G2 X2740.050 Y 435.000 I  -0.000 J  10.000
F150
G1 Z  -3.000
F400
G1 X2740.050 Y 625.000
G1 X2740.050 Y 815.000
G2 X2750.050 Y 825.000 I  10.000 J   0.000
G1 X2880.050 Y 825.000
G2 X2890.050 Y 815.000 I   0.000 J -10.000
G1 X2890.050 Y 650.000
G1 X2890.050 Y 435.000
G2 X2880.050 Y 425.000 I -10.000 J  -0.000
G1 X2750.050 Y 425.000
G2 X2740.050 Y 435.000 I  -0.000 J  10.000
F150
G1 Z   3.000
G0 Z  15.000 
M9 M5

(*** LAYER: ROUT_Z6_D5 ***)

(* SHAPE Nr: 123 *)
G0 X2940.050 Y 825.000
M3 M8
G0 Z   3.000 
G1 Z  -1.500
F400
G1 X2940.050 Y 425.000
F150
G1 Z  -3.000
F400
G1 X2940.050 Y 825.000
F150
G1 Z   3.000
G0 Z  15.000 
M9 M5

(*** LAYER: BORDER_D0_T128_RK1_A0_W0_RI1_EM1_ID0010 ***)

(* SHAPE Nr: 82 *)
G0 X  15.000 Y  79.670
M3 M8
G0 Z   3.000 
G1 Z  -1.500
F400
G1 X  15.000 Y 229.670
G1 X  15.000 Y 454.680
G1 X  15.000 Y 679.670
G1 X 165.000 Y 679.670
G1 X 265.000 Y 679.670
G1 X 315.000 Y 629.670
G1 X 315.000 Y 454.670
G1 X 365.000 Y 342.170
G1 X 415.000 Y 229.670
G1 X 415.000 Y  79.670
G1 X 215.000 Y  79.670
G1 X  15.000 Y  79.670
F150
G1 Z  -3.000
F400
G1 X  15.000 Y 229.670
G1 X  15.000 Y 454.680
G1 X  15.000 Y 679.670
G1 X 165.000 Y 679.670
G1 X 265.000 Y 679.670
G1 X 315.000 Y 629.670
G1 X 315.000 Y 454.670
G1 X 365.000 Y 342.170
G1 X 415.000 Y 229.670
G1 X 415.000 Y  79.670
G1 X 215.000 Y  79.670
G1 X  15.000 Y  79.670
F150
G1 Z   3.000
G0 Z  15.000 
M9 M5

(* SHAPE Nr: 83 *)
G0 X 430.070 Y 129.670
M3 M8
G0 Z   3.000 
G1 Z  -1.500
F400
G1 X 430.070 Y 304.670
G1 X 380.070 Y 417.170
G1 X 330.070 Y 529.670
G1 X 330.070 Y 679.670
G1 X 530.070 Y 679.670
G1 X 730.070 Y 679.670
G1 X 730.070 Y 529.670
G1 X 730.070 Y 304.660
G1 X 730.070 Y  79.670
G1 X 580.070 Y  79.670
G1 X 480.070 Y  79.670
G1 X 430.070 Y 129.670
F150
G1 Z  -3.000
F400
G1 X 430.070 Y 304.670
G1 X 380.070 Y 417.170
G1 X 330.070 Y 529.670
G1 X 330.070 Y 679.670
G1 X 530.070 Y 679.670
G1 X 730.070 Y 679.670
G1 X 730.070 Y 529.670
G1 X 730.070 Y 304.660
G1 X 730.070 Y  79.670
G1 X 580.070 Y  79.670
G1 X 480.070 Y  79.670
G1 X 430.070 Y 129.670
F150
G1 Z   3.000
G0 Z  15.000 
M9 M5

(* SHAPE Nr: 85 *)
G0 X 845.070 Y 129.670
M3 M8
G0 Z   3.000 
G1 Z  -1.500
F400
G1 X 845.070 Y 304.670
G1 X 795.070 Y 417.170
G1 X 745.070 Y 529.670
G1 X 745.070 Y 679.670
G1 X 945.070 Y 679.670
G1 X1145.070 Y 679.670
G1 X1145.070 Y 529.670
G1 X1145.070 Y 304.660
G1 X1145.070 Y  79.670
G1 X 995.070 Y  79.670
G1 X 895.070 Y  79.670
G1 X 845.070 Y 129.670
F150
G1 Z  -3.000
F400
G1 X 845.070 Y 304.670
G1 X 795.070 Y 417.170
G1 X 745.070 Y 529.670
G1 X 745.070 Y 679.670
G1 X 945.070 Y 679.670
G1 X1145.070 Y 679.670
G1 X1145.070 Y 529.670
G1 X1145.070 Y 304.660
G1 X1145.070 Y  79.670
G1 X 995.070 Y  79.670
G1 X 895.070 Y  79.670
G1 X 845.070 Y 129.670
F150
G1 Z   3.000
G0 Z  15.000 
M9 M5

(*** LAYER: BORDER_D0_T128_RK1_A0_W0_RI1_EM1_ID0002 ***)

(* SHAPE Nr: 84 *)
G0 X  65.000 Y 694.670
M3 M8
G0 Z   3.000 
G1 Z  -1.500
F400
G2 X  15.000 Y 744.670 I  -0.000 J  50.000
G1 X  15.000 Y 994.670
G1 X  15.000 Y1244.670
G2 X  65.000 Y1294.670 I  50.000 J   0.000
G1 X 265.000 Y1294.670
G2 X 315.000 Y1244.670 I   0.000 J -50.000
G1 X 315.000 Y1144.670
G3 X 365.000 Y1094.670 I  50.000 J  -0.000
G1 X 565.000 Y1094.670
G2 X 615.000 Y1044.670 I   0.000 J -50.000
G1 X 615.000 Y 944.670
G3 X 665.000 Y 894.670 I  50.000 J  -0.000
G1 X 865.000 Y 894.670
G2 X 915.000 Y 844.670 I   0.000 J -50.000
G1 X 915.000 Y 744.670
G2 X 865.000 Y 694.670 I -50.000 J  -0.000
G1 X 465.000 Y 694.670
G1 X  65.000 Y 694.670
F150
G1 Z  -3.000
F400
G2 X  15.000 Y 744.670 I  -0.000 J  50.000
G1 X  15.000 Y 994.670
G1 X  15.000 Y1244.670
G2 X  65.000 Y1294.670 I  50.000 J   0.000
G1 X 265.000 Y1294.670
G2 X 315.000 Y1244.670 I   0.000 J -50.000
G1 X 315.000 Y1144.670
G3 X 365.000 Y1094.670 I  50.000 J  -0.000
G1 X 565.000 Y1094.670
G2 X 615.000 Y1044.670 I   0.000 J -50.000
G1 X 615.000 Y 944.670
G3 X 665.000 Y 894.670 I  50.000 J  -0.000
G1 X 865.000 Y 894.670
G2 X 915.000 Y 844.670 I   0.000 J -50.000
G1 X 915.000 Y 744.670
G2 X 865.000 Y 694.670 I -50.000 J  -0.000
G1 X 465.000 Y 694.670
G1 X  65.000 Y 694.670
F150
G1 Z   3.000
G0 Z  15.000 
M9 M5

(* SHAPE Nr: 87 *)
G0 X 694.880 Y 910.000
M3 M8
G0 Z   3.000 
G1 Z  -1.500
F400
G2 X 644.880 Y 960.000 I  -0.000 J  50.000
G1 X 644.880 Y1060.000
G3 X 594.880 Y1110.000 I -50.000 J   0.000
G1 X 394.880 Y1110.000
G2 X 344.880 Y1160.000 I  -0.000 J  50.000
G1 X 344.880 Y1260.000
G3 X 294.880 Y1310.000 I -50.000 J   0.000
G1 X  94.880 Y1310.000
G2 X  44.880 Y1360.000 I  -0.000 J  50.000
G1 X  44.880 Y1460.000
G2 X  94.880 Y1510.000 I  50.000 J   0.000
G1 X 494.880 Y1510.000
G1 X 894.880 Y1510.000
G2 X 944.880 Y1460.000 I   0.000 J -50.000
G1 X 944.880 Y1210.000
G1 X 944.880 Y 960.000
G2 X 894.880 Y 910.000 I -50.000 J  -0.000
G1 X 694.880 Y 910.000
F150
G1 Z  -3.000
F400
G2 X 644.880 Y 960.000 I  -0.000 J  50.000
G1 X 644.880 Y1060.000
G3 X 594.880 Y1110.000 I -50.000 J   0.000
G1 X 394.880 Y1110.000
G2 X 344.880 Y1160.000 I  -0.000 J  50.000
G1 X 344.880 Y1260.000
G3 X 294.880 Y1310.000 I -50.000 J   0.000
G1 X  94.880 Y1310.000
G2 X  44.880 Y1360.000 I  -0.000 J  50.000
G1 X  44.880 Y1460.000
G2 X  94.880 Y1510.000 I  50.000 J   0.000
G1 X 494.880 Y1510.000
G1 X 894.880 Y1510.000
G2 X 944.880 Y1460.000 I   0.000 J -50.000
G1 X 944.880 Y1210.000
G1 X 944.880 Y 960.000
G2 X 894.880 Y 910.000 I -50.000 J  -0.000
G1 X 694.880 Y 910.000
F150
G1 Z   3.000
G0 Z  15.000 
M9 M5

(*** LAYER: BORDER_D0_T128_RK1_A0_W0_RI1_EM1_ID0006 ***)

(* SHAPE Nr: 86 *)
G0 X1160.070 Y 210.000
M3 M8
G0 Z   3.000 
G1 Z  -1.500
F400
G1 X1160.070 Y 340.000
G1 X1620.070 Y 340.000
G1 X1850.070 Y 340.000
G1 X2080.070 Y 340.000
G1 X2080.070 Y 210.000
G1 X1980.070 Y 210.000
G3 X1260.070 Y 210.000 I-360.000 J-811.370
G1 X1160.070 Y 210.000
F150
G1 Z  -3.000
F400
G1 X1160.070 Y 340.000
G1 X1620.070 Y 340.000
G1 X1850.070 Y 340.000
G1 X2080.070 Y 340.000
G1 X2080.070 Y 210.000
G1 X1980.070 Y 210.000
G3 X1260.070 Y 210.000 I-360.000 J-811.370
G1 X1160.070 Y 210.000
F150
G1 Z   3.000
G0 Z  15.000 
M9 M5

(*** LAYER: BORDER_D0_T128_RK1_A0_W0_RI1_EM1_ID0013 ***)

(* SHAPE Nr: 88 *)
G0 X 959.880 Y 940.000
M3 M8
G0 Z   3.000 
G1 Z  -1.500
F400
G1 X 959.880 Y1510.000
G1 X1207.380 Y1510.000
G1 X1454.880 Y1510.000
G1 X1454.880 Y1225.000
G1 X1454.880 Y 940.000
G1 X 959.880 Y 940.000
F150
G1 Z  -3.000
F400
G1 X 959.880 Y1510.000
G1 X1207.380 Y1510.000
G1 X1454.880 Y1510.000
G1 X1454.880 Y1225.000
G1 X1454.880 Y 940.000
G1 X 959.880 Y 940.000
F150
G1 Z   3.000
G0 Z  15.000 
M9 M5

(* SHAPE Nr: 89 *)
G0 X1160.070 Y 355.000
M3 M8
G0 Z   3.000 
G1 Z  -1.500
F400
G1 X1160.070 Y 925.000
G1 X1407.570 Y 925.000
G1 X1655.070 Y 925.000
G1 X1655.070 Y 640.000
G1 X1655.070 Y 355.000
G1 X1160.070 Y 355.000
F150
G1 Z  -3.000
F400
G1 X1160.070 Y 925.000
G1 X1407.570 Y 925.000
G1 X1655.070 Y 925.000
G1 X1655.070 Y 640.000
G1 X1655.070 Y 355.000
G1 X1160.070 Y 355.000
F150
G1 Z   3.000
G0 Z  15.000 
M9 M5

(* SHAPE Nr: 90 *)
G0 X1670.050 Y 355.000
M3 M8
G0 Z   3.000 
G1 Z  -1.500
F400
G1 X1670.050 Y 925.000
G1 X1917.550 Y 925.000
G1 X2165.050 Y 925.000
G1 X2165.050 Y 640.000
G1 X2165.050 Y 355.000
G1 X1670.050 Y 355.000
F150
G1 Z  -3.000
F400
G1 X1670.050 Y 925.000
G1 X1917.550 Y 925.000
G1 X2165.050 Y 925.000
G1 X2165.050 Y 640.000
G1 X2165.050 Y 355.000
G1 X1670.050 Y 355.000
F150
G1 Z   3.000
G0 Z  15.000 
M9 M5

(* SHAPE Nr: 91 *)
G0 X1469.880 Y 940.000
M3 M8
G0 Z   3.000 
G1 Z  -1.500
F400
G1 X1469.880 Y1510.000
G1 X1717.380 Y1510.000
G1 X1964.880 Y1510.000
G1 X1964.880 Y1225.000
G1 X1964.880 Y 940.000
G1 X1469.880 Y 940.000
F150
G1 Z  -3.000
F400
G1 X1469.880 Y1510.000
G1 X1717.380 Y1510.000
G1 X1964.880 Y1510.000
G1 X1964.880 Y1225.000
G1 X1964.880 Y 940.000
G1 X1469.880 Y 940.000
F150
G1 Z   3.000
G0 Z  15.000 
M9 M5

(* SHAPE Nr: 92 *)
G0 X1979.880 Y 940.000
M3 M8
G0 Z   3.000 
G1 Z  -1.500
F400
G1 X1979.880 Y1510.000
G1 X2227.380 Y1510.000
G1 X2474.880 Y1510.000
G1 X2474.880 Y1225.000
G1 X2474.880 Y 940.000
G1 X1979.880 Y 940.000
F150
G1 Z  -3.000
F400
G1 X1979.880 Y1510.000
G1 X2227.380 Y1510.000
G1 X2474.880 Y1510.000
G1 X2474.880 Y1225.000
G1 X2474.880 Y 940.000
G1 X1979.880 Y 940.000
F150
G1 Z   3.000
G0 Z  15.000 
M9 M5

(* SHAPE Nr: 93 *)
G0 X2489.880 Y 940.000
M3 M8
G0 Z   3.000 
G1 Z  -1.500
F400
G1 X2489.880 Y1510.000
G1 X2737.380 Y1510.000
G1 X2984.880 Y1510.000
G1 X2984.880 Y1225.000
G1 X2984.880 Y 940.000
G1 X2489.880 Y 940.000
F150
G1 Z  -3.000
F400
G1 X2489.880 Y1510.000
G1 X2737.380 Y1510.000
G1 X2984.880 Y1510.000
G1 X2984.880 Y1225.000
G1 X2984.880 Y 940.000
G1 X2489.880 Y 940.000
F150
G1 Z   3.000
G0 Z  15.000 
M9 M5

(* SHAPE Nr: 94 *)
G0 X2180.050 Y 355.000
M3 M8
G0 Z   3.000 
G1 Z  -1.500
F400
G1 X2180.050 Y 925.000
G1 X2427.550 Y 925.000
G1 X2675.050 Y 925.000
G1 X2675.050 Y 640.000
G1 X2675.050 Y 355.000
G1 X2180.050 Y 355.000
F150
G1 Z  -3.000
F400
G1 X2180.050 Y 925.000
G1 X2427.550 Y 925.000
G1 X2675.050 Y 925.000
G1 X2675.050 Y 640.000
G1 X2675.050 Y 355.000
G1 X2180.050 Y 355.000
F150
G1 Z   3.000
G0 Z  15.000 
M9 M5

(*** LAYER: BORDER_D0_T128_RK1_A0_W0_RI1_EM1_ID0014 ***)

(* SHAPE Nr: 95 *)
G0 X2690.050 Y 325.000
M3 M8
G0 Z   3.000 
G1 Z  -1.500
F400
G1 X2690.050 Y 625.000
G1 X2690.050 Y 925.000
G1 X2990.050 Y 925.000
G1 X2990.050 Y 625.000
G1 X2990.050 Y 325.000
G1 X2690.050 Y 325.000
F150
G1 Z  -3.000
F400
G1 X2690.050 Y 625.000
G1 X2690.050 Y 925.000
G1 X2990.050 Y 925.000
G1 X2990.050 Y 625.000
G1 X2990.050 Y 325.000
G1 X2690.050 Y 325.000
F150
G1 Z   3.000
G0 Z  15.000 
M9 M5

(*** LAYER: BORDER_D0_T128_RK1_A0_W0_RI1_EM1_ID0001 ***)

(* SHAPE Nr: 96 *)
G0 X2095.070 Y  78.000
M3 M8
G0 Z   3.000 
G1 Z  -1.500
F400
G1 X2095.070 Y 340.000
G1 X2395.070 Y 340.000
G1 X2395.070 Y 209.000
G1 X2395.070 Y  78.000
G1 X2245.070 Y  78.000
G1 X2095.070 Y  78.000
F150
G1 Z  -3.000
F400
G1 X2095.070 Y 340.000
G1 X2395.070 Y 340.000
G1 X2395.070 Y 209.000
G1 X2395.070 Y  78.000
G1 X2245.070 Y  78.000
G1 X2095.070 Y  78.000
F150
G1 Z   3.000
G0 Z  15.000 
M9 M5

(* SHAPE Nr: 97 *)
G0 X2410.070 Y  48.000
M3 M8
G0 Z   3.000 
G1 Z  -1.500
F400
G1 X2410.070 Y 310.000
G1 X2710.070 Y 310.000
G1 X2710.070 Y 179.000
G1 X2710.070 Y  48.000
G1 X2560.070 Y  48.000
G1 X2410.070 Y  48.000
F150
G1 Z  -3.000
F400
G1 X2410.070 Y 310.000
G1 X2710.070 Y 310.000
G1 X2710.070 Y 179.000
G1 X2710.070 Y  48.000
G1 X2560.070 Y  48.000
G1 X2410.070 Y  48.000
F150
G1 Z   3.000
G0 Z  15.000 
M9 M5

(* SHAPE Nr: 98 *)
G0 X2725.070 Y  48.000
M3 M8
G0 Z   3.000 
G1 Z  -1.500
F400
G1 X2725.070 Y 310.000
G1 X3025.070 Y 310.000
G1 X3025.070 Y 179.000
G1 X3025.070 Y  48.000
G1 X2875.070 Y  48.000
G1 X2725.070 Y  48.000
F150
G1 Z  -3.000
F400
G1 X2725.070 Y 310.000
G1 X3025.070 Y 310.000
G1 X3025.070 Y 179.000
G1 X3025.070 Y  48.000
G1 X2875.070 Y  48.000
G1 X2725.070 Y  48.000
F150
G1 Z   3.000
G0 Z  15.000 
M9 M5

(*** LAYER: BORDER_D0_T128.1_RK1_A0_W0_RI1_EM1_ID0010 ***)

(* SHAPE Nr: 99 *)
G0 X  15.000 Y  79.670
M3 M8
G0 Z   3.000 
G1 Z  -1.500
F400
G1 X  15.000 Y 229.670
G1 X  15.000 Y 454.680
G1 X  15.000 Y 679.670
G1 X 165.000 Y 679.670
G1 X 265.000 Y 679.670
G1 X 315.000 Y 629.670
G1 X 315.000 Y 454.670
G1 X 365.000 Y 342.170
G1 X 415.000 Y 229.670
G1 X 415.000 Y  79.670
G1 X 215.000 Y  79.670
G1 X  15.000 Y  79.670
F150
G1 Z  -3.000
F400
G1 X  15.000 Y 229.670
G1 X  15.000 Y 454.680
G1 X  15.000 Y 679.670
G1 X 165.000 Y 679.670
G1 X 265.000 Y 679.670
G1 X 315.000 Y 629.670
G1 X 315.000 Y 454.670
G1 X 365.000 Y 342.170
G1 X 415.000 Y 229.670
G1 X 415.000 Y  79.670
G1 X 215.000 Y  79.670
G1 X  15.000 Y  79.670
F150
G1 Z   3.000
G0 Z  15.000 
M9 M5

(* SHAPE Nr: 100 *)
G0 X 430.070 Y 129.670
M3 M8
G0 Z   3.000 
G1 Z  -1.500
F400
G1 X 430.070 Y 304.670
G1 X 380.070 Y 417.170
G1 X 330.070 Y 529.670
G1 X 330.070 Y 679.670
G1 X 530.070 Y 679.670
G1 X 730.070 Y 679.670
G1 X 730.070 Y 529.670
G1 X 730.070 Y 304.660
G1 X 730.070 Y  79.670
G1 X 580.070 Y  79.670
G1 X 480.070 Y  79.670
G1 X 430.070 Y 129.670
F150
G1 Z  -3.000
F400
G1 X 430.070 Y 304.670
G1 X 380.070 Y 417.170
G1 X 330.070 Y 529.670
G1 X 330.070 Y 679.670
G1 X 530.070 Y 679.670
G1 X 730.070 Y 679.670
G1 X 730.070 Y 529.670
G1 X 730.070 Y 304.660
G1 X 730.070 Y  79.670
G1 X 580.070 Y  79.670
G1 X 480.070 Y  79.670
G1 X 430.070 Y 129.670
F150
G1 Z   3.000
G0 Z  15.000 
M9 M5

(* SHAPE Nr: 102 *)
G0 X 845.070 Y 129.670
M3 M8
G0 Z   3.000 
G1 Z  -1.500
F400
G1 X 845.070 Y 304.670
G1 X 795.070 Y 417.170
G1 X 745.070 Y 529.670
G1 X 745.070 Y 679.670
G1 X 945.070 Y 679.670
G1 X1145.070 Y 679.670
G1 X1145.070 Y 529.670
G1 X1145.070 Y 304.660
G1 X1145.070 Y  79.670
G1 X 995.070 Y  79.670
G1 X 895.070 Y  79.670
G1 X 845.070 Y 129.670
F150
G1 Z  -3.000
F400
G1 X 845.070 Y 304.670
G1 X 795.070 Y 417.170
G1 X 745.070 Y 529.670
G1 X 745.070 Y 679.670
G1 X 945.070 Y 679.670
G1 X1145.070 Y 679.670
G1 X1145.070 Y 529.670
G1 X1145.070 Y 304.660
G1 X1145.070 Y  79.670
G1 X 995.070 Y  79.670
G1 X 895.070 Y  79.670
G1 X 845.070 Y 129.670
F150
G1 Z   3.000
G0 Z  15.000 
M9 M5

(*** LAYER: BORDER_D0_T128.1_RK1_A0_W0_RI1_EM1_ID0002 ***)

(* SHAPE Nr: 101 *)
G0 X  65.000 Y 694.670
M3 M8
G0 Z   3.000 
G1 Z  -1.500
F400
G2 X  15.000 Y 744.670 I  -0.000 J  50.000
G1 X  15.000 Y 994.670
G1 X  15.000 Y1244.670
G2 X  65.000 Y1294.670 I  50.000 J   0.000
G1 X 265.000 Y1294.670
G2 X 315.000 Y1244.670 I   0.000 J -50.000
G1 X 315.000 Y1144.670
G3 X 365.000 Y1094.670 I  50.000 J  -0.000
G1 X 565.000 Y1094.670
G2 X 615.000 Y1044.670 I   0.000 J -50.000
G1 X 615.000 Y 944.670
G3 X 665.000 Y 894.670 I  50.000 J  -0.000
G1 X 865.000 Y 894.670
G2 X 915.000 Y 844.670 I   0.000 J -50.000
G1 X 915.000 Y 744.670
G2 X 865.000 Y 694.670 I -50.000 J  -0.000
G1 X 465.000 Y 694.670
G1 X  65.000 Y 694.670
F150
G1 Z  -3.000
F400
G2 X  15.000 Y 744.670 I  -0.000 J  50.000
G1 X  15.000 Y 994.670
G1 X  15.000 Y1244.670
G2 X  65.000 Y1294.670 I  50.000 J   0.000
G1 X 265.000 Y1294.670
G2 X 315.000 Y1244.670 I   0.000 J -50.000
G1 X 315.000 Y1144.670
G3 X 365.000 Y1094.670 I  50.000 J  -0.000
G1 X 565.000 Y1094.670
G2 X 615.000 Y1044.670 I   0.000 J -50.000
G1 X 615.000 Y 944.670
G3 X 665.000 Y 894.670 I  50.000 J  -0.000
G1 X 865.000 Y 894.670
G2 X 915.000 Y 844.670 I   0.000 J -50.000
G1 X 915.000 Y 744.670
G2 X 865.000 Y 694.670 I -50.000 J  -0.000
G1 X 465.000 Y 694.670
G1 X  65.000 Y 694.670
F150
G1 Z   3.000
G0 Z  15.000 
M9 M5

(* SHAPE Nr: 104 *)
G0 X 694.880 Y 910.000
M3 M8
G0 Z   3.000 
G1 Z  -1.500
F400
G2 X 644.880 Y 960.000 I  -0.000 J  50.000
G1 X 644.880 Y1060.000
G3 X 594.880 Y1110.000 I -50.000 J   0.000
G1 X 394.880 Y1110.000
G2 X 344.880 Y1160.000 I  -0.000 J  50.000
G1 X 344.880 Y1260.000
G3 X 294.880 Y1310.000 I -50.000 J   0.000
G1 X  94.880 Y1310.000
G2 X  44.880 Y1360.000 I  -0.000 J  50.000
G1 X  44.880 Y1460.000
G2 X  94.880 Y1510.000 I  50.000 J   0.000
G1 X 494.880 Y1510.000
G1 X 894.880 Y1510.000
G2 X 944.880 Y1460.000 I   0.000 J -50.000
G1 X 944.880 Y1210.000
G1 X 944.880 Y 960.000
G2 X 894.880 Y 910.000 I -50.000 J  -0.000
G1 X 694.880 Y 910.000
F150
G1 Z  -3.000
F400
G2 X 644.880 Y 960.000 I  -0.000 J  50.000
G1 X 644.880 Y1060.000
G3 X 594.880 Y1110.000 I -50.000 J   0.000
G1 X 394.880 Y1110.000
G2 X 344.880 Y1160.000 I  -0.000 J  50.000
G1 X 344.880 Y1260.000
G3 X 294.880 Y1310.000 I -50.000 J   0.000
G1 X  94.880 Y1310.000
G2 X  44.880 Y1360.000 I  -0.000 J  50.000
G1 X  44.880 Y1460.000
G2 X  94.880 Y1510.000 I  50.000 J   0.000
G1 X 494.880 Y1510.000
G1 X 894.880 Y1510.000
G2 X 944.880 Y1460.000 I   0.000 J -50.000
G1 X 944.880 Y1210.000
G1 X 944.880 Y 960.000
G2 X 894.880 Y 910.000 I -50.000 J  -0.000
G1 X 694.880 Y 910.000
F150
G1 Z   3.000
G0 Z  15.000 
M9 M5

(*** LAYER: BORDER_D0_T128.1_RK1_A0_W0_RI1_EM1_ID0006 ***)

(* SHAPE Nr: 103 *)
G0 X1160.070 Y 210.000
M3 M8
G0 Z   3.000 
G1 Z  -1.500
F400
G1 X1160.070 Y 340.000
G1 X1620.070 Y 340.000
G1 X1850.070 Y 340.000
G1 X2080.070 Y 340.000
G1 X2080.070 Y 210.000
G1 X1980.070 Y 210.000
G3 X1260.070 Y 210.000 I-360.000 J-811.370
G1 X1160.070 Y 210.000
F150
G1 Z  -3.000
F400
G1 X1160.070 Y 340.000
G1 X1620.070 Y 340.000
G1 X1850.070 Y 340.000
G1 X2080.070 Y 340.000
G1 X2080.070 Y 210.000
G1 X1980.070 Y 210.000
G3 X1260.070 Y 210.000 I-360.000 J-811.370
G1 X1160.070 Y 210.000
F150
G1 Z   3.000
G0 Z  15.000 
M9 M5

(*** LAYER: BORDER_D0_T128.1_RK1_A0_W0_RI1_EM1_ID0013 ***)

(* SHAPE Nr: 105 *)
G0 X 959.880 Y 940.000
M3 M8
G0 Z   3.000 
G1 Z  -1.500
F400
G1 X 959.880 Y1510.000
G1 X1207.380 Y1510.000
G1 X1454.880 Y1510.000
G1 X1454.880 Y1225.000
G1 X1454.880 Y 940.000
G1 X 959.880 Y 940.000
F150
G1 Z  -3.000
F400
G1 X 959.880 Y1510.000
G1 X1207.380 Y1510.000
G1 X1454.880 Y1510.000
G1 X1454.880 Y1225.000
G1 X1454.880 Y 940.000
G1 X 959.880 Y 940.000
F150
G1 Z   3.000
G0 Z  15.000 
M9 M5

(* SHAPE Nr: 106 *)
G0 X1160.070 Y 355.000
M3 M8
G0 Z   3.000 
G1 Z  -1.500
F400
G1 X1160.070 Y 925.000
G1 X1407.570 Y 925.000
G1 X1655.070 Y 925.000
G1 X1655.070 Y 640.000
G1 X1655.070 Y 355.000
G1 X1160.070 Y 355.000
F150
G1 Z  -3.000
F400
G1 X1160.070 Y 925.000
G1 X1407.570 Y 925.000
G1 X1655.070 Y 925.000
G1 X1655.070 Y 640.000
G1 X1655.070 Y 355.000
G1 X1160.070 Y 355.000
F150
G1 Z   3.000
G0 Z  15.000 
M9 M5

(* SHAPE Nr: 107 *)
G0 X1670.050 Y 355.000
M3 M8
G0 Z   3.000 
G1 Z  -1.500
F400
G1 X1670.050 Y 925.000
G1 X1917.550 Y 925.000
G1 X2165.050 Y 925.000
G1 X2165.050 Y 640.000
G1 X2165.050 Y 355.000
G1 X1670.050 Y 355.000
F150
G1 Z  -3.000
F400
G1 X1670.050 Y 925.000
G1 X1917.550 Y 925.000
G1 X2165.050 Y 925.000
G1 X2165.050 Y 640.000
G1 X2165.050 Y 355.000
G1 X1670.050 Y 355.000
F150
G1 Z   3.000
G0 Z  15.000 
M9 M5

(* SHAPE Nr: 108 *)
G0 X1469.880 Y 940.000
M3 M8
G0 Z   3.000 
G1 Z  -1.500
F400
G1 X1469.880 Y1510.000
G1 X1717.380 Y1510.000
G1 X1964.880 Y1510.000
G1 X1964.880 Y1225.000
G1 X1964.880 Y 940.000
G1 X1469.880 Y 940.000
F150
G1 Z  -3.000
F400
G1 X1469.880 Y1510.000
G1 X1717.380 Y1510.000
G1 X1964.880 Y1510.000
G1 X1964.880 Y1225.000
G1 X1964.880 Y 940.000
G1 X1469.880 Y 940.000
F150
G1 Z   3.000
G0 Z  15.000 
M9 M5

(* SHAPE Nr: 109 *)
G0 X1979.880 Y 940.000
M3 M8
G0 Z   3.000 
G1 Z  -1.500
F400
G1 X1979.880 Y1510.000
G1 X2227.380 Y1510.000
G1 X2474.880 Y1510.000
G1 X2474.880 Y1225.000
G1 X2474.880 Y 940.000
G1 X1979.880 Y 940.000
F150
G1 Z  -3.000
F400
G1 X1979.880 Y1510.000
G1 X2227.380 Y1510.000
G1 X2474.880 Y1510.000
G1 X2474.880 Y1225.000
G1 X2474.880 Y 940.000
G1 X1979.880 Y 940.000
F150
G1 Z   3.000
G0 Z  15.000 
M9 M5

(* SHAPE Nr: 110 *)
G0 X2489.880 Y 940.000
M3 M8
G0 Z   3.000 
G1 Z  -1.500
F400
G1 X2489.880 Y1510.000
G1 X2737.380 Y1510.000
G1 X2984.880 Y1510.000
G1 X2984.880 Y1225.000
G1 X2984.880 Y 940.000
G1 X2489.880 Y 940.000
F150
G1 Z  -3.000
F400
G1 X2489.880 Y1510.000
G1 X2737.380 Y1510.000
G1 X2984.880 Y1510.000
G1 X2984.880 Y1225.000
G1 X2984.880 Y 940.000
G1 X2489.880 Y 940.000
F150
G1 Z   3.000
G0 Z  15.000 
M9 M5

(* SHAPE Nr: 111 *)
G0 X2180.050 Y 355.000
M3 M8
G0 Z   3.000 
G1 Z  -1.500
F400
G1 X2180.050 Y 925.000
G1 X2427.550 Y 925.000
G1 X2675.050 Y 925.000
G1 X2675.050 Y 640.000
G1 X2675.050 Y 355.000
G1 X2180.050 Y 355.000
F150
G1 Z  -3.000
F400
G1 X2180.050 Y 925.000
G1 X2427.550 Y 925.000
G1 X2675.050 Y 925.000
G1 X2675.050 Y 640.000
G1 X2675.050 Y 355.000
G1 X2180.050 Y 355.000
F150
G1 Z   3.000
G0 Z  15.000 
M9 M5

(*** LAYER: BORDER_D0_T128.1_RK1_A0_W0_RI1_EM1_ID0014 ***)

(* SHAPE Nr: 112 *)
G0 X2690.050 Y 325.000
M3 M8
G0 Z   3.000 
G1 Z  -1.500
F400
G1 X2690.050 Y 625.000
G1 X2690.050 Y 925.000
G1 X2990.050 Y 925.000
G1 X2990.050 Y 625.000
G1 X2990.050 Y 325.000
G1 X2690.050 Y 325.000
F150
G1 Z  -3.000
F400
G1 X2690.050 Y 625.000
G1 X2690.050 Y 925.000
G1 X2990.050 Y 925.000
G1 X2990.050 Y 625.000
G1 X2990.050 Y 325.000
G1 X2690.050 Y 325.000
F150
G1 Z   3.000
G0 Z  15.000 
M9 M5

(*** LAYER: BORDER_D0_T128.1_RK1_A0_W0_RI1_EM1_ID0001 ***)

(* SHAPE Nr: 113 *)
G0 X2095.070 Y  78.000
M3 M8
G0 Z   3.000 
G1 Z  -1.500
F400
G1 X2095.070 Y 340.000
G1 X2395.070 Y 340.000
G1 X2395.070 Y 209.000
G1 X2395.070 Y  78.000
G1 X2245.070 Y  78.000
G1 X2095.070 Y  78.000
F150
G1 Z  -3.000
F400
G1 X2095.070 Y 340.000
G1 X2395.070 Y 340.000
G1 X2395.070 Y 209.000
G1 X2395.070 Y  78.000
G1 X2245.070 Y  78.000
G1 X2095.070 Y  78.000
F150
G1 Z   3.000
G0 Z  15.000 
M9 M5

(* SHAPE Nr: 114 *)
G0 X2410.070 Y  48.000
M3 M8
G0 Z   3.000 
G1 Z  -1.500
F400
G1 X2410.070 Y 310.000
G1 X2710.070 Y 310.000
G1 X2710.070 Y 179.000
G1 X2710.070 Y  48.000
G1 X2560.070 Y  48.000
G1 X2410.070 Y  48.000
F150
G1 Z  -3.000
F400
G1 X2410.070 Y 310.000
G1 X2710.070 Y 310.000
G1 X2710.070 Y 179.000
G1 X2710.070 Y  48.000
G1 X2560.070 Y  48.000
G1 X2410.070 Y  48.000
F150
G1 Z   3.000
G0 Z  15.000 
M9 M5

(* SHAPE Nr: 115 *)
G0 X2725.070 Y  48.000
M3 M8
G0 Z   3.000 
G1 Z  -1.500
F400
G1 X2725.070 Y 310.000
G1 X3025.070 Y 310.000
G1 X3025.070 Y 179.000
G1 X3025.070 Y  48.000
G1 X2875.070 Y  48.000
G1 X2725.070 Y  48.000
F150
G1 Z  -3.000
F400
G1 X2725.070 Y 310.000
G1 X3025.070 Y 310.000
G1 X3025.070 Y 179.000
G1 X3025.070 Y  48.000
G1 X2875.070 Y  48.000
G1 X2725.070 Y  48.000
F150
G1 Z   3.000
G0 Z  15.000 
M9 M5
G0 X   0.000 Y   0.000
M2 (Program end)