(Generated with: DXF2GCODE, Version: REMOVED, Date: $Date$)
(Created from file: )
(Output format description: G-CODE for LinuxCNC)
(Time: Thu Sep 13 16:01:16 2018)
G21 (Units in millimeters)
G90 (Absolute programming)
G64 (Default cutting) G17 (XY plane) G40 (Cancel radius comp.) G49 (Cancel length comp.)
G0 Z  15.000 

(*** LAYER: FRAME_Z18 ***)
T1 M6
S6000

(* SHAPE Nr: 116 *)
G0 X   0.000 Y   0.000
M3 M8
G0 Z   3.000 
F150
G1 Z  -1.500
F400
G1 X   0.000 Y1525.000
G1 X3050.000 Y1525.000
G1 X3050.000 Y   0.000
G1 X   0.000 Y   0.000
F150
G1 Z  -3.000
F400
G1 X   0.000 Y1525.000
G1 X3050.000 Y1525.000
G1 X3050.000 Y   0.000
G1 X   0.000 Y   0.000
F150
G1 Z   3.000
G0 Z  15.000 
M9 M5

(*** LAYER: VBORE_Z6_D10 ***)

(* SHAPE Nr: 0 *)
G0 X 671.464 Y1174.454
M3 M8
G0 Z   3.000 
G1 Z  -1.500
F400
G2 X 678.536 Y1181.526 I   3.536 J   3.536
G2 X 671.464 Y1174.454 I  -3.536 J  -3.536
F150
G1 Z  -3.000
F400
G2 X 678.536 Y1181.526 I   3.536 J   3.536
G2 X 671.464 Y1174.454 I  -3.536 J  -3.536
F150
G1 Z   3.000
G0 Z  15.000 
M9 M5

(* SHAPE Nr: 1 *)
G0 X 721.464 Y1174.454
M3 M8
G0 Z   3.000 
G1 Z  -1.500
F400
G2 X 728.536 Y1181.526 I   3.536 J   3.536
G2 X 721.464 Y1174.454 I  -3.536 J  -3.536
F150
G1 Z  -3.000
F400
G2 X 728.536 Y1181.526 I   3.536 J   3.536
G2 X 721.464 Y1174.454 I  -3.536 J  -3.536
F150
G1 Z   3.000
G0 Z  15.000 
M9 M5

(* SHAPE Nr: 2 *)
G0 X 671.464 Y 919.454
M3 M8
G0 Z   3.000 
G1 Z  -1.500
F400
G2 X 678.536 Y 926.526 I   3.536 J   3.536
G2 X 671.464 Y 919.454 I  -3.536 J  -3.536
F150
G1 Z  -3.000
F400
G2 X 678.536 Y 926.526 I   3.536 J   3.536
G2 X 671.464 Y 919.454 I  -3.536 J  -3.536
F150
G1 Z   3.000
G0 Z  15.000 
M9 M5

(* SHAPE Nr: 3 *)
G0 X 721.464 Y 919.454
M3 M8
G0 Z   3.000 
G1 Z  -1.500
F400
G2 X 728.536 Y 926.526 I   3.536 J   3.536
G2 X 721.464 Y 919.454 I  -3.536 J  -3.536
F150
G1 Z  -3.000
F400
G2 X 728.536 Y 926.526 I   3.536 J   3.536
G2 X 721.464 Y 919.454 I  -3.536 J  -3.536
F150
G1 Z   3.000
G0 Z  15.000 
M9 M5

(* SHAPE Nr: 14 *)
G0 X 671.464 Y1483.464
M3 M8
G0 Z   3.000 
G1 Z  -1.500
F400
G2 X 678.536 Y1490.536 I   3.536 J   3.536
G2 X 671.464 Y1483.464 I  -3.536 J  -3.536
F150
G1 Z  -3.000
F400
G2 X 678.536 Y1490.536 I   3.536 J   3.536
G2 X 671.464 Y1483.464 I  -3.536 J  -3.536
F150
G1 Z   3.000
G0 Z  15.000 
M9 M5

(* SHAPE Nr: 15 *)
G0 X 721.464 Y1483.464
M3 M8
G0 Z   3.000 
G1 Z  -1.500
F400
G2 X 728.536 Y1490.536 I   3.536 J   3.536
G2 X 721.464 Y1483.464 I  -3.536 J  -3.536
F150
G1 Z  -3.000
F400
G2 X 728.536 Y1490.536 I   3.536 J   3.536
G2 X 721.464 Y1483.464 I  -3.536 J  -3.536
F150
G1 Z   3.000
G0 Z  15.000 
M9 M5

(* SHAPE Nr: 16 *)
G0 X 671.464 Y1228.464
M3 M8
G0 Z   3.000 
G1 Z  -1.500
F400
G2 X 678.536 Y1235.536 I   3.536 J   3.536
G2 X 671.464 Y1228.464 I  -3.536 J  -3.536
F150
G1 Z  -3.000
F400
G2 X 678.536 Y1235.536 I   3.536 J   3.536
G2 X 671.464 Y1228.464 I  -3.536 J  -3.536
F150
G1 Z   3.000
G0 Z  15.000 
M9 M5

(* SHAPE Nr: 17 *)
G0 X 721.464 Y1228.464
M3 M8
G0 Z   3.000 
G1 Z  -1.500
F400
G2 X 728.536 Y1235.536 I   3.536 J   3.536
G2 X 721.464 Y1228.464 I  -3.536 J  -3.536
F150
G1 Z  -3.000
F400
G2 X 728.536 Y1235.536 I   3.536 J   3.536
G2 X 721.464 Y1228.464 I  -3.536 J  -3.536
F150
G1 Z   3.000
G0 Z  15.000 
M9 M5

(* SHAPE Nr: 38 *)
G0 X1896.534 Y 200.334
M3 M8
G0 Z   3.000 
G1 Z  -1.500
F400
G2 X1903.606 Y 207.406 I   3.536 J   3.536
G2 X1896.534 Y 200.334 I  -3.536 J  -3.536
F150
G1 Z  -3.000
F400
G2 X1903.606 Y 207.406 I   3.536 J   3.536
G2 X1896.534 Y 200.334 I  -3.536 J  -3.536
F150
G1 Z   3.000
G0 Z  15.000 
M9 M5

(* SHAPE Nr: 39 *)
G0 X1896.534 Y 400.334
M3 M8
G0 Z   3.000 
G1 Z  -1.500
F400
G2 X1903.606 Y 407.406 I   3.536 J   3.536
G2 X1896.534 Y 400.334 I  -3.536 J  -3.536
F150
G1 Z  -3.000
F400
G2 X1903.606 Y 407.406 I   3.536 J   3.536
G2 X1896.534 Y 400.334 I  -3.536 J  -3.536
F150
G1 Z   3.000
G0 Z  15.000 
M9 M5

(* SHAPE Nr: 40 *)
G0 X1896.534 Y 500.334
M3 M8
G0 Z   3.000 
G1 Z  -1.500
F400
G2 X1903.606 Y 507.406 I   3.536 J   3.536
G2 X1896.534 Y 500.334 I  -3.536 J  -3.536
F150
G1 Z  -3.000
F400
G2 X1903.606 Y 507.406 I   3.536 J   3.536
G2 X1896.534 Y 500.334 I  -3.536 J  -3.536
F150
G1 Z   3.000
G0 Z  15.000 
M9 M5

(* SHAPE Nr: 41 *)
G0 X1896.534 Y 700.334
M3 M8
G0 Z   3.000 
G1 Z  -1.500
F400
G2 X1903.606 Y 707.406 I   3.536 J   3.536
G2 X1896.534 Y 700.334 I  -3.536 J  -3.536
F150
G1 Z  -3.000
F400
G2 X1903.606 Y 707.406 I   3.536 J   3.536
G2 X1896.534 Y 700.334 I  -3.536 J  -3.536
F150
G1 Z   3.000
G0 Z  15.000 
M9 M5

(* SHAPE Nr: 42 *)
G0 X1896.534 Y 800.334
M3 M8
G0 Z   3.000 
G1 Z  -1.500
F400
G2 X1903.606 Y 807.406 I   3.536 J   3.536
G2 X1896.534 Y 800.334 I  -3.536 J  -3.536
F150
G1 Z  -3.000
F400
G2 X1903.606 Y 807.406 I   3.536 J   3.536
G2 X1896.534 Y 800.334 I  -3.536 J  -3.536
F150
G1 Z   3.000
G0 Z  15.000 
M9 M5

(* SHAPE Nr: 43 *)
G0 X1896.534 Y1000.334
M3 M8
G0 Z   3.000 
G1 Z  -1.500
F400
G2 X1903.606 Y1007.406 I   3.536 J   3.536
G2 X1896.534 Y1000.334 I  -3.536 J  -3.536
F150
G1 Z  -3.000
F400
G2 X1903.606 Y1007.406 I   3.536 J   3.536
G2 X1896.534 Y1000.334 I  -3.536 J  -3.536
F150
G1 Z   3.000
G0 Z  15.000 
M9 M5

(* SHAPE Nr: 49 *)
G0 X2856.924 Y 343.524
M3 M8
G0 Z   3.000 
G1 Z  -1.500
F400
G2 X2863.996 Y 350.596 I   3.536 J   3.536
G2 X2856.924 Y 343.524 I  -3.536 J  -3.536
F150
G1 Z  -3.000
F400
G2 X2863.996 Y 350.596 I   3.536 J   3.536
G2 X2856.924 Y 343.524 I  -3.536 J  -3.536
F150
G1 Z   3.000
G0 Z  15.000 
M9 M5

(* SHAPE Nr: 50 *)
G0 X2906.924 Y 343.524
M3 M8
G0 Z   3.000 
G1 Z  -1.500
F400
G2 X2913.996 Y 350.596 I   3.536 J   3.536
G2 X2906.924 Y 343.524 I  -3.536 J  -3.536
F150
G1 Z  -3.000
F400
G2 X2913.996 Y 350.596 I   3.536 J   3.536
G2 X2906.924 Y 343.524 I  -3.536 J  -3.536
F150
G1 Z   3.000
G0 Z  15.000 
M9 M5

(* SHAPE Nr: 51 *)
G0 X2856.924 Y  88.524
M3 M8
G0 Z   3.000 
G1 Z  -1.500
F400
G2 X2863.996 Y  95.596 I   3.536 J   3.536
G2 X2856.924 Y  88.524 I  -3.536 J  -3.536
F150
G1 Z  -3.000
F400
G2 X2863.996 Y  95.596 I   3.536 J   3.536
G2 X2856.924 Y  88.524 I  -3.536 J  -3.536
F150
G1 Z   3.000
G0 Z  15.000 
M9 M5

(* SHAPE Nr: 52 *)
G0 X2906.924 Y  88.524
M3 M8
G0 Z   3.000 
G1 Z  -1.500
F400
G2 X2913.996 Y  95.596 I   3.536 J   3.536
G2 X2906.924 Y  88.524 I  -3.536 J  -3.536
F150
G1 Z  -3.000
F400
G2 X2913.996 Y  95.596 I   3.536 J   3.536
G2 X2906.924 Y  88.524 I  -3.536 J  -3.536
F150
G1 Z   3.000
G0 Z  15.000 
M9 M5

(* SHAPE Nr: 55 *)
G0 X2726.854 Y 626.584
M3 M8
G0 Z   3.000 
G1 Z  -1.500
F400
G2 X2733.926 Y 633.656 I   3.536 J   3.536
G2 X2726.854 Y 626.584 I  -3.536 J  -3.536
F150
G1 Z  -3.000
F400
G2 X2733.926 Y 633.656 I   3.536 J   3.536
G2 X2726.854 Y 626.584 I  -3.536 J  -3.536
F150
G1 Z   3.000
G0 Z  15.000 
M9 M5

(* SHAPE Nr: 56 *)
G0 X2726.854 Y 826.584
M3 M8
G0 Z   3.000 
G1 Z  -1.500
F400
G2 X2733.926 Y 833.656 I   3.536 J   3.536
G2 X2726.854 Y 826.584 I  -3.536 J  -3.536
F150
G1 Z  -3.000
F400
G2 X2733.926 Y 833.656 I   3.536 J   3.536
G2 X2726.854 Y 826.584 I  -3.536 J  -3.536
F150
G1 Z   3.000
G0 Z  15.000 
M9 M5

(* SHAPE Nr: 57 *)
G0 X2726.854 Y 926.584
M3 M8
G0 Z   3.000 
G1 Z  -1.500
F400
G2 X2733.926 Y 933.656 I   3.536 J   3.536
G2 X2726.854 Y 926.584 I  -3.536 J  -3.536
F150
G1 Z  -3.000
F400
G2 X2733.926 Y 933.656 I   3.536 J   3.536
G2 X2726.854 Y 926.584 I  -3.536 J  -3.536
F150
G1 Z   3.000
G0 Z  15.000 
M9 M5

(* SHAPE Nr: 58 *)
G0 X2726.854 Y1126.584
M3 M8
G0 Z   3.000 
G1 Z  -1.500
F400
G2 X2733.926 Y1133.656 I   3.536 J   3.536
G2 X2726.854 Y1126.584 I  -3.536 J  -3.536
F150
G1 Z  -3.000
F400
G2 X2733.926 Y1133.656 I   3.536 J   3.536
G2 X2726.854 Y1126.584 I  -3.536 J  -3.536
F150
G1 Z   3.000
G0 Z  15.000 
M9 M5

(* SHAPE Nr: 59 *)
G0 X2726.854 Y1226.584
M3 M8
G0 Z   3.000 
G1 Z  -1.500
F400
G2 X2733.926 Y1233.656 I   3.536 J   3.536
G2 X2726.854 Y1226.584 I  -3.536 J  -3.536
F150
G1 Z  -3.000
F400
G2 X2733.926 Y1233.656 I   3.536 J   3.536
G2 X2726.854 Y1226.584 I  -3.536 J  -3.536
F150
G1 Z   3.000
G0 Z  15.000 
M9 M5

(* SHAPE Nr: 60 *)
G0 X2726.854 Y1426.584
M3 M8
G0 Z   3.000 
G1 Z  -1.500
F400
G2 X2733.926 Y1433.656 I   3.536 J   3.536
G2 X2726.854 Y1426.584 I  -3.536 J  -3.536
F150
G1 Z  -3.000
F400
G2 X2733.926 Y1433.656 I   3.536 J   3.536
G2 X2726.854 Y1426.584 I  -3.536 J  -3.536
F150
G1 Z   3.000
G0 Z  15.000 
M9 M5

(* SHAPE Nr: 61 *)
G0 X2836.854 Y1483.464
M3 M8
G0 Z   3.000 
G1 Z  -1.500
F400
G2 X2843.926 Y1490.536 I   3.536 J   3.536
G2 X2836.854 Y1483.464 I  -3.536 J  -3.536
F150
G1 Z  -3.000
F400
G2 X2843.926 Y1490.536 I   3.536 J   3.536
G2 X2836.854 Y1483.464 I  -3.536 J  -3.536
F150
G1 Z   3.000
G0 Z  15.000 
M9 M5

(* SHAPE Nr: 62 *)
G0 X2886.854 Y1483.464
M3 M8
G0 Z   3.000 
G1 Z  -1.500
F400
G2 X2893.926 Y1490.536 I   3.536 J   3.536
G2 X2886.854 Y1483.464 I  -3.536 J  -3.536
F150
G1 Z  -3.000
F400
G2 X2893.926 Y1490.536 I   3.536 J   3.536
G2 X2886.854 Y1483.464 I  -3.536 J  -3.536
F150
G1 Z   3.000
G0 Z  15.000 
M9 M5

(* SHAPE Nr: 63 *)
G0 X2836.854 Y1228.464
M3 M8
G0 Z   3.000 
G1 Z  -1.500
F400
G2 X2843.926 Y1235.536 I   3.536 J   3.536
G2 X2836.854 Y1228.464 I  -3.536 J  -3.536
F150
G1 Z  -3.000
F400
G2 X2843.926 Y1235.536 I   3.536 J   3.536
G2 X2836.854 Y1228.464 I  -3.536 J  -3.536
F150
G1 Z   3.000
G0 Z  15.000 
M9 M5

(* SHAPE Nr: 64 *)
G0 X2886.854 Y1228.464
M3 M8
G0 Z   3.000 
G1 Z  -1.500
F400
G2 X2893.926 Y1235.536 I   3.536 J   3.536
G2 X2886.854 Y1228.464 I  -3.536 J  -3.536
F150
G1 Z  -3.000
F400
G2 X2893.926 Y1235.536 I   3.536 J   3.536
G2 X2886.854 Y1228.464 I  -3.536 J  -3.536
F150
G1 Z   3.000
G0 Z  15.000 
M9 M5

(* SHAPE Nr: 67 *)
G0 X2011.534 Y1456.464
M3 M8
G0 Z   3.000 
G1 Z  -1.500
F400
G2 X2018.606 Y1463.536 I   3.536 J   3.536
G2 X2011.534 Y1456.464 I  -3.536 J  -3.536
F150
G1 Z  -3.000
F400
G2 X2018.606 Y1463.536 I   3.536 J   3.536
G2 X2011.534 Y1456.464 I  -3.536 J  -3.536
F150
G1 Z   3.000
G0 Z  15.000 
M9 M5

(* SHAPE Nr: 68 *)
G0 X2011.534 Y1256.464
M3 M8
G0 Z   3.000 
G1 Z  -1.500
F400
G2 X2018.606 Y1263.536 I   3.536 J   3.536
G2 X2011.534 Y1256.464 I  -3.536 J  -3.536
F150
G1 Z  -3.000
F400
G2 X2018.606 Y1263.536 I   3.536 J   3.536
G2 X2011.534 Y1256.464 I  -3.536 J  -3.536
F150
G1 Z   3.000
G0 Z  15.000 
M9 M5

(* SHAPE Nr: 69 *)
G0 X2011.534 Y1156.464
M3 M8
G0 Z   3.000 
G1 Z  -1.500
F400
G2 X2018.606 Y1163.536 I   3.536 J   3.536
G2 X2011.534 Y1156.464 I  -3.536 J  -3.536
F150
G1 Z  -3.000
F400
G2 X2018.606 Y1163.536 I   3.536 J   3.536
G2 X2011.534 Y1156.464 I  -3.536 J  -3.536
F150
G1 Z   3.000
G0 Z  15.000 
M9 M5

(* SHAPE Nr: 70 *)
G0 X2011.534 Y 956.464
M3 M8
G0 Z   3.000 
G1 Z  -1.500
F400
G2 X2018.606 Y 963.536 I   3.536 J   3.536
G2 X2011.534 Y 956.464 I  -3.536 J  -3.536
F150
G1 Z  -3.000
F400
G2 X2018.606 Y 963.536 I   3.536 J   3.536
G2 X2011.534 Y 956.464 I  -3.536 J  -3.536
F150
G1 Z   3.000
G0 Z  15.000 
M9 M5

(* SHAPE Nr: 71 *)
G0 X2011.534 Y 856.464
M3 M8
G0 Z   3.000 
G1 Z  -1.500
F400
G2 X2018.606 Y 863.536 I   3.536 J   3.536
G2 X2011.534 Y 856.464 I  -3.536 J  -3.536
F150
G1 Z  -3.000
F400
G2 X2018.606 Y 863.536 I   3.536 J   3.536
G2 X2011.534 Y 856.464 I  -3.536 J  -3.536
F150
G1 Z   3.000
G0 Z  15.000 
M9 M5

(* SHAPE Nr: 72 *)
G0 X2011.534 Y 656.464
M3 M8
G0 Z   3.000 
G1 Z  -1.500
F400
G2 X2018.606 Y 663.536 I   3.536 J   3.536
G2 X2011.534 Y 656.464 I  -3.536 J  -3.536
F150
G1 Z  -3.000
F400
G2 X2018.606 Y 663.536 I   3.536 J   3.536
G2 X2011.534 Y 656.464 I  -3.536 J  -3.536
F150
G1 Z   3.000
G0 Z  15.000 
M9 M5

(*** LAYER: VBORE_Z6_D5 ***)

(* SHAPE Nr: 4 *)
G0 X 697.732 Y1138.062
M3 M8
G0 Z   3.000 
G1 Z  -1.500
F400
G2 X 701.268 Y1141.598 I   1.768 J   1.768
G2 X 697.732 Y1138.062 I  -1.768 J  -1.768
F150
G1 Z  -3.000
F400
G2 X 701.268 Y1141.598 I   1.768 J   1.768
G2 X 697.732 Y1138.062 I  -1.768 J  -1.768
F150
G1 Z   3.000
G0 Z  15.000 
M9 M5

(* SHAPE Nr: 5 *)
G0 X 697.732 Y 956.922
M3 M8
G0 Z   3.000 
G1 Z  -1.500
F400
G2 X 701.268 Y 960.458 I   1.768 J   1.768
G2 X 697.732 Y 956.922 I  -1.768 J  -1.768
F150
G1 Z  -3.000
F400
G2 X 701.268 Y 960.458 I   1.768 J   1.768
G2 X 697.732 Y 956.922 I  -1.768 J  -1.768
F150
G1 Z   3.000
G0 Z  15.000 
M9 M5

(* SHAPE Nr: 18 *)
G0 X 697.732 Y1447.072
M3 M8
G0 Z   3.000 
G1 Z  -1.500
F400
G2 X 701.268 Y1450.608 I   1.768 J   1.768
G2 X 697.732 Y1447.072 I  -1.768 J  -1.768
F150
G1 Z  -3.000
F400
G2 X 701.268 Y1450.608 I   1.768 J   1.768
G2 X 697.732 Y1447.072 I  -1.768 J  -1.768
F150
G1 Z   3.000
G0 Z  15.000 
M9 M5

(* SHAPE Nr: 19 *)
G0 X 697.732 Y1265.932
M3 M8
G0 Z   3.000 
G1 Z  -1.500
F400
G2 X 701.268 Y1269.468 I   1.768 J   1.768
G2 X 697.732 Y1265.932 I  -1.768 J  -1.768
F150
G1 Z  -3.000
F400
G2 X 701.268 Y1269.468 I   1.768 J   1.768
G2 X 697.732 Y1265.932 I  -1.768 J  -1.768
F150
G1 Z   3.000
G0 Z  15.000 
M9 M5

(* SHAPE Nr: 34 *)
G0 X1388.692 Y  83.232
M3 M8
G0 Z   3.000 
G1 Z  -1.500
F400
G2 X1392.228 Y  86.768 I   1.768 J   1.768
G2 X1388.692 Y  83.232 I  -1.768 J  -1.768
F150
G1 Z  -3.000
F400
G2 X1392.228 Y  86.768 I   1.768 J   1.768
G2 X1388.692 Y  83.232 I  -1.768 J  -1.768
F150
G1 Z   3.000
G0 Z  15.000 
M9 M5

(* SHAPE Nr: 35 *)
G0 X1388.692 Y  61.232
M3 M8
G0 Z   3.000 
G1 Z  -1.500
F400
G2 X1392.228 Y  64.768 I   1.768 J   1.768
G2 X1388.692 Y  61.232 I  -1.768 J  -1.768
F150
G1 Z  -3.000
F400
G2 X1392.228 Y  64.768 I   1.768 J   1.768
G2 X1388.692 Y  61.232 I  -1.768 J  -1.768
F150
G1 Z   3.000
G0 Z  15.000 
M9 M5

(* SHAPE Nr: 36 *)
G0 X1388.692 Y  38.232
M3 M8
G0 Z   3.000 
G1 Z  -1.500
F400
G2 X1392.228 Y  41.768 I   1.768 J   1.768
G2 X1388.692 Y  38.232 I  -1.768 J  -1.768
F150
G1 Z  -3.000
F400
G2 X1392.228 Y  41.768 I   1.768 J   1.768
G2 X1388.692 Y  38.232 I  -1.768 J  -1.768
F150
G1 Z   3.000
G0 Z  15.000 
M9 M5

(* SHAPE Nr: 37 *)
G0 X1388.692 Y  19.232
M3 M8
G0 Z   3.000 
G1 Z  -1.500
F400
G2 X1392.228 Y  22.768 I   1.768 J   1.768
G2 X1388.692 Y  19.232 I  -1.768 J  -1.768
F150
G1 Z  -3.000
F400
G2 X1392.228 Y  22.768 I   1.768 J   1.768
G2 X1388.692 Y  19.232 I  -1.768 J  -1.768
F150
G1 Z   3.000
G0 Z  15.000 
M9 M5

(* SHAPE Nr: 53 *)
G0 X2883.192 Y 307.132
M3 M8
G0 Z   3.000 
G1 Z  -1.500
F400
G2 X2886.728 Y 310.668 I   1.768 J   1.768
G2 X2883.192 Y 307.132 I  -1.768 J  -1.768
F150
G1 Z  -3.000
F400
G2 X2886.728 Y 310.668 I   1.768 J   1.768
G2 X2883.192 Y 307.132 I  -1.768 J  -1.768
F150
G1 Z   3.000
G0 Z  15.000 
M9 M5

(* SHAPE Nr: 54 *)
G0 X2883.192 Y 125.992
M3 M8
G0 Z   3.000 
G1 Z  -1.500
F400
G2 X2886.728 Y 129.528 I   1.768 J   1.768
G2 X2883.192 Y 125.992 I  -1.768 J  -1.768
F150
G1 Z  -3.000
F400
G2 X2886.728 Y 129.528 I   1.768 J   1.768
G2 X2883.192 Y 125.992 I  -1.768 J  -1.768
F150
G1 Z   3.000
G0 Z  15.000 
M9 M5

(* SHAPE Nr: 65 *)
G0 X2863.122 Y1447.072
M3 M8
G0 Z   3.000 
G1 Z  -1.500
F400
G2 X2866.658 Y1450.608 I   1.768 J   1.768
G2 X2863.122 Y1447.072 I  -1.768 J  -1.768
F150
G1 Z  -3.000
F400
G2 X2866.658 Y1450.608 I   1.768 J   1.768
G2 X2863.122 Y1447.072 I  -1.768 J  -1.768
F150
G1 Z   3.000
G0 Z  15.000 
M9 M5

(* SHAPE Nr: 66 *)
G0 X2863.122 Y1265.932
M3 M8
G0 Z   3.000 
G1 Z  -1.500
F400
G2 X2866.658 Y1269.468 I   1.768 J   1.768
G2 X2863.122 Y1265.932 I  -1.768 J  -1.768
F150
G1 Z  -3.000
F400
G2 X2866.658 Y1269.468 I   1.768 J   1.768
G2 X2863.122 Y1265.932 I  -1.768 J  -1.768
F150
G1 Z   3.000
G0 Z  15.000 
M9 M5

(*** LAYER: ROUT_Z8_D8_T135_A2_W2 ***)

(* SHAPE Nr: 117 *)
G0 X 676.300 Y1139.830
M3 M8
G0 Z   3.000 
G1 Z  -1.500
F400
G1 X 676.300 Y 958.690
F150
G1 Z  -3.000
F400
G1 X 676.300 Y1139.830
F150
G1 Z   3.000
G0 Z  15.000 
M9 M5

(* SHAPE Nr: 118 *)
G0 X 722.700 Y1139.830
M3 M8
G0 Z   3.000 
G1 Z  -1.500
F400
G1 X 722.700 Y 958.690
F150
G1 Z  -3.000
F400
G1 X 722.700 Y1139.830
F150
G1 Z   3.000
G0 Z  15.000 
M9 M5

(* SHAPE Nr: 119 *)
G0 X 676.300 Y1448.840
M3 M8
G0 Z   3.000 
G1 Z  -1.500
F400
G1 X 676.300 Y1267.700
F150
G1 Z  -3.000
F400
G1 X 676.300 Y1448.840
F150
G1 Z   3.000
G0 Z  15.000 
M9 M5

(* SHAPE Nr: 120 *)
G0 X 722.700 Y1448.840
M3 M8
G0 Z   3.000 
G1 Z  -1.500
F400
G1 X 722.700 Y1267.700
F150
G1 Z  -3.000
F400
G1 X 722.700 Y1448.840
F150
G1 Z   3.000
G0 Z  15.000 
M9 M5

(* SHAPE Nr: 121 *)
G0 X1800.070 Y1003.870
M3 M8
G0 Z   3.000 
G1 Z  -1.500
F400
G1 X1800.070 Y 803.870
F150
G1 Z  -3.000
F400
G1 X1800.070 Y1003.870
F150
G1 Z   3.000
G0 Z  15.000 
M9 M5

(* SHAPE Nr: 122 *)
G0 X1590.400 Y 703.870
M3 M8
G0 Z   3.000 
G1 Z  -1.500
F400
G1 X1590.400 Y 503.870
F150
G1 Z  -3.000
F400
G1 X1590.400 Y 703.870
F150
G1 Z   3.000
G0 Z  15.000 
M9 M5

(* SHAPE Nr: 123 *)
G0 X1391.890 Y 403.870
M3 M8
G0 Z   3.000 
G1 Z  -1.500
F400
G1 X1391.890 Y 203.870
F150
G1 Z  -3.000
F400
G1 X1391.890 Y 403.870
F150
G1 Z   3.000
G0 Z  15.000 
M9 M5

(* SHAPE Nr: 125 *)
G0 X2861.760 Y 308.900
M3 M8
G0 Z   3.000 
G1 Z  -1.500
F400
G1 X2861.760 Y 127.760
F150
G1 Z  -3.000
F400
G1 X2861.760 Y 308.900
F150
G1 Z   3.000
G0 Z  15.000 
M9 M5

(* SHAPE Nr: 126 *)
G0 X2908.160 Y 308.900
M3 M8
G0 Z   3.000 
G1 Z  -1.500
F400
G1 X2908.160 Y 127.760
F150
G1 Z  -3.000
F400
G1 X2908.160 Y 308.900
F150
G1 Z   3.000
G0 Z  15.000 
M9 M5

(* SHAPE Nr: 127 *)
G0 X2630.390 Y1430.120
M3 M8
G0 Z   3.000 
G1 Z  -1.500
F400
G1 X2630.390 Y1230.120
F150
G1 Z  -3.000
F400
G1 X2630.390 Y1430.120
F150
G1 Z   3.000
G0 Z  15.000 
M9 M5

(* SHAPE Nr: 128 *)
G0 X2420.720 Y1130.120
M3 M8
G0 Z   3.000 
G1 Z  -1.500
F400
G1 X2420.720 Y 930.120
F150
G1 Z  -3.000
F400
G1 X2420.720 Y1130.120
F150
G1 Z   3.000
G0 Z  15.000 
M9 M5

(* SHAPE Nr: 129 *)
G0 X2222.210 Y 830.120
M3 M8
G0 Z   3.000 
G1 Z  -1.500
F400
G1 X2222.210 Y 630.120
F150
G1 Z  -3.000
F400
G1 X2222.210 Y 830.120
F150
G1 Z   3.000
G0 Z  15.000 
M9 M5

(* SHAPE Nr: 130 *)
G0 X2841.690 Y1448.840
M3 M8
G0 Z   3.000 
G1 Z  -1.500
F400
G1 X2841.690 Y1267.700
F150
G1 Z  -3.000
F400
G1 X2841.690 Y1448.840
F150
G1 Z   3.000
G0 Z  15.000 
M9 M5

(* SHAPE Nr: 131 *)
G0 X2888.090 Y1448.840
M3 M8
G0 Z   3.000 
G1 Z  -1.500
F400
G1 X2888.090 Y1267.700
F150
G1 Z  -3.000
F400
G1 X2888.090 Y1448.840
F150
G1 Z   3.000
G0 Z  15.000 
M9 M5

(* SHAPE Nr: 132 *)
G0 X2115.070 Y 860.000
M3 M8
G0 Z   3.000 
G1 Z  -1.500
F400
G1 X2115.070 Y 660.000
F150
G1 Z  -3.000
F400
G1 X2115.070 Y 860.000
F150
G1 Z   3.000
G0 Z  15.000 
M9 M5

(* SHAPE Nr: 133 *)
G0 X2324.740 Y1160.000
M3 M8
G0 Z   3.000 
G1 Z  -1.500
F400
G1 X2324.740 Y 960.000
F150
G1 Z  -3.000
F400
G1 X2324.740 Y1160.000
F150
G1 Z   3.000
G0 Z  15.000 
M9 M5

(* SHAPE Nr: 134 *)
G0 X2523.250 Y1460.000
M3 M8
G0 Z   3.000 
G1 Z  -1.500
F400
G1 X2523.250 Y1260.000
F150
G1 Z  -3.000
F400
G1 X2523.250 Y1460.000
F150
G1 Z   3.000
G0 Z  15.000 
M9 M5

(*** LAYER: POCKET_D0_T133_AZ1 ***)

(* SHAPE Nr: 6 *)
G0 X 456.530 Y 817.930
M3 M8
G0 Z   3.000 
G1 Z  -1.500
F400
G2 X 592.000 Y 953.400 I 158.469 J -22.999
G1 X 592.000 Y 906.960
G1 X 592.000 Y 860.520
G3 X 549.410 Y 817.930 I  21.476 J -64.066
G1 X 456.530 Y 817.930
F150
G1 Z  -3.000
F400
G2 X 592.000 Y 953.400 I 158.469 J -22.999
G1 X 592.000 Y 906.960
G1 X 592.000 Y 860.520
G3 X 549.410 Y 817.930 I  21.476 J -64.066
G1 X 456.530 Y 817.930
F150
G1 Z   3.000
G0 Z  15.000 
M9 M5

(* SHAPE Nr: 10 *)
G0 X  38.000 Y1351.530
M3 M8
G0 Z   3.000 
G1 Z  -1.500
F400
G1 X  38.000 Y1397.970
G1 X  38.000 Y1444.410
G3 X  80.590 Y1487.000 I -21.476 J  64.066
G1 X 173.470 Y1487.000
G2 X  38.000 Y1351.530 I-158.470 J  23.000
F150
G1 Z  -3.000
F400
G1 X  38.000 Y1397.970
G1 X  38.000 Y1444.410
G3 X  80.590 Y1487.000 I -21.476 J  64.066
G1 X 173.470 Y1487.000
G2 X  38.000 Y1351.530 I-158.470 J  23.000
F150
G1 Z   3.000
G0 Z  15.000 
M9 M5

(*** LAYER: VBORE_Z10_D8 ***)

(* SHAPE Nr: 7 *)
G0 X 574.672 Y1176.062
M3 M8
G0 Z   3.000 
G1 Z  -1.500
F400
G2 X 580.328 Y1181.718 I   2.828 J   2.828
G2 X 574.672 Y1176.062 I  -2.828 J  -2.828
F150
G1 Z  -3.000
F400
G2 X 580.328 Y1181.718 I   2.828 J   2.828
G2 X 574.672 Y1176.062 I  -2.828 J  -2.828
F150
G1 Z   3.000
G0 Z  15.000 
M9 M5

(* SHAPE Nr: 8 *)
G0 X 537.172 Y1176.102
M3 M8
G0 Z   3.000 
G1 Z  -1.500
F400
G2 X 542.828 Y1181.758 I   2.828 J   2.828
G2 X 537.172 Y1176.102 I  -2.828 J  -2.828
F150
G1 Z  -3.000
F400
G2 X 542.828 Y1181.758 I   2.828 J   2.828
G2 X 537.172 Y1176.102 I  -2.828 J  -2.828
F150
G1 Z   3.000
G0 Z  15.000 
M9 M5

(* SHAPE Nr: 9 *)
G0 X 499.672 Y1176.102
M3 M8
G0 Z   3.000 
G1 Z  -1.500
F400
G2 X 505.328 Y1181.758 I   2.828 J   2.828
G2 X 499.672 Y1176.102 I  -2.828 J  -2.828
F150
G1 Z  -3.000
F400
G2 X 505.328 Y1181.758 I   2.828 J   2.828
G2 X 499.672 Y1176.102 I  -2.828 J  -2.828
F150
G1 Z   3.000
G0 Z  15.000 
M9 M5

(* SHAPE Nr: 11 *)
G0 X  49.672 Y1123.212
M3 M8
G0 Z   3.000 
G1 Z  -1.500
F400
G2 X  55.328 Y1128.868 I   2.828 J   2.828
G2 X  49.672 Y1123.212 I  -2.828 J  -2.828
F150
G1 Z  -3.000
F400
G2 X  55.328 Y1128.868 I   2.828 J   2.828
G2 X  49.672 Y1123.212 I  -2.828 J  -2.828
F150
G1 Z   3.000
G0 Z  15.000 
M9 M5

(* SHAPE Nr: 12 *)
G0 X  87.172 Y1123.172
M3 M8
G0 Z   3.000 
G1 Z  -1.500
F400
G2 X  92.828 Y1128.828 I   2.828 J   2.828
G2 X  87.172 Y1123.172 I  -2.828 J  -2.828
F150
G1 Z  -3.000
F400
G2 X  92.828 Y1128.828 I   2.828 J   2.828
G2 X  87.172 Y1123.172 I  -2.828 J  -2.828
F150
G1 Z   3.000
G0 Z  15.000 
M9 M5

(* SHAPE Nr: 13 *)
G0 X 124.672 Y1123.172
M3 M8
G0 Z   3.000 
G1 Z  -1.500
F400
G2 X 130.328 Y1128.828 I   2.828 J   2.828
G2 X 124.672 Y1123.172 I  -2.828 J  -2.828
F150
G1 Z  -3.000
F400
G2 X 130.328 Y1128.828 I   2.828 J   2.828
G2 X 124.672 Y1123.172 I  -2.828 J  -2.828
F150
G1 Z   3.000
G0 Z  15.000 
M9 M5

(* SHAPE Nr: 20 *)
G0 X 942.172 Y1085.292
M3 M8
G0 Z   3.000 
G1 Z  -1.500
F400
G2 X 947.828 Y1090.948 I   2.828 J   2.828
G2 X 942.172 Y1085.292 I  -2.828 J  -2.828
F150
G1 Z  -3.000
F400
G2 X 947.828 Y1090.948 I   2.828 J   2.828
G2 X 942.172 Y1085.292 I  -2.828 J  -2.828
F150
G1 Z   3.000
G0 Z  15.000 
M9 M5

(* SHAPE Nr: 21 *)
G0 X 942.172 Y1037.152
M3 M8
G0 Z   3.000 
G1 Z  -1.500
F400
G2 X 947.828 Y1042.808 I   2.828 J   2.828
G2 X 942.172 Y1037.152 I  -2.828 J  -2.828
F150
G1 Z  -3.000
F400
G2 X 947.828 Y1042.808 I   2.828 J   2.828
G2 X 942.172 Y1037.152 I  -2.828 J  -2.828
F150
G1 Z   3.000
G0 Z  15.000 
M9 M5

(* SHAPE Nr: 22 *)
G0 X 942.172 Y 519.872
M3 M8
G0 Z   3.000 
G1 Z  -1.500
F400
G2 X 947.828 Y 525.528 I   2.828 J   2.828
G2 X 942.172 Y 519.872 I  -2.828 J  -2.828
F150
G1 Z  -3.000
F400
G2 X 947.828 Y 525.528 I   2.828 J   2.828
G2 X 942.172 Y 519.872 I  -2.828 J  -2.828
F150
G1 Z   3.000
G0 Z  15.000 
M9 M5

(* SHAPE Nr: 23 *)
G0 X 942.172 Y 568.022
M3 M8
G0 Z   3.000 
G1 Z  -1.500
F400
G2 X 947.828 Y 573.678 I   2.828 J   2.828
G2 X 942.172 Y 568.022 I  -2.828 J  -2.828
F150
G1 Z  -3.000
F400
G2 X 947.828 Y 573.678 I   2.828 J   2.828
G2 X 942.172 Y 568.022 I  -2.828 J  -2.828
F150
G1 Z   3.000
G0 Z  15.000 
M9 M5

(* SHAPE Nr: 25 *)
G0 X 434.052 Y 156.552
M3 M8
G0 Z   3.000 
G1 Z  -1.500
F400
G2 X 439.708 Y 162.208 I   2.828 J   2.828
G2 X 434.052 Y 156.552 I  -2.828 J  -2.828
F150
G1 Z  -3.000
F400
G2 X 439.708 Y 162.208 I   2.828 J   2.828
G2 X 434.052 Y 156.552 I  -2.828 J  -2.828
F150
G1 Z   3.000
G0 Z  15.000 
M9 M5

(* SHAPE Nr: 26 *)
G0 X 482.192 Y 156.552
M3 M8
G0 Z   3.000 
G1 Z  -1.500
F400
G2 X 487.848 Y 162.208 I   2.828 J   2.828
G2 X 482.192 Y 156.552 I  -2.828 J  -2.828
F150
G1 Z  -3.000
F400
G2 X 487.848 Y 162.208 I   2.828 J   2.828
G2 X 482.192 Y 156.552 I  -2.828 J  -2.828
F150
G1 Z   3.000
G0 Z  15.000 
M9 M5

(* SHAPE Nr: 27 *)
G0 X 999.472 Y 156.552
M3 M8
G0 Z   3.000 
G1 Z  -1.500
F400
G2 X1005.128 Y 162.208 I   2.828 J   2.828
G2 X 999.472 Y 156.552 I  -2.828 J  -2.828
F150
G1 Z  -3.000
F400
G2 X1005.128 Y 162.208 I   2.828 J   2.828
G2 X 999.472 Y 156.552 I  -2.828 J  -2.828
F150
G1 Z   3.000
G0 Z  15.000 
M9 M5

(* SHAPE Nr: 28 *)
G0 X 951.322 Y 156.552
M3 M8
G0 Z   3.000 
G1 Z  -1.500
F400
G2 X 956.978 Y 162.208 I   2.828 J   2.828
G2 X 951.322 Y 156.552 I  -2.828 J  -2.828
F150
G1 Z  -3.000
F400
G2 X 956.978 Y 162.208 I   2.828 J   2.828
G2 X 951.322 Y 156.552 I  -2.828 J  -2.828
F150
G1 Z   3.000
G0 Z  15.000 
M9 M5

(* SHAPE Nr: 73 *)
G0 X1542.152 Y 929.052
M3 M8
G0 Z   3.000 
G1 Z  -1.500
F400
G2 X1547.808 Y 934.708 I   2.828 J   2.828
G2 X1542.152 Y 929.052 I  -2.828 J  -2.828
F150
G1 Z  -3.000
F400
G2 X1547.808 Y 934.708 I   2.828 J   2.828
G2 X1542.152 Y 929.052 I  -2.828 J  -2.828
F150
G1 Z   3.000
G0 Z  15.000 
M9 M5

(* SHAPE Nr: 74 *)
G0 X1542.152 Y 977.192
M3 M8
G0 Z   3.000 
G1 Z  -1.500
F400
G2 X1547.808 Y 982.848 I   2.828 J   2.828
G2 X1542.152 Y 977.192 I  -2.828 J  -2.828
F150
G1 Z  -3.000
F400
G2 X1547.808 Y 982.848 I   2.828 J   2.828
G2 X1542.152 Y 977.192 I  -2.828 J  -2.828
F150
G1 Z   3.000
G0 Z  15.000 
M9 M5

(* SHAPE Nr: 75 *)
G0 X1542.152 Y1494.472
M3 M8
G0 Z   3.000 
G1 Z  -1.500
F400
G2 X1547.808 Y1500.128 I   2.828 J   2.828
G2 X1542.152 Y1494.472 I  -2.828 J  -2.828
F150
G1 Z  -3.000
F400
G2 X1547.808 Y1500.128 I   2.828 J   2.828
G2 X1542.152 Y1494.472 I  -2.828 J  -2.828
F150
G1 Z   3.000
G0 Z  15.000 
M9 M5

(* SHAPE Nr: 76 *)
G0 X1542.152 Y1446.322
M3 M8
G0 Z   3.000 
G1 Z  -1.500
F400
G2 X1547.808 Y1451.978 I   2.828 J   2.828
G2 X1542.152 Y1446.322 I  -2.828 J  -2.828
F150
G1 Z  -3.000
F400
G2 X1547.808 Y1451.978 I   2.828 J   2.828
G2 X1542.152 Y1446.322 I  -2.828 J  -2.828
F150
G1 Z   3.000
G0 Z  15.000 
M9 M5

(*** LAYER: CONTOUR_D0_T135_A2_W2 ***)

(* SHAPE Nr: 24 *)
G0 X 972.430 Y 542.650
M3 M8
G0 Z   3.000 
G1 Z  -1.500
F400
G1 X 972.430 Y 814.860
G1 X 972.430 Y1131.280
G1 X 972.430 Y1311.280
G1 X 972.430 Y1491.280
G1 X1152.430 Y1491.280
G1 X1354.930 Y1491.280
G2 X1152.430 Y 951.280 I-744.099 J -28.932
G3 X1024.980 Y 542.650 I 420.246 J-355.264
G1 X 972.430 Y 542.650
F150
G1 Z  -3.000
F400
G1 X 972.430 Y 814.860
G1 X 972.430 Y1131.280
G1 X 972.430 Y1311.280
G1 X 972.430 Y1491.280
G1 X1152.430 Y1491.280
G1 X1354.930 Y1491.280
G2 X1152.430 Y 951.280 I-744.099 J -28.932
G3 X1024.980 Y 542.650 I 420.246 J-355.264
G1 X 972.430 Y 542.650
F150
G1 Z   3.000
G0 Z  15.000 
M9 M5

(* SHAPE Nr: 29 *)
G0 X  33.720 Y 186.810
M3 M8
G0 Z   3.000 
G1 Z  -1.500
F400
G1 X  33.720 Y 366.810
G1 X  33.720 Y 569.310
G2 X 573.720 Y 366.810 I  28.932 J-744.099
G3 X 982.350 Y 239.360 I 355.264 J 420.246
G1 X 982.350 Y 186.810
G1 X 710.140 Y 186.810
G1 X 393.720 Y 186.810
G1 X 213.720 Y 186.810
G1 X  33.720 Y 186.810
F150
G1 Z  -3.000
F400
G1 X  33.720 Y 366.810
G1 X  33.720 Y 569.310
G2 X 573.720 Y 366.810 I  28.932 J-744.099
G3 X 982.350 Y 239.360 I 355.264 J 420.246
G1 X 982.350 Y 186.810
G1 X 710.140 Y 186.810
G1 X 393.720 Y 186.810
G1 X 213.720 Y 186.810
G1 X  33.720 Y 186.810
F150
G1 Z   3.000
G0 Z  15.000 
M9 M5

(* SHAPE Nr: 77 *)
G0 X1135.050 Y 528.720
M3 M8
G0 Z   3.000 
G1 Z  -1.500
F400
G2 X1337.550 Y1068.720 I 744.099 J  28.932
G3 X1465.000 Y1477.350 I-420.246 J 355.264
G1 X1517.550 Y1477.350
G1 X1517.550 Y1205.140
G1 X1517.550 Y 888.720
G1 X1517.550 Y 708.720
G1 X1517.550 Y 528.720
G1 X1337.550 Y 528.720
G1 X1135.050 Y 528.720
F150
G1 Z  -3.000
F400
G2 X1337.550 Y1068.720 I 744.099 J  28.932
G3 X1465.000 Y1477.350 I-420.246 J 355.264
G1 X1517.550 Y1477.350
G1 X1517.550 Y1205.140
G1 X1517.550 Y 888.720
G1 X1517.550 Y 708.720
G1 X1517.550 Y 528.720
G1 X1337.550 Y 528.720
G1 X1135.050 Y 528.720
F150
G1 Z   3.000
G0 Z  15.000 
M9 M5

(*** LAYER: VBORE_Z6_D8 ***)

(* SHAPE Nr: 30 *)
G0 X2167.472 Y 296.282
M3 M8
G0 Z   3.000 
G1 Z  -1.500
F400
G2 X2173.128 Y 301.938 I   2.828 J   2.828
G2 X2167.472 Y 296.282 I  -2.828 J  -2.828
F150
G1 Z  -3.000
F400
G2 X2173.128 Y 301.938 I   2.828 J   2.828
G2 X2167.472 Y 296.282 I  -2.828 J  -2.828
F150
G1 Z   3.000
G0 Z  15.000 
M9 M5

(* SHAPE Nr: 31 *)
G0 X2167.422 Y 280.692
M3 M8
G0 Z   3.000 
G1 Z  -1.500
F400
G2 X2173.078 Y 286.348 I   2.828 J   2.828
G2 X2167.422 Y 280.692 I  -2.828 J  -2.828
F150
G1 Z  -3.000
F400
G2 X2173.078 Y 286.348 I   2.828 J   2.828
G2 X2167.422 Y 280.692 I  -2.828 J  -2.828
F150
G1 Z   3.000
G0 Z  15.000 
M9 M5

(* SHAPE Nr: 32 *)
G0 X2166.122 Y  47.082
M3 M8
G0 Z   3.000 
G1 Z  -1.500
F400
G2 X2171.778 Y  52.738 I   2.828 J   2.828
G2 X2166.122 Y  47.082 I  -2.828 J  -2.828
F150
G1 Z  -3.000
F400
G2 X2171.778 Y  52.738 I   2.828 J   2.828
G2 X2166.122 Y  47.082 I  -2.828 J  -2.828
F150
G1 Z   3.000
G0 Z  15.000 
M9 M5

(* SHAPE Nr: 33 *)
G0 X2166.072 Y  31.492
M3 M8
G0 Z   3.000 
G1 Z  -1.500
F400
G2 X2171.728 Y  37.148 I   2.828 J   2.828
G2 X2166.072 Y  31.492 I  -2.828 J  -2.828
F150
G1 Z  -3.000
F400
G2 X2171.728 Y  37.148 I   2.828 J   2.828
G2 X2166.072 Y  31.492 I  -2.828 J  -2.828
F150
G1 Z   3.000
G0 Z  15.000 
M9 M5

(*** LAYER: VBORE_Z10_D10 ***)

(* SHAPE Nr: 44 *)
G0 X2246.924 Y 316.524
M3 M8
G0 Z   3.000 
G1 Z  -1.500
F400
G2 X2253.996 Y 323.596 I   3.536 J   3.536
G2 X2246.924 Y 316.524 I  -3.536 J  -3.536
F150
G1 Z  -3.000
F400
G2 X2253.996 Y 323.596 I   3.536 J   3.536
G2 X2246.924 Y 316.524 I  -3.536 J  -3.536
F150
G1 Z   3.000
G0 Z  15.000 
M9 M5

(* SHAPE Nr: 45 *)
G0 X2746.924 Y 316.524
M3 M8
G0 Z   3.000 
G1 Z  -1.500
F400
G2 X2753.996 Y 323.596 I   3.536 J   3.536
G2 X2746.924 Y 316.524 I  -3.536 J  -3.536
F150
G1 Z  -3.000
F400
G2 X2753.996 Y 323.596 I   3.536 J   3.536
G2 X2746.924 Y 316.524 I  -3.536 J  -3.536
F150
G1 Z   3.000
G0 Z  15.000 
M9 M5

(*** LAYER: VBORE_Z6_D6 ***)

(* SHAPE Nr: 46 *)
G0 X2263.339 Y 317.939
M3 M8
G0 Z   3.000 
G1 Z  -1.500
F400
G2 X2267.581 Y 322.181 I   2.121 J   2.121
G2 X2263.339 Y 317.939 I  -2.121 J  -2.121
F150
G1 Z  -3.000
F400
G2 X2267.581 Y 322.181 I   2.121 J   2.121
G2 X2263.339 Y 317.939 I  -2.121 J  -2.121
F150
G1 Z   3.000
G0 Z  15.000 
M9 M5

(* SHAPE Nr: 47 *)
G0 X2733.339 Y 317.939
M3 M8
G0 Z   3.000 
G1 Z  -1.500
F400
G2 X2737.581 Y 322.181 I   2.121 J   2.121
G2 X2733.339 Y 317.939 I  -2.121 J  -2.121
F150
G1 Z  -3.000
F400
G2 X2737.581 Y 322.181 I   2.121 J   2.121
G2 X2733.339 Y 317.939 I  -2.121 J  -2.121
F150
G1 Z   3.000
G0 Z  15.000 
M9 M5

(*** LAYER: POCKET_D0 ***)

(* SHAPE Nr: 48 *)
G0 X2300.460 Y 130.060
M3 M8
G0 Z   3.000 
G1 Z  -1.500
F400
G1 X2300.460 Y 260.060
G2 X2310.460 Y 270.060 I  10.000 J   0.000
G1 X2475.460 Y 270.060
G1 X2690.460 Y 270.060
G2 X2700.460 Y 260.060 I   0.000 J -10.000
G1 X2700.460 Y 130.060
G2 X2690.460 Y 120.060 I -10.000 J  -0.000
G1 X2500.460 Y 120.060
G1 X2310.460 Y 120.060
G2 X2300.460 Y 130.060 I  -0.000 J  10.000
F150
G1 Z  -3.000
F400
G1 X2300.460 Y 260.060
G2 X2310.460 Y 270.060 I  10.000 J   0.000
G1 X2475.460 Y 270.060
G1 X2690.460 Y 270.060
G2 X2700.460 Y 260.060 I   0.000 J -10.000
G1 X2700.460 Y 130.060
G2 X2690.460 Y 120.060 I -10.000 J  -0.000
G1 X2500.460 Y 120.060
G1 X2310.460 Y 120.060
G2 X2300.460 Y 130.060 I  -0.000 J  10.000
F150
G1 Z   3.000
G0 Z  15.000 
M9 M5

(*** LAYER: ROUT_Z6_D5 ***)

(* SHAPE Nr: 124 *)
G0 X2300.460 Y 320.060
M3 M8
G0 Z   3.000 
G1 Z  -1.500
F400
G1 X2700.460 Y 320.060
F150
G1 Z  -3.000
F400
G1 X2300.460 Y 320.060
F150
G1 Z   3.000
G0 Z  15.000 
M9 M5

(*** LAYER: BORDER_D0_T128_RK1_A0_W0_RI1_EM1_ID0008 ***)

(* SHAPE Nr: 78 *)
G0 X  15.000 Y 610.000
M3 M8
G0 Z   3.000 
G1 Z  -1.500
F400
G1 X 115.000 Y 710.000
G1 X 626.090 Y 710.000
G1 X 815.000 Y 898.910
G1 X 815.000 Y1410.000
G1 X 915.000 Y1510.000
G1 X 915.000 Y1150.350
G1 X 915.000 Y 857.490
G1 X 667.510 Y 610.000
G1 X 341.260 Y 610.000
G1 X  15.000 Y 610.000
F150
G1 Z  -3.000
F400
G1 X 115.000 Y 710.000
G1 X 626.090 Y 710.000
G1 X 815.000 Y 898.910
G1 X 815.000 Y1410.000
G1 X 915.000 Y1510.000
G1 X 915.000 Y1150.350
G1 X 915.000 Y 857.490
G1 X 667.510 Y 610.000
G1 X 341.260 Y 610.000
G1 X  15.000 Y 610.000
F150
G1 Z   3.000
G0 Z  15.000 
M9 M5

(*** LAYER: BORDER_D0_T128_RK1_A0_W0_RI1_EM1_ID0003 ***)

(* SHAPE Nr: 79 *)
G0 X 630.000 Y 906.990
M3 M8
G0 Z   3.000 
G1 Z  -1.500
F400
G1 X 630.000 Y1053.990
G1 X 630.000 Y1200.990
G1 X 769.000 Y1200.990
G1 X 769.000 Y 906.990
G1 X 699.500 Y 906.990
G1 X 630.000 Y 906.990
F150
G1 Z  -3.000
F400
G1 X 630.000 Y1053.990
G1 X 630.000 Y1200.990
G1 X 769.000 Y1200.990
G1 X 769.000 Y 906.990
G1 X 699.500 Y 906.990
G1 X 630.000 Y 906.990
F150
G1 Z   3.000
G0 Z  15.000 
M9 M5

(* SHAPE Nr: 82 *)
G0 X 630.000 Y1216.000
M3 M8
G0 Z   3.000 
G1 Z  -1.500
F400
G1 X 630.000 Y1363.000
G1 X 630.000 Y1510.000
G1 X 769.000 Y1510.000
G1 X 769.000 Y1216.000
G1 X 699.500 Y1216.000
G1 X 630.000 Y1216.000
F150
G1 Z  -3.000
F400
G1 X 630.000 Y1363.000
G1 X 630.000 Y1510.000
G1 X 769.000 Y1510.000
G1 X 769.000 Y1216.000
G1 X 699.500 Y1216.000
G1 X 630.000 Y1216.000
F150
G1 Z   3.000
G0 Z  15.000 
M9 M5

(* SHAPE Nr: 88 *)
G0 X2815.460 Y  76.060
M3 M8
G0 Z   3.000 
G1 Z  -1.500
F400
G1 X2815.460 Y 223.060
G1 X2815.460 Y 370.060
G1 X2954.460 Y 370.060
G1 X2954.460 Y  76.060
G1 X2884.960 Y  76.060
G1 X2815.460 Y  76.060
F150
G1 Z  -3.000
F400
G1 X2815.460 Y 223.060
G1 X2815.460 Y 370.060
G1 X2954.460 Y 370.060
G1 X2954.460 Y  76.060
G1 X2884.960 Y  76.060
G1 X2815.460 Y  76.060
F150
G1 Z   3.000
G0 Z  15.000 
M9 M5

(* SHAPE Nr: 93 *)
G0 X2795.390 Y1216.000
M3 M8
G0 Z   3.000 
G1 Z  -1.500
F400
G1 X2795.390 Y1363.000
G1 X2795.390 Y1510.000
G1 X2934.390 Y1510.000
G1 X2934.390 Y1216.000
G1 X2864.890 Y1216.000
G1 X2795.390 Y1216.000
F150
G1 Z  -3.000
F400
G1 X2795.390 Y1363.000
G1 X2795.390 Y1510.000
G1 X2934.390 Y1510.000
G1 X2934.390 Y1216.000
G1 X2864.890 Y1216.000
G1 X2795.390 Y1216.000
F150
G1 Z   3.000
G0 Z  15.000 
M9 M5

(*** LAYER: BORDER_D0_T128_RK1_A0_W0_RI1_EM1_ID0010 ***)

(* SHAPE Nr: 80 *)
G0 X  15.000 Y 794.930
M3 M8
G0 Z   3.000 
G1 Z  -1.500
F400
G1 X  15.000 Y 944.930
G1 X  15.000 Y1044.930
G1 X  65.000 Y1094.930
G1 X 240.000 Y1094.930
G1 X 352.500 Y1144.930
G1 X 465.000 Y1194.930
G1 X 615.000 Y1194.930
G1 X 615.000 Y 994.930
G1 X 615.000 Y 794.930
G1 X 465.000 Y 794.930
G1 X 239.990 Y 794.930
G1 X  15.000 Y 794.930
F150
G1 Z  -3.000
F400
G1 X  15.000 Y 944.930
G1 X  15.000 Y1044.930
G1 X  65.000 Y1094.930
G1 X 240.000 Y1094.930
G1 X 352.500 Y1144.930
G1 X 465.000 Y1194.930
G1 X 615.000 Y1194.930
G1 X 615.000 Y 994.930
G1 X 615.000 Y 794.930
G1 X 465.000 Y 794.930
G1 X 239.990 Y 794.930
G1 X  15.000 Y 794.930
F150
G1 Z   3.000
G0 Z  15.000 
M9 M5

(* SHAPE Nr: 81 *)
G0 X  15.000 Y1110.000
M3 M8
G0 Z   3.000 
G1 Z  -1.500
F400
G1 X  15.000 Y1310.000
G1 X  15.000 Y1510.000
G1 X 165.000 Y1510.000
G1 X 390.010 Y1510.000
G1 X 615.000 Y1510.000
G1 X 615.000 Y1360.000
G1 X 615.000 Y1260.000
G1 X 565.000 Y1210.000
G1 X 390.000 Y1210.000
G1 X 277.500 Y1160.000
G1 X 165.000 Y1110.000
G1 X  15.000 Y1110.000
F150
G1 Z  -3.000
F400
G1 X  15.000 Y1310.000
G1 X  15.000 Y1510.000
G1 X 165.000 Y1510.000
G1 X 390.010 Y1510.000
G1 X 615.000 Y1510.000
G1 X 615.000 Y1360.000
G1 X 615.000 Y1260.000
G1 X 565.000 Y1210.000
G1 X 390.000 Y1210.000
G1 X 277.500 Y1160.000
G1 X 165.000 Y1110.000
G1 X  15.000 Y1110.000
F150
G1 Z   3.000
G0 Z  15.000 
M9 M5

(*** LAYER: BORDER_D0_T128_RK1_A0_W0_RI1_EM1_ID0004 ***)

(* SHAPE Nr: 83 *)
G0 X 930.000 Y 510.000
M3 M8
G0 Z   3.000 
G1 Z  -1.500
F400
G1 X 930.000 Y 810.000
G1 X 930.000 Y1110.000
G1 X 955.000 Y1110.000
G1 X 955.000 Y1510.000
G1 X1155.000 Y1510.000
G1 X1380.000 Y1510.000
G2 X1155.000 Y 910.000 I-826.776 J -32.146
G3 X1055.000 Y 510.000 I 445.546 J-323.887
G1 X 930.000 Y 510.000
F150
G1 Z  -3.000
F400
G1 X 930.000 Y 810.000
G1 X 930.000 Y1110.000
G1 X 955.000 Y1110.000
G1 X 955.000 Y1510.000
G1 X1155.000 Y1510.000
G1 X1380.000 Y1510.000
G2 X1155.000 Y 910.000 I-826.776 J -32.146
G3 X1055.000 Y 510.000 I 445.546 J-323.887
G1 X 930.000 Y 510.000
F150
G1 Z   3.000
G0 Z  15.000 
M9 M5

(* SHAPE Nr: 84 *)
G0 X  15.000 Y 169.380
M3 M8
G0 Z   3.000 
G1 Z  -1.500
F400
G1 X  15.000 Y 369.380
G1 X  15.000 Y 594.380
G2 X 615.000 Y 369.380 I  32.146 J-826.776
G3 X1015.000 Y 269.380 I 323.887 J 445.546
G1 X1015.000 Y 144.380
G1 X 715.000 Y 144.380
G1 X 415.000 Y 144.380
G1 X 415.000 Y 169.380
G1 X  15.000 Y 169.380
F150
G1 Z  -3.000
F400
G1 X  15.000 Y 369.380
G1 X  15.000 Y 594.380
G2 X 615.000 Y 369.380 I  32.146 J-826.776
G3 X1015.000 Y 269.380 I 323.887 J 445.546
G1 X1015.000 Y 144.380
G1 X 715.000 Y 144.380
G1 X 415.000 Y 144.380
G1 X 415.000 Y 169.380
G1 X  15.000 Y 169.380
F150
G1 Z   3.000
G0 Z  15.000 
M9 M5

(* SHAPE Nr: 96 *)
G0 X1109.980 Y 510.000
M3 M8
G0 Z   3.000 
G1 Z  -1.500
F400
G2 X1334.980 Y1110.000 I 826.776 J  32.146
G3 X1434.980 Y1510.000 I-445.546 J 323.887
G1 X1559.980 Y1510.000
G1 X1559.980 Y1210.000
G1 X1559.980 Y 910.000
G1 X1534.980 Y 910.000
G1 X1534.980 Y 510.000
G1 X1334.980 Y 510.000
G1 X1109.980 Y 510.000
F150
G1 Z  -3.000
F400
G2 X1334.980 Y1110.000 I 826.776 J  32.146
G3 X1434.980 Y1510.000 I-445.546 J 323.887
G1 X1559.980 Y1510.000
G1 X1559.980 Y1210.000
G1 X1559.980 Y 910.000
G1 X1534.980 Y 910.000
G1 X1534.980 Y 510.000
G1 X1334.980 Y 510.000
G1 X1109.980 Y 510.000
F150
G1 Z   3.000
G0 Z  15.000 
M9 M5

(*** LAYER: BORDER_D0_T128_RK1_A0_W0_RI1_EM1_ID0005 ***)

(* SHAPE Nr: 85 *)
G0 X1385.460 Y  15.000
M3 M8
G0 Z   3.000 
G1 Z  -1.500
F400
G1 X1385.460 Y  90.000
G1 X1610.460 Y  90.000
G1 X1835.460 Y  90.000
G1 X1835.460 Y 115.000
G3 X2035.460 Y 315.000 I -11.469 J 211.469
G1 X2185.460 Y 315.000
G1 X2185.460 Y  15.000
G1 X1785.460 Y  15.000
G1 X1385.460 Y  15.000
F150
G1 Z  -3.000
F400
G1 X1385.460 Y  90.000
G1 X1610.460 Y  90.000
G1 X1835.460 Y  90.000
G1 X1835.460 Y 115.000
G3 X2035.460 Y 315.000 I -11.469 J 211.469
G1 X2185.460 Y 315.000
G1 X2185.460 Y  15.000
G1 X1785.460 Y  15.000
G1 X1385.460 Y  15.000
F150
G1 Z   3.000
G0 Z  15.000 
M9 M5

(*** LAYER: BORDER_D0_T128_RK1_A0_W0_RI1_EM1_ID0002 ***)

(* SHAPE Nr: 86 *)
G0 X1350.070 Y 203.870
M3 M8
G0 Z   3.000 
G1 Z  -1.500
F400
G1 X1350.070 Y 403.870
G2 X1400.070 Y 453.870 I  50.000 J   0.000
G1 X1500.070 Y 453.870
G3 X1550.070 Y 503.870 I   0.000 J  50.000
G1 X1550.070 Y 703.870
G2 X1600.070 Y 753.870 I  50.000 J   0.000
G1 X1700.070 Y 753.870
G3 X1750.070 Y 803.870 I   0.000 J  50.000
G1 X1750.070 Y1003.870
G2 X1800.070 Y1053.870 I  50.000 J   0.000
G1 X1900.070 Y1053.870
G2 X1950.070 Y1003.870 I   0.000 J -50.000
G1 X1950.070 Y 603.870
G1 X1950.070 Y 203.870
G2 X1900.070 Y 153.870 I -50.000 J  -0.000
G1 X1650.070 Y 153.870
G1 X1400.070 Y 153.870
G2 X1350.070 Y 203.870 I  -0.000 J  50.000
F150
G1 Z  -3.000
F400
G1 X1350.070 Y 403.870
G2 X1400.070 Y 453.870 I  50.000 J   0.000
G1 X1500.070 Y 453.870
G3 X1550.070 Y 503.870 I   0.000 J  50.000
G1 X1550.070 Y 703.870
G2 X1600.070 Y 753.870 I  50.000 J   0.000
G1 X1700.070 Y 753.870
G3 X1750.070 Y 803.870 I   0.000 J  50.000
G1 X1750.070 Y1003.870
G2 X1800.070 Y1053.870 I  50.000 J   0.000
G1 X1900.070 Y1053.870
G2 X1950.070 Y1003.870 I   0.000 J -50.000
G1 X1950.070 Y 603.870
G1 X1950.070 Y 203.870
G2 X1900.070 Y 153.870 I -50.000 J  -0.000
G1 X1650.070 Y 153.870
G1 X1400.070 Y 153.870
G2 X1350.070 Y 203.870 I  -0.000 J  50.000
F150
G1 Z   3.000
G0 Z  15.000 
M9 M5

(* SHAPE Nr: 92 *)
G0 X2180.390 Y 630.120
M3 M8
G0 Z   3.000 
G1 Z  -1.500
F400
G1 X2180.390 Y 830.120
G2 X2230.390 Y 880.120 I  50.000 J   0.000
G1 X2330.390 Y 880.120
G3 X2380.390 Y 930.120 I   0.000 J  50.000
G1 X2380.390 Y1130.120
G2 X2430.390 Y1180.120 I  50.000 J   0.000
G1 X2530.390 Y1180.120
G3 X2580.390 Y1230.120 I   0.000 J  50.000
G1 X2580.390 Y1430.120
G2 X2630.390 Y1480.120 I  50.000 J   0.000
G1 X2730.390 Y1480.120
G2 X2780.390 Y1430.120 I   0.000 J -50.000
G1 X2780.390 Y1030.120
G1 X2780.390 Y 630.120
G2 X2730.390 Y 580.120 I -50.000 J  -0.000
G1 X2480.390 Y 580.120
G1 X2230.390 Y 580.120
G2 X2180.390 Y 630.120 I  -0.000 J  50.000
F150
G1 Z  -3.000
F400
G1 X2180.390 Y 830.120
G2 X2230.390 Y 880.120 I  50.000 J   0.000
G1 X2330.390 Y 880.120
G3 X2380.390 Y 930.120 I   0.000 J  50.000
G1 X2380.390 Y1130.120
G2 X2430.390 Y1180.120 I  50.000 J   0.000
G1 X2530.390 Y1180.120
G3 X2580.390 Y1230.120 I   0.000 J  50.000
G1 X2580.390 Y1430.120
G2 X2630.390 Y1480.120 I  50.000 J   0.000
G1 X2730.390 Y1480.120
G2 X2780.390 Y1430.120 I   0.000 J -50.000
G1 X2780.390 Y1030.120
G1 X2780.390 Y 630.120
G2 X2730.390 Y 580.120 I -50.000 J  -0.000
G1 X2480.390 Y 580.120
G1 X2230.390 Y 580.120
G2 X2180.390 Y 630.120 I  -0.000 J  50.000
F150
G1 Z   3.000
G0 Z  15.000 
M9 M5

(* SHAPE Nr: 94 *)
G0 X1965.070 Y 660.000
M3 M8
G0 Z   3.000 
G1 Z  -1.500
F400
G1 X1965.070 Y1060.000
G1 X1965.070 Y1460.000
G2 X2015.070 Y1510.000 I  50.000 J   0.000
G1 X2265.070 Y1510.000
G1 X2515.070 Y1510.000
G2 X2565.070 Y1460.000 I   0.000 J -50.000
G1 X2565.070 Y1260.000
G2 X2515.070 Y1210.000 I -50.000 J  -0.000
G1 X2415.070 Y1210.000
G3 X2365.070 Y1160.000 I  -0.000 J -50.000
G1 X2365.070 Y 960.000
G2 X2315.070 Y 910.000 I -50.000 J  -0.000
G1 X2215.070 Y 910.000
G3 X2165.070 Y 860.000 I  -0.000 J -50.000
G1 X2165.070 Y 660.000
G2 X2115.070 Y 610.000 I -50.000 J  -0.000
G1 X2015.070 Y 610.000
G2 X1965.070 Y 660.000 I  -0.000 J  50.000
F150
G1 Z  -3.000
F400
G1 X1965.070 Y1060.000
G1 X1965.070 Y1460.000
G2 X2015.070 Y1510.000 I  50.000 J   0.000
G1 X2265.070 Y1510.000
G1 X2515.070 Y1510.000
G2 X2565.070 Y1460.000 I   0.000 J -50.000
G1 X2565.070 Y1260.000
G2 X2515.070 Y1210.000 I -50.000 J  -0.000
G1 X2415.070 Y1210.000
G3 X2365.070 Y1160.000 I  -0.000 J -50.000
G1 X2365.070 Y 960.000
G2 X2315.070 Y 910.000 I -50.000 J  -0.000
G1 X2215.070 Y 910.000
G3 X2165.070 Y 860.000 I  -0.000 J -50.000
G1 X2165.070 Y 660.000
G2 X2115.070 Y 610.000 I -50.000 J  -0.000
G1 X2015.070 Y 610.000
G2 X1965.070 Y 660.000 I  -0.000 J  50.000
F150
G1 Z   3.000
G0 Z  15.000 
M9 M5

(*** LAYER: BORDER_D0_T128_RK1_A0_W0_RI1_EM1_ID0014 ***)

(* SHAPE Nr: 87 *)
G0 X2200.460 Y  70.060
M3 M8
G0 Z   3.000 
G1 Z  -1.500
F400
G1 X2200.460 Y 370.060
G1 X2500.460 Y 370.060
G1 X2800.460 Y 370.060
G1 X2800.460 Y  70.060
G1 X2500.460 Y  70.060
G1 X2200.460 Y  70.060
F150
G1 Z  -3.000
F400
G1 X2200.460 Y 370.060
G1 X2500.460 Y 370.060
G1 X2800.460 Y 370.060
G1 X2800.460 Y  70.060
G1 X2500.460 Y  70.060
G1 X2200.460 Y  70.060
F150
G1 Z   3.000
G0 Z  15.000 
M9 M5

(*** LAYER: BORDER_D0_T128_RK1_A0_W0_RI1_EM1_ID0007 ***)

(* SHAPE Nr: 89 *)
G0 X2375.470 Y 385.060
M3 M8
G0 Z   3.000 
G1 Z  -1.500
F400
G1 X2375.470 Y 435.060
G1 X2925.470 Y 435.060
G1 X2925.470 Y 985.060
G1 X2975.470 Y 985.060
G1 X2975.470 Y 685.060
G1 X2975.470 Y 385.060
G1 X2675.470 Y 385.060
G1 X2375.470 Y 385.060
F150
G1 Z  -3.000
F400
G1 X2375.470 Y 435.060
G1 X2925.470 Y 435.060
G1 X2925.470 Y 985.060
G1 X2975.470 Y 985.060
G1 X2975.470 Y 685.060
G1 X2975.470 Y 385.060
G1 X2675.470 Y 385.060
G1 X2375.470 Y 385.060
F150
G1 Z   3.000
G0 Z  15.000 
M9 M5

(* SHAPE Nr: 90 *)
G0 X2310.410 Y 450.060
M3 M8
G0 Z   3.000 
G1 Z  -1.500
F400
G1 X2310.410 Y 500.060
G1 X2860.410 Y 500.060
G1 X2860.410 Y1050.060
G1 X2910.410 Y1050.060
G1 X2910.410 Y 750.060
G1 X2910.410 Y 450.060
G1 X2610.410 Y 450.060
G1 X2310.410 Y 450.060
F150
G1 Z  -3.000
F400
G1 X2310.410 Y 500.060
G1 X2860.410 Y 500.060
G1 X2860.410 Y1050.060
G1 X2910.410 Y1050.060
G1 X2910.410 Y 750.060
G1 X2910.410 Y 450.060
G1 X2610.410 Y 450.060
G1 X2310.410 Y 450.060
F150
G1 Z   3.000
G0 Z  15.000 
M9 M5

(* SHAPE Nr: 91 *)
G0 X2245.410 Y 515.110
M3 M8
G0 Z   3.000 
G1 Z  -1.500
F400
G1 X2245.410 Y 565.110
G1 X2795.410 Y 565.110
G1 X2795.410 Y1115.110
G1 X2845.410 Y1115.110
G1 X2845.410 Y 815.110
G1 X2845.410 Y 515.110
G1 X2545.410 Y 515.110
G1 X2245.410 Y 515.110
F150
G1 Z  -3.000
F400
G1 X2245.410 Y 565.110
G1 X2795.410 Y 565.110
G1 X2795.410 Y1115.110
G1 X2845.410 Y1115.110
G1 X2845.410 Y 815.110
G1 X2845.410 Y 515.110
G1 X2545.410 Y 515.110
G1 X2245.410 Y 515.110
F150
G1 Z   3.000
G0 Z  15.000 
M9 M5

(*** LAYER: BORDER_D0_T128_RK1_A0_W0_RI1_EM1_ID0001 ***)

(* SHAPE Nr: 95 *)
G0 X1574.980 Y1248.000
M3 M8
G0 Z   3.000 
G1 Z  -1.500
F400
G1 X1574.980 Y1510.000
G1 X1874.980 Y1510.000
G1 X1874.980 Y1379.000
G1 X1874.980 Y1248.000
G1 X1724.980 Y1248.000
G1 X1574.980 Y1248.000
F150
G1 Z  -3.000
F400
G1 X1574.980 Y1510.000
G1 X1874.980 Y1510.000
G1 X1874.980 Y1379.000
G1 X1874.980 Y1248.000
G1 X1724.980 Y1248.000
G1 X1574.980 Y1248.000
F150
G1 Z   3.000
G0 Z  15.000 
M9 M5

(*** LAYER: BORDER_D0_T128.1_RK1_A0_W0_RI1_EM1_ID0008 ***)

(* SHAPE Nr: 97 *)
G0 X  15.000 Y 610.000
M3 M8
G0 Z   3.000 
G1 Z  -1.500
F400
G1 X 115.000 Y 710.000
G1 X 626.090 Y 710.000
G1 X 815.000 Y 898.910
G1 X 815.000 Y1410.000
G1 X 915.000 Y1510.000
G1 X 915.000 Y1150.350
G1 X 915.000 Y 857.490
G1 X 667.510 Y 610.000
G1 X 341.260 Y 610.000
G1 X  15.000 Y 610.000
F150
G1 Z  -3.000
F400
G1 X 115.000 Y 710.000
G1 X 626.090 Y 710.000
G1 X 815.000 Y 898.910
G1 X 815.000 Y1410.000
G1 X 915.000 Y1510.000
G1 X 915.000 Y1150.350
G1 X 915.000 Y 857.490
G1 X 667.510 Y 610.000
G1 X 341.260 Y 610.000
G1 X  15.000 Y 610.000
F150
G1 Z   3.000
G0 Z  15.000 
M9 M5

(*** LAYER: BORDER_D0_T128.1_RK1_A0_W0_RI1_EM1_ID0003 ***)

(* SHAPE Nr: 98 *)
G0 X 630.000 Y 906.990
M3 M8
G0 Z   3.000 
G1 Z  -1.500
F400
G1 X 630.000 Y1053.990
G1 X 630.000 Y1200.990
G1 X 769.000 Y1200.990
G1 X 769.000 Y 906.990
G1 X 699.500 Y 906.990
G1 X 630.000 Y 906.990
F150
G1 Z  -3.000
F400
G1 X 630.000 Y1053.990
G1 X 630.000 Y1200.990
G1 X 769.000 Y1200.990
G1 X 769.000 Y 906.990
G1 X 699.500 Y 906.990
G1 X 630.000 Y 906.990
F150
G1 Z   3.000
G0 Z  15.000 
M9 M5

(* SHAPE Nr: 101 *)
G0 X 630.000 Y1216.000
M3 M8
G0 Z   3.000 
G1 Z  -1.500
F400
G1 X 630.000 Y1363.000
G1 X 630.000 Y1510.000
G1 X 769.000 Y1510.000
G1 X 769.000 Y1216.000
G1 X 699.500 Y1216.000
G1 X 630.000 Y1216.000
F150
G1 Z  -3.000
F400
G1 X 630.000 Y1363.000
G1 X 630.000 Y1510.000
G1 X 769.000 Y1510.000
G1 X 769.000 Y1216.000
G1 X 699.500 Y1216.000
G1 X 630.000 Y1216.000
F150
G1 Z   3.000
G0 Z  15.000 
M9 M5

(* SHAPE Nr: 107 *)
G0 X2815.460 Y  76.060
M3 M8
G0 Z   3.000 
G1 Z  -1.500
F400
G1 X2815.460 Y 223.060
G1 X2815.460 Y 370.060
G1 X2954.460 Y 370.060
G1 X2954.460 Y  76.060
G1 X2884.960 Y  76.060
G1 X2815.460 Y  76.060
F150
G1 Z  -3.000
F400
G1 X2815.460 Y 223.060
G1 X2815.460 Y 370.060
G1 X2954.460 Y 370.060
G1 X2954.460 Y  76.060
G1 X2884.960 Y  76.060
G1 X2815.460 Y  76.060
F150
G1 Z   3.000
G0 Z  15.000 
M9 M5

(* SHAPE Nr: 112 *)
G0 X2795.390 Y1216.000
M3 M8
G0 Z   3.000 
G1 Z  -1.500
F400
G1 X2795.390 Y1363.000
G1 X2795.390 Y1510.000
G1 X2934.390 Y1510.000
G1 X2934.390 Y1216.000
G1 X2864.890 Y1216.000
G1 X2795.390 Y1216.000
F150
G1 Z  -3.000
F400
G1 X2795.390 Y1363.000
G1 X2795.390 Y1510.000
G1 X2934.390 Y1510.000
G1 X2934.390 Y1216.000
G1 X2864.890 Y1216.000
G1 X2795.390 Y1216.000
F150
G1 Z   3.000
G0 Z  15.000 
M9 M5

(*** LAYER: BORDER_D0_T128.1_RK1_A0_W0_RI1_EM1_ID0010 ***)

(* SHAPE Nr: 99 *)
G0 X  15.000 Y 794.930
M3 M8
G0 Z   3.000 
G1 Z  -1.500
F400
G1 X  15.000 Y 944.930
G1 X  15.000 Y1044.930
G1 X  65.000 Y1094.930
G1 X 240.000 Y1094.930
G1 X 352.500 Y1144.930
G1 X 465.000 Y1194.930
G1 X 615.000 Y1194.930
G1 X 615.000 Y 994.930
G1 X 615.000 Y 794.930
G1 X 465.000 Y 794.930
G1 X 239.990 Y 794.930
G1 X  15.000 Y 794.930
F150
G1 Z  -3.000
F400
G1 X  15.000 Y 944.930
G1 X  15.000 Y1044.930
G1 X  65.000 Y1094.930
G1 X 240.000 Y1094.930
G1 X 352.500 Y1144.930
G1 X 465.000 Y1194.930
G1 X 615.000 Y1194.930
G1 X 615.000 Y 994.930
G1 X 615.000 Y 794.930
G1 X 465.000 Y 794.930
G1 X 239.990 Y 794.930
G1 X  15.000 Y 794.930
F150
G1 Z   3.000
G0 Z  15.000 
M9 M5

(* SHAPE Nr: 100 *)
G0 X  15.000 Y1110.000
M3 M8
G0 Z   3.000 
G1 Z  -1.500
F400
G1 X  15.000 Y1310.000
G1 X  15.000 Y1510.000
G1 X 165.000 Y1510.000
G1 X 390.010 Y1510.000
G1 X 615.000 Y1510.000
G1 X 615.000 Y1360.000
G1 X 615.000 Y1260.000
G1 X 565.000 Y1210.000
G1 X 390.000 Y1210.000
G1 X 277.500 Y1160.000
G1 X 165.000 Y1110.000
G1 X  15.000 Y1110.000
F150
G1 Z  -3.000
F400
G1 X  15.000 Y1310.000
G1 X  15.000 Y1510.000
G1 X 165.000 Y1510.000
G1 X 390.010 Y1510.000
G1 X 615.000 Y1510.000
G1 X 615.000 Y1360.000
G1 X 615.000 Y1260.000
G1 X 565.000 Y1210.000
G1 X 390.000 Y1210.000
G1 X 277.500 Y1160.000
G1 X 165.000 Y1110.000
G1 X  15.000 Y1110.000
F150
G1 Z   3.000
G0 Z  15.000 
M9 M5

(*** LAYER: BORDER_D0_T128.1_RK1_A0_W0_RI1_EM1_ID0004 ***)

(* SHAPE Nr: 102 *)
G0 X 930.000 Y 510.000
M3 M8
G0 Z   3.000 
G1 Z  -1.500
F400
G1 X 930.000 Y 810.000
G1 X 930.000 Y1110.000
G1 X 955.000 Y1110.000
G1 X 955.000 Y1510.000
G1 X1155.000 Y1510.000
G1 X1380.000 Y1510.000
G2 X1155.000 Y 910.000 I-826.776 J -32.146
G3 X1055.000 Y 510.000 I 445.546 J-323.887
G1 X 930.000 Y 510.000
F150
G1 Z  -3.000
F400
G1 X 930.000 Y 810.000
G1 X 930.000 Y1110.000
G1 X 955.000 Y1110.000
G1 X 955.000 Y1510.000
G1 X1155.000 Y1510.000
G1 X1380.000 Y1510.000
G2 X1155.000 Y 910.000 I-826.776 J -32.146
G3 X1055.000 Y 510.000 I 445.546 J-323.887
G1 X 930.000 Y 510.000
F150
G1 Z   3.000
G0 Z  15.000 
M9 M5

(* SHAPE Nr: 103 *)
G0 X  15.000 Y 169.380
M3 M8
G0 Z   3.000 
G1 Z  -1.500
F400
G1 X  15.000 Y 369.380
G1 X  15.000 Y 594.380
G2 X 615.000 Y 369.380 I  32.146 J-826.776
G3 X1015.000 Y 269.380 I 323.887 J 445.546
G1 X1015.000 Y 144.380
G1 X 715.000 Y 144.380
G1 X 415.000 Y 144.380
G1 X 415.000 Y 169.380
G1 X  15.000 Y 169.380
F150
G1 Z  -3.000
F400
G1 X  15.000 Y 369.380
G1 X  15.000 Y 594.380
G2 X 615.000 Y 369.380 I  32.146 J-826.776
G3 X1015.000 Y 269.380 I 323.887 J 445.546
G1 X1015.000 Y 144.380
G1 X 715.000 Y 144.380
G1 X 415.000 Y 144.380
G1 X 415.000 Y 169.380
G1 X  15.000 Y 169.380
F150
G1 Z   3.000
G0 Z  15.000 
M9 M5

(* SHAPE Nr: 115 *)
G0 X1109.980 Y 510.000
M3 M8
G0 Z   3.000 
G1 Z  -1.500
F400
G2 X1334.980 Y1110.000 I 826.776 J  32.146
G3 X1434.980 Y1510.000 I-445.546 J 323.887
G1 X1559.980 Y1510.000
G1 X1559.980 Y1210.000
G1 X1559.980 Y 910.000
G1 X1534.980 Y 910.000
G1 X1534.980 Y 510.000
G1 X1334.980 Y 510.000
G1 X1109.980 Y 510.000
F150
G1 Z  -3.000
F400
G2 X1334.980 Y1110.000 I 826.776 J  32.146
G3 X1434.980 Y1510.000 I-445.546 J 323.887
G1 X1559.980 Y1510.000
G1 X1559.980 Y1210.000
G1 X1559.980 Y 910.000
G1 X1534.980 Y 910.000
G1 X1534.980 Y 510.000
G1 X1334.980 Y 510.000
G1 X1109.980 Y 510.000
F150
G1 Z   3.000
G0 Z  15.000 
M9 M5

(*** LAYER: BORDER_D0_T128.1_RK1_A0_W0_RI1_EM1_ID0005 ***)

(* SHAPE Nr: 104 *)
G0 X1385.460 Y  15.000
M3 M8
G0 Z   3.000 
G1 Z  -1.500
F400
G1 X1385.460 Y  90.000
G1 X1610.460 Y  90.000
G1 X1835.460 Y  90.000
G1 X1835.460 Y 115.000
G3 X2035.460 Y 315.000 I -11.469 J 211.469
G1 X2185.460 Y 315.000
G1 X2185.460 Y  15.000
G1 X1785.460 Y  15.000
G1 X1385.460 Y  15.000
F150
G1 Z  -3.000
F400
G1 X1385.460 Y  90.000
G1 X1610.460 Y  90.000
G1 X1835.460 Y  90.000
G1 X1835.460 Y 115.000
G3 X2035.460 Y 315.000 I -11.469 J 211.469
G1 X2185.460 Y 315.000
G1 X2185.460 Y  15.000
G1 X1785.460 Y  15.000
G1 X1385.460 Y  15.000
F150
G1 Z   3.000
G0 Z  15.000 
M9 M5

(*** LAYER: BORDER_D0_T128.1_RK1_A0_W0_RI1_EM1_ID0002 ***)

(* SHAPE Nr: 105 *)
G0 X1350.070 Y 203.870
M3 M8
G0 Z   3.000 
G1 Z  -1.500
F400
G1 X1350.070 Y 403.870
G2 X1400.070 Y 453.870 I  50.000 J   0.000
G1 X1500.070 Y 453.870
G3 X1550.070 Y 503.870 I   0.000 J  50.000
G1 X1550.070 Y 703.870
G2 X1600.070 Y 753.870 I  50.000 J   0.000
G1 X1700.070 Y 753.870
G3 X1750.070 Y 803.870 I   0.000 J  50.000
G1 X1750.070 Y1003.870
G2 X1800.070 Y1053.870 I  50.000 J   0.000
G1 X1900.070 Y1053.870
G2 X1950.070 Y1003.870 I   0.000 J -50.000
G1 X1950.070 Y 603.870
G1 X1950.070 Y 203.870
G2 X1900.070 Y 153.870 I -50.000 J  -0.000
G1 X1650.070 Y 153.870
G1 X1400.070 Y 153.870
G2 X1350.070 Y 203.870 I  -0.000 J  50.000
F150
G1 Z  -3.000
F400
G1 X1350.070 Y 403.870
G2 X1400.070 Y 453.870 I  50.000 J   0.000
G1 X1500.070 Y 453.870
G3 X1550.070 Y 503.870 I   0.000 J  50.000
G1 X1550.070 Y 703.870
G2 X1600.070 Y 753.870 I  50.000 J   0.000
G1 X1700.070 Y 753.870
G3 X1750.070 Y 803.870 I   0.000 J  50.000
G1 X1750.070 Y1003.870
G2 X1800.070 Y1053.870 I  50.000 J   0.000
G1 X1900.070 Y1053.870
G2 X1950.070 Y1003.870 I   0.000 J -50.000
G1 X1950.070 Y 603.870
G1 X1950.070 Y 203.870
G2 X1900.070 Y 153.870 I -50.000 J  -0.000
G1 X1650.070 Y 153.870
G1 X1400.070 Y 153.870
G2 X1350.070 Y 203.870 I  -0.000 J  50.000
F150
G1 Z   3.000
G0 Z  15.000 
M9 M5

(* SHAPE Nr: 111 *)
G0 X2180.390 Y 630.120
M3 M8
G0 Z   3.000 
G1 Z  -1.500
F400
G1 X2180.390 Y 830.120
G2 X2230.390 Y 880.120 I  50.000 J   0.000
G1 X2330.390 Y 880.120
G3 X2380.390 Y 930.120 I   0.000 J  50.000
G1 X2380.390 Y1130.120
G2 X2430.390 Y1180.120 I  50.000 J   0.000
G1 X2530.390 Y1180.120
G3 X2580.390 Y1230.120 I   0.000 J  50.000
G1 X2580.390 Y1430.120
G2 X2630.390 Y1480.120 I  50.000 J   0.000
G1 X2730.390 Y1480.120
G2 X2780.390 Y1430.120 I   0.000 J -50.000
G1 X2780.390 Y1030.120
G1 X2780.390 Y 630.120
G2 X2730.390 Y 580.120 I -50.000 J  -0.000
G1 X2480.390 Y 580.120
G1 X2230.390 Y 580.120
G2 X2180.390 Y 630.120 I  -0.000 J  50.000
F150
G1 Z  -3.000
F400
G1 X2180.390 Y 830.120
G2 X2230.390 Y 880.120 I  50.000 J   0.000
G1 X2330.390 Y 880.120
G3 X2380.390 Y 930.120 I   0.000 J  50.000
G1 X2380.390 Y1130.120
G2 X2430.390 Y1180.120 I  50.000 J   0.000
G1 X2530.390 Y1180.120
G3 X2580.390 Y1230.120 I   0.000 J  50.000
G1 X2580.390 Y1430.120
G2 X2630.390 Y1480.120 I  50.000 J   0.000
G1 X2730.390 Y1480.120
G2 X2780.390 Y1430.120 I   0.000 J -50.000
G1 X2780.390 Y1030.120
G1 X2780.390 Y 630.120
G2 X2730.390 Y 580.120 I -50.000 J  -0.000
G1 X2480.390 Y 580.120
G1 X2230.390 Y 580.120
G2 X2180.390 Y 630.120 I  -0.000 J  50.000
F150
G1 Z   3.000
G0 Z  15.000 
M9 M5

(* SHAPE Nr: 113 *)
G0 X1965.070 Y 660.000
M3 M8
G0 Z   3.000 
G1 Z  -1.500
F400
G1 X1965.070 Y1060.000
G1 X1965.070 Y1460.000
G2 X2015.070 Y1510.000 I  50.000 J   0.000
G1 X2265.070 Y1510.000
G1 X2515.070 Y1510.000
G2 X2565.070 Y1460.000 I   0.000 J -50.000
G1 X2565.070 Y1260.000
G2 X2515.070 Y1210.000 I -50.000 J  -0.000
G1 X2415.070 Y1210.000
G3 X2365.070 Y1160.000 I  -0.000 J -50.000
G1 X2365.070 Y 960.000
G2 X2315.070 Y 910.000 I -50.000 J  -0.000
G1 X2215.070 Y 910.000
G3 X2165.070 Y 860.000 I  -0.000 J -50.000
G1 X2165.070 Y 660.000
G2 X2115.070 Y 610.000 I -50.000 J  -0.000
G1 X2015.070 Y 610.000
G2 X1965.070 Y 660.000 I  -0.000 J  50.000
F150
G1 Z  -3.000
F400
G1 X1965.070 Y1060.000
G1 X1965.070 Y1460.000
G2 X2015.070 Y1510.000 I  50.000 J   0.000
G1 X2265.070 Y1510.000
G1 X2515.070 Y1510.000
G2 X2565.070 Y1460.000 I   0.000 J -50.000
G1 X2565.070 Y1260.000
G2 X2515.070 Y1210.000 I -50.000 J  -0.000
G1 X2415.070 Y1210.000
G3 X2365.070 Y1160.000 I  -0.000 J -50.000
G1 X2365.070 Y 960.000
G2 X2315.070 Y 910.000 I -50.000 J  -0.000
G1 X2215.070 Y 910.000
G3 X2165.070 Y 860.000 I  -0.000 J -50.000
G1 X2165.070 Y 660.000
G2 X2115.070 Y 610.000 I -50.000 J  -0.000
G1 X2015.070 Y 610.000
G2 X1965.070 Y 660.000 I  -0.000 J  50.000
F150
G1 Z   3.000
G0 Z  15.000 
M9 M5

(*** LAYER: BORDER_D0_T128.1_RK1_A0_W0_RI1_EM1_ID0014 ***)

(* SHAPE Nr: 106 *)
G0 X2200.460 Y  70.060
M3 M8
G0 Z   3.000 
G1 Z  -1.500
F400
G1 X2200.460 Y 370.060
G1 X2500.460 Y 370.060
G1 X2800.460 Y 370.060
G1 X2800.460 Y  70.060
G1 X2500.460 Y  70.060
G1 X2200.460 Y  70.060
F150
G1 Z  -3.000
F400
G1 X2200.460 Y 370.060
G1 X2500.460 Y 370.060
G1 X2800.460 Y 370.060
G1 X2800.460 Y  70.060
G1 X2500.460 Y  70.060
G1 X2200.460 Y  70.060
F150
G1 Z   3.000
G0 Z  15.000 
M9 M5

(*** LAYER: BORDER_D0_T128.1_RK1_A0_W0_RI1_EM1_ID0007 ***)

(* SHAPE Nr: 108 *)
G0 X2375.470 Y 385.060
M3 M8
G0 Z   3.000 
G1 Z  -1.500
F400
G1 X2375.470 Y 435.060
G1 X2925.470 Y 435.060
G1 X2925.470 Y 985.060
G1 X2975.470 Y 985.060
G1 X2975.470 Y 685.060
G1 X2975.470 Y 385.060
G1 X2675.470 Y 385.060
G1 X2375.470 Y 385.060
F150
G1 Z  -3.000
F400
G1 X2375.470 Y 435.060
G1 X2925.470 Y 435.060
G1 X2925.470 Y 985.060
G1 X2975.470 Y 985.060
G1 X2975.470 Y 685.060
G1 X2975.470 Y 385.060
G1 X2675.470 Y 385.060
G1 X2375.470 Y 385.060
F150
G1 Z   3.000
G0 Z  15.000 
M9 M5

(* SHAPE Nr: 109 *)
G0 X2310.410 Y 450.060
M3 M8
G0 Z   3.000 
G1 Z  -1.500
F400
G1 X2310.410 Y 500.060
G1 X2860.410 Y 500.060
G1 X2860.410 Y1050.060
G1 X2910.410 Y1050.060
G1 X2910.410 Y 750.060
G1 X2910.410 Y 450.060
G1 X2610.410 Y 450.060
G1 X2310.410 Y 450.060
F150
G1 Z  -3.000
F400
G1 X2310.410 Y 500.060
G1 X2860.410 Y 500.060
G1 X2860.410 Y1050.060
G1 X2910.410 Y1050.060
G1 X2910.410 Y 750.060
G1 X2910.410 Y 450.060
G1 X2610.410 Y 450.060
G1 X2310.410 Y 450.060
F150
G1 Z   3.000
G0 Z  15.000 
M9 M5

(* SHAPE Nr: 110 *)
G0 X2245.410 Y 515.110
M3 M8
G0 Z   3.000 
G1 Z  -1.500
F400
G1 X2245.410 Y 565.110
G1 X2795.410 Y 565.110
G1 X2795.410 Y1115.110
G1 X2845.410 Y1115.110
G1 X2845.410 Y 815.110
G1 X2845.410 Y 515.110
G1 X2545.410 Y 515.110
G1 X2245.410 Y 515.110
F150
G1 Z  -3.000
F400
G1 X2245.410 Y 565.110
G1 X2795.410 Y 565.110
G1 X2795.410 Y1115.110
G1 X2845.410 Y1115.110
G1 X2845.410 Y 815.110
G1 X2845.410 Y 515.110
G1 X2545.410 Y 515.110
G1 X2245.410 Y 515.110
F150
G1 Z   3.000
G0 Z  15.000 
M9 M5

(*** LAYER: BORDER_D0_T128.1_RK1_A0_W0_RI1_EM1_ID0001 ***)

(* SHAPE Nr: 114 *)
G0 X1574.980 Y1248.000
M3 M8
G0 Z   3.000 
G1 Z  -1.500
F400
G1 X1574.980 Y1510.000
G1 X1874.980 Y1510.000
G1 X1874.980 Y1379.000
G1 X1874.980 Y1248.000
G1 X1724.980 Y1248.000
G1 X1574.980 Y1248.000
F150
G1 Z  -3.000
F400
G1 X1574.980 Y1510.000
G1 X1874.980 Y1510.000
G1 X1874.980 Y1379.000
G1 X1874.980 Y1248.000
G1 X1724.980 Y1248.000
G1 X1574.980 Y1248.000
F150
G1 Z   3.000
G0 Z  15.000 
M9 M5
G0 X   0.000 Y   0.000
M2 (Program end)