(Generated with: DXF2GCODE, Version: REMOVED, Date: $Date$)
(Created from file: )
(Output format description: G-CODE for LinuxCNC)
(Time: Thu Sep 13 16:01:15 2018)
G21 (Units in millimeters)
G90 (Absolute programming)
G64 (Default cutting) G17 (XY plane) G40 (Cancel radius comp.) G49 (Cancel length comp.)
G0 Z  15.000 

(*** LAYER: FRAME_Z18 ***)
T1 M6
S6000

(* SHAPE Nr: 114 *)
G0 X   0.000 Y   0.000
M3 M8
G0 Z   3.000 
F150
G1 Z  -1.500
F400
G1 X   0.000 Y1525.000
G1 X3050.000 Y1525.000
G1 X3050.000 Y   0.000
G1 X   0.000 Y   0.000
F150
G1 Z  -3.000
F400
G1 X   0.000 Y1525.000
G1 X3050.000 Y1525.000
G1 X3050.000 Y   0.000
G1 X   0.000 Y   0.000
F150
G1 Z   3.000
G0 Z  15.000 
M9 M5

(*** LAYER: VBORE_Z6_D8 ***)

(* SHAPE Nr: 0 *)
G0 X 985.102 Y 522.952
M3 M8
G0 Z   3.000 
G1 Z  -1.500
F400
G2 X 990.758 Y 528.608 I   2.828 J   2.828
G2 X 985.102 Y 522.952 I  -2.828 J  -2.828
F150
G1 Z  -3.000
F400
G2 X 990.758 Y 528.608 I   2.828 J   2.828
G2 X 985.102 Y 522.952 I  -2.828 J  -2.828
F150
G1 Z   3.000
G0 Z  15.000 
M9 M5

(* SHAPE Nr: 1 *)
G0 X 985.052 Y 507.362
M3 M8
G0 Z   3.000 
G1 Z  -1.500
F400
G2 X 990.708 Y 513.018 I   2.828 J   2.828
G2 X 985.052 Y 507.362 I  -2.828 J  -2.828
F150
G1 Z  -3.000
F400
G2 X 990.708 Y 513.018 I   2.828 J   2.828
G2 X 985.052 Y 507.362 I  -2.828 J  -2.828
F150
G1 Z   3.000
G0 Z  15.000 
M9 M5

(* SHAPE Nr: 2 *)
G0 X 983.752 Y 273.752
M3 M8
G0 Z   3.000 
G1 Z  -1.500
F400
G2 X 989.408 Y 279.408 I   2.828 J   2.828
G2 X 983.752 Y 273.752 I  -2.828 J  -2.828
F150
G1 Z  -3.000
F400
G2 X 989.408 Y 279.408 I   2.828 J   2.828
G2 X 983.752 Y 273.752 I  -2.828 J  -2.828
F150
G1 Z   3.000
G0 Z  15.000 
M9 M5

(* SHAPE Nr: 3 *)
G0 X 983.702 Y 258.162
M3 M8
G0 Z   3.000 
G1 Z  -1.500
F400
G2 X 989.358 Y 263.818 I   2.828 J   2.828
G2 X 983.702 Y 258.162 I  -2.828 J  -2.828
F150
G1 Z  -3.000
F400
G2 X 989.358 Y 263.818 I   2.828 J   2.828
G2 X 983.702 Y 258.162 I  -2.828 J  -2.828
F150
G1 Z   3.000
G0 Z  15.000 
M9 M5

(* SHAPE Nr: 16 *)
G0 X  27.332 Y 255.382
M3 M8
G0 Z   3.000 
G1 Z  -1.500
F400
G2 X  32.988 Y 261.038 I   2.828 J   2.828
G2 X  27.332 Y 255.382 I  -2.828 J  -2.828
F150
G1 Z  -3.000
F400
G2 X  32.988 Y 261.038 I   2.828 J   2.828
G2 X  27.332 Y 255.382 I  -2.828 J  -2.828
F150
G1 Z   3.000
G0 Z  15.000 
M9 M5

(* SHAPE Nr: 17 *)
G0 X  27.382 Y 270.972
M3 M8
G0 Z   3.000 
G1 Z  -1.500
F400
G2 X  33.038 Y 276.628 I   2.828 J   2.828
G2 X  27.382 Y 270.972 I  -2.828 J  -2.828
F150
G1 Z  -3.000
F400
G2 X  33.038 Y 276.628 I   2.828 J   2.828
G2 X  27.382 Y 270.972 I  -2.828 J  -2.828
F150
G1 Z   3.000
G0 Z  15.000 
M9 M5

(* SHAPE Nr: 18 *)
G0 X  28.682 Y 504.582
M3 M8
G0 Z   3.000 
G1 Z  -1.500
F400
G2 X  34.338 Y 510.238 I   2.828 J   2.828
G2 X  28.682 Y 504.582 I  -2.828 J  -2.828
F150
G1 Z  -3.000
F400
G2 X  34.338 Y 510.238 I   2.828 J   2.828
G2 X  28.682 Y 504.582 I  -2.828 J  -2.828
F150
G1 Z   3.000
G0 Z  15.000 
M9 M5

(* SHAPE Nr: 19 *)
G0 X  28.732 Y 520.172
M3 M8
G0 Z   3.000 
G1 Z  -1.500
F400
G2 X  34.388 Y 525.828 I   2.828 J   2.828
G2 X  28.732 Y 520.172 I  -2.828 J  -2.828
F150
G1 Z  -3.000
F400
G2 X  34.388 Y 525.828 I   2.828 J   2.828
G2 X  28.732 Y 520.172 I  -2.828 J  -2.828
F150
G1 Z   3.000
G0 Z  15.000 
M9 M5

(* SHAPE Nr: 29 *)
G0 X1988.222 Y 522.952
M3 M8
G0 Z   3.000 
G1 Z  -1.500
F400
G2 X1993.878 Y 528.608 I   2.828 J   2.828
G2 X1988.222 Y 522.952 I  -2.828 J  -2.828
F150
G1 Z  -3.000
F400
G2 X1993.878 Y 528.608 I   2.828 J   2.828
G2 X1988.222 Y 522.952 I  -2.828 J  -2.828
F150
G1 Z   3.000
G0 Z  15.000 
M9 M5

(* SHAPE Nr: 30 *)
G0 X1988.172 Y 507.362
M3 M8
G0 Z   3.000 
G1 Z  -1.500
F400
G2 X1993.828 Y 513.018 I   2.828 J   2.828
G2 X1988.172 Y 507.362 I  -2.828 J  -2.828
F150
G1 Z  -3.000
F400
G2 X1993.828 Y 513.018 I   2.828 J   2.828
G2 X1988.172 Y 507.362 I  -2.828 J  -2.828
F150
G1 Z   3.000
G0 Z  15.000 
M9 M5

(* SHAPE Nr: 31 *)
G0 X1986.872 Y 273.752
M3 M8
G0 Z   3.000 
G1 Z  -1.500
F400
G2 X1992.528 Y 279.408 I   2.828 J   2.828
G2 X1986.872 Y 273.752 I  -2.828 J  -2.828
F150
G1 Z  -3.000
F400
G2 X1992.528 Y 279.408 I   2.828 J   2.828
G2 X1986.872 Y 273.752 I  -2.828 J  -2.828
F150
G1 Z   3.000
G0 Z  15.000 
M9 M5

(* SHAPE Nr: 32 *)
G0 X1986.822 Y 258.162
M3 M8
G0 Z   3.000 
G1 Z  -1.500
F400
G2 X1992.478 Y 263.818 I   2.828 J   2.828
G2 X1986.822 Y 258.162 I  -2.828 J  -2.828
F150
G1 Z  -3.000
F400
G2 X1992.478 Y 263.818 I   2.828 J   2.828
G2 X1986.822 Y 258.162 I  -2.828 J  -2.828
F150
G1 Z   3.000
G0 Z  15.000 
M9 M5

(* SHAPE Nr: 37 *)
G0 X1030.422 Y 255.372
M3 M8
G0 Z   3.000 
G1 Z  -1.500
F400
G2 X1036.078 Y 261.028 I   2.828 J   2.828
G2 X1030.422 Y 255.372 I  -2.828 J  -2.828
F150
G1 Z  -3.000
F400
G2 X1036.078 Y 261.028 I   2.828 J   2.828
G2 X1030.422 Y 255.372 I  -2.828 J  -2.828
F150
G1 Z   3.000
G0 Z  15.000 
M9 M5

(* SHAPE Nr: 38 *)
G0 X1030.472 Y 270.962
M3 M8
G0 Z   3.000 
G1 Z  -1.500
F400
G2 X1036.128 Y 276.618 I   2.828 J   2.828
G2 X1030.472 Y 270.962 I  -2.828 J  -2.828
F150
G1 Z  -3.000
F400
G2 X1036.128 Y 276.618 I   2.828 J   2.828
G2 X1030.472 Y 270.962 I  -2.828 J  -2.828
F150
G1 Z   3.000
G0 Z  15.000 
M9 M5

(* SHAPE Nr: 39 *)
G0 X1031.772 Y 504.572
M3 M8
G0 Z   3.000 
G1 Z  -1.500
F400
G2 X1037.428 Y 510.228 I   2.828 J   2.828
G2 X1031.772 Y 504.572 I  -2.828 J  -2.828
F150
G1 Z  -3.000
F400
G2 X1037.428 Y 510.228 I   2.828 J   2.828
G2 X1031.772 Y 504.572 I  -2.828 J  -2.828
F150
G1 Z   3.000
G0 Z  15.000 
M9 M5

(* SHAPE Nr: 40 *)
G0 X1031.822 Y 520.162
M3 M8
G0 Z   3.000 
G1 Z  -1.500
F400
G2 X1037.478 Y 525.818 I   2.828 J   2.828
G2 X1031.822 Y 520.162 I  -2.828 J  -2.828
F150
G1 Z  -3.000
F400
G2 X1037.478 Y 525.818 I   2.828 J   2.828
G2 X1031.822 Y 520.162 I  -2.828 J  -2.828
F150
G1 Z   3.000
G0 Z  15.000 
M9 M5

(* SHAPE Nr: 57 *)
G0 X2703.072 Y1492.012
M3 M8
G0 Z   3.000 
G1 Z  -1.500
F400
G2 X2708.728 Y1497.668 I   2.828 J   2.828
G2 X2703.072 Y1492.012 I  -2.828 J  -2.828
F150
G1 Z  -3.000
F400
G2 X2708.728 Y1497.668 I   2.828 J   2.828
G2 X2703.072 Y1492.012 I  -2.828 J  -2.828
F150
G1 Z   3.000
G0 Z  15.000 
M9 M5

(* SHAPE Nr: 58 *)
G0 X2718.662 Y1491.962
M3 M8
G0 Z   3.000 
G1 Z  -1.500
F400
G2 X2724.318 Y1497.618 I   2.828 J   2.828
G2 X2718.662 Y1491.962 I  -2.828 J  -2.828
F150
G1 Z  -3.000
F400
G2 X2724.318 Y1497.618 I   2.828 J   2.828
G2 X2718.662 Y1491.962 I  -2.828 J  -2.828
F150
G1 Z   3.000
G0 Z  15.000 
M9 M5

(* SHAPE Nr: 59 *)
G0 X2952.272 Y1490.662
M3 M8
G0 Z   3.000 
G1 Z  -1.500
F400
G2 X2957.928 Y1496.318 I   2.828 J   2.828
G2 X2952.272 Y1490.662 I  -2.828 J  -2.828
F150
G1 Z  -3.000
F400
G2 X2957.928 Y1496.318 I   2.828 J   2.828
G2 X2952.272 Y1490.662 I  -2.828 J  -2.828
F150
G1 Z   3.000
G0 Z  15.000 
M9 M5

(* SHAPE Nr: 60 *)
G0 X2967.862 Y1490.612
M3 M8
G0 Z   3.000 
G1 Z  -1.500
F400
G2 X2973.518 Y1496.268 I   2.828 J   2.828
G2 X2967.862 Y1490.612 I  -2.828 J  -2.828
F150
G1 Z  -3.000
F400
G2 X2973.518 Y1496.268 I   2.828 J   2.828
G2 X2967.862 Y1490.612 I  -2.828 J  -2.828
F150
G1 Z   3.000
G0 Z  15.000 
M9 M5

(*** LAYER: VBORE_Z6_D5 ***)

(* SHAPE Nr: 4 *)
G0 X 206.322 Y 309.902
M3 M8
G0 Z   3.000 
G1 Z  -1.500
F400
G2 X 209.858 Y 313.438 I   1.768 J   1.768
G2 X 206.322 Y 309.902 I  -1.768 J  -1.768
F150
G1 Z  -3.000
F400
G2 X 209.858 Y 313.438 I   1.768 J   1.768
G2 X 206.322 Y 309.902 I  -1.768 J  -1.768
F150
G1 Z   3.000
G0 Z  15.000 
M9 M5

(* SHAPE Nr: 5 *)
G0 X 206.322 Y 287.902
M3 M8
G0 Z   3.000 
G1 Z  -1.500
F400
G2 X 209.858 Y 291.438 I   1.768 J   1.768
G2 X 206.322 Y 287.902 I  -1.768 J  -1.768
F150
G1 Z  -3.000
F400
G2 X 209.858 Y 291.438 I   1.768 J   1.768
G2 X 206.322 Y 287.902 I  -1.768 J  -1.768
F150
G1 Z   3.000
G0 Z  15.000 
M9 M5

(* SHAPE Nr: 6 *)
G0 X 206.322 Y 264.902
M3 M8
G0 Z   3.000 
G1 Z  -1.500
F400
G2 X 209.858 Y 268.438 I   1.768 J   1.768
G2 X 206.322 Y 264.902 I  -1.768 J  -1.768
F150
G1 Z  -3.000
F400
G2 X 209.858 Y 268.438 I   1.768 J   1.768
G2 X 206.322 Y 264.902 I  -1.768 J  -1.768
F150
G1 Z   3.000
G0 Z  15.000 
M9 M5

(* SHAPE Nr: 7 *)
G0 X 206.322 Y 245.902
M3 M8
G0 Z   3.000 
G1 Z  -1.500
F400
G2 X 209.858 Y 249.438 I   1.768 J   1.768
G2 X 206.322 Y 245.902 I  -1.768 J  -1.768
F150
G1 Z  -3.000
F400
G2 X 209.858 Y 249.438 I   1.768 J   1.768
G2 X 206.322 Y 245.902 I  -1.768 J  -1.768
F150
G1 Z   3.000
G0 Z  15.000 
M9 M5

(* SHAPE Nr: 14 *)
G0 X 969.862 Y 155.402
M3 M8
G0 Z   3.000 
G1 Z  -1.500
F400
G2 X 973.398 Y 158.938 I   1.768 J   1.768
G2 X 969.862 Y 155.402 I  -1.768 J  -1.768
F150
G1 Z  -3.000
F400
G2 X 973.398 Y 158.938 I   1.768 J   1.768
G2 X 969.862 Y 155.402 I  -1.768 J  -1.768
F150
G1 Z   3.000
G0 Z  15.000 
M9 M5

(* SHAPE Nr: 15 *)
G0 X 788.722 Y 155.402
M3 M8
G0 Z   3.000 
G1 Z  -1.500
F400
G2 X 792.258 Y 158.938 I   1.768 J   1.768
G2 X 788.722 Y 155.402 I  -1.768 J  -1.768
F150
G1 Z  -3.000
F400
G2 X 792.258 Y 158.938 I   1.768 J   1.768
G2 X 788.722 Y 155.402 I  -1.768 J  -1.768
F150
G1 Z   3.000
G0 Z  15.000 
M9 M5

(* SHAPE Nr: 20 *)
G0 X 808.232 Y 470.552
M3 M8
G0 Z   3.000 
G1 Z  -1.500
F400
G2 X 811.768 Y 474.088 I   1.768 J   1.768
G2 X 808.232 Y 470.552 I  -1.768 J  -1.768
F150
G1 Z  -3.000
F400
G2 X 811.768 Y 474.088 I   1.768 J   1.768
G2 X 808.232 Y 470.552 I  -1.768 J  -1.768
F150
G1 Z   3.000
G0 Z  15.000 
M9 M5

(* SHAPE Nr: 21 *)
G0 X 808.232 Y 492.552
M3 M8
G0 Z   3.000 
G1 Z  -1.500
F400
G2 X 811.768 Y 496.088 I   1.768 J   1.768
G2 X 808.232 Y 492.552 I  -1.768 J  -1.768
F150
G1 Z  -3.000
F400
G2 X 811.768 Y 496.088 I   1.768 J   1.768
G2 X 808.232 Y 492.552 I  -1.768 J  -1.768
F150
G1 Z   3.000
G0 Z  15.000 
M9 M5

(* SHAPE Nr: 22 *)
G0 X 808.232 Y 515.552
M3 M8
G0 Z   3.000 
G1 Z  -1.500
F400
G2 X 811.768 Y 519.088 I   1.768 J   1.768
G2 X 808.232 Y 515.552 I  -1.768 J  -1.768
F150
G1 Z  -3.000
F400
G2 X 811.768 Y 519.088 I   1.768 J   1.768
G2 X 808.232 Y 515.552 I  -1.768 J  -1.768
F150
G1 Z   3.000
G0 Z  15.000 
M9 M5

(* SHAPE Nr: 23 *)
G0 X 808.232 Y 534.552
M3 M8
G0 Z   3.000 
G1 Z  -1.500
F400
G2 X 811.768 Y 538.088 I   1.768 J   1.768
G2 X 808.232 Y 534.552 I  -1.768 J  -1.768
F150
G1 Z  -3.000
F400
G2 X 811.768 Y 538.088 I   1.768 J   1.768
G2 X 808.232 Y 534.552 I  -1.768 J  -1.768
F150
G1 Z   3.000
G0 Z  15.000 
M9 M5

(* SHAPE Nr: 33 *)
G0 X1209.442 Y 309.902
M3 M8
G0 Z   3.000 
G1 Z  -1.500
F400
G2 X1212.978 Y 313.438 I   1.768 J   1.768
G2 X1209.442 Y 309.902 I  -1.768 J  -1.768
F150
G1 Z  -3.000
F400
G2 X1212.978 Y 313.438 I   1.768 J   1.768
G2 X1209.442 Y 309.902 I  -1.768 J  -1.768
F150
G1 Z   3.000
G0 Z  15.000 
M9 M5

(* SHAPE Nr: 34 *)
G0 X1209.442 Y 287.902
M3 M8
G0 Z   3.000 
G1 Z  -1.500
F400
G2 X1212.978 Y 291.438 I   1.768 J   1.768
G2 X1209.442 Y 287.902 I  -1.768 J  -1.768
F150
G1 Z  -3.000
F400
G2 X1212.978 Y 291.438 I   1.768 J   1.768
G2 X1209.442 Y 287.902 I  -1.768 J  -1.768
F150
G1 Z   3.000
G0 Z  15.000 
M9 M5

(* SHAPE Nr: 35 *)
G0 X1209.442 Y 264.902
M3 M8
G0 Z   3.000 
G1 Z  -1.500
F400
G2 X1212.978 Y 268.438 I   1.768 J   1.768
G2 X1209.442 Y 264.902 I  -1.768 J  -1.768
F150
G1 Z  -3.000
F400
G2 X1212.978 Y 268.438 I   1.768 J   1.768
G2 X1209.442 Y 264.902 I  -1.768 J  -1.768
F150
G1 Z   3.000
G0 Z  15.000 
M9 M5

(* SHAPE Nr: 36 *)
G0 X1209.442 Y 245.902
M3 M8
G0 Z   3.000 
G1 Z  -1.500
F400
G2 X1212.978 Y 249.438 I   1.768 J   1.768
G2 X1209.442 Y 245.902 I  -1.768 J  -1.768
F150
G1 Z  -3.000
F400
G2 X1212.978 Y 249.438 I   1.768 J   1.768
G2 X1209.442 Y 245.902 I  -1.768 J  -1.768
F150
G1 Z   3.000
G0 Z  15.000 
M9 M5

(* SHAPE Nr: 41 *)
G0 X1811.322 Y 470.542
M3 M8
G0 Z   3.000 
G1 Z  -1.500
F400
G2 X1814.858 Y 474.078 I   1.768 J   1.768
G2 X1811.322 Y 470.542 I  -1.768 J  -1.768
F150
G1 Z  -3.000
F400
G2 X1814.858 Y 474.078 I   1.768 J   1.768
G2 X1811.322 Y 470.542 I  -1.768 J  -1.768
F150
G1 Z   3.000
G0 Z  15.000 
M9 M5

(* SHAPE Nr: 42 *)
G0 X1811.322 Y 492.542
M3 M8
G0 Z   3.000 
G1 Z  -1.500
F400
G2 X1814.858 Y 496.078 I   1.768 J   1.768
G2 X1811.322 Y 492.542 I  -1.768 J  -1.768
F150
G1 Z  -3.000
F400
G2 X1814.858 Y 496.078 I   1.768 J   1.768
G2 X1811.322 Y 492.542 I  -1.768 J  -1.768
F150
G1 Z   3.000
G0 Z  15.000 
M9 M5

(* SHAPE Nr: 43 *)
G0 X1811.322 Y 515.542
M3 M8
G0 Z   3.000 
G1 Z  -1.500
F400
G2 X1814.858 Y 519.078 I   1.768 J   1.768
G2 X1811.322 Y 515.542 I  -1.768 J  -1.768
F150
G1 Z  -3.000
F400
G2 X1814.858 Y 519.078 I   1.768 J   1.768
G2 X1811.322 Y 515.542 I  -1.768 J  -1.768
F150
G1 Z   3.000
G0 Z  15.000 
M9 M5

(* SHAPE Nr: 44 *)
G0 X1811.322 Y 534.542
M3 M8
G0 Z   3.000 
G1 Z  -1.500
F400
G2 X1814.858 Y 538.078 I   1.768 J   1.768
G2 X1811.322 Y 534.542 I  -1.768 J  -1.768
F150
G1 Z  -3.000
F400
G2 X1814.858 Y 538.078 I   1.768 J   1.768
G2 X1811.322 Y 534.542 I  -1.768 J  -1.768
F150
G1 Z   3.000
G0 Z  15.000 
M9 M5

(* SHAPE Nr: 54 *)
G0 X2455.442 Y 208.512
M3 M8
G0 Z   3.000 
G1 Z  -1.500
F400
G2 X2458.978 Y 212.048 I   1.768 J   1.768
G2 X2455.442 Y 208.512 I  -1.768 J  -1.768
F150
G1 Z  -3.000
F400
G2 X2458.978 Y 212.048 I   1.768 J   1.768
G2 X2455.442 Y 208.512 I  -1.768 J  -1.768
F150
G1 Z   3.000
G0 Z  15.000 
M9 M5

(* SHAPE Nr: 55 *)
G0 X2274.302 Y 208.512
M3 M8
G0 Z   3.000 
G1 Z  -1.500
F400
G2 X2277.838 Y 212.048 I   1.768 J   1.768
G2 X2274.302 Y 208.512 I  -1.768 J  -1.768
F150
G1 Z  -3.000
F400
G2 X2277.838 Y 212.048 I   1.768 J   1.768
G2 X2274.302 Y 208.512 I  -1.768 J  -1.768
F150
G1 Z   3.000
G0 Z  15.000 
M9 M5

(* SHAPE Nr: 61 *)
G0 X2918.242 Y 713.232
M3 M8
G0 Z   3.000 
G1 Z  -1.500
F400
G2 X2921.778 Y 716.768 I   1.768 J   1.768
G2 X2918.242 Y 713.232 I  -1.768 J  -1.768
F150
G1 Z  -3.000
F400
G2 X2921.778 Y 716.768 I   1.768 J   1.768
G2 X2918.242 Y 713.232 I  -1.768 J  -1.768
F150
G1 Z   3.000
G0 Z  15.000 
M9 M5

(* SHAPE Nr: 62 *)
G0 X2940.242 Y 713.232
M3 M8
G0 Z   3.000 
G1 Z  -1.500
F400
G2 X2943.778 Y 716.768 I   1.768 J   1.768
G2 X2940.242 Y 713.232 I  -1.768 J  -1.768
F150
G1 Z  -3.000
F400
G2 X2943.778 Y 716.768 I   1.768 J   1.768
G2 X2940.242 Y 713.232 I  -1.768 J  -1.768
F150
G1 Z   3.000
G0 Z  15.000 
M9 M5

(* SHAPE Nr: 63 *)
G0 X2963.242 Y 713.232
M3 M8
G0 Z   3.000 
G1 Z  -1.500
F400
G2 X2966.778 Y 716.768 I   1.768 J   1.768
G2 X2963.242 Y 713.232 I  -1.768 J  -1.768
F150
G1 Z  -3.000
F400
G2 X2966.778 Y 716.768 I   1.768 J   1.768
G2 X2963.242 Y 713.232 I  -1.768 J  -1.768
F150
G1 Z   3.000
G0 Z  15.000 
M9 M5

(* SHAPE Nr: 64 *)
G0 X2982.242 Y 713.232
M3 M8
G0 Z   3.000 
G1 Z  -1.500
F400
G2 X2985.778 Y 716.768 I   1.768 J   1.768
G2 X2982.242 Y 713.232 I  -1.768 J  -1.768
F150
G1 Z  -3.000
F400
G2 X2985.778 Y 716.768 I   1.768 J   1.768
G2 X2982.242 Y 713.232 I  -1.768 J  -1.768
F150
G1 Z   3.000
G0 Z  15.000 
M9 M5

(*** LAYER: ROUT_Z18_D5_T133_A2_W2 ***)

(* SHAPE Nr: 8 *)
G0 X  59.272 Y  97.522
M3 M8
G0 Z   3.000 
G1 Z  -1.500
F400
G2 X 122.388 Y 160.638 I  31.558 J  31.558
G2 X  59.272 Y  97.522 I -31.558 J -31.558
F150
G1 Z  -3.000
F400
G2 X 122.388 Y 160.638 I  31.558 J  31.558
G2 X  59.272 Y  97.522 I -31.558 J -31.558
F150
G1 Z   3.000
G0 Z  15.000 
M9 M5

(* SHAPE Nr: 9 *)
G0 X 616.402 Y  92.642
M3 M8
G0 Z   3.000 
G1 Z  -1.500
F400
G2 X 679.518 Y 155.758 I  31.558 J  31.558
G2 X 616.402 Y  92.642 I -31.558 J -31.558
F150
G1 Z  -3.000
F400
G2 X 679.518 Y 155.758 I  31.558 J  31.558
G2 X 616.402 Y  92.642 I -31.558 J -31.558
F150
G1 Z   3.000
G0 Z  15.000 
M9 M5

(* SHAPE Nr: 56 *)
G0 X2268.642 Y 365.692
M3 M8
G0 Z   3.000 
G1 Z  -1.500
F400
G2 X2331.758 Y 428.808 I  31.558 J  31.558
G2 X2268.642 Y 365.692 I -31.558 J -31.558
F150
G1 Z  -3.000
F400
G2 X2331.758 Y 428.808 I  31.558 J  31.558
G2 X2268.642 Y 365.692 I -31.558 J -31.558
F150
G1 Z   3.000
G0 Z  15.000 
M9 M5

(* SHAPE Nr: 65 *)
G0 X 555.891 Y1420.251
M3 M8
G0 Z   3.000 
G1 Z  -1.500
F400
G2 X 605.389 Y1469.749 I  24.749 J  24.749
G2 X 555.891 Y1420.251 I -24.749 J -24.749
F150
G1 Z  -3.000
F400
G2 X 605.389 Y1469.749 I  24.749 J  24.749
G2 X 555.891 Y1420.251 I -24.749 J -24.749
F150
G1 Z   3.000
G0 Z  15.000 
M9 M5

(* SHAPE Nr: 66 *)
G0 X1375.891 Y1420.251
M3 M8
G0 Z   3.000 
G1 Z  -1.500
F400
G2 X1425.389 Y1469.749 I  24.749 J  24.749
G2 X1375.891 Y1420.251 I -24.749 J -24.749
F150
G1 Z  -3.000
F400
G2 X1425.389 Y1469.749 I  24.749 J  24.749
G2 X1375.891 Y1420.251 I -24.749 J -24.749
F150
G1 Z   3.000
G0 Z  15.000 
M9 M5

(* SHAPE Nr: 69 *)
G0 X 425.891 Y1205.031
M3 M8
G0 Z   3.000 
G1 Z  -1.500
F400
G2 X 475.389 Y1254.529 I  24.749 J  24.749
G2 X 425.891 Y1205.031 I -24.749 J -24.749
F150
G1 Z  -3.000
F400
G2 X 475.389 Y1254.529 I  24.749 J  24.749
G2 X 425.891 Y1205.031 I -24.749 J -24.749
F150
G1 Z   3.000
G0 Z  15.000 
M9 M5

(* SHAPE Nr: 70 *)
G0 X1245.891 Y1205.031
M3 M8
G0 Z   3.000 
G1 Z  -1.500
F400
G2 X1295.389 Y1254.529 I  24.749 J  24.749
G2 X1245.891 Y1205.031 I -24.749 J -24.749
F150
G1 Z  -3.000
F400
G2 X1295.389 Y1254.529 I  24.749 J  24.749
G2 X1245.891 Y1205.031 I -24.749 J -24.749
F150
G1 Z   3.000
G0 Z  15.000 
M9 M5

(* SHAPE Nr: 73 *)
G0 X 408.232 Y1375.972
M3 M8
G0 Z   3.000 
G1 Z  -1.500
F400
G2 X 471.348 Y1439.088 I  31.558 J  31.558
G2 X 408.232 Y1375.972 I -31.558 J -31.558
F150
G1 Z  -3.000
F400
G2 X 471.348 Y1439.088 I  31.558 J  31.558
G2 X 408.232 Y1375.972 I -31.558 J -31.558
F150
G1 Z   3.000
G0 Z  15.000 
M9 M5

(*** LAYER: VBORE_Z6_D10 ***)

(* SHAPE Nr: 10 *)
G0 X1006.254 Y 178.134
M3 M8
G0 Z   3.000 
G1 Z  -1.500
F400
G2 X1013.326 Y 185.206 I   3.536 J   3.536
G2 X1006.254 Y 178.134 I  -3.536 J  -3.536
F150
G1 Z  -3.000
F400
G2 X1013.326 Y 185.206 I   3.536 J   3.536
G2 X1006.254 Y 178.134 I  -3.536 J  -3.536
F150
G1 Z   3.000
G0 Z  15.000 
M9 M5

(* SHAPE Nr: 11 *)
G0 X1006.254 Y 128.134
M3 M8
G0 Z   3.000 
G1 Z  -1.500
F400
G2 X1013.326 Y 135.206 I   3.536 J   3.536
G2 X1006.254 Y 128.134 I  -3.536 J  -3.536
F150
G1 Z  -3.000
F400
G2 X1013.326 Y 135.206 I   3.536 J   3.536
G2 X1006.254 Y 128.134 I  -3.536 J  -3.536
F150
G1 Z   3.000
G0 Z  15.000 
M9 M5

(* SHAPE Nr: 12 *)
G0 X 751.254 Y 178.134
M3 M8
G0 Z   3.000 
G1 Z  -1.500
F400
G2 X 758.326 Y 185.206 I   3.536 J   3.536
G2 X 751.254 Y 178.134 I  -3.536 J  -3.536
F150
G1 Z  -3.000
F400
G2 X 758.326 Y 185.206 I   3.536 J   3.536
G2 X 751.254 Y 178.134 I  -3.536 J  -3.536
F150
G1 Z   3.000
G0 Z  15.000 
M9 M5

(* SHAPE Nr: 13 *)
G0 X 751.254 Y 128.134
M3 M8
G0 Z   3.000 
G1 Z  -1.500
F400
G2 X 758.326 Y 135.206 I   3.536 J   3.536
G2 X 751.254 Y 128.134 I  -3.536 J  -3.536
F150
G1 Z  -3.000
F400
G2 X 758.326 Y 135.206 I   3.536 J   3.536
G2 X 751.254 Y 128.134 I  -3.536 J  -3.536
F150
G1 Z   3.000
G0 Z  15.000 
M9 M5

(* SHAPE Nr: 50 *)
G0 X2491.834 Y 231.244
M3 M8
G0 Z   3.000 
G1 Z  -1.500
F400
G2 X2498.906 Y 238.316 I   3.536 J   3.536
G2 X2491.834 Y 231.244 I  -3.536 J  -3.536
F150
G1 Z  -3.000
F400
G2 X2498.906 Y 238.316 I   3.536 J   3.536
G2 X2491.834 Y 231.244 I  -3.536 J  -3.536
F150
G1 Z   3.000
G0 Z  15.000 
M9 M5

(* SHAPE Nr: 51 *)
G0 X2491.834 Y 181.244
M3 M8
G0 Z   3.000 
G1 Z  -1.500
F400
G2 X2498.906 Y 188.316 I   3.536 J   3.536
G2 X2491.834 Y 181.244 I  -3.536 J  -3.536
F150
G1 Z  -3.000
F400
G2 X2498.906 Y 188.316 I   3.536 J   3.536
G2 X2491.834 Y 181.244 I  -3.536 J  -3.536
F150
G1 Z   3.000
G0 Z  15.000 
M9 M5

(* SHAPE Nr: 52 *)
G0 X2236.834 Y 231.244
M3 M8
G0 Z   3.000 
G1 Z  -1.500
F400
G2 X2243.906 Y 238.316 I   3.536 J   3.536
G2 X2236.834 Y 231.244 I  -3.536 J  -3.536
F150
G1 Z  -3.000
F400
G2 X2243.906 Y 238.316 I   3.536 J   3.536
G2 X2236.834 Y 231.244 I  -3.536 J  -3.536
F150
G1 Z   3.000
G0 Z  15.000 
M9 M5

(* SHAPE Nr: 53 *)
G0 X2236.834 Y 181.244
M3 M8
G0 Z   3.000 
G1 Z  -1.500
F400
G2 X2243.906 Y 188.316 I   3.536 J   3.536
G2 X2236.834 Y 181.244 I  -3.536 J  -3.536
F150
G1 Z  -3.000
F400
G2 X2243.906 Y 188.316 I   3.536 J   3.536
G2 X2236.834 Y 181.244 I  -3.536 J  -3.536
F150
G1 Z   3.000
G0 Z  15.000 
M9 M5

(*** LAYER: ROUT_Z8_D8_T135_A2_W2 ***)

(* SHAPE Nr: 115 *)
G0 X 790.490 Y 180.370
M3 M8
G0 Z   3.000 
G1 Z  -1.500
F400
G1 X 971.630 Y 180.370
F150
G1 Z  -3.000
F400
G1 X 790.490 Y 180.370
F150
G1 Z   3.000
G0 Z  15.000 
M9 M5

(* SHAPE Nr: 116 *)
G0 X 790.490 Y 133.970
M3 M8
G0 Z   3.000 
G1 Z  -1.500
F400
G1 X 971.630 Y 133.970
F150
G1 Z  -3.000
F400
G1 X 790.490 Y 133.970
F150
G1 Z   3.000
G0 Z  15.000 
M9 M5

(* SHAPE Nr: 117 *)
G0 X2276.070 Y 233.480
M3 M8
G0 Z   3.000 
G1 Z  -1.500
F400
G1 X2457.210 Y 233.480
F150
G1 Z  -3.000
F400
G1 X2276.070 Y 233.480
F150
G1 Z   3.000
G0 Z  15.000 
M9 M5

(* SHAPE Nr: 118 *)
G0 X2276.070 Y 187.080
M3 M8
G0 Z   3.000 
G1 Z  -1.500
F400
G1 X2457.210 Y 187.080
F150
G1 Z  -3.000
F400
G1 X2276.070 Y 187.080
F150
G1 Z   3.000
G0 Z  15.000 
M9 M5

(*** LAYER: VBORE_Z10_D8 ***)

(* SHAPE Nr: 24 *)
G0 X 434.052 Y 569.492
M3 M8
G0 Z   3.000 
G1 Z  -1.500
F400
G2 X 439.708 Y 575.148 I   2.828 J   2.828
G2 X 434.052 Y 569.492 I  -2.828 J  -2.828
F150
G1 Z  -3.000
F400
G2 X 439.708 Y 575.148 I   2.828 J   2.828
G2 X 434.052 Y 569.492 I  -2.828 J  -2.828
F150
G1 Z   3.000
G0 Z  15.000 
M9 M5

(* SHAPE Nr: 25 *)
G0 X 482.192 Y 569.492
M3 M8
G0 Z   3.000 
G1 Z  -1.500
F400
G2 X 487.848 Y 575.148 I   2.828 J   2.828
G2 X 482.192 Y 569.492 I  -2.828 J  -2.828
F150
G1 Z  -3.000
F400
G2 X 487.848 Y 575.148 I   2.828 J   2.828
G2 X 482.192 Y 569.492 I  -2.828 J  -2.828
F150
G1 Z   3.000
G0 Z  15.000 
M9 M5

(* SHAPE Nr: 26 *)
G0 X 999.472 Y 569.492
M3 M8
G0 Z   3.000 
G1 Z  -1.500
F400
G2 X1005.128 Y 575.148 I   2.828 J   2.828
G2 X 999.472 Y 569.492 I  -2.828 J  -2.828
F150
G1 Z  -3.000
F400
G2 X1005.128 Y 575.148 I   2.828 J   2.828
G2 X 999.472 Y 569.492 I  -2.828 J  -2.828
F150
G1 Z   3.000
G0 Z  15.000 
M9 M5

(* SHAPE Nr: 27 *)
G0 X 951.322 Y 569.492
M3 M8
G0 Z   3.000 
G1 Z  -1.500
F400
G2 X 956.978 Y 575.148 I   2.828 J   2.828
G2 X 951.322 Y 569.492 I  -2.828 J  -2.828
F150
G1 Z  -3.000
F400
G2 X 956.978 Y 575.148 I   2.828 J   2.828
G2 X 951.322 Y 569.492 I  -2.828 J  -2.828
F150
G1 Z   3.000
G0 Z  15.000 
M9 M5

(* SHAPE Nr: 45 *)
G0 X2236.542 Y1085.292
M3 M8
G0 Z   3.000 
G1 Z  -1.500
F400
G2 X2242.198 Y1090.948 I   2.828 J   2.828
G2 X2236.542 Y1085.292 I  -2.828 J  -2.828
F150
G1 Z  -3.000
F400
G2 X2242.198 Y1090.948 I   2.828 J   2.828
G2 X2236.542 Y1085.292 I  -2.828 J  -2.828
F150
G1 Z   3.000
G0 Z  15.000 
M9 M5

(* SHAPE Nr: 46 *)
G0 X2236.542 Y1037.152
M3 M8
G0 Z   3.000 
G1 Z  -1.500
F400
G2 X2242.198 Y1042.808 I   2.828 J   2.828
G2 X2236.542 Y1037.152 I  -2.828 J  -2.828
F150
G1 Z  -3.000
F400
G2 X2242.198 Y1042.808 I   2.828 J   2.828
G2 X2236.542 Y1037.152 I  -2.828 J  -2.828
F150
G1 Z   3.000
G0 Z  15.000 
M9 M5

(* SHAPE Nr: 47 *)
G0 X2236.542 Y 519.872
M3 M8
G0 Z   3.000 
G1 Z  -1.500
F400
G2 X2242.198 Y 525.528 I   2.828 J   2.828
G2 X2236.542 Y 519.872 I  -2.828 J  -2.828
F150
G1 Z  -3.000
F400
G2 X2242.198 Y 525.528 I   2.828 J   2.828
G2 X2236.542 Y 519.872 I  -2.828 J  -2.828
F150
G1 Z   3.000
G0 Z  15.000 
M9 M5

(* SHAPE Nr: 48 *)
G0 X2236.542 Y 568.022
M3 M8
G0 Z   3.000 
G1 Z  -1.500
F400
G2 X2242.198 Y 573.678 I   2.828 J   2.828
G2 X2236.542 Y 568.022 I  -2.828 J  -2.828
F150
G1 Z  -3.000
F400
G2 X2242.198 Y 573.678 I   2.828 J   2.828
G2 X2236.542 Y 568.022 I  -2.828 J  -2.828
F150
G1 Z   3.000
G0 Z  15.000 
M9 M5

(*** LAYER: CONTOUR_D0_T135_A2_W2 ***)

(* SHAPE Nr: 28 *)
G0 X  33.720 Y 599.750
M3 M8
G0 Z   3.000 
G1 Z  -1.500
F400
G1 X  33.720 Y 779.750
G1 X  33.720 Y 982.250
G2 X 573.720 Y 779.750 I  28.932 J-744.099
G3 X 982.350 Y 652.300 I 355.264 J 420.246
G1 X 982.350 Y 599.750
G1 X 710.140 Y 599.750
G1 X 393.720 Y 599.750
G1 X 213.720 Y 599.750
G1 X  33.720 Y 599.750
F150
G1 Z  -3.000
F400
G1 X  33.720 Y 779.750
G1 X  33.720 Y 982.250
G2 X 573.720 Y 779.750 I  28.932 J-744.099
G3 X 982.350 Y 652.300 I 355.264 J 420.246
G1 X 982.350 Y 599.750
G1 X 710.140 Y 599.750
G1 X 393.720 Y 599.750
G1 X 213.720 Y 599.750
G1 X  33.720 Y 599.750
F150
G1 Z   3.000
G0 Z  15.000 
M9 M5

(* SHAPE Nr: 49 *)
G0 X2266.800 Y 542.650
M3 M8
G0 Z   3.000 
G1 Z  -1.500
F400
G1 X2266.800 Y 814.860
G1 X2266.800 Y1131.280
G1 X2266.800 Y1311.280
G1 X2266.800 Y1491.280
G1 X2446.800 Y1491.280
G1 X2649.300 Y1491.280
G2 X2446.800 Y 951.280 I-744.099 J -28.932
G3 X2319.350 Y 542.650 I 420.246 J-355.264
G1 X2266.800 Y 542.650
F150
G1 Z  -3.000
F400
G1 X2266.800 Y 814.860
G1 X2266.800 Y1131.280
G1 X2266.800 Y1311.280
G1 X2266.800 Y1491.280
G1 X2446.800 Y1491.280
G1 X2649.300 Y1491.280
G2 X2446.800 Y 951.280 I-744.099 J -28.932
G3 X2319.350 Y 542.650 I 420.246 J-355.264
G1 X2266.800 Y 542.650
F150
G1 Z   3.000
G0 Z  15.000 
M9 M5

(*** LAYER: ROUT_Z6_D10_T160_A2_W2 ***)

(* SHAPE Nr: 67 *)
G0 X 552.356 Y1416.716
M3 M8
G0 Z   3.000 
G1 Z  -1.500
F400
G2 X 608.924 Y1473.284 I  28.284 J  28.284
G2 X 552.356 Y1416.716 I -28.284 J -28.284
F150
G1 Z  -3.000
F400
G2 X 608.924 Y1473.284 I  28.284 J  28.284
G2 X 552.356 Y1416.716 I -28.284 J -28.284
F150
G1 Z   3.000
G0 Z  15.000 
M9 M5

(* SHAPE Nr: 68 *)
G0 X1372.356 Y1416.716
M3 M8
G0 Z   3.000 
G1 Z  -1.500
F400
G2 X1428.924 Y1473.284 I  28.284 J  28.284
G2 X1372.356 Y1416.716 I -28.284 J -28.284
F150
G1 Z  -3.000
F400
G2 X1428.924 Y1473.284 I  28.284 J  28.284
G2 X1372.356 Y1416.716 I -28.284 J -28.284
F150
G1 Z   3.000
G0 Z  15.000 
M9 M5

(* SHAPE Nr: 71 *)
G0 X 422.356 Y1201.496
M3 M8
G0 Z   3.000 
G1 Z  -1.500
F400
G2 X 478.924 Y1258.064 I  28.284 J  28.284
G2 X 422.356 Y1201.496 I -28.284 J -28.284
F150
G1 Z  -3.000
F400
G2 X 478.924 Y1258.064 I  28.284 J  28.284
G2 X 422.356 Y1201.496 I -28.284 J -28.284
F150
G1 Z   3.000
G0 Z  15.000 
M9 M5

(* SHAPE Nr: 72 *)
G0 X1242.356 Y1201.496
M3 M8
G0 Z   3.000 
G1 Z  -1.500
F400
G2 X1298.924 Y1258.064 I  28.284 J  28.284
G2 X1242.356 Y1201.496 I -28.284 J -28.284
F150
G1 Z  -3.000
F400
G2 X1298.924 Y1258.064 I  28.284 J  28.284
G2 X1242.356 Y1201.496 I -28.284 J -28.284
F150
G1 Z   3.000
G0 Z  15.000 
M9 M5

(*** LAYER: BORDER_D0_T128_RK1_A0_W0_RI1_EM1_ID0005 ***)

(* SHAPE Nr: 74 *)
G0 X 203.090 Y 241.670
M3 M8
G0 Z   3.000 
G1 Z  -1.500
F400
G1 X 203.090 Y 316.670
G1 X 428.090 Y 316.670
G1 X 653.090 Y 316.670
G1 X 653.090 Y 341.670
G3 X 853.090 Y 541.670 I -11.469 J 211.469
G1 X1003.090 Y 541.670
G1 X1003.090 Y 241.670
G1 X 603.090 Y 241.670
G1 X 203.090 Y 241.670
F150
G1 Z  -3.000
F400
G1 X 203.090 Y 316.670
G1 X 428.090 Y 316.670
G1 X 653.090 Y 316.670
G1 X 653.090 Y 341.670
G3 X 853.090 Y 541.670 I -11.469 J 211.469
G1 X1003.090 Y 541.670
G1 X1003.090 Y 241.670
G1 X 603.090 Y 241.670
G1 X 203.090 Y 241.670
F150
G1 Z   3.000
G0 Z  15.000 
M9 M5

(* SHAPE Nr: 78 *)
G0 X  15.000 Y 242.320
M3 M8
G0 Z   3.000 
G1 Z  -1.500
F400
G1 X  15.000 Y 542.320
G1 X 415.000 Y 542.320
G1 X 815.000 Y 542.320
G1 X 815.000 Y 467.320
G1 X 590.000 Y 467.320
G1 X 365.000 Y 467.320
G1 X 365.000 Y 442.320
G3 X 165.000 Y 242.320 I  11.469 J-211.469
G1 X  15.000 Y 242.320
F150
G1 Z  -3.000
F400
G1 X  15.000 Y 542.320
G1 X 415.000 Y 542.320
G1 X 815.000 Y 542.320
G1 X 815.000 Y 467.320
G1 X 590.000 Y 467.320
G1 X 365.000 Y 467.320
G1 X 365.000 Y 442.320
G3 X 165.000 Y 242.320 I  11.469 J-211.469
G1 X  15.000 Y 242.320
F150
G1 Z   3.000
G0 Z  15.000 
M9 M5

(* SHAPE Nr: 80 *)
G0 X1206.210 Y 241.670
M3 M8
G0 Z   3.000 
G1 Z  -1.500
F400
G1 X1206.210 Y 316.670
G1 X1431.210 Y 316.670
G1 X1656.210 Y 316.670
G1 X1656.210 Y 341.670
G3 X1856.210 Y 541.670 I -11.469 J 211.469
G1 X2006.210 Y 541.670
G1 X2006.210 Y 241.670
G1 X1606.210 Y 241.670
G1 X1206.210 Y 241.670
F150
G1 Z  -3.000
F400
G1 X1206.210 Y 316.670
G1 X1431.210 Y 316.670
G1 X1656.210 Y 316.670
G1 X1656.210 Y 341.670
G3 X1856.210 Y 541.670 I -11.469 J 211.469
G1 X2006.210 Y 541.670
G1 X2006.210 Y 241.670
G1 X1606.210 Y 241.670
G1 X1206.210 Y 241.670
F150
G1 Z   3.000
G0 Z  15.000 
M9 M5

(* SHAPE Nr: 81 *)
G0 X1018.090 Y 242.310
M3 M8
G0 Z   3.000 
G1 Z  -1.500
F400
G1 X1018.090 Y 542.310
G1 X1418.090 Y 542.310
G1 X1818.090 Y 542.310
G1 X1818.090 Y 467.310
G1 X1593.090 Y 467.310
G1 X1368.090 Y 467.310
G1 X1368.090 Y 442.310
G3 X1168.090 Y 242.310 I  11.469 J-211.469
G1 X1018.090 Y 242.310
F150
G1 Z  -3.000
F400
G1 X1018.090 Y 542.310
G1 X1418.090 Y 542.310
G1 X1818.090 Y 542.310
G1 X1818.090 Y 467.310
G1 X1593.090 Y 467.310
G1 X1368.090 Y 467.310
G1 X1368.090 Y 442.310
G3 X1168.090 Y 242.310 I  11.469 J-211.469
G1 X1018.090 Y 242.310
F150
G1 Z   3.000
G0 Z  15.000 
M9 M5

(* SHAPE Nr: 88 *)
G0 X2915.010 Y 710.000
M3 M8
G0 Z   3.000 
G1 Z  -1.500
F400
G1 X2915.010 Y 935.000
G1 X2915.010 Y1160.000
G1 X2890.010 Y1160.000
G3 X2690.010 Y1360.000 I-211.469 J -11.469
G1 X2690.010 Y1510.000
G1 X2990.010 Y1510.000
G1 X2990.010 Y1110.000
G1 X2990.010 Y 710.000
G1 X2915.010 Y 710.000
F150
G1 Z  -3.000
F400
G1 X2915.010 Y 935.000
G1 X2915.010 Y1160.000
G1 X2890.010 Y1160.000
G3 X2690.010 Y1360.000 I-211.469 J -11.469
G1 X2690.010 Y1510.000
G1 X2990.010 Y1510.000
G1 X2990.010 Y1110.000
G1 X2990.010 Y 710.000
G1 X2915.010 Y 710.000
F150
G1 Z   3.000
G0 Z  15.000 
M9 M5

(*** LAYER: BORDER_D0_T128_RK1_A0_W0_RI1_EM1_ID0012 ***)

(* SHAPE Nr: 75 *)
G0 X  35.000 Y  26.610
M3 M8
G0 Z   3.000 
G1 Z  -1.500
F400
G2 X  15.000 Y  46.610 I   1.916 J  21.916
G1 X  15.000 Y 206.610
G2 X  35.000 Y 226.610 I  21.916 J  -1.916
G1 X  85.000 Y 226.610
G2 X 135.000 Y 216.610 I   6.528 J -97.361
G1 X 290.000 Y 151.610
G1 X 445.000 Y  86.610
G2 X 465.000 Y  66.610 I -11.341 J -31.341
G1 X 465.000 Y  46.610
G2 X 445.000 Y  26.610 I -21.916 J   1.916
G1 X 235.000 Y  26.610
G1 X  35.000 Y  26.610
F150
G1 Z  -3.000
F400
G2 X  15.000 Y  46.610 I   1.916 J  21.916
G1 X  15.000 Y 206.610
G2 X  35.000 Y 226.610 I  21.916 J  -1.916
G1 X  85.000 Y 226.610
G2 X 135.000 Y 216.610 I   6.528 J -97.361
G1 X 290.000 Y 151.610
G1 X 445.000 Y  86.610
G2 X 465.000 Y  66.610 I -11.341 J -31.341
G1 X 465.000 Y  46.610
G2 X 445.000 Y  26.610 I -21.916 J   1.916
G1 X 235.000 Y  26.610
G1 X  35.000 Y  26.610
F150
G1 Z   3.000
G0 Z  15.000 
M9 M5

(* SHAPE Nr: 76 *)
G0 X 273.790 Y 186.670
M3 M8
G0 Z   3.000 
G1 Z  -1.500
F400
G1 X 273.790 Y 206.670
G2 X 293.790 Y 226.670 I  21.916 J  -1.916
G1 X 503.790 Y 226.670
G1 X 703.790 Y 226.670
G2 X 723.790 Y 206.670 I  -1.916 J -21.916
G1 X 723.790 Y  46.670
G2 X 703.790 Y  26.670 I -21.916 J   1.916
G1 X 653.790 Y  26.670
G2 X 603.790 Y  36.670 I  -6.528 J  97.361
G1 X 448.790 Y 101.670
G1 X 293.790 Y 166.670
G2 X 273.790 Y 186.670 I  11.341 J  31.341
F150
G1 Z  -3.000
F400
G1 X 273.790 Y 206.670
G2 X 293.790 Y 226.670 I  21.916 J  -1.916
G1 X 503.790 Y 226.670
G1 X 703.790 Y 226.670
G2 X 723.790 Y 206.670 I  -1.916 J -21.916
G1 X 723.790 Y  46.670
G2 X 703.790 Y  26.670 I -21.916 J   1.916
G1 X 653.790 Y  26.670
G2 X 603.790 Y  36.670 I  -6.528 J  97.361
G1 X 448.790 Y 101.670
G1 X 293.790 Y 166.670
G2 X 273.790 Y 186.670 I  11.341 J  31.341
F150
G1 Z   3.000
G0 Z  15.000 
M9 M5

(* SHAPE Nr: 87 *)
G0 X2224.370 Y 314.780
M3 M8
G0 Z   3.000 
G1 Z  -1.500
F400
G1 X2224.370 Y 474.780
G2 X2244.370 Y 494.780 I  21.916 J  -1.916
G1 X2294.370 Y 494.780
G2 X2344.370 Y 484.780 I   6.528 J -97.361
G1 X2499.370 Y 419.780
G1 X2654.370 Y 354.780
G2 X2674.370 Y 334.780 I -11.341 J -31.341
G1 X2674.370 Y 314.780
G2 X2654.370 Y 294.780 I -21.916 J   1.916
G1 X2444.370 Y 294.780
G1 X2244.370 Y 294.780
G2 X2224.370 Y 314.780 I   1.916 J  21.916
F150
G1 Z  -3.000
F400
G1 X2224.370 Y 474.780
G2 X2244.370 Y 494.780 I  21.916 J  -1.916
G1 X2294.370 Y 494.780
G2 X2344.370 Y 484.780 I   6.528 J -97.361
G1 X2499.370 Y 419.780
G1 X2654.370 Y 354.780
G2 X2674.370 Y 334.780 I -11.341 J -31.341
G1 X2674.370 Y 314.780
G2 X2654.370 Y 294.780 I -21.916 J   1.916
G1 X2444.370 Y 294.780
G1 X2244.370 Y 294.780
G2 X2224.370 Y 314.780 I   1.916 J  21.916
F150
G1 Z   3.000
G0 Z  15.000 
M9 M5

(* SHAPE Nr: 93 *)
G0 X 395.620 Y1320.000
M3 M8
G0 Z   3.000 
G1 Z  -1.500
F400
G1 X 240.620 Y1385.000
G1 X  85.620 Y1450.000
G2 X  65.620 Y1470.000 I  11.341 J  31.341
G1 X  65.620 Y1490.000
G2 X  85.620 Y1510.000 I  21.916 J  -1.916
G1 X 295.620 Y1510.000
G1 X 495.620 Y1510.000
G2 X 515.620 Y1490.000 I  -1.916 J -21.916
G1 X 515.620 Y1330.000
G2 X 495.620 Y1310.000 I -21.916 J   1.916
G1 X 445.620 Y1310.000
G2 X 395.620 Y1320.000 I  -6.528 J  97.361
F150
G1 Z  -3.000
F400
G1 X 240.620 Y1385.000
G1 X  85.620 Y1450.000
G2 X  65.620 Y1470.000 I  11.341 J  31.341
G1 X  65.620 Y1490.000
G2 X  85.620 Y1510.000 I  21.916 J  -1.916
G1 X 295.620 Y1510.000
G1 X 495.620 Y1510.000
G2 X 515.620 Y1490.000 I  -1.916 J -21.916
G1 X 515.620 Y1330.000
G2 X 495.620 Y1310.000 I -21.916 J   1.916
G1 X 445.620 Y1310.000
G2 X 395.620 Y1320.000 I  -6.528 J  97.361
F150
G1 Z   3.000
G0 Z  15.000 
M9 M5

(*** LAYER: BORDER_D0_T128_RK1_A0_W0_RI1_EM1_ID0003 ***)

(* SHAPE Nr: 77 *)
G0 X 738.790 Y  87.670
M3 M8
G0 Z   3.000 
G1 Z  -1.500
F400
G1 X 738.790 Y 157.170
G1 X 738.790 Y 226.670
G1 X 885.790 Y 226.670
G1 X1032.790 Y 226.670
G1 X1032.790 Y  87.670
G1 X 738.790 Y  87.670
F150
G1 Z  -3.000
F400
G1 X 738.790 Y 157.170
G1 X 738.790 Y 226.670
G1 X 885.790 Y 226.670
G1 X1032.790 Y 226.670
G1 X1032.790 Y  87.670
G1 X 738.790 Y  87.670
F150
G1 Z   3.000
G0 Z  15.000 
M9 M5

(* SHAPE Nr: 84 *)
G0 X2224.370 Y 140.780
M3 M8
G0 Z   3.000 
G1 Z  -1.500
F400
G1 X2224.370 Y 210.280
G1 X2224.370 Y 279.780
G1 X2371.370 Y 279.780
G1 X2518.370 Y 279.780
G1 X2518.370 Y 140.780
G1 X2224.370 Y 140.780
F150
G1 Z  -3.000
F400
G1 X2224.370 Y 210.280
G1 X2224.370 Y 279.780
G1 X2371.370 Y 279.780
G1 X2518.370 Y 279.780
G1 X2518.370 Y 140.780
G1 X2224.370 Y 140.780
F150
G1 Z   3.000
G0 Z  15.000 
M9 M5

(*** LAYER: BORDER_D0_T128_RK1_A0_W0_RI1_EM1_ID0004 ***)

(* SHAPE Nr: 79 *)
G0 X  15.000 Y 582.320
M3 M8
G0 Z   3.000 
G1 Z  -1.500
F400
G1 X  15.000 Y 782.320
G1 X  15.000 Y1007.320
G2 X 615.000 Y 782.320 I  32.146 J-826.776
G3 X1015.000 Y 682.320 I 323.887 J 445.546
G1 X1015.000 Y 557.320
G1 X 715.000 Y 557.320
G1 X 415.000 Y 557.320
G1 X 415.000 Y 582.320
G1 X  15.000 Y 582.320
F150
G1 Z  -3.000
F400
G1 X  15.000 Y 782.320
G1 X  15.000 Y1007.320
G2 X 615.000 Y 782.320 I  32.146 J-826.776
G3 X1015.000 Y 682.320 I 323.887 J 445.546
G1 X1015.000 Y 557.320
G1 X 715.000 Y 557.320
G1 X 415.000 Y 557.320
G1 X 415.000 Y 582.320
G1 X  15.000 Y 582.320
F150
G1 Z   3.000
G0 Z  15.000 
M9 M5

(* SHAPE Nr: 83 *)
G0 X2224.370 Y 510.000
M3 M8
G0 Z   3.000 
G1 Z  -1.500
F400
G1 X2224.370 Y 810.000
G1 X2224.370 Y1110.000
G1 X2249.370 Y1110.000
G1 X2249.370 Y1510.000
G1 X2449.370 Y1510.000
G1 X2674.370 Y1510.000
G2 X2449.370 Y 910.000 I-826.776 J -32.146
G3 X2349.370 Y 510.000 I 445.546 J-323.887
G1 X2224.370 Y 510.000
F150
G1 Z  -3.000
F400
G1 X2224.370 Y 810.000
G1 X2224.370 Y1110.000
G1 X2249.370 Y1110.000
G1 X2249.370 Y1510.000
G1 X2449.370 Y1510.000
G1 X2674.370 Y1510.000
G2 X2449.370 Y 910.000 I-826.776 J -32.146
G3 X2349.370 Y 510.000 I 445.546 J-323.887
G1 X2224.370 Y 510.000
F150
G1 Z   3.000
G0 Z  15.000 
M9 M5

(*** LAYER: BORDER_D0_T128_RK1_A0_W0_RI1_EM1_ID0008 ***)

(* SHAPE Nr: 82 *)
G0 X1230.050 Y 610.000
M3 M8
G0 Z   3.000 
G1 Z  -1.500
F400
G1 X1330.050 Y 710.000
G1 X1841.140 Y 710.000
G1 X2030.050 Y 898.910
G1 X2030.050 Y1410.000
G1 X2130.050 Y1510.000
G1 X2130.050 Y1150.350
G1 X2130.050 Y 857.490
G1 X1882.560 Y 610.000
G1 X1556.310 Y 610.000
G1 X1230.050 Y 610.000
F150
G1 Z  -3.000
F400
G1 X1330.050 Y 710.000
G1 X1841.140 Y 710.000
G1 X2030.050 Y 898.910
G1 X2030.050 Y1410.000
G1 X2130.050 Y1510.000
G1 X2130.050 Y1150.350
G1 X2130.050 Y 857.490
G1 X1882.560 Y 610.000
G1 X1556.310 Y 610.000
G1 X1230.050 Y 610.000
F150
G1 Z   3.000
G0 Z  15.000 
M9 M5

(* SHAPE Nr: 85 *)
G0 X1309.380 Y  15.580
M3 M8
G0 Z   3.000 
G1 Z  -1.500
F400
G1 X1409.380 Y 115.580
G1 X1920.470 Y 115.580
G1 X2109.380 Y 304.490
G1 X2109.380 Y 815.580
G1 X2209.380 Y 915.580
G1 X2209.380 Y 555.930
G1 X2209.380 Y 263.070
G1 X1961.890 Y  15.580
G1 X1635.640 Y  15.580
G1 X1309.380 Y  15.580
F150
G1 Z  -3.000
F400
G1 X1409.380 Y 115.580
G1 X1920.470 Y 115.580
G1 X2109.380 Y 304.490
G1 X2109.380 Y 815.580
G1 X2209.380 Y 915.580
G1 X2209.380 Y 555.930
G1 X2209.380 Y 263.070
G1 X1961.890 Y  15.580
G1 X1635.640 Y  15.580
G1 X1309.380 Y  15.580
F150
G1 Z   3.000
G0 Z  15.000 
M9 M5

(* SHAPE Nr: 86 *)
G0 X1982.600 Y  15.070
M3 M8
G0 Z   3.000 
G1 Z  -1.500
F400
G1 X2082.600 Y 115.070
G1 X2593.690 Y 115.070
G1 X2782.600 Y 303.980
G1 X2782.600 Y 815.070
G1 X2882.600 Y 915.070
G1 X2882.600 Y 555.420
G1 X2882.600 Y 262.560
G1 X2635.110 Y  15.070
G1 X2308.860 Y  15.070
G1 X1982.600 Y  15.070
F150
G1 Z  -3.000
F400
G1 X2082.600 Y 115.070
G1 X2593.690 Y 115.070
G1 X2782.600 Y 303.980
G1 X2782.600 Y 815.070
G1 X2882.600 Y 915.070
G1 X2882.600 Y 555.420
G1 X2882.600 Y 262.560
G1 X2635.110 Y  15.070
G1 X2308.860 Y  15.070
G1 X1982.600 Y  15.070
F150
G1 Z   3.000
G0 Z  15.000 
M9 M5

(*** LAYER: BORDER_D0_T128_RK1_A0_W0_RI1_EM1_ID0009 ***)

(* SHAPE Nr: 89 *)
G0 X  15.000 Y1284.310
M3 M8
G0 Z   3.000 
G1 Z  -1.500
F400
G1 X  15.000 Y1334.310
G1 X  15.000 Y1384.310
G3 X2015.000 Y1384.310 I1000.000 J 660.916
G1 X2015.000 Y1334.310
G1 X2015.000 Y1284.310
G2 X  15.000 Y1284.310 I-1000.000 J 755.718
F150
G1 Z  -3.000
F400
G1 X  15.000 Y1334.310
G1 X  15.000 Y1384.310
G3 X2015.000 Y1384.310 I1000.000 J 660.916
G1 X2015.000 Y1334.310
G1 X2015.000 Y1284.310
G2 X  15.000 Y1284.310 I-1000.000 J 755.718
F150
G1 Z   3.000
G0 Z  15.000 
M9 M5

(* SHAPE Nr: 90 *)
G0 X  15.000 Y1410.000
M3 M8
G0 Z   3.000 
G1 Z  -1.500
F400
G1 X  15.000 Y1460.000
G1 X  15.000 Y1510.000
G3 X2015.000 Y1510.000 I1000.000 J 660.916
G1 X2015.000 Y1460.000
G1 X2015.000 Y1410.000
G2 X  15.000 Y1410.000 I-1000.000 J 755.718
F150
G1 Z  -3.000
F400
G1 X  15.000 Y1460.000
G1 X  15.000 Y1510.000
G3 X2015.000 Y1510.000 I1000.000 J 660.916
G1 X2015.000 Y1460.000
G1 X2015.000 Y1410.000
G2 X  15.000 Y1410.000 I-1000.000 J 755.718
F150
G1 Z   3.000
G0 Z  15.000 
M9 M5

(*** LAYER: BORDER_D0_T128_RK1_A0_W0_RI1_EM1_ID0006 ***)

(* SHAPE Nr: 91 *)
G0 X 530.640 Y1380.000
M3 M8
G0 Z   3.000 
G1 Z  -1.500
F400
G1 X 530.640 Y1510.000
G1 X 990.640 Y1510.000
G1 X1220.640 Y1510.000
G1 X1450.640 Y1510.000
G1 X1450.640 Y1380.000
G1 X1350.640 Y1380.000
G3 X 630.640 Y1380.000 I-360.000 J-811.370
G1 X 530.640 Y1380.000
F150
G1 Z  -3.000
F400
G1 X 530.640 Y1510.000
G1 X 990.640 Y1510.000
G1 X1220.640 Y1510.000
G1 X1450.640 Y1510.000
G1 X1450.640 Y1380.000
G1 X1350.640 Y1380.000
G3 X 630.640 Y1380.000 I-360.000 J-811.370
G1 X 530.640 Y1380.000
F150
G1 Z   3.000
G0 Z  15.000 
M9 M5

(* SHAPE Nr: 92 *)
G0 X 400.640 Y1164.780
M3 M8
G0 Z   3.000 
G1 Z  -1.500
F400
G1 X 400.640 Y1294.780
G1 X 860.640 Y1294.780
G1 X1090.640 Y1294.780
G1 X1320.640 Y1294.780
G1 X1320.640 Y1164.780
G1 X1220.640 Y1164.780
G3 X 500.640 Y1164.780 I-360.000 J-811.370
G1 X 400.640 Y1164.780
F150
G1 Z  -3.000
F400
G1 X 400.640 Y1294.780
G1 X 860.640 Y1294.780
G1 X1090.640 Y1294.780
G1 X1320.640 Y1294.780
G1 X1320.640 Y1164.780
G1 X1220.640 Y1164.780
G3 X 500.640 Y1164.780 I-360.000 J-811.370
G1 X 400.640 Y1164.780
F150
G1 Z   3.000
G0 Z  15.000 
M9 M5

(*** LAYER: BORDER_D0_T128.1_RK1_A0_W0_RI1_EM1_ID0005 ***)

(* SHAPE Nr: 94 *)
G0 X 203.090 Y 241.670
M3 M8
G0 Z   3.000 
G1 Z  -1.500
F400
G1 X 203.090 Y 316.670
G1 X 428.090 Y 316.670
G1 X 653.090 Y 316.670
G1 X 653.090 Y 341.670
G3 X 853.090 Y 541.670 I -11.469 J 211.469
G1 X1003.090 Y 541.670
G1 X1003.090 Y 241.670
G1 X 603.090 Y 241.670
G1 X 203.090 Y 241.670
F150
G1 Z  -3.000
F400
G1 X 203.090 Y 316.670
G1 X 428.090 Y 316.670
G1 X 653.090 Y 316.670
G1 X 653.090 Y 341.670
G3 X 853.090 Y 541.670 I -11.469 J 211.469
G1 X1003.090 Y 541.670
G1 X1003.090 Y 241.670
G1 X 603.090 Y 241.670
G1 X 203.090 Y 241.670
F150
G1 Z   3.000
G0 Z  15.000 
M9 M5

(* SHAPE Nr: 98 *)
G0 X  15.000 Y 242.320
M3 M8
G0 Z   3.000 
G1 Z  -1.500
F400
G1 X  15.000 Y 542.320
G1 X 415.000 Y 542.320
G1 X 815.000 Y 542.320
G1 X 815.000 Y 467.320
G1 X 590.000 Y 467.320
G1 X 365.000 Y 467.320
G1 X 365.000 Y 442.320
G3 X 165.000 Y 242.320 I  11.469 J-211.469
G1 X  15.000 Y 242.320
F150
G1 Z  -3.000
F400
G1 X  15.000 Y 542.320
G1 X 415.000 Y 542.320
G1 X 815.000 Y 542.320
G1 X 815.000 Y 467.320
G1 X 590.000 Y 467.320
G1 X 365.000 Y 467.320
G1 X 365.000 Y 442.320
G3 X 165.000 Y 242.320 I  11.469 J-211.469
G1 X  15.000 Y 242.320
F150
G1 Z   3.000
G0 Z  15.000 
M9 M5

(* SHAPE Nr: 100 *)
G0 X1206.210 Y 241.670
M3 M8
G0 Z   3.000 
G1 Z  -1.500
F400
G1 X1206.210 Y 316.670
G1 X1431.210 Y 316.670
G1 X1656.210 Y 316.670
G1 X1656.210 Y 341.670
G3 X1856.210 Y 541.670 I -11.469 J 211.469
G1 X2006.210 Y 541.670
G1 X2006.210 Y 241.670
G1 X1606.210 Y 241.670
G1 X1206.210 Y 241.670
F150
G1 Z  -3.000
F400
G1 X1206.210 Y 316.670
G1 X1431.210 Y 316.670
G1 X1656.210 Y 316.670
G1 X1656.210 Y 341.670
G3 X1856.210 Y 541.670 I -11.469 J 211.469
G1 X2006.210 Y 541.670
G1 X2006.210 Y 241.670
G1 X1606.210 Y 241.670
G1 X1206.210 Y 241.670
F150
G1 Z   3.000
G0 Z  15.000 
M9 M5

(* SHAPE Nr: 101 *)
G0 X1018.090 Y 242.310
M3 M8
G0 Z   3.000 
G1 Z  -1.500
F400
G1 X1018.090 Y 542.310
G1 X1418.090 Y 542.310
G1 X1818.090 Y 542.310
G1 X1818.090 Y 467.310
G1 X1593.090 Y 467.310
G1 X1368.090 Y 467.310
G1 X1368.090 Y 442.310
G3 X1168.090 Y 242.310 I  11.469 J-211.469
G1 X1018.090 Y 242.310
F150
G1 Z  -3.000
F400
G1 X1018.090 Y 542.310
G1 X1418.090 Y 542.310
G1 X1818.090 Y 542.310
G1 X1818.090 Y 467.310
G1 X1593.090 Y 467.310
G1 X1368.090 Y 467.310
G1 X1368.090 Y 442.310
G3 X1168.090 Y 242.310 I  11.469 J-211.469
G1 X1018.090 Y 242.310
F150
G1 Z   3.000
G0 Z  15.000 
M9 M5

(* SHAPE Nr: 108 *)
G0 X2915.010 Y 710.000
M3 M8
G0 Z   3.000 
G1 Z  -1.500
F400
G1 X2915.010 Y 935.000
G1 X2915.010 Y1160.000
G1 X2890.010 Y1160.000
G3 X2690.010 Y1360.000 I-211.469 J -11.469
G1 X2690.010 Y1510.000
G1 X2990.010 Y1510.000
G1 X2990.010 Y1110.000
G1 X2990.010 Y 710.000
G1 X2915.010 Y 710.000
F150
G1 Z  -3.000
F400
G1 X2915.010 Y 935.000
G1 X2915.010 Y1160.000
G1 X2890.010 Y1160.000
G3 X2690.010 Y1360.000 I-211.469 J -11.469
G1 X2690.010 Y1510.000
G1 X2990.010 Y1510.000
G1 X2990.010 Y1110.000
G1 X2990.010 Y 710.000
G1 X2915.010 Y 710.000
F150
G1 Z   3.000
G0 Z  15.000 
M9 M5

(*** LAYER: BORDER_D0_T128.1_RK1_A0_W0_RI1_EM1_ID0012 ***)

(* SHAPE Nr: 95 *)
G0 X  35.000 Y  26.610
M3 M8
G0 Z   3.000 
G1 Z  -1.500
F400
G2 X  15.000 Y  46.610 I   1.916 J  21.916
G1 X  15.000 Y 206.610
G2 X  35.000 Y 226.610 I  21.916 J  -1.916
G1 X  85.000 Y 226.610
G2 X 135.000 Y 216.610 I   6.528 J -97.361
G1 X 290.000 Y 151.610
G1 X 445.000 Y  86.610
G2 X 465.000 Y  66.610 I -11.341 J -31.341
G1 X 465.000 Y  46.610
G2 X 445.000 Y  26.610 I -21.916 J   1.916
G1 X 235.000 Y  26.610
G1 X  35.000 Y  26.610
F150
G1 Z  -3.000
F400
G2 X  15.000 Y  46.610 I   1.916 J  21.916
G1 X  15.000 Y 206.610
G2 X  35.000 Y 226.610 I  21.916 J  -1.916
G1 X  85.000 Y 226.610
G2 X 135.000 Y 216.610 I   6.528 J -97.361
G1 X 290.000 Y 151.610
G1 X 445.000 Y  86.610
G2 X 465.000 Y  66.610 I -11.341 J -31.341
G1 X 465.000 Y  46.610
G2 X 445.000 Y  26.610 I -21.916 J   1.916
G1 X 235.000 Y  26.610
G1 X  35.000 Y  26.610
F150
G1 Z   3.000
G0 Z  15.000 
M9 M5

(* SHAPE Nr: 96 *)
G0 X 273.790 Y 186.670
M3 M8
G0 Z   3.000 
G1 Z  -1.500
F400
G1 X 273.790 Y 206.670
G2 X 293.790 Y 226.670 I  21.916 J  -1.916
G1 X 503.790 Y 226.670
G1 X 703.790 Y 226.670
G2 X 723.790 Y 206.670 I  -1.916 J -21.916
G1 X 723.790 Y  46.670
G2 X 703.790 Y  26.670 I -21.916 J   1.916
G1 X 653.790 Y  26.670
G2 X 603.790 Y  36.670 I  -6.528 J  97.361
G1 X 448.790 Y 101.670
G1 X 293.790 Y 166.670
G2 X 273.790 Y 186.670 I  11.341 J  31.341
F150
G1 Z  -3.000
F400
G1 X 273.790 Y 206.670
G2 X 293.790 Y 226.670 I  21.916 J  -1.916
G1 X 503.790 Y 226.670
G1 X 703.790 Y 226.670
G2 X 723.790 Y 206.670 I  -1.916 J -21.916
G1 X 723.790 Y  46.670
G2 X 703.790 Y  26.670 I -21.916 J   1.916
G1 X 653.790 Y  26.670
G2 X 603.790 Y  36.670 I  -6.528 J  97.361
G1 X 448.790 Y 101.670
G1 X 293.790 Y 166.670
G2 X 273.790 Y 186.670 I  11.341 J  31.341
F150
G1 Z   3.000
G0 Z  15.000 
M9 M5

(* SHAPE Nr: 107 *)
G0 X2224.370 Y 314.780
M3 M8
G0 Z   3.000 
G1 Z  -1.500
F400
G1 X2224.370 Y 474.780
G2 X2244.370 Y 494.780 I  21.916 J  -1.916
G1 X2294.370 Y 494.780
G2 X2344.370 Y 484.780 I   6.528 J -97.361
G1 X2499.370 Y 419.780
G1 X2654.370 Y 354.780
G2 X2674.370 Y 334.780 I -11.341 J -31.341
G1 X2674.370 Y 314.780
G2 X2654.370 Y 294.780 I -21.916 J   1.916
G1 X2444.370 Y 294.780
G1 X2244.370 Y 294.780
G2 X2224.370 Y 314.780 I   1.916 J  21.916
F150
G1 Z  -3.000
F400
G1 X2224.370 Y 474.780
G2 X2244.370 Y 494.780 I  21.916 J  -1.916
G1 X2294.370 Y 494.780
G2 X2344.370 Y 484.780 I   6.528 J -97.361
G1 X2499.370 Y 419.780
G1 X2654.370 Y 354.780
G2 X2674.370 Y 334.780 I -11.341 J -31.341
G1 X2674.370 Y 314.780
G2 X2654.370 Y 294.780 I -21.916 J   1.916
G1 X2444.370 Y 294.780
G1 X2244.370 Y 294.780
G2 X2224.370 Y 314.780 I   1.916 J  21.916
F150
G1 Z   3.000
G0 Z  15.000 
M9 M5

(* SHAPE Nr: 113 *)
G0 X 395.620 Y1320.000
M3 M8
G0 Z   3.000 
G1 Z  -1.500
F400
G1 X 240.620 Y1385.000
G1 X  85.620 Y1450.000
G2 X  65.620 Y1470.000 I  11.341 J  31.341
G1 X  65.620 Y1490.000
G2 X  85.620 Y1510.000 I  21.916 J  -1.916
G1 X 295.620 Y1510.000
G1 X 495.620 Y1510.000
G2 X 515.620 Y1490.000 I  -1.916 J -21.916
G1 X 515.620 Y1330.000
G2 X 495.620 Y1310.000 I -21.916 J   1.916
G1 X 445.620 Y1310.000
G2 X 395.620 Y1320.000 I  -6.528 J  97.361
F150
G1 Z  -3.000
F400
G1 X 240.620 Y1385.000
G1 X  85.620 Y1450.000
G2 X  65.620 Y1470.000 I  11.341 J  31.341
G1 X  65.620 Y1490.000
G2 X  85.620 Y1510.000 I  21.916 J  -1.916
G1 X 295.620 Y1510.000
G1 X 495.620 Y1510.000
G2 X 515.620 Y1490.000 I  -1.916 J -21.916
G1 X 515.620 Y1330.000
G2 X 495.620 Y1310.000 I -21.916 J   1.916
G1 X 445.620 Y1310.000
G2 X 395.620 Y1320.000 I  -6.528 J  97.361
F150
G1 Z   3.000
G0 Z  15.000 
M9 M5

(*** LAYER: BORDER_D0_T128.1_RK1_A0_W0_RI1_EM1_ID0003 ***)

(* SHAPE Nr: 97 *)
G0 X 738.790 Y  87.670
M3 M8
G0 Z   3.000 
G1 Z  -1.500
F400
G1 X 738.790 Y 157.170
G1 X 738.790 Y 226.670
G1 X 885.790 Y 226.670
G1 X1032.790 Y 226.670
G1 X1032.790 Y  87.670
G1 X 738.790 Y  87.670
F150
G1 Z  -3.000
F400
G1 X 738.790 Y 157.170
G1 X 738.790 Y 226.670
G1 X 885.790 Y 226.670
G1 X1032.790 Y 226.670
G1 X1032.790 Y  87.670
G1 X 738.790 Y  87.670
F150
G1 Z   3.000
G0 Z  15.000 
M9 M5

(* SHAPE Nr: 104 *)
G0 X2224.370 Y 140.780
M3 M8
G0 Z   3.000 
G1 Z  -1.500
F400
G1 X2224.370 Y 210.280
G1 X2224.370 Y 279.780
G1 X2371.370 Y 279.780
G1 X2518.370 Y 279.780
G1 X2518.370 Y 140.780
G1 X2224.370 Y 140.780
F150
G1 Z  -3.000
F400
G1 X2224.370 Y 210.280
G1 X2224.370 Y 279.780
G1 X2371.370 Y 279.780
G1 X2518.370 Y 279.780
G1 X2518.370 Y 140.780
G1 X2224.370 Y 140.780
F150
G1 Z   3.000
G0 Z  15.000 
M9 M5

(*** LAYER: BORDER_D0_T128.1_RK1_A0_W0_RI1_EM1_ID0004 ***)

(* SHAPE Nr: 99 *)
G0 X  15.000 Y 582.320
M3 M8
G0 Z   3.000 
G1 Z  -1.500
F400
G1 X  15.000 Y 782.320
G1 X  15.000 Y1007.320
G2 X 615.000 Y 782.320 I  32.146 J-826.776
G3 X1015.000 Y 682.320 I 323.887 J 445.546
G1 X1015.000 Y 557.320
G1 X 715.000 Y 557.320
G1 X 415.000 Y 557.320
G1 X 415.000 Y 582.320
G1 X  15.000 Y 582.320
F150
G1 Z  -3.000
F400
G1 X  15.000 Y 782.320
G1 X  15.000 Y1007.320
G2 X 615.000 Y 782.320 I  32.146 J-826.776
G3 X1015.000 Y 682.320 I 323.887 J 445.546
G1 X1015.000 Y 557.320
G1 X 715.000 Y 557.320
G1 X 415.000 Y 557.320
G1 X 415.000 Y 582.320
G1 X  15.000 Y 582.320
F150
G1 Z   3.000
G0 Z  15.000 
M9 M5

(* SHAPE Nr: 103 *)
G0 X2224.370 Y 510.000
M3 M8
G0 Z   3.000 
G1 Z  -1.500
F400
G1 X2224.370 Y 810.000
G1 X2224.370 Y1110.000
G1 X2249.370 Y1110.000
G1 X2249.370 Y1510.000
G1 X2449.370 Y1510.000
G1 X2674.370 Y1510.000
G2 X2449.370 Y 910.000 I-826.776 J -32.146
G3 X2349.370 Y 510.000 I 445.546 J-323.887
G1 X2224.370 Y 510.000
F150
G1 Z  -3.000
F400
G1 X2224.370 Y 810.000
G1 X2224.370 Y1110.000
G1 X2249.370 Y1110.000
G1 X2249.370 Y1510.000
G1 X2449.370 Y1510.000
G1 X2674.370 Y1510.000
G2 X2449.370 Y 910.000 I-826.776 J -32.146
G3 X2349.370 Y 510.000 I 445.546 J-323.887
G1 X2224.370 Y 510.000
F150
G1 Z   3.000
G0 Z  15.000 
M9 M5

(*** LAYER: BORDER_D0_T128.1_RK1_A0_W0_RI1_EM1_ID0008 ***)

(* SHAPE Nr: 102 *)
G0 X1230.050 Y 610.000
M3 M8
G0 Z   3.000 
G1 Z  -1.500
F400
G1 X1330.050 Y 710.000
G1 X1841.140 Y 710.000
G1 X2030.050 Y 898.910
G1 X2030.050 Y1410.000
G1 X2130.050 Y1510.000
G1 X2130.050 Y1150.350
G1 X2130.050 Y 857.490
G1 X1882.560 Y 610.000
G1 X1556.310 Y 610.000
G1 X1230.050 Y 610.000
F150
G1 Z  -3.000
F400
G1 X1330.050 Y 710.000
G1 X1841.140 Y 710.000
G1 X2030.050 Y 898.910
G1 X2030.050 Y1410.000
G1 X2130.050 Y1510.000
G1 X2130.050 Y1150.350
G1 X2130.050 Y 857.490
G1 X1882.560 Y 610.000
G1 X1556.310 Y 610.000
G1 X1230.050 Y 610.000
F150
G1 Z   3.000
G0 Z  15.000 
M9 M5

(* SHAPE Nr: 105 *)
G0 X1309.380 Y  15.580
M3 M8
G0 Z   3.000 
G1 Z  -1.500
F400
G1 X1409.380 Y 115.580
G1 X1920.470 Y 115.580
G1 X2109.380 Y 304.490
G1 X2109.380 Y 815.580
G1 X2209.380 Y 915.580
G1 X2209.380 Y 555.930
G1 X2209.380 Y 263.070
G1 X1961.890 Y  15.580
G1 X1635.640 Y  15.580
G1 X1309.380 Y  15.580
F150
G1 Z  -3.000
F400
G1 X1409.380 Y 115.580
G1 X1920.470 Y 115.580
G1 X2109.380 Y 304.490
G1 X2109.380 Y 815.580
G1 X2209.380 Y 915.580
G1 X2209.380 Y 555.930
G1 X2209.380 Y 263.070
G1 X1961.890 Y  15.580
G1 X1635.640 Y  15.580
G1 X1309.380 Y  15.580
F150
G1 Z   3.000
G0 Z  15.000 
M9 M5

(* SHAPE Nr: 106 *)
G0 X1982.600 Y  15.070
M3 M8
G0 Z   3.000 
G1 Z  -1.500
F400
G1 X2082.600 Y 115.070
G1 X2593.690 Y 115.070
G1 X2782.600 Y 303.980
G1 X2782.600 Y 815.070
G1 X2882.600 Y 915.070
G1 X2882.600 Y 555.420
G1 X2882.600 Y 262.560
G1 X2635.110 Y  15.070
G1 X2308.860 Y  15.070
G1 X1982.600 Y  15.070
F150
G1 Z  -3.000
F400
G1 X2082.600 Y 115.070
G1 X2593.690 Y 115.070
G1 X2782.600 Y 303.980
G1 X2782.600 Y 815.070
G1 X2882.600 Y 915.070
G1 X2882.600 Y 555.420
G1 X2882.600 Y 262.560
G1 X2635.110 Y  15.070
G1 X2308.860 Y  15.070
G1 X1982.600 Y  15.070
F150
G1 Z   3.000
G0 Z  15.000 
M9 M5

(*** LAYER: BORDER_D0_T128.1_RK1_A0_W0_RI1_EM1_ID0009 ***)

(* SHAPE Nr: 109 *)
G0 X  15.000 Y1284.310
M3 M8
G0 Z   3.000 
G1 Z  -1.500
F400
G1 X  15.000 Y1334.310
G1 X  15.000 Y1384.310
G3 X2015.000 Y1384.310 I1000.000 J 660.916
G1 X2015.000 Y1334.310
G1 X2015.000 Y1284.310
G2 X  15.000 Y1284.310 I-1000.000 J 755.718
F150
G1 Z  -3.000
F400
G1 X  15.000 Y1334.310
G1 X  15.000 Y1384.310
G3 X2015.000 Y1384.310 I1000.000 J 660.916
G1 X2015.000 Y1334.310
G1 X2015.000 Y1284.310
G2 X  15.000 Y1284.310 I-1000.000 J 755.718
F150
G1 Z   3.000
G0 Z  15.000 
M9 M5

(* SHAPE Nr: 110 *)
G0 X  15.000 Y1410.000
M3 M8
G0 Z   3.000 
G1 Z  -1.500
F400
G1 X  15.000 Y1460.000
G1 X  15.000 Y1510.000
G3 X2015.000 Y1510.000 I1000.000 J 660.916
G1 X2015.000 Y1460.000
G1 X2015.000 Y1410.000
G2 X  15.000 Y1410.000 I-1000.000 J 755.718
F150
G1 Z  -3.000
F400
G1 X  15.000 Y1460.000
G1 X  15.000 Y1510.000
G3 X2015.000 Y1510.000 I1000.000 J 660.916
G1 X2015.000 Y1460.000
G1 X2015.000 Y1410.000
G2 X  15.000 Y1410.000 I-1000.000 J 755.718
F150
G1 Z   3.000
G0 Z  15.000 
M9 M5

(*** LAYER: BORDER_D0_T128.1_RK1_A0_W0_RI1_EM1_ID0006 ***)

(* SHAPE Nr: 111 *)
G0 X 530.640 Y1380.000
M3 M8
G0 Z   3.000 
G1 Z  -1.500
F400
G1 X 530.640 Y1510.000
G1 X 990.640 Y1510.000
G1 X1220.640 Y1510.000
G1 X1450.640 Y1510.000
G1 X1450.640 Y1380.000
G1 X1350.640 Y1380.000
G3 X 630.640 Y1380.000 I-360.000 J-811.370
G1 X 530.640 Y1380.000
F150
G1 Z  -3.000
F400
G1 X 530.640 Y1510.000
G1 X 990.640 Y1510.000
G1 X1220.640 Y1510.000
G1 X1450.640 Y1510.000
G1 X1450.640 Y1380.000
G1 X1350.640 Y1380.000
G3 X 630.640 Y1380.000 I-360.000 J-811.370
G1 X 530.640 Y1380.000
F150
G1 Z   3.000
G0 Z  15.000 
M9 M5

(* SHAPE Nr: 112 *)
G0 X 400.640 Y1164.780
M3 M8
G0 Z   3.000 
G1 Z  -1.500
F400
G1 X 400.640 Y1294.780
G1 X 860.640 Y1294.780
G1 X1090.640 Y1294.780
G1 X1320.640 Y1294.780
G1 X1320.640 Y1164.780
G1 X1220.640 Y1164.780
G3 X 500.640 Y1164.780 I-360.000 J-811.370
G1 X 400.640 Y1164.780
F150
G1 Z  -3.000
F400
G1 X 400.640 Y1294.780
G1 X 860.640 Y1294.780
G1 X1090.640 Y1294.780
G1 X1320.640 Y1294.780
G1 X1320.640 Y1164.780
G1 X1220.640 Y1164.780
G3 X 500.640 Y1164.780 I-360.000 J-811.370
G1 X 400.640 Y1164.780
F150
G1 Z   3.000
G0 Z  15.000 
M9 M5
G0 X   0.000 Y   0.000
M2 (Program end)