(Generated with: DXF2GCODE, Version: REMOVED, Date: $Date$)
(Created from file: )
(Output format description: G-CODE for LinuxCNC)
(Time: Thu Sep 13 16:01:20 2018)
G21 (Units in millimeters)
G90 (Absolute programming)
G64 (Default cutting) G17 (XY plane) G40 (Cancel radius comp.) G49 (Cancel length comp.)
G0 Z  15.000 

(*** LAYER: FRAME_Z18 ***)
T1 M6
S6000

(* SHAPE Nr: 2 *)
G0 X   0.000 Y   0.000
M3 M8
G0 Z   3.000 
F150
G1 Z  -1.500
F400
G1 X   0.000 Y1525.000
G1 X3050.000 Y1525.000
G1 X3050.000 Y   0.000
G1 X   0.000 Y   0.000
F150
G1 Z  -3.000
F400
G1 X   0.000 Y1525.000
G1 X3050.000 Y1525.000
G1 X3050.000 Y   0.000
G1 X   0.000 Y   0.000
F150
G1 Z   3.000
G0 Z  15.000 
M9 M5

(*** LAYER: OFFCUT_D0_T128.2_RK1_A0_W0_RI1_EM1 ***)

(* SHAPE Nr: 3 *)
G0 X 480.140 Y1525.000
M3 M8
G0 Z   3.000 
G1 Z  -1.500
F400
G1 X 480.140 Y   0.000
F150
G1 Z  -3.000
F400
G1 X 480.140 Y1525.000
F150
G1 Z   3.000
G0 Z  15.000 
M9 M5

(*** LAYER: BORDER_D0_T128_RK1_A0_W0_RI1_EM1_ID0012 ***)

(* SHAPE Nr: 0 *)
G0 X  35.000 Y  15.000
M3 M8
G0 Z   3.000 
G1 Z  -1.500
F400
G2 X  15.000 Y  35.000 I   1.916 J  21.916
G1 X  15.000 Y 195.000
G2 X  35.000 Y 215.000 I  21.916 J  -1.916
G1 X  85.000 Y 215.000
G2 X 135.000 Y 205.000 I   6.528 J -97.361
G1 X 290.000 Y 140.000
G1 X 445.000 Y  75.000
G2 X 465.000 Y  55.000 I -11.341 J -31.341
G1 X 465.000 Y  35.000
G2 X 445.000 Y  15.000 I -21.916 J   1.916
G1 X 235.000 Y  15.000
G1 X  35.000 Y  15.000
F150
G1 Z  -3.000
F400
G2 X  15.000 Y  35.000 I   1.916 J  21.916
G1 X  15.000 Y 195.000
G2 X  35.000 Y 215.000 I  21.916 J  -1.916
G1 X  85.000 Y 215.000
G2 X 135.000 Y 205.000 I   6.528 J -97.361
G1 X 290.000 Y 140.000
G1 X 445.000 Y  75.000
G2 X 465.000 Y  55.000 I -11.341 J -31.341
G1 X 465.000 Y  35.000
G2 X 445.000 Y  15.000 I -21.916 J   1.916
G1 X 235.000 Y  15.000
G1 X  35.000 Y  15.000
F150
G1 Z   3.000
G0 Z  15.000 
M9 M5

(*** LAYER: BORDER_D0_T128.1_RK1_A0_W0_RI1_EM1_ID0012 ***)

(* SHAPE Nr: 1 *)
G0 X  35.000 Y  15.000
M3 M8
G0 Z   3.000 
G1 Z  -1.500
F400
G2 X  15.000 Y  35.000 I   1.916 J  21.916
G1 X  15.000 Y 195.000
G2 X  35.000 Y 215.000 I  21.916 J  -1.916
G1 X  85.000 Y 215.000
G2 X 135.000 Y 205.000 I   6.528 J -97.361
G1 X 290.000 Y 140.000
G1 X 445.000 Y  75.000
G2 X 465.000 Y  55.000 I -11.341 J -31.341
G1 X 465.000 Y  35.000
G2 X 445.000 Y  15.000 I -21.916 J   1.916
G1 X 235.000 Y  15.000
G1 X  35.000 Y  15.000
F150
G1 Z  -3.000
F400
G2 X  15.000 Y  35.000 I   1.916 J  21.916
G1 X  15.000 Y 195.000
G2 X  35.000 Y 215.000 I  21.916 J  -1.916
G1 X  85.000 Y 215.000
G2 X 135.000 Y 205.000 I   6.528 J -97.361
G1 X 290.000 Y 140.000
G1 X 445.000 Y  75.000
G2 X 465.000 Y  55.000 I -11.341 J -31.341
G1 X 465.000 Y  35.000
G2 X 445.000 Y  15.000 I -21.916 J   1.916
G1 X 235.000 Y  15.000
G1 X  35.000 Y  15.000
F150
G1 Z   3.000
G0 Z  15.000 
M9 M5
G0 X   0.000 Y   0.000
M2 (Program end)