(Generated with: DXF2GCODE, Version: Py3.6.5 PyQt5.11.2, Date: $Date$)
(Created from file: )
(Output format description: G-CODE for LinuxCNC)
(Time: Wed Sep 12 13:55:25 2018)
G21 (Units in millimeters)
G90 (Absolute programming)
G64 (Default cutting) G17 (XY plane) G40 (Cancel radius comp.) G49 (Cancel length comp.)
G0 Z  15.000 

(*** LAYER: FRAME_Z15 ***)
T1 M6
S6000

(* SHAPE Nr: 21 *)
G0 X   0.000 Y   0.000
M3 M8
G0 Z   3.000 
F150
G1 Z  -1.500
F400
G1 X2440.000 Y   0.000
G1 X2440.000 Y1220.000
G1 X   0.000 Y1220.000
G1 X   0.000 Y   0.000
F150
G1 Z  -3.000
F400
G1 X2440.000 Y   0.000
G1 X2440.000 Y1220.000
G1 X   0.000 Y1220.000
G1 X   0.000 Y   0.000
F150
G1 Z   3.000
G0 Z  15.000 
M9 M5

(*** LAYER: OFFCUT_D0_T128.2_RK1_A0_W0_RI1_EM1 ***)

(* SHAPE Nr: 22 *)
G0 X 530.070 Y1220.000
M3 M8
G0 Z   3.000 
G1 Z  -1.500
F400
G1 X 530.070 Y1220.000
F150
G1 Z  -3.000
F400
G1 X 530.070 Y   0.000
F150
G1 Z   3.000
G0 Z  15.000 
M9 M5

(*** LAYER: CUTOUT_Z15_D0 ***)

(* SHAPE Nr: 0 *)
G0 X  85.000 Y1080.000
M3 M8
G0 Z   3.000 
G1 Z  -1.500
F400
G1 X 105.000 Y1080.000
G1 X 125.000 Y1080.000
G1 X 125.000 Y1180.000
G1 X  85.000 Y1180.000
G1 X  85.000 Y1080.000
F150
G1 Z  -3.000
F400
G1 X 105.000 Y1080.000
G1 X 125.000 Y1080.000
G1 X 125.000 Y1180.000
G1 X  85.000 Y1180.000
G1 X  85.000 Y1080.000
F150
G1 Z   3.000
G0 Z  15.000 
M9 M5

(* SHAPE Nr: 2 *)
G0 X 123.000 Y 740.000
M3 M8
G0 Z   3.000 
G1 Z  -1.500
F400
G1 X 146.000 Y 740.000
G1 X 169.000 Y 740.000
G1 X 169.000 Y 867.000
G1 X 123.000 Y 867.000
G1 X 123.000 Y 740.000
F150
G1 Z  -3.000
F400
G1 X 146.000 Y 740.000
G1 X 169.000 Y 740.000
G1 X 169.000 Y 867.000
G1 X 123.000 Y 867.000
G1 X 123.000 Y 740.000
F150
G1 Z   3.000
G0 Z  15.000 
M9 M5

(*** LAYER: POCKET_RD0_Z10_D0 ***)

(* SHAPE Nr: 1 *)
G0 X  25.000 Y1085.000
M3 M8
G0 Z   3.000 
G1 Z  -1.500
F400
G1 X  47.500 Y1085.000
G1 X  70.000 Y1085.000
G1 X  70.000 Y1180.000
G1 X  25.000 Y1180.000
G1 X  25.000 Y1085.000
F150
G1 Z  -3.000
F400
G1 X  47.500 Y1085.000
G1 X  70.000 Y1085.000
G1 X  70.000 Y1180.000
G1 X  25.000 Y1180.000
G1 X  25.000 Y1085.000
F150
G1 Z   3.000
G0 Z  15.000 
M9 M5

(* SHAPE Nr: 3 *)
G0 X  42.000 Y 731.000
M3 M8
G0 Z   3.000 
G1 Z  -1.500
F400
G1 X  66.000 Y 731.000
G1 X  90.000 Y 731.000
G1 X  90.000 Y 905.000
G1 X  42.000 Y 905.000
G1 X  42.000 Y 731.000
F150
G1 Z  -3.000
F400
G1 X  66.000 Y 731.000
G1 X  90.000 Y 731.000
G1 X  90.000 Y 905.000
G1 X  42.000 Y 905.000
G1 X  42.000 Y 731.000
F150
G1 Z   3.000
G0 Z  15.000 
M9 M5

(*** LAYER: ROUT_Z6_D9 ***)

(* SHAPE Nr: 4 *)
G0 X  46.716 Y 961.716
M3 M8
G0 Z   3.000 
G1 Z  -1.500
F400
G3 X 103.284 Y1018.284 I  28.284 J  28.284
G3 X  46.716 Y 961.716 I -28.284 J -28.284
F150
G1 Z  -3.000
F400
G3 X 103.284 Y1018.284 I  28.284 J  28.284
G3 X  46.716 Y 961.716 I -28.284 J -28.284
F150
G1 Z   3.000
G0 Z  15.000 
M9 M5

(*** LAYER: ROUT_Z6_D21 ***)

(* SHAPE Nr: 23 *)
G0 X 263.844 Y1144.828
M3 M8
G0 Z   3.000 
G1 Z  -1.500
F400
G3 X 263.844 Y1144.828 I  35.994 J -76.008
F150
G1 Z  -3.000
F400
G2 X 196.006 Y1142.998 I -31.844 J -77.838
F150
G1 Z   3.000
G0 Z  15.000 
M9 M5

(*** LAYER: ROUT_Z6_D32 ***)

(* SHAPE Nr: 24 *)
G0 X 388.002 Y1156.998
M3 M8
G0 Z   3.000 
G1 Z  -1.500
F400
G3 X 388.002 Y1156.998 I -38.431 J  43.012
F150
G1 Z  -3.000
F400
G2 X 468.001 Y1073.998 I  41.568 J -39.988
F150
G1 Z   3.000
G0 Z  15.000 
M9 M5

(*** LAYER: ROUT_Z6_D26 ***)

(* SHAPE Nr: 25 *)
G0 X 261.007 Y1039.002
M3 M8
G0 Z   3.000 
G1 Z  -1.500
F400
G3 X 261.007 Y1039.002 I  20.959 J -32.200
F150
G1 Z  -3.000
F400
G2 X 229.001 Y1108.000 I -11.047 J  36.798
F150
G1 Z   3.000
G0 Z  15.000 
M9 M5

(*** LAYER: POCKET_D0 ***)

(* SHAPE Nr: 5 *)
G0 X 299.000 Y 810.000
M3 M8
G0 Z   3.000 
G1 Z  -1.500
F400
G1 X 333.000 Y 871.000
G3 X 260.000 Y 909.000 I -32.414 J  26.850
G1 X 223.000 Y 846.000
G3 X 299.000 Y 810.000 I  44.430 J  -4.425
F150
G1 Z  -3.000
F400
G1 X 333.000 Y 871.000
G3 X 260.000 Y 909.000 I -32.414 J  26.850
G1 X 223.000 Y 846.000
G3 X 299.000 Y 810.000 I  44.430 J  -4.425
F150
G1 Z   3.000
G0 Z  15.000 
M9 M5

(* SHAPE Nr: 6 *)
G0 X 409.000 Y 963.000
M3 M8
G0 Z   3.000 
G1 Z  -1.500
F400
G1 X 443.000 Y1024.000
G3 X 370.000 Y1062.000 I -32.414 J  26.850
G1 X 333.000 Y 999.000
G3 X 409.000 Y 963.000 I  44.430 J  -4.425
F150
G1 Z  -3.000
F400
G1 X 443.000 Y1024.000
G3 X 370.000 Y1062.000 I -32.414 J  26.850
G1 X 333.000 Y 999.000
G3 X 409.000 Y 963.000 I  44.430 J  -4.425
F150
G1 Z   3.000
G0 Z  15.000 
M9 M5

(*** LAYER: ROUT_Z6_D24 ***)

(* SHAPE Nr: 26 *)
G0 X 149.000 Y 956.000
M3 M8
G0 Z   3.000 
G1 Z  -1.500
F400
G1 X 149.000 Y 956.000
F150
G1 Z  -3.000
F400
G1 X 212.000 Y 916.000
F150
G1 Z   3.000
G0 Z  15.000 
M9 M5

(*** LAYER: VBORE_Z8_D8 ***)

(* SHAPE Nr: 7 *)
G0 X  32.172 Y 276.022
M3 M8
G0 Z   3.000 
G1 Z  -1.500
F400
G3 X  37.828 Y 281.678 I   2.828 J   2.828
G3 X  32.172 Y 276.022 I  -2.828 J  -2.828
F150
G1 Z  -3.000
F400
G3 X  37.828 Y 281.678 I   2.828 J   2.828
G3 X  32.172 Y 276.022 I  -2.828 J  -2.828
F150
G1 Z   3.000
G0 Z  15.000 
M9 M5

(* SHAPE Nr: 8 *)
G0 X  52.172 Y 276.022
M3 M8
G0 Z   3.000 
G1 Z  -1.500
F400
G3 X  57.828 Y 281.678 I   2.828 J   2.828
G3 X  52.172 Y 276.022 I  -2.828 J  -2.828
F150
G1 Z  -3.000
F400
G3 X  57.828 Y 281.678 I   2.828 J   2.828
G3 X  52.172 Y 276.022 I  -2.828 J  -2.828
F150
G1 Z   3.000
G0 Z  15.000 
M9 M5

(* SHAPE Nr: 9 *)
G0 X 492.172 Y 736.022
M3 M8
G0 Z   3.000 
G1 Z  -1.500
F400
G3 X 497.828 Y 741.678 I   2.828 J   2.828
G3 X 492.172 Y 736.022 I  -2.828 J  -2.828
F150
G1 Z  -3.000
F400
G3 X 497.828 Y 741.678 I   2.828 J   2.828
G3 X 492.172 Y 736.022 I  -2.828 J  -2.828
F150
G1 Z   3.000
G0 Z  15.000 
M9 M5

(* SHAPE Nr: 10 *)
G0 X 492.172 Y 716.022
M3 M8
G0 Z   3.000 
G1 Z  -1.500
F400
G3 X 497.828 Y 721.678 I   2.828 J   2.828
G3 X 492.172 Y 716.022 I  -2.828 J  -2.828
F150
G1 Z  -3.000
F400
G3 X 497.828 Y 721.678 I   2.828 J   2.828
G3 X 492.172 Y 716.022 I  -2.828 J  -2.828
F150
G1 Z   3.000
G0 Z  15.000 
M9 M5

(* SHAPE Nr: 11 *)
G0 X 312.172 Y 620.022
M3 M8
G0 Z   3.000 
G1 Z  -1.500
F400
G3 X 317.828 Y 625.678 I   2.828 J   2.828
G3 X 312.172 Y 620.022 I  -2.828 J  -2.828
F150
G1 Z  -3.000
F400
G3 X 317.828 Y 625.678 I   2.828 J   2.828
G3 X 312.172 Y 620.022 I  -2.828 J  -2.828
F150
G1 Z   3.000
G0 Z  15.000 
M9 M5

(* SHAPE Nr: 12 *)
G0 X 312.172 Y 640.022
M3 M8
G0 Z   3.000 
G1 Z  -1.500
F400
G3 X 317.828 Y 645.678 I   2.828 J   2.828
G3 X 312.172 Y 640.022 I  -2.828 J  -2.828
F150
G1 Z  -3.000
F400
G3 X 317.828 Y 645.678 I   2.828 J   2.828
G3 X 312.172 Y 640.022 I  -2.828 J  -2.828
F150
G1 Z   3.000
G0 Z  15.000 
M9 M5

(* SHAPE Nr: 13 *)
G0 X 312.172 Y 660.022
M3 M8
G0 Z   3.000 
G1 Z  -1.500
F400
G3 X 317.828 Y 665.678 I   2.828 J   2.828
G3 X 312.172 Y 660.022 I  -2.828 J  -2.828
F150
G1 Z  -3.000
F400
G3 X 317.828 Y 665.678 I   2.828 J   2.828
G3 X 312.172 Y 660.022 I  -2.828 J  -2.828
F150
G1 Z   3.000
G0 Z  15.000 
M9 M5

(* SHAPE Nr: 14 *)
G0 X 312.172 Y 680.022
M3 M8
G0 Z   3.000 
G1 Z  -1.500
F400
G3 X 317.828 Y 685.678 I   2.828 J   2.828
G3 X 312.172 Y 680.022 I  -2.828 J  -2.828
F150
G1 Z  -3.000
F400
G3 X 317.828 Y 685.678 I   2.828 J   2.828
G3 X 312.172 Y 680.022 I  -2.828 J  -2.828
F150
G1 Z   3.000
G0 Z  15.000 
M9 M5

(* SHAPE Nr: 15 *)
G0 X 147.172 Y 456.022
M3 M8
G0 Z   3.000 
G1 Z  -1.500
F400
G3 X 152.828 Y 461.678 I   2.828 J   2.828
G3 X 147.172 Y 456.022 I  -2.828 J  -2.828
F150
G1 Z  -3.000
F400
G3 X 152.828 Y 461.678 I   2.828 J   2.828
G3 X 147.172 Y 456.022 I  -2.828 J  -2.828
F150
G1 Z   3.000
G0 Z  15.000 
M9 M5

(* SHAPE Nr: 16 *)
G0 X 127.172 Y 456.022
M3 M8
G0 Z   3.000 
G1 Z  -1.500
F400
G3 X 132.828 Y 461.678 I   2.828 J   2.828
G3 X 127.172 Y 456.022 I  -2.828 J  -2.828
F150
G1 Z  -3.000
F400
G3 X 132.828 Y 461.678 I   2.828 J   2.828
G3 X 127.172 Y 456.022 I  -2.828 J  -2.828
F150
G1 Z   3.000
G0 Z  15.000 
M9 M5

(*** LAYER: CONTOUR_D0_T133_A2_W2 ***)

(* SHAPE Nr: 27 *)
G0 X 495.000 Y 508.850
M3 M8
G0 Z   3.000 
G1 Z  -1.500
F400
G1 X 495.000 Y 278.850
G1 X 495.000 Y 508.850
F150
G1 Z  -3.000
F400
G1 X 495.000 Y 278.850
G1 X 265.000 Y 278.850
F150
G1 Z   3.000
G0 Z  15.000 
M9 M5

(*** LAYER: GROOVE_Z9_D12 ***)

(* SHAPE Nr: 28 *)
G0 X 125.000 Y 333.850
M3 M8
G0 Z   3.000 
G1 Z  -1.500
F400
G1 X 125.000 Y 333.850
F150
G1 Z  -3.000
F400
G1 X 245.000 Y 333.850
F150
G1 Z   3.000
G0 Z  15.000 
M9 M5

(*** LAYER: GROOVE_Z9_D13 ***)

(* SHAPE Nr: 29 *)
G0 X 125.000 Y 383.850
M3 M8
G0 Z   3.000 
G1 Z  -1.500
F400
G1 X 125.000 Y 383.850
F150
G1 Z  -3.000
F400
G1 X 245.000 Y 383.850
F150
G1 Z   3.000
G0 Z  15.000 
M9 M5

(*** LAYER: BORDER_D0_T128__N_RK1_F500_S3000_SA4000_A0_W0_RI1_EM1_ID0001 ***)

(* SHAPE Nr: 17 *)
G0 X  15.000 Y 705.000
M3 M8
G0 Z   3.000 
G1 Z  -1.500
F400
G1 X 115.000 Y 705.000
G3 X 515.000 Y1105.000 I -19.315 J 419.315
G1 X 515.000 Y1205.000
G1 X  15.000 Y1205.000
G1 X  15.000 Y 705.000
F150
G1 Z  -3.000
F400
G1 X 115.000 Y 705.000
G3 X 515.000 Y1105.000 I -19.315 J 419.315
G1 X 515.000 Y1205.000
G1 X  15.000 Y1205.000
G1 X  15.000 Y 705.000
F150
G1 Z   3.000
G0 Z  15.000 
M9 M5

(*** LAYER: BORDER_D0_T128__N_RK1_F500_S3000_SA4000_A0_W0_RI1_EM1_ID0002 ***)

(* SHAPE Nr: 18 *)
G0 X  15.000 Y 258.850
M3 M8
G0 Z   3.000 
G1 Z  -1.500
F400
G1 X 515.000 Y 258.850
G1 X 515.000 Y 758.850
G1 X 415.000 Y 758.850
G3 X  15.000 Y 358.850 I  19.315 J-419.315
G1 X  15.000 Y 258.850
F150
G1 Z  -3.000
F400
G1 X 515.000 Y 258.850
G1 X 515.000 Y 758.850
G1 X 415.000 Y 758.850
G3 X  15.000 Y 358.850 I  19.315 J-419.315
G1 X  15.000 Y 258.850
F150
G1 Z   3.000
G0 Z  15.000 
M9 M5

(*** LAYER: BORDER_D0_T128.1_RK1_F600_A0_W0_RI1_EM1_ID0001 ***)

(* SHAPE Nr: 19 *)
G0 X  15.000 Y 705.000
M3 M8
G0 Z   3.000 
G1 Z  -1.500
F400
G1 X 115.000 Y 705.000
G3 X 515.000 Y1105.000 I -19.315 J 419.315
G1 X 515.000 Y1205.000
G1 X  15.000 Y1205.000
G1 X  15.000 Y 705.000
F150
G1 Z  -3.000
F400
G1 X 115.000 Y 705.000
G3 X 515.000 Y1105.000 I -19.315 J 419.315
G1 X 515.000 Y1205.000
G1 X  15.000 Y1205.000
G1 X  15.000 Y 705.000
F150
G1 Z   3.000
G0 Z  15.000 
M9 M5

(*** LAYER: BORDER_D0_T128.1_RK1_F600_A0_W0_RI1_EM1_ID0002 ***)

(* SHAPE Nr: 20 *)
G0 X  15.000 Y 258.850
M3 M8
G0 Z   3.000 
G1 Z  -1.500
F400
G1 X 515.000 Y 258.850
G1 X 515.000 Y 758.850
G1 X 415.000 Y 758.850
G3 X  15.000 Y 358.850 I  19.315 J-419.315
G1 X  15.000 Y 258.850
F150
G1 Z  -3.000
F400
G1 X 515.000 Y 258.850
G1 X 515.000 Y 758.850
G1 X 415.000 Y 758.850
G3 X  15.000 Y 358.850 I  19.315 J-419.315
G1 X  15.000 Y 258.850
F150
G1 Z   3.000
G0 Z  15.000 
M9 M5
G0 X   0.000 Y   0.000
M2 (Program end)